<?xml version="1.0" encoding="UTF-8"?>
<map version="1.10" tiledversion="1.10.2" orientation="orthogonal" renderorder="right-down" compressionlevel="0" width="40" height="40" tilewidth="32" tileheight="32" infinite="0" nextlayerid="8" nextobjectid="1">
 <tileset firstgid="1" source="abandoned-mine-b4f.tsx"/>
 <layer id="1" name="lower" width="40" height="40">
  <data encoding="csv">
21,21,21,21,21,21,21,21,21,21,21,21,21,21,21,21,21,21,21,21,21,21,21,21,21,21,21,21,21,21,21,21,21,21,21,21,21,21,21,21,
21,21,21,21,21,21,21,21,21,21,21,21,21,21,21,21,21,21,21,21,21,21,21,21,21,21,21,21,21,21,21,21,21,21,21,21,21,21,21,21,
21,21,21,21,21,21,21,21,21,21,21,21,21,21,21,21,21,21,21,21,21,21,21,21,21,21,21,21,21,21,21,21,21,21,21,21,21,21,21,21,
21,21,21,21,21,21,21,21,21,21,21,21,21,21,21,21,21,21,21,21,21,21,21,21,21,21,21,21,21,21,21,21,21,21,21,21,21,21,21,21,
21,21,21,21,26,27,26,27,26,27,26,27,26,27,26,27,26,27,26,27,26,27,26,27,26,27,26,27,26,27,26,27,26,27,26,27,21,21,21,21,
21,21,21,21,28,29,28,29,28,29,28,29,28,29,28,29,28,29,28,29,28,29,28,29,28,29,28,29,28,29,28,29,28,29,28,29,21,21,21,21,
21,21,21,21,26,27,26,27,26,27,26,27,26,27,26,27,26,27,26,27,26,27,26,27,26,27,26,27,26,27,26,27,26,27,26,27,21,21,21,21,
21,21,21,21,28,29,28,29,28,29,28,29,28,29,28,29,28,29,28,29,28,29,28,29,28,29,28,29,28,29,28,29,28,29,28,29,21,21,21,21,
21,21,21,21,26,27,26,27,26,27,26,27,26,27,26,27,26,27,26,27,26,27,26,27,26,27,26,27,26,27,26,27,26,27,26,27,21,21,21,21,
21,21,21,21,28,29,28,29,28,29,28,29,28,29,28,29,28,29,28,29,28,29,28,29,28,29,28,29,28,29,28,29,28,29,28,29,21,21,21,21,
21,21,21,21,26,27,26,27,26,27,26,27,26,27,26,27,26,27,26,27,26,27,26,27,26,27,27,27,26,27,26,27,26,27,26,27,21,21,21,21,
21,21,21,21,28,29,28,29,28,29,28,55,49,54,54,54,50,48,48,48,48,48,48,48,48,56,28,29,28,29,28,29,28,29,28,29,21,21,21,21,
21,21,21,21,26,27,26,27,26,27,26,47,57,30,30,30,45,40,43,52,52,52,52,44,40,51,27,27,27,27,26,27,26,27,26,27,21,21,21,21,
21,21,21,21,28,29,28,29,28,29,28,53,30,30,30,30,45,40,51,30,30,30,30,45,40,51,28,29,28,29,28,29,28,29,28,29,21,21,21,21,
21,21,21,21,26,27,26,27,26,27,26,53,30,30,55,48,41,40,51,30,30,30,30,45,40,42,48,48,56,27,26,27,26,27,26,27,21,21,21,21,
21,21,21,21,28,29,28,29,28,29,28,53,30,30,45,40,40,40,42,48,48,48,48,41,40,40,40,40,51,29,28,29,28,29,28,29,21,21,21,21,
21,21,21,21,26,27,26,27,26,27,26,53,30,30,45,40,40,40,40,40,40,40,40,40,40,40,40,40,51,27,26,27,26,27,26,27,21,21,21,21,
21,21,21,21,28,29,28,29,28,29,28,46,48,48,41,40,40,40,40,40,40,40,40,40,40,40,40,40,51,29,28,29,28,29,28,29,21,21,21,21,
21,21,21,21,26,27,26,27,26,27,26,45,40,40,40,40,43,52,52,52,52,52,52,52,52,44,40,40,51,27,26,27,26,27,26,27,21,21,21,21,
21,21,21,21,28,29,28,29,28,29,28,45,40,40,40,40,51,30,30,30,30,30,30,30,30,45,40,40,51,29,28,29,28,29,28,29,21,21,21,21,
21,21,21,21,26,27,26,27,26,27,26,45,40,40,40,40,51,30,30,30,30,30,30,30,30,45,40,40,51,27,26,27,26,27,26,27,21,21,21,21,
21,21,21,21,28,29,28,29,28,29,28,45,40,40,40,40,51,30,30,5,5,5,5,30,30,45,40,40,51,29,28,29,28,29,28,29,21,21,21,21,
21,21,21,21,26,27,26,27,26,27,26,45,40,40,40,40,51,30,30,5,5,5,5,30,30,45,40,40,51,27,26,27,26,27,26,27,21,21,21,21,
21,21,21,21,28,29,28,29,28,29,28,45,40,40,40,40,51,30,30,5,5,5,5,30,30,45,40,40,51,29,28,29,28,29,28,29,21,21,21,21,
21,21,21,21,26,27,26,27,26,27,26,45,43,52,44,40,51,30,30,5,5,5,5,30,30,45,40,40,51,27,26,27,26,27,26,27,21,21,21,21,
21,21,21,21,28,29,28,29,28,29,28,45,51,30,45,40,51,30,30,30,16,30,30,30,30,45,40,40,51,29,28,29,28,29,28,29,21,21,21,21,
21,21,21,21,26,27,26,27,26,27,26,45,51,30,45,40,51,30,30,30,30,30,30,30,30,45,40,40,51,27,26,27,26,27,26,27,21,21,21,21,
21,21,21,21,28,29,28,29,28,29,28,45,42,48,41,40,42,48,48,48,48,48,48,48,48,41,40,40,51,29,28,29,28,29,28,29,21,21,21,21,
21,21,21,21,26,27,26,27,26,27,26,58,52,52,52,52,52,52,52,52,52,52,52,52,52,52,52,52,57,27,26,27,26,27,26,27,21,21,21,21,
21,21,21,21,28,29,28,29,28,29,28,29,28,29,28,29,28,29,28,29,28,29,28,29,28,29,28,29,28,29,28,29,28,29,28,29,21,21,21,21,
21,21,21,21,26,27,26,27,26,27,26,27,26,27,26,27,26,27,26,27,26,27,26,27,26,27,26,27,26,27,26,27,26,27,26,27,21,21,21,21,
21,21,21,21,28,29,28,29,28,29,28,29,28,29,28,29,28,29,28,29,28,29,28,29,28,29,28,29,28,29,28,29,28,29,28,29,21,21,21,21,
21,21,21,21,26,27,26,27,26,27,26,27,26,27,26,27,26,27,26,27,26,27,26,27,26,27,26,27,26,27,26,27,26,27,26,27,21,21,21,21,
21,21,21,21,28,29,28,29,28,29,28,29,28,29,28,29,28,29,28,29,28,29,28,29,28,29,28,29,28,29,28,29,28,29,28,29,21,21,21,21,
21,21,21,21,26,27,26,27,26,27,26,27,26,27,26,27,26,27,26,27,26,27,26,27,26,27,26,27,26,27,26,27,26,27,26,27,21,21,21,21,
21,21,21,21,28,29,28,29,28,29,28,29,28,29,28,29,28,29,28,29,28,29,28,29,28,29,28,29,28,29,28,29,28,29,28,29,21,21,21,21,
21,21,21,21,21,21,21,21,21,21,21,21,21,21,21,21,21,21,21,21,21,21,21,21,21,21,21,21,21,21,21,21,21,21,21,21,21,21,21,21,
21,21,21,21,21,21,21,21,21,21,21,21,21,21,21,21,21,21,21,21,21,21,21,21,21,21,21,21,21,21,21,21,21,21,21,21,21,21,21,21,
21,21,21,21,21,21,21,21,21,21,21,21,21,21,21,21,21,21,21,21,21,21,21,21,21,21,21,21,21,21,21,21,21,21,21,21,21,21,21,21,
21,21,21,21,21,21,21,21,21,21,21,21,21,21,21,21,21,21,21,21,21,21,21,21,21,21,21,21,21,21,21,21,21,21,21,21,21,21,21,21
  </data>
 </layer>
 <layer id="2" name="middle+1" width="40" height="40">
  <data encoding="csv">
0,0,0,0,0,0,0,0,0,0,0,0,0,0,0,0,0,0,0,0,0,0,0,0,0,0,0,0,0,0,0,0,0,0,0,0,0,0,0,0,
0,0,0,0,0,0,0,0,0,0,0,0,0,0,0,0,0,0,0,0,0,0,0,0,0,0,0,0,0,0,0,0,0,0,0,0,0,0,0,0,
0,0,0,0,0,0,0,0,0,0,0,0,0,0,0,0,0,0,0,0,0,0,0,0,0,0,0,0,0,0,0,0,0,0,0,0,0,0,0,0,
0,0,0,0,0,0,0,0,0,0,0,0,0,0,0,0,0,0,0,0,0,0,0,0,0,0,0,0,0,0,0,0,0,0,0,0,0,0,0,0,
0,0,0,0,7,25,25,25,25,25,25,25,25,25,25,25,25,25,25,25,25,25,25,25,25,25,25,25,25,25,25,25,25,25,25,8,0,0,0,0,
0,0,0,0,24,7,25,25,25,25,25,25,25,25,25,25,25,25,25,25,25,25,25,25,25,25,25,25,25,25,25,25,25,25,8,23,0,0,0,0,
0,0,0,0,24,24,7,25,25,25,25,25,25,25,25,25,25,25,25,25,25,25,25,25,25,25,25,25,25,25,25,25,25,8,23,23,0,0,0,0,
0,0,0,0,24,24,24,7,25,25,25,25,25,25,25,25,25,25,25,25,25,25,25,25,25,25,25,25,25,25,25,25,8,23,23,23,0,0,0,0,
0,0,0,0,24,24,24,24,7,25,25,25,25,25,25,25,25,25,25,25,25,25,25,25,25,25,25,25,25,25,25,8,23,23,23,23,0,0,0,0,
0,0,0,0,24,24,24,24,24,7,25,25,25,25,25,25,25,25,25,25,25,25,25,25,25,25,25,25,25,25,8,23,23,23,23,23,0,0,0,0,
0,0,0,0,24,24,24,24,24,24,0,14,14,14,14,15,15,0,14,14,14,0,15,15,0,14,14,14,15,15,23,23,23,23,23,23,0,0,0,0,
0,0,0,0,24,24,24,24,24,24,14,0,0,0,0,0,0,0,0,0,0,0,0,0,0,0,0,0,0,15,23,23,23,23,23,23,0,0,0,0,
0,0,0,0,24,24,24,24,24,24,14,0,0,0,0,0,0,0,0,0,0,0,0,0,0,0,37,38,39,14,23,23,23,23,23,23,0,0,0,0,
0,0,0,0,24,24,24,24,24,24,0,0,0,0,19,20,0,0,0,0,0,0,0,0,0,0,0,0,0,15,23,23,23,23,23,23,0,0,0,0,
0,0,0,0,24,24,24,24,24,24,15,0,0,0,0,0,0,0,0,0,0,0,0,0,0,0,0,0,0,15,23,23,23,23,23,23,0,0,0,0,
0,0,0,0,24,24,24,24,24,24,14,37,38,39,0,0,0,0,0,0,0,0,0,0,0,0,0,0,0,0,23,23,23,23,23,23,0,0,0,0,
0,0,0,0,24,24,24,24,24,24,15,0,0,0,0,0,0,0,0,0,0,0,0,0,0,0,0,0,0,15,23,23,23,23,23,23,0,0,0,0,
0,0,0,0,24,24,24,24,24,24,14,0,0,0,0,0,0,0,0,0,0,0,0,0,0,0,0,0,0,14,23,23,23,23,23,23,0,0,0,0,
0,0,0,0,24,24,24,24,24,24,0,0,0,0,0,0,0,0,0,0,0,0,0,0,0,0,0,0,0,14,23,23,23,23,23,23,0,0,0,0,
0,0,0,0,24,24,24,24,24,24,14,0,0,0,0,0,0,0,0,0,0,0,0,0,0,0,0,0,0,0,23,23,23,23,23,23,0,0,0,0,
0,0,0,0,24,24,24,24,24,24,0,0,0,0,0,0,0,0,1,2,2,2,2,3,0,0,0,0,0,14,23,23,23,23,23,23,0,0,0,0,
0,0,0,0,24,24,24,24,24,24,0,0,0,0,0,0,0,0,4,0,0,0,0,6,0,0,0,0,0,14,23,23,23,23,23,23,0,0,0,0,
0,0,0,0,24,24,24,24,24,24,14,0,0,0,0,0,0,0,4,0,0,0,0,6,0,0,0,0,0,14,23,23,23,23,23,23,0,0,0,0,
0,0,0,0,24,24,24,24,24,24,0,0,0,0,0,0,0,0,4,37,38,39,0,6,0,0,0,0,0,0,23,23,23,23,23,23,0,0,0,0,
0,0,0,0,24,24,24,24,24,24,0,0,0,0,0,0,0,0,4,0,0,0,0,6,0,0,0,0,0,0,23,23,23,23,23,23,0,0,0,0,
0,0,0,0,24,24,24,24,24,24,14,0,0,0,0,0,0,0,9,10,0,10,10,11,0,0,0,0,0,14,23,23,23,23,23,23,0,0,0,0,
0,0,0,0,24,24,24,24,24,24,15,0,0,0,0,0,0,0,0,0,0,0,0,0,0,0,0,0,0,0,23,23,23,23,23,23,0,0,0,0,
0,0,0,0,24,24,24,24,24,24,0,0,0,0,0,0,0,0,0,0,0,0,0,0,0,0,0,0,0,15,23,23,23,23,23,23,0,0,0,0,
0,0,0,0,24,24,24,24,24,24,14,0,0,0,0,0,0,0,0,0,0,0,0,0,0,0,0,0,0,14,23,23,23,23,23,23,0,0,0,0,
0,0,0,0,24,24,24,24,24,24,15,14,0,14,14,14,0,14,15,0,14,15,15,0,15,15,0,14,14,15,23,23,23,23,23,23,0,0,0,0,
0,0,0,0,24,24,24,24,24,12,22,22,22,22,22,22,22,22,22,22,22,22,22,22,22,22,22,22,22,22,13,23,23,23,23,23,0,0,0,0,
0,0,0,0,24,24,24,24,12,22,22,22,22,22,22,22,22,22,22,22,22,22,22,22,22,22,22,22,22,22,22,13,23,23,23,23,0,0,0,0,
0,0,0,0,24,24,24,12,22,22,22,22,22,22,22,22,22,22,22,22,22,22,22,22,22,22,22,22,22,22,22,22,13,23,23,23,0,0,0,0,
0,0,0,0,24,24,12,22,22,22,22,22,22,22,22,22,22,22,22,22,22,22,22,22,22,22,22,22,22,22,22,22,22,13,23,23,0,0,0,0,
0,0,0,0,24,12,22,22,22,22,22,22,22,22,22,22,22,22,22,22,22,22,22,22,22,22,22,22,22,22,22,22,22,22,13,23,0,0,0,0,
0,0,0,0,12,22,22,22,22,22,22,22,22,22,22,22,22,22,22,22,22,22,22,22,22,22,22,22,22,22,22,22,22,22,22,13,0,0,0,0,
0,0,0,0,0,0,0,0,0,0,0,0,0,0,0,0,0,0,0,0,0,0,0,0,0,0,0,0,0,0,0,0,0,0,0,0,0,0,0,0,
0,0,0,0,0,0,0,0,0,0,0,0,0,0,0,0,0,0,0,0,0,0,0,0,0,0,0,0,0,0,0,0,0,0,0,0,0,0,0,0,
0,0,0,0,0,0,0,0,0,0,0,0,0,0,0,0,0,0,0,0,0,0,0,0,0,0,0,0,0,0,0,0,0,0,0,0,0,0,0,0,
0,0,0,0,0,0,0,0,0,0,0,0,0,0,0,0,0,0,0,0,0,0,0,0,0,0,0,0,0,0,0,0,0,0,0,0,0,0,0,0
 </data>
 </layer>
 <objectgroup id="4" name="events"/>
 <group id="7" name="above">
 <layer id="5" name="middle_above+1" width="40" height="40">
  <data encoding="csv">
0,0,0,0,0,0,0,0,0,0,0,0,0,0,0,0,0,0,0,0,0,0,0,0,0,0,0,0,0,0,0,0,0,0,0,0,0,0,0,0,
0,0,0,0,0,0,0,0,0,0,0,0,0,0,0,0,0,0,0,0,0,0,0,0,0,0,0,0,0,0,0,0,0,0,0,0,0,0,0,0,
0,0,0,0,0,0,0,0,0,0,0,0,0,0,0,0,0,0,0,0,0,0,0,0,0,0,0,0,0,0,0,0,0,0,0,0,0,0,0,0,
0,0,0,0,0,0,0,0,0,0,0,0,0,0,0,0,0,0,0,0,0,0,0,0,0,0,0,0,0,0,0,0,0,0,0,0,0,0,0,0,
0,0,0,0,0,0,0,0,0,0,0,0,0,0,0,0,0,0,0,0,0,0,0,0,0,0,0,0,0,0,0,0,0,0,0,0,0,0,0,0,
0,0,0,0,0,0,0,0,0,0,0,0,0,0,0,0,0,0,0,0,0,0,0,0,0,0,0,0,0,0,0,0,0,0,0,0,0,0,0,0,
0,0,0,0,0,0,0,0,0,0,0,0,0,0,0,0,0,0,0,0,0,0,0,0,0,0,0,0,0,0,0,0,0,0,0,0,0,0,0,0,
0,0,0,0,0,0,0,0,0,0,0,0,0,0,0,0,0,0,0,0,0,0,0,0,0,0,0,0,0,0,0,0,0,0,0,0,0,0,0,0,
0,0,0,0,0,0,0,0,0,0,0,0,0,0,0,0,0,0,0,0,0,0,0,0,0,0,0,0,0,0,0,0,0,0,0,0,0,0,0,0,
0,0,0,0,0,0,0,0,0,0,0,0,0,0,0,0,0,0,0,0,0,0,0,0,0,0,0,0,0,0,0,0,0,0,0,0,0,0,0,0,
0,0,0,0,0,0,0,0,0,0,0,0,0,0,0,0,0,0,0,0,0,0,0,0,0,0,31,32,33,0,0,0,0,0,0,0,0,0,0,0,
0,0,0,0,0,0,0,0,0,0,0,0,0,0,0,0,0,0,0,0,0,0,0,0,0,0,34,35,36,0,0,0,0,0,0,0,0,0,0,0,
0,0,0,0,0,0,0,0,0,0,0,0,0,0,17,18,0,0,0,0,0,0,0,0,0,0,0,0,0,0,0,0,0,0,0,0,0,0,0,0,
0,0,0,0,0,0,0,0,0,0,0,31,32,33,0,0,0,0,0,0,0,0,0,0,0,0,0,0,0,0,0,0,0,0,0,0,0,0,0,0,
0,0,0,0,0,0,0,0,0,0,0,34,35,36,0,0,0,0,0,0,0,0,0,0,0,0,0,0,0,0,0,0,0,0,0,0,0,0,0,0,
0,0,0,0,0,0,0,0,0,0,0,0,0,0,0,0,0,0,0,0,0,0,0,0,0,0,0,0,0,0,0,0,0,0,0,0,0,0,0,0,
0,0,0,0,0,0,0,0,0,0,0,0,0,0,0,0,0,0,0,0,0,0,0,0,0,0,0,0,0,0,0,0,0,0,0,0,0,0,0,0,
0,0,0,0,0,0,0,0,0,0,0,0,0,0,0,0,0,0,0,0,0,0,0,0,0,0,0,0,0,0,0,0,0,0,0,0,0,0,0,0,
0,0,0,0,0,0,0,0,0,0,0,0,0,0,0,0,0,0,0,0,0,0,0,0,0,0,0,0,0,0,0,0,0,0,0,0,0,0,0,0,
0,0,0,0,0,0,0,0,0,0,0,0,0,0,0,0,0,0,0,0,0,0,0,0,0,0,0,0,0,0,0,0,0,0,0,0,0,0,0,0,
0,0,0,0,0,0,0,0,0,0,0,0,0,0,0,0,0,0,0,0,0,0,0,0,0,0,0,0,0,0,0,0,0,0,0,0,0,0,0,0,
0,0,0,0,0,0,0,0,0,0,0,0,0,0,0,0,0,0,0,31,32,33,0,0,0,0,0,0,0,0,0,0,0,0,0,0,0,0,0,0,
0,0,0,0,0,0,0,0,0,0,0,0,0,0,0,0,0,0,0,34,35,36,0,0,0,0,0,0,0,0,0,0,0,0,0,0,0,0,0,0,
0,0,0,0,0,0,0,0,0,0,0,0,0,0,0,0,0,0,0,0,0,0,0,0,0,0,0,0,0,0,0,0,0,0,0,0,0,0,0,0,
0,0,0,0,0,0,0,0,0,0,0,0,0,0,0,0,0,0,0,0,0,0,0,0,0,0,0,0,0,0,0,0,0,0,0,0,0,0,0,0,
0,0,0,0,0,0,0,0,0,0,0,0,0,0,0,0,0,0,0,0,0,0,0,0,0,0,0,0,0,0,0,0,0,0,0,0,0,0,0,0,
0,0,0,0,0,0,0,0,0,0,0,0,0,0,0,0,0,0,0,0,0,0,0,0,0,0,0,0,0,0,0,0,0,0,0,0,0,0,0,0,
0,0,0,0,0,0,0,0,0,0,0,0,0,0,0,0,0,0,0,0,0,0,0,0,0,0,0,0,0,0,0,0,0,0,0,0,0,0,0,0,
0,0,0,0,0,0,0,0,0,0,0,0,0,0,0,0,0,0,0,0,0,0,0,0,0,0,0,0,0,0,0,0,0,0,0,0,0,0,0,0,
0,0,0,0,0,0,0,0,0,0,0,0,0,0,0,0,0,0,0,0,0,0,0,0,0,0,0,0,0,0,0,0,0,0,0,0,0,0,0,0,
0,0,0,0,0,0,0,0,0,0,0,0,0,0,0,0,0,0,0,0,0,0,0,0,0,0,0,0,0,0,0,0,0,0,0,0,0,0,0,0,
0,0,0,0,0,0,0,0,0,0,0,0,0,0,0,0,0,0,0,0,0,0,0,0,0,0,0,0,0,0,0,0,0,0,0,0,0,0,0,0,
0,0,0,0,0,0,0,0,0,0,0,0,0,0,0,0,0,0,0,0,0,0,0,0,0,0,0,0,0,0,0,0,0,0,0,0,0,0,0,0,
0,0,0,0,0,0,0,0,0,0,0,0,0,0,0,0,0,0,0,0,0,0,0,0,0,0,0,0,0,0,0,0,0,0,0,0,0,0,0,0,
0,0,0,0,0,0,0,0,0,0,0,0,0,0,0,0,0,0,0,0,0,0,0,0,0,0,0,0,0,0,0,0,0,0,0,0,0,0,0,0,
0,0,0,0,0,0,0,0,0,0,0,0,0,0,0,0,0,0,0,0,0,0,0,0,0,0,0,0,0,0,0,0,0,0,0,0,0,0,0,0,
0,0,0,0,0,0,0,0,0,0,0,0,0,0,0,0,0,0,0,0,0,0,0,0,0,0,0,0,0,0,0,0,0,0,0,0,0,0,0,0,
0,0,0,0,0,0,0,0,0,0,0,0,0,0,0,0,0,0,0,0,0,0,0,0,0,0,0,0,0,0,0,0,0,0,0,0,0,0,0,0,
0,0,0,0,0,0,0,0,0,0,0,0,0,0,0,0,0,0,0,0,0,0,0,0,0,0,0,0,0,0,0,0,0,0,0,0,0,0,0,0,
0,0,0,0,0,0,0,0,0,0,0,0,0,0,0,0,0,0,0,0,0,0,0,0,0,0,0,0,0,0,0,0,0,0,0,0,0,0,0,0
 </data>
 </layer>
 </group>
</map>
