<?xml version="1.0" encoding="UTF-8"?>
<map version="1.10" tiledversion="1.10.2" orientation="orthogonal" renderorder="right-down" compressionlevel="0" width="59" height="51" tilewidth="32" tileheight="32" infinite="0" nextlayerid="4" nextobjectid="1">
 <tileset firstgid="1" source="abandoned-mine-b2f.tsx"/>
 <layer id="1" name="lower" width="59" height="51">
  <data encoding="csv">
24,24,24,24,24,24,24,24,24,24,24,24,24,24,24,24,24,24,24,24,24,24,24,24,24,24,24,24,24,24,24,24,24,24,24,24,24,24,24,24,24,24,24,24,24,24,24,24,24,24,24,24,24,24,24,24,24,24,24,
24,24,24,24,24,24,24,24,24,24,24,24,24,24,24,24,24,24,24,24,24,24,24,24,24,24,24,24,24,24,24,24,24,24,24,24,24,24,24,24,24,24,24,24,24,24,24,24,24,24,24,24,24,24,24,24,24,24,24,
24,24,24,24,24,24,24,24,24,24,24,24,24,24,24,24,24,24,24,24,24,24,24,24,24,24,24,24,24,24,24,24,24,24,24,24,24,24,24,24,24,24,24,24,24,24,24,24,24,24,24,24,24,24,24,24,24,24,24,
24,24,24,24,24,24,24,24,24,24,24,24,24,24,24,24,24,24,24,24,24,24,24,24,24,24,24,24,24,24,24,24,24,24,24,24,24,24,24,24,24,24,24,24,24,24,24,24,24,24,24,24,24,24,24,24,24,24,24,
24,24,24,24,24,24,24,24,24,24,24,24,24,24,24,24,24,24,24,24,24,24,24,24,24,24,24,24,24,24,24,24,24,24,24,24,24,24,24,24,24,24,24,24,24,24,24,24,24,24,24,24,24,24,24,24,24,24,24,
24,24,24,24,24,24,24,24,24,24,24,24,24,24,24,24,24,24,24,24,24,24,24,24,24,24,24,24,24,24,24,24,24,24,24,24,24,24,24,24,24,24,24,24,24,24,24,24,24,24,24,24,24,24,24,24,24,24,24,
24,24,24,24,24,24,24,24,24,24,24,24,24,24,24,24,24,24,24,24,24,24,24,24,24,24,24,24,24,24,24,24,24,24,24,24,24,24,24,24,24,24,24,24,24,24,24,24,24,24,24,24,24,24,24,24,24,24,24,
24,24,24,24,24,24,24,24,24,24,24,24,24,24,24,24,24,24,24,24,24,24,24,24,24,24,24,24,24,24,24,24,24,24,24,24,24,24,24,24,24,24,24,24,24,24,24,24,24,24,24,24,24,24,24,24,24,24,24,
24,24,24,24,24,24,24,24,24,24,24,24,24,24,24,24,24,24,24,24,24,24,24,24,24,24,24,24,24,24,24,24,24,24,24,24,24,24,24,24,24,24,24,24,24,24,24,24,24,24,24,24,24,24,24,24,24,24,24,
24,24,24,24,24,24,24,24,29,30,29,30,29,30,29,30,29,30,29,30,29,30,29,30,29,30,29,30,29,30,29,30,29,30,29,30,29,30,29,30,29,30,29,30,29,30,29,30,29,30,24,24,24,24,24,24,24,24,24,
24,24,24,24,24,24,24,24,31,32,31,32,31,32,31,32,31,32,31,32,31,32,31,32,31,32,31,32,31,32,31,32,31,32,31,32,31,32,31,32,31,32,31,32,31,32,31,32,31,32,24,24,24,24,24,24,24,24,24,
24,24,24,24,24,24,24,24,29,30,29,30,29,30,29,30,29,30,29,30,29,30,29,30,29,30,29,30,29,30,29,30,29,30,29,30,29,30,29,30,29,30,29,30,29,30,29,30,29,30,24,24,24,24,24,24,24,24,24,
24,24,24,24,24,24,24,24,31,32,31,32,31,32,31,32,31,32,31,32,31,32,31,32,31,32,31,32,31,32,31,32,31,32,31,32,31,32,31,32,31,32,31,32,31,32,31,32,31,32,24,24,24,24,24,24,24,24,24,
24,24,24,24,24,24,24,24,29,30,29,30,29,30,29,30,29,30,29,30,29,30,29,30,29,30,29,30,29,30,29,30,29,30,29,30,29,30,29,30,29,30,29,30,29,30,29,30,29,30,24,24,24,24,24,24,24,24,24,
24,24,24,24,24,24,24,24,31,32,31,32,31,5,31,32,31,32,31,5,5,5,5,5,5,5,5,5,5,5,5,5,5,5,5,5,5,5,5,5,5,5,5,5,5,32,31,32,31,32,24,24,24,24,24,24,24,24,24,
24,24,24,24,24,24,24,24,29,30,29,30,29,5,29,30,29,30,29,5,5,5,5,5,5,5,5,5,5,5,5,5,5,5,5,5,5,5,5,5,5,5,5,5,5,30,29,30,29,30,24,24,24,24,24,24,24,24,24,
24,24,24,24,24,24,24,24,31,32,31,32,31,5,31,32,31,32,31,5,5,5,5,5,5,5,5,5,5,5,5,5,5,5,5,5,5,5,5,5,5,5,5,5,5,32,31,32,31,32,24,24,24,24,24,24,24,24,24,
24,24,24,24,24,24,24,24,29,30,29,30,29,5,29,30,29,30,29,5,5,5,5,5,5,5,5,5,5,5,5,5,5,5,5,5,5,5,5,29,30,29,30,29,5,30,29,30,29,30,24,24,24,24,24,24,24,24,24,
24,24,24,24,24,24,24,24,31,32,31,32,31,5,31,32,31,32,31,5,5,5,5,5,5,5,5,5,5,5,5,5,5,5,5,5,5,5,5,31,32,31,32,31,5,32,31,32,31,32,24,24,24,24,24,24,24,24,24,
24,24,24,24,24,24,24,24,29,30,29,30,29,5,29,30,29,30,29,5,5,5,5,5,5,5,5,5,31,32,31,32,31,5,5,5,5,5,5,29,30,29,30,29,5,30,29,30,29,30,24,24,24,24,24,24,24,24,24,
24,24,24,24,24,24,24,24,31,32,31,32,31,5,31,32,31,32,31,5,5,5,5,5,5,5,5,5,29,30,29,30,29,5,5,5,5,5,5,31,32,31,32,31,5,32,31,32,31,32,24,24,24,24,24,24,24,24,24,
24,24,24,24,24,24,24,24,29,30,29,30,29,5,29,30,29,30,29,5,5,5,5,5,5,5,5,5,31,32,31,32,31,5,5,5,5,5,5,29,30,29,30,29,5,30,29,30,29,30,24,24,24,24,24,24,24,24,24,
24,24,24,24,24,24,24,24,31,32,31,32,31,5,31,32,31,32,31,5,5,5,5,5,5,5,5,5,29,30,29,30,29,5,5,5,5,5,5,31,32,31,32,31,5,32,31,32,31,32,24,24,24,24,24,24,24,24,24,
24,24,24,24,24,24,24,24,29,30,29,30,29,5,29,30,29,30,29,5,5,5,5,5,5,5,5,5,31,32,31,32,31,5,5,5,5,5,5,29,30,29,30,29,5,30,29,30,29,30,24,24,24,24,24,24,24,24,24,
24,24,24,24,24,24,24,24,31,32,31,32,31,5,31,32,31,32,31,5,5,5,5,5,5,5,5,5,29,30,29,30,29,5,5,5,5,5,5,31,32,31,32,31,5,32,31,32,31,32,24,24,24,24,24,24,24,24,24,
24,24,24,24,24,24,24,24,29,30,29,30,29,5,29,30,29,30,29,5,5,5,5,5,5,5,5,5,31,32,31,32,31,5,5,5,5,5,5,5,5,5,5,5,5,30,29,30,29,30,24,24,24,24,24,24,24,24,24,
24,24,24,24,24,24,24,24,31,32,31,32,31,5,31,32,31,32,31,5,5,5,5,5,5,5,5,5,29,30,29,30,29,5,5,5,5,5,5,5,5,5,5,5,5,32,31,32,31,32,24,24,24,24,24,24,24,24,24,
24,24,24,24,24,24,24,24,29,30,29,30,29,5,29,30,29,30,29,5,5,5,31,32,31,32,31,32,31,32,31,32,31,32,31,32,31,32,31,32,31,32,5,5,5,30,29,30,29,30,24,24,24,24,24,24,24,24,24,
24,24,24,24,24,24,24,24,31,32,31,32,31,5,31,32,31,32,31,5,5,5,29,30,29,30,29,30,29,30,29,30,29,30,29,30,29,30,29,30,29,30,5,5,5,32,31,32,31,32,24,24,24,24,24,24,24,24,24,
24,24,24,24,24,24,24,24,29,30,29,30,29,5,29,30,29,30,29,5,5,5,31,32,31,32,31,32,31,32,31,32,31,32,31,32,31,32,31,32,31,32,5,5,5,30,29,30,29,30,24,24,24,24,24,24,24,24,24,
24,24,24,24,24,24,24,24,31,32,31,32,31,5,31,32,31,32,31,5,5,5,29,30,29,30,29,30,29,30,29,30,29,30,29,30,29,30,29,30,29,30,5,5,5,32,31,32,31,32,24,24,24,24,24,24,24,24,24,
24,24,24,24,24,24,24,24,29,30,29,30,29,5,29,30,29,30,29,5,5,5,31,32,31,32,31,32,31,32,31,32,31,32,31,32,31,32,31,32,31,32,5,5,5,30,29,30,29,30,24,24,24,24,24,24,24,24,24,
24,24,24,24,24,24,24,24,31,32,31,32,31,5,31,32,31,32,31,5,5,5,29,30,29,30,29,30,29,30,29,30,29,30,29,30,29,30,29,30,29,30,5,5,5,32,31,32,31,32,24,24,24,24,24,24,24,24,24,
24,24,24,24,24,24,24,24,29,30,29,30,29,5,29,30,29,30,29,5,5,5,5,5,5,5,5,5,5,5,5,5,5,5,5,5,5,5,5,5,5,5,5,5,5,30,29,30,29,30,24,24,24,24,24,24,24,24,24,
24,24,24,24,24,24,24,24,31,32,31,32,31,5,31,32,31,32,31,5,5,5,5,5,5,5,5,5,5,5,5,5,5,5,5,5,5,5,5,5,5,5,5,5,5,32,31,32,31,32,24,24,24,24,24,24,24,24,24,
24,24,24,24,24,24,24,24,29,30,29,30,29,5,29,30,29,30,29,5,5,5,5,5,5,5,5,5,5,5,5,5,5,5,5,5,5,5,5,5,5,5,5,5,5,30,29,30,29,30,24,24,24,24,24,24,24,24,24,
24,24,24,24,24,24,24,24,31,32,31,32,31,32,31,32,31,32,31,32,31,32,31,32,31,32,31,32,31,32,31,32,31,32,31,32,31,32,31,32,31,32,31,32,31,32,31,32,31,32,24,24,24,24,24,24,24,24,24,
24,24,24,24,24,24,24,24,29,30,29,30,29,30,29,30,29,30,29,30,29,30,29,30,29,30,29,30,29,30,29,30,29,30,29,30,29,30,29,30,29,30,29,30,29,30,29,30,29,30,24,24,24,24,24,24,24,24,24,
24,24,24,24,24,24,24,24,31,32,31,32,31,32,31,32,31,32,31,32,31,32,31,32,31,32,31,32,31,32,31,32,31,32,31,32,31,32,31,32,31,32,31,32,31,32,31,32,31,32,24,24,24,24,24,24,24,24,24,
24,24,24,24,24,24,24,24,29,30,29,30,29,30,29,30,29,30,29,30,29,30,29,30,29,30,29,30,29,30,29,30,29,30,29,30,29,30,29,30,29,30,29,30,29,30,29,30,29,30,24,24,24,24,24,24,24,24,24,
24,24,24,24,24,24,24,24,31,32,31,32,31,32,31,32,31,32,31,32,31,32,31,32,31,32,31,32,31,32,31,32,31,32,31,32,31,32,31,32,31,32,31,32,31,32,31,32,31,32,24,24,24,24,24,24,24,24,24,
24,24,24,24,24,24,24,24,24,24,24,24,24,24,24,24,24,24,24,24,24,24,24,24,24,24,24,24,24,24,24,24,24,24,24,24,24,24,24,24,24,24,24,24,24,24,24,24,24,24,24,24,24,24,24,24,24,24,24,
24,24,24,24,24,24,24,24,24,24,24,24,24,24,24,24,24,24,24,24,24,24,24,24,24,24,24,24,24,24,24,24,24,24,24,24,24,24,24,24,24,24,24,24,24,24,24,24,24,24,24,24,24,24,24,24,24,24,24,
24,24,24,24,24,24,24,24,24,24,24,24,24,24,24,24,24,24,24,24,24,24,24,24,24,24,24,24,24,24,24,24,24,24,24,24,24,24,24,24,24,24,24,24,24,24,24,24,24,24,24,24,24,24,24,24,24,24,24,
24,24,24,24,24,24,24,24,24,24,24,24,24,24,24,24,24,24,24,24,24,24,24,24,24,24,24,24,24,24,24,24,24,24,24,24,24,24,24,24,24,24,24,24,24,24,24,24,24,24,24,24,24,24,24,24,24,24,24,
24,24,24,24,24,24,24,24,24,24,24,24,24,24,24,24,24,24,24,24,24,24,24,24,24,24,24,24,24,24,24,24,24,24,24,24,24,24,24,24,24,24,24,24,24,24,24,24,24,24,24,24,24,24,24,24,24,24,24,
24,24,24,24,24,24,24,24,24,24,24,24,24,24,24,24,24,24,24,24,24,24,24,24,24,24,24,24,24,24,24,24,24,24,24,24,24,24,24,24,24,24,24,24,24,24,24,24,24,24,24,24,24,24,24,24,24,24,24,
24,24,24,24,24,24,24,24,24,24,24,24,24,24,24,24,24,24,24,24,24,24,24,24,24,24,24,24,24,24,24,24,24,24,24,24,24,24,24,24,24,24,24,24,24,24,24,24,24,24,24,24,24,24,24,24,24,24,24,
24,24,24,24,24,24,24,24,24,24,24,24,24,24,24,24,24,24,24,24,24,24,24,24,24,24,24,24,24,24,24,24,24,24,24,24,24,24,24,24,24,24,24,24,24,24,24,24,24,24,24,24,24,24,24,24,24,24,24,
24,24,24,24,24,24,24,24,24,24,24,24,24,24,24,24,24,24,24,24,24,24,24,24,24,24,24,24,24,24,24,24,24,24,24,24,24,24,24,24,24,24,24,24,24,24,24,24,24,24,24,24,24,24,24,24,24,24,24,
24,24,24,24,24,24,24,24,24,24,24,24,24,24,24,24,24,24,24,24,24,24,24,24,24,24,24,24,24,24,24,24,24,24,24,24,24,24,24,24,24,24,24,24,24,24,24,24,24,24,24,24,24,24,24,24,24,24,24
  </data>
 </layer>
 <layer id="2" name="middle" width="59" height="51">
  <data encoding="csv">
0,0,0,0,0,0,0,0,0,0,0,0,0,0,0,0,0,0,0,0,0,0,0,0,0,0,0,0,0,0,0,0,0,0,0,0,0,0,0,0,0,0,0,0,0,0,0,0,0,0,0,0,0,0,0,0,0,0,0,
0,0,0,0,0,0,0,0,0,0,0,0,0,0,0,0,0,0,0,0,0,0,0,0,0,0,0,0,0,0,0,0,0,0,0,0,0,0,0,0,0,0,0,0,0,0,0,0,0,0,0,0,0,0,0,0,0,0,0,
0,0,0,0,0,0,0,0,0,0,0,0,0,0,0,0,0,0,0,0,0,0,0,0,0,0,0,0,0,0,0,0,0,0,0,0,0,0,0,0,0,0,0,0,0,0,0,0,0,0,0,0,0,0,0,0,0,0,0,
0,0,0,0,0,0,0,0,0,0,0,0,0,0,0,0,0,0,0,0,0,0,0,0,0,0,0,0,0,0,0,0,0,0,0,0,0,0,0,0,0,0,0,0,0,0,0,0,0,0,0,0,0,0,0,0,0,0,0,
0,0,0,0,0,0,0,0,0,0,0,0,0,0,0,0,0,0,0,0,0,0,0,0,0,0,0,0,0,0,0,0,0,0,0,0,0,0,0,0,0,0,0,0,0,0,0,0,0,0,0,0,0,0,0,0,0,0,0,
0,0,0,0,0,0,0,0,0,0,0,0,0,0,0,0,0,0,0,0,0,0,0,0,0,0,0,0,0,0,0,0,0,0,0,0,0,0,0,0,0,0,0,0,0,0,0,0,0,0,0,0,0,0,0,0,0,0,0,
0,0,0,0,0,0,0,0,0,0,0,0,0,0,0,0,0,0,0,0,0,0,0,0,0,0,0,0,0,0,0,0,0,0,0,0,0,0,0,0,0,0,0,0,0,0,0,0,0,0,0,0,0,0,0,0,0,0,0,
0,0,0,0,0,0,0,0,0,0,0,0,0,0,0,0,0,0,0,0,0,0,0,0,0,0,0,0,0,0,0,0,0,0,0,0,0,0,0,0,0,0,0,0,0,0,0,0,0,0,0,0,0,0,0,0,0,0,0,
0,0,0,0,0,0,0,0,0,0,0,0,0,0,0,0,0,0,0,0,0,0,0,0,0,0,0,0,0,0,0,0,0,0,0,0,0,0,0,0,0,0,0,0,0,0,0,0,0,0,0,0,0,0,0,0,0,0,0,
0,0,0,0,0,0,0,0,7,28,28,28,28,28,28,28,28,28,28,28,28,28,28,28,28,28,28,28,28,28,28,28,28,28,28,28,28,28,28,28,28,28,28,28,28,28,28,28,28,8,0,0,0,0,0,0,0,0,0,
0,0,0,0,0,0,0,0,27,7,28,28,28,28,28,28,28,28,28,28,28,28,28,28,28,28,28,28,28,28,28,28,28,28,28,28,28,28,28,28,28,28,28,28,28,28,28,28,8,26,0,0,0,0,0,0,0,0,0,
0,0,0,0,0,0,0,0,27,27,7,28,28,28,28,28,28,28,28,28,28,28,28,28,28,28,28,28,28,28,28,28,28,28,28,28,28,28,28,28,28,28,28,28,28,28,28,8,26,26,0,0,0,0,0,0,0,0,0,
0,0,0,0,0,0,0,0,27,27,27,7,28,28,28,28,28,28,28,28,28,28,28,28,28,28,28,28,28,28,28,28,28,28,28,28,28,28,28,28,28,28,28,28,28,28,8,26,26,26,0,0,0,0,0,0,0,0,0,
0,0,0,0,0,0,0,0,27,27,27,27,1,2,2,2,2,2,2,2,2,2,2,2,2,2,2,2,2,2,2,2,2,2,2,2,2,2,2,2,2,2,2,2,2,3,26,26,26,26,0,0,0,0,0,0,0,0,0,
0,0,0,0,0,0,0,0,27,27,27,27,4,0,14,10,10,10,15,0,0,0,0,0,0,0,0,0,0,0,0,0,0,0,0,0,0,0,0,0,0,0,0,0,0,6,26,26,26,26,0,0,0,0,0,0,0,0,0,
0,0,0,0,0,0,0,0,27,27,27,27,4,0,6,0,33,0,4,0,0,0,0,0,19,0,0,0,0,0,0,0,0,0,0,20,21,0,0,0,0,0,19,0,0,6,26,26,26,26,0,0,0,0,0,0,0,0,0,
0,0,0,0,0,0,0,0,27,27,27,27,4,19,6,34,35,36,4,0,0,0,0,0,0,0,0,0,0,0,0,19,0,0,0,22,23,0,0,0,0,0,0,0,0,6,26,26,26,26,0,0,0,0,0,0,0,0,0,
0,0,0,0,0,0,0,0,27,27,27,27,4,18,6,0,0,0,4,0,0,19,0,0,0,0,0,0,0,0,0,0,0,0,0,0,0,0,0,14,10,10,10,15,18,6,26,26,26,26,0,0,0,0,0,0,0,0,0,
0,0,0,0,0,0,0,0,27,27,27,27,4,0,6,0,0,0,4,0,0,0,0,0,0,0,0,0,0,0,0,0,0,0,0,0,0,0,18,6,0,0,0,4,0,6,26,26,26,26,0,0,0,0,0,0,0,0,0,
0,0,0,0,0,0,0,0,27,27,27,27,4,0,6,0,0,0,4,0,0,0,0,18,0,0,0,0,14,10,10,10,15,0,0,0,18,0,0,6,0,0,0,4,18,6,26,26,26,26,0,0,0,0,0,0,0,0,0,
0,0,0,0,0,0,0,0,27,27,27,27,4,0,6,0,0,0,4,0,0,0,0,0,0,0,0,0,6,0,0,0,4,0,0,0,0,0,0,6,0,0,0,4,0,6,26,26,26,26,0,0,0,0,0,0,0,0,0,
0,0,0,0,0,0,0,0,27,27,27,27,4,0,6,0,0,0,4,0,0,0,20,21,0,19,0,0,6,0,0,0,4,18,0,0,0,18,0,6,0,0,0,4,0,6,26,26,26,26,0,0,0,0,0,0,0,0,0,
0,0,0,0,0,0,0,0,27,27,27,27,4,19,6,0,0,0,4,0,0,0,22,23,0,0,0,0,6,0,0,0,4,0,0,19,0,0,0,6,0,0,0,4,0,6,26,26,26,26,0,0,0,0,0,0,0,0,0,
0,0,0,0,0,0,0,0,27,27,27,27,4,0,6,0,0,0,4,0,18,0,0,0,0,0,0,0,6,0,0,0,4,0,0,0,0,0,0,6,0,0,0,4,0,6,26,26,26,26,0,0,0,0,0,0,0,0,0,
0,0,0,0,0,0,0,0,27,27,27,27,4,0,6,0,0,0,4,0,0,0,0,0,0,18,0,0,6,0,0,0,4,0,0,0,0,0,0,16,2,2,2,17,0,6,26,26,26,26,0,0,0,0,0,0,0,0,0,
0,0,0,0,0,0,0,0,27,27,27,27,4,0,6,0,0,0,4,0,0,0,0,0,0,0,0,0,6,0,0,0,4,0,0,0,0,18,0,0,0,0,0,0,0,6,26,26,26,26,0,0,0,0,0,0,0,0,0,
0,0,0,0,0,0,0,0,27,27,27,27,4,18,6,0,0,0,4,0,18,0,0,0,0,0,0,0,6,0,0,0,4,18,0,0,0,0,0,0,0,0,0,18,0,6,26,26,26,26,0,0,0,0,0,0,0,0,0,
0,0,0,0,0,0,0,0,27,27,27,27,4,0,6,0,0,0,4,0,0,0,14,10,10,10,10,10,11,0,0,0,9,10,10,10,10,10,10,10,10,15,0,0,0,6,26,26,26,26,0,0,0,0,0,0,0,0,0,
0,0,0,0,0,0,0,0,27,27,27,27,4,0,6,0,0,0,4,0,19,0,6,0,0,0,0,0,0,0,0,0,0,0,0,0,0,0,37,38,39,4,0,0,0,6,26,26,26,26,0,0,0,0,0,0,0,0,0,
0,0,0,0,0,0,0,0,27,27,27,27,4,0,6,0,0,0,4,0,0,0,6,0,33,0,0,0,0,0,0,0,0,0,0,0,0,0,40,41,42,4,0,0,0,6,26,26,26,26,0,0,0,0,0,0,0,0,0,
0,0,0,0,0,0,0,0,27,27,27,27,4,18,6,0,0,0,4,0,0,0,6,34,35,36,0,0,0,0,0,0,0,0,0,0,0,0,43,44,45,4,0,0,0,6,26,26,26,26,0,0,0,0,0,0,0,0,0,
0,0,0,0,0,0,0,0,27,27,27,27,4,0,6,37,38,39,4,0,0,0,6,0,0,0,0,0,0,0,0,0,0,0,0,0,0,0,0,0,0,4,0,19,0,6,26,26,26,26,0,0,0,0,0,0,0,0,0,
0,0,0,0,0,0,0,0,27,27,27,27,4,19,6,40,41,42,4,0,0,0,16,2,2,2,2,2,2,2,2,2,2,2,2,2,2,2,2,2,2,17,0,0,0,6,26,26,26,26,0,0,0,0,0,0,0,0,0,
0,0,0,0,0,0,0,0,27,27,27,27,4,0,6,43,44,45,4,0,19,0,0,18,0,0,0,0,0,0,0,0,0,0,0,0,0,0,0,0,0,0,0,0,0,6,26,26,26,26,0,0,0,0,0,0,0,0,0,
0,0,0,0,0,0,0,0,27,27,27,27,4,0,6,0,0,0,4,0,0,0,18,0,0,0,19,0,0,0,0,0,18,18,0,19,0,0,18,0,0,0,19,0,0,6,26,26,26,26,0,0,0,0,0,0,0,0,0,
0,0,0,0,0,0,0,0,27,27,27,27,4,0,16,2,2,2,17,0,0,0,0,0,0,0,0,0,0,0,18,0,0,0,0,0,0,0,0,0,0,18,0,0,0,6,26,26,26,26,0,0,0,0,0,0,0,0,0,
0,0,0,0,0,0,0,0,27,27,27,27,9,10,10,10,10,10,10,10,10,10,10,10,10,10,10,10,10,10,10,10,10,10,10,10,10,10,10,10,10,10,10,10,10,11,26,26,26,26,0,0,0,0,0,0,0,0,0,
0,0,0,0,0,0,0,0,27,27,27,12,12,25,25,25,25,25,25,25,25,25,25,25,25,25,25,25,25,25,25,25,25,25,25,25,25,25,25,25,25,25,25,25,25,13,13,26,26,26,0,0,0,0,0,0,0,0,0,
0,0,0,0,0,0,0,0,27,27,12,12,25,25,25,25,25,25,25,25,25,25,25,25,25,25,25,25,25,25,25,25,25,25,25,25,25,25,25,25,25,25,25,25,25,25,13,13,26,26,0,0,0,0,0,0,0,0,0,
0,0,0,0,0,0,0,0,27,12,25,25,25,25,25,25,25,25,25,25,25,25,25,25,25,25,25,25,25,25,25,25,25,25,25,25,25,25,25,25,25,25,25,25,25,25,25,25,13,26,0,0,0,0,0,0,0,0,0,
0,0,0,0,0,0,0,0,12,25,25,25,25,25,25,25,25,25,25,25,25,25,25,25,25,25,25,25,25,25,25,25,25,25,25,25,25,25,25,25,25,25,25,25,25,25,25,25,25,13,0,0,0,0,0,0,0,0,0,
0,0,0,0,0,0,0,0,0,0,0,0,0,0,0,0,0,0,0,0,0,0,0,0,0,0,0,0,0,0,0,0,0,0,0,0,0,0,0,0,0,0,0,0,0,0,0,0,0,0,0,0,0,0,0,0,0,0,0,
0,0,0,0,0,0,0,0,0,0,0,0,0,0,0,0,0,0,0,0,0,0,0,0,0,0,0,0,0,0,0,0,0,0,0,0,0,0,0,0,0,0,0,0,0,0,0,0,0,0,0,0,0,0,0,0,0,0,0,
0,0,0,0,0,0,0,0,0,0,0,0,0,0,0,0,0,0,0,0,0,0,0,0,0,0,0,0,0,0,0,0,0,0,0,0,0,0,0,0,0,0,0,0,0,0,0,0,0,0,0,0,0,0,0,0,0,0,0,
0,0,0,0,0,0,0,0,0,0,0,0,0,0,0,0,0,0,0,0,0,0,0,0,0,0,0,0,0,0,0,0,0,0,0,0,0,0,0,0,0,0,0,0,0,0,0,0,0,0,0,0,0,0,0,0,0,0,0,
0,0,0,0,0,0,0,0,0,0,0,0,0,0,0,0,0,0,0,0,0,0,0,0,0,0,0,0,0,0,0,0,0,0,0,0,0,0,0,0,0,0,0,0,0,0,0,0,0,0,0,0,0,0,0,0,0,0,0,
0,0,0,0,0,0,0,0,0,0,0,0,0,0,0,0,0,0,0,0,0,0,0,0,0,0,0,0,0,0,0,0,0,0,0,0,0,0,0,0,0,0,0,0,0,0,0,0,0,0,0,0,0,0,0,0,0,0,0,
0,0,0,0,0,0,0,0,0,0,0,0,0,0,0,0,0,0,0,0,0,0,0,0,0,0,0,0,0,0,0,0,0,0,0,0,0,0,0,0,0,0,0,0,0,0,0,0,0,0,0,0,0,0,0,0,0,0,0,
0,0,0,0,0,0,0,0,0,0,0,0,0,0,0,0,0,0,0,0,0,0,0,0,0,0,0,0,0,0,0,0,0,0,0,0,0,0,0,0,0,0,0,0,0,0,0,0,0,0,0,0,0,0,0,0,0,0,0,
0,0,0,0,0,0,0,0,0,0,0,0,0,0,0,0,0,0,0,0,0,0,0,0,0,0,0,0,0,0,0,0,0,0,0,0,0,0,0,0,0,0,0,0,0,0,0,0,0,0,0,0,0,0,0,0,0,0,0,
0,0,0,0,0,0,0,0,0,0,0,0,0,0,0,0,0,0,0,0,0,0,0,0,0,0,0,0,0,0,0,0,0,0,0,0,0,0,0,0,0,0,0,0,0,0,0,0,0,0,0,0,0,0,0,0,0,0,0
  </data>
 </layer>
 <layer id="3" name="upper" width="59" height="51">
  <data encoding="csv">
0,0,0,0,0,0,0,0,0,0,0,0,0,0,0,0,0,0,0,0,0,0,0,0,0,0,0,0,0,0,0,0,0,0,0,0,0,0,0,0,0,0,0,0,0,0,0,0,0,0,0,0,0,0,0,0,0,0,0,
0,0,0,0,0,0,0,0,0,0,0,0,0,0,0,0,0,0,0,0,0,0,0,0,0,0,0,0,0,0,0,0,0,0,0,0,0,0,0,0,0,0,0,0,0,0,0,0,0,0,0,0,0,0,0,0,0,0,0,
0,0,0,0,0,0,0,0,0,0,0,0,0,0,0,0,0,0,0,0,0,0,0,0,0,0,0,0,0,0,0,0,0,0,0,0,0,0,0,0,0,0,0,0,0,0,0,0,0,0,0,0,0,0,0,0,0,0,0,
0,0,0,0,0,0,0,0,0,0,0,0,0,0,0,0,0,0,0,0,0,0,0,0,0,0,0,0,0,0,0,0,0,0,0,0,0,0,0,0,0,0,0,0,0,0,0,0,0,0,0,0,0,0,0,0,0,0,0,
0,0,0,0,0,0,0,0,0,0,0,0,0,0,0,0,0,0,0,0,0,0,0,0,0,0,0,0,0,0,0,0,0,0,0,0,0,0,0,0,0,0,0,0,0,0,0,0,0,0,0,0,0,0,0,0,0,0,0,
0,0,0,0,0,0,0,0,0,0,0,0,0,0,0,0,0,0,0,0,0,0,0,0,0,0,0,0,0,0,0,0,0,0,0,0,0,0,0,0,0,0,0,0,0,0,0,0,0,0,0,0,0,0,0,0,0,0,0,
0,0,0,0,0,0,0,0,0,0,0,0,0,0,0,0,0,0,0,0,0,0,0,0,0,0,0,0,0,0,0,0,0,0,0,0,0,0,0,0,0,0,0,0,0,0,0,0,0,0,0,0,0,0,0,0,0,0,0,
0,0,0,0,0,0,0,0,0,0,0,0,0,0,0,0,0,0,0,0,0,0,0,0,0,0,0,0,0,0,0,0,0,0,0,0,0,0,0,0,0,0,0,0,0,0,0,0,0,0,0,0,0,0,0,0,0,0,0,
0,0,0,0,0,0,0,0,0,0,0,0,0,0,0,0,0,0,0,0,0,0,0,0,0,0,0,0,0,0,0,0,0,0,0,0,0,0,0,0,0,0,0,0,0,0,0,0,0,0,0,0,0,0,0,0,0,0,0,
0,0,0,0,0,0,0,0,0,0,0,0,0,0,0,0,0,0,0,0,0,0,0,0,0,0,0,0,0,0,0,0,0,0,0,0,0,0,0,0,0,0,0,0,0,0,0,0,0,0,0,0,0,0,0,0,0,0,0,
0,0,0,0,0,0,0,0,0,0,0,0,0,0,0,0,0,0,0,0,0,0,0,0,0,0,0,0,0,0,0,0,0,0,0,0,0,0,0,0,0,0,0,0,0,0,0,0,0,0,0,0,0,0,0,0,0,0,0,
0,0,0,0,0,0,0,0,0,0,0,0,0,0,0,0,0,0,0,0,0,0,0,0,0,0,0,0,0,0,0,0,0,0,0,0,0,0,0,0,0,0,0,0,0,0,0,0,0,0,0,0,0,0,0,0,0,0,0,
0,0,0,0,0,0,0,0,0,0,0,0,0,0,0,0,0,0,0,0,0,0,0,0,0,0,0,0,0,0,0,0,0,0,0,0,0,0,0,0,0,0,0,0,0,0,0,0,0,0,0,0,0,0,0,0,0,0,0,
0,0,0,0,0,0,0,0,0,0,0,0,0,0,0,0,0,0,0,0,0,0,0,0,0,0,0,0,0,0,0,0,0,0,0,0,0,0,0,0,0,0,0,0,0,0,0,0,0,0,0,0,0,0,0,0,0,0,0,
0,0,0,0,0,0,0,0,0,0,0,0,0,0,0,0,0,0,0,0,0,0,0,0,0,0,0,0,0,0,0,0,0,0,0,0,0,0,0,0,0,0,0,0,0,0,0,0,0,0,0,0,0,0,0,0,0,0,0,
0,0,0,0,0,0,0,0,0,0,0,0,0,0,0,0,0,0,0,0,0,0,0,0,0,0,0,0,0,0,0,0,0,0,0,0,0,0,0,0,0,0,0,0,0,0,0,0,0,0,0,0,0,0,0,0,0,0,0,
0,0,0,0,0,0,0,0,0,0,0,0,0,0,0,0,0,0,0,0,0,0,0,0,0,0,0,0,0,0,0,0,0,0,0,0,0,0,0,0,0,0,0,0,0,0,0,0,0,0,0,0,0,0,0,0,0,0,0,
0,0,0,0,0,0,0,0,0,0,0,0,0,0,0,0,0,0,0,0,0,0,0,0,0,0,0,0,0,0,0,0,0,0,0,0,0,0,0,0,0,0,0,0,0,0,0,0,0,0,0,0,0,0,0,0,0,0,0,
0,0,0,0,0,0,0,0,0,0,0,0,0,0,0,0,0,0,0,0,0,0,0,0,0,0,0,0,0,0,0,0,0,0,0,0,0,0,0,0,0,0,0,0,0,0,0,0,0,0,0,0,0,0,0,0,0,0,0,
0,0,0,0,0,0,0,0,0,0,0,0,0,0,0,0,0,0,0,0,0,0,0,0,0,0,0,0,0,37,38,39,0,0,0,0,0,0,0,0,0,0,0,0,0,0,0,0,0,0,0,0,0,0,0,0,0,0,0,
0,0,0,0,0,0,0,0,0,0,0,0,0,0,0,0,0,0,0,0,0,0,0,0,0,0,0,0,0,40,41,42,0,0,0,0,0,0,0,0,0,37,38,39,0,0,0,0,0,0,0,0,0,0,0,0,0,0,0,
0,0,0,0,0,0,0,0,0,0,0,0,0,0,0,0,0,0,0,0,0,0,0,0,0,0,0,0,0,43,44,45,0,0,0,0,0,0,0,0,0,40,41,42,0,0,0,0,0,0,0,0,0,0,0,0,0,0,0,
0,0,0,0,0,0,0,0,0,0,0,0,0,0,0,0,0,0,0,0,0,0,0,0,0,0,0,0,0,0,0,0,0,0,0,0,0,0,0,0,0,43,44,45,0,0,0,0,0,0,0,0,0,0,0,0,0,0,0,
0,0,0,0,0,0,0,0,0,0,0,0,0,0,0,0,0,0,0,0,0,0,0,0,0,0,0,0,0,0,0,0,0,0,37,38,39,0,0,0,0,0,0,0,0,0,0,0,0,0,0,0,0,0,0,0,0,0,0,
0,0,0,0,0,0,0,0,0,0,0,0,0,0,0,0,0,0,0,0,0,0,0,0,0,0,0,0,0,0,0,0,0,0,40,41,42,0,0,0,0,0,0,0,0,0,0,0,0,0,0,0,0,0,0,0,0,0,0,
0,0,0,0,0,0,0,0,0,0,0,0,0,0,0,0,0,0,0,0,0,0,0,0,0,0,0,0,0,0,0,0,0,0,43,44,45,0,0,0,0,0,0,0,0,0,0,0,0,0,0,0,0,0,0,0,0,0,0,
0,0,0,0,0,0,0,0,0,0,0,0,0,0,0,0,0,0,0,0,0,0,0,0,0,0,0,0,0,0,0,0,0,0,0,0,0,0,0,0,0,0,0,0,0,0,0,0,0,0,0,0,0,0,0,0,0,0,0,
0,0,0,0,0,0,0,0,0,0,0,0,0,0,0,0,0,0,0,0,0,0,0,0,0,0,0,0,0,0,0,0,0,0,0,0,0,0,0,0,0,0,0,0,0,0,0,0,0,0,0,0,0,0,0,0,0,0,0,
0,0,0,0,0,0,0,0,0,0,0,0,0,0,0,0,0,0,0,0,0,0,0,0,0,0,0,0,0,0,0,0,0,0,0,0,0,0,0,0,0,0,0,0,0,0,0,0,0,0,0,0,0,0,0,0,0,0,0,
0,0,0,0,0,0,0,0,0,0,0,0,0,0,0,0,0,0,0,0,0,0,0,0,0,0,0,0,0,0,0,0,0,0,0,0,0,0,0,0,0,0,0,0,0,0,0,0,0,0,0,0,0,0,0,0,0,0,0,
0,0,0,0,0,0,0,0,0,0,0,0,0,0,0,0,0,0,0,0,0,0,0,0,0,0,0,0,0,0,0,0,0,0,0,0,0,0,0,0,0,0,0,0,0,0,0,0,0,0,0,0,0,0,0,0,0,0,0,
0,0,0,0,0,0,0,0,0,0,0,0,0,0,0,0,0,0,0,0,0,0,0,0,0,0,0,0,0,0,0,0,0,0,0,0,0,0,0,0,0,0,0,0,0,0,0,0,0,0,0,0,0,0,0,0,0,0,0,
0,0,0,0,0,0,0,0,0,0,0,0,0,0,0,0,0,0,0,0,0,0,0,0,0,0,0,0,0,0,0,0,0,0,0,0,0,0,0,0,0,0,0,0,0,0,0,0,0,0,0,0,0,0,0,0,0,0,0,
0,0,0,0,0,0,0,0,0,0,0,0,0,0,0,0,0,0,0,0,0,0,0,0,0,0,0,0,0,0,0,0,0,0,0,0,0,0,0,0,0,0,0,0,0,0,0,0,0,0,0,0,0,0,0,0,0,0,0,
0,0,0,0,0,0,0,0,0,0,0,0,0,0,0,0,0,0,0,0,0,0,0,0,0,0,0,0,0,0,0,0,0,0,0,0,0,0,0,0,0,0,0,0,0,0,0,0,0,0,0,0,0,0,0,0,0,0,0,
0,0,0,0,0,0,0,0,0,0,0,0,0,0,0,0,0,0,0,0,0,0,0,0,0,0,0,0,0,0,0,0,0,0,0,0,0,0,0,0,0,0,0,0,0,0,0,0,0,0,0,0,0,0,0,0,0,0,0,
0,0,0,0,0,0,0,0,0,0,0,0,0,0,0,0,0,0,0,0,0,0,0,0,0,0,0,0,0,0,0,0,0,0,0,0,0,0,0,0,0,0,0,0,0,0,0,0,0,0,0,0,0,0,0,0,0,0,0,
0,0,0,0,0,0,0,0,0,0,0,0,0,0,0,0,0,0,0,0,0,0,0,0,0,0,0,0,0,0,0,0,0,0,0,0,0,0,0,0,0,0,0,0,0,0,0,0,0,0,0,0,0,0,0,0,0,0,0,
0,0,0,0,0,0,0,0,0,0,0,0,0,0,0,0,0,0,0,0,0,0,0,0,0,0,0,0,0,0,0,0,0,0,0,0,0,0,0,0,0,0,0,0,0,0,0,0,0,0,0,0,0,0,0,0,0,0,0,
0,0,0,0,0,0,0,0,0,0,0,0,0,0,0,0,0,0,0,0,0,0,0,0,0,0,0,0,0,0,0,0,0,0,0,0,0,0,0,0,0,0,0,0,0,0,0,0,0,0,0,0,0,0,0,0,0,0,0,
0,0,0,0,0,0,0,0,0,0,0,0,0,0,0,0,0,0,0,0,0,0,0,0,0,0,0,0,0,0,0,0,0,0,0,0,0,0,0,0,0,0,0,0,0,0,0,0,0,0,0,0,0,0,0,0,0,0,0,
0,0,0,0,0,0,0,0,0,0,0,0,0,0,0,0,0,0,0,0,0,0,0,0,0,0,0,0,0,0,0,0,0,0,0,0,0,0,0,0,0,0,0,0,0,0,0,0,0,0,0,0,0,0,0,0,0,0,0,
0,0,0,0,0,0,0,0,0,0,0,0,0,0,0,0,0,0,0,0,0,0,0,0,0,0,0,0,0,0,0,0,0,0,0,0,0,0,0,0,0,0,0,0,0,0,0,0,0,0,0,0,0,0,0,0,0,0,0,
0,0,0,0,0,0,0,0,0,0,0,0,0,0,0,0,0,0,0,0,0,0,0,0,0,0,0,0,0,0,0,0,0,0,0,0,0,0,0,0,0,0,0,0,0,0,0,0,0,0,0,0,0,0,0,0,0,0,0,
0,0,0,0,0,0,0,0,0,0,0,0,0,0,0,0,0,0,0,0,0,0,0,0,0,0,0,0,0,0,0,0,0,0,0,0,0,0,0,0,0,0,0,0,0,0,0,0,0,0,0,0,0,0,0,0,0,0,0,
0,0,0,0,0,0,0,0,0,0,0,0,0,0,0,0,0,0,0,0,0,0,0,0,0,0,0,0,0,0,0,0,0,0,0,0,0,0,0,0,0,0,0,0,0,0,0,0,0,0,0,0,0,0,0,0,0,0,0,
0,0,0,0,0,0,0,0,0,0,0,0,0,0,0,0,0,0,0,0,0,0,0,0,0,0,0,0,0,0,0,0,0,0,0,0,0,0,0,0,0,0,0,0,0,0,0,0,0,0,0,0,0,0,0,0,0,0,0,
0,0,0,0,0,0,0,0,0,0,0,0,0,0,0,0,0,0,0,0,0,0,0,0,0,0,0,0,0,0,0,0,0,0,0,0,0,0,0,0,0,0,0,0,0,0,0,0,0,0,0,0,0,0,0,0,0,0,0,
0,0,0,0,0,0,0,0,0,0,0,0,0,0,0,0,0,0,0,0,0,0,0,0,0,0,0,0,0,0,0,0,0,0,0,0,0,0,0,0,0,0,0,0,0,0,0,0,0,0,0,0,0,0,0,0,0,0,0,
0,0,0,0,0,0,0,0,0,0,0,0,0,0,0,0,0,0,0,0,0,0,0,0,0,0,0,0,0,0,0,0,0,0,0,0,0,0,0,0,0,0,0,0,0,0,0,0,0,0,0,0,0,0,0,0,0,0,0,
0,0,0,0,0,0,0,0,0,0,0,0,0,0,0,0,0,0,0,0,0,0,0,0,0,0,0,0,0,0,0,0,0,0,0,0,0,0,0,0,0,0,0,0,0,0,0,0,0,0,0,0,0,0,0,0,0,0,0
  </data>
 </layer>
 <objectgroup id="4" name="events"/>
</map>
