<?xml version="1.0" encoding="UTF-8"?>
<map version="1.10" tiledversion="1.10.2" orientation="orthogonal" renderorder="right-down" compressionlevel="0" width="58" height="54" tilewidth="32" tileheight="32" infinite="0" nextlayerid="4" nextobjectid="1">
 <tileset firstgid="1" source="azalea-town.tsx"/>
 <layer id="1" name="lower" width="58" height="54">
  <data encoding="csv">
0,0,0,0,0,0,0,0,0,0,0,0,0,0,0,0,0,0,0,0,0,0,0,0,0,0,0,0,0,0,0,0,0,0,0,0,0,0,0,0,0,0,0,0,0,0,0,0,0,0,0,0,0,0,0,0,0,0,
0,0,0,0,0,0,0,0,0,0,0,0,0,0,0,0,0,0,0,0,0,0,0,0,0,0,0,0,0,0,0,0,0,0,0,0,0,0,0,0,0,0,0,0,0,0,0,0,0,0,0,0,0,0,0,0,0,0,
0,0,0,0,0,0,0,0,0,0,0,0,0,0,0,0,0,0,0,0,0,0,0,0,0,0,0,0,0,0,0,0,0,0,0,0,0,0,0,0,0,0,0,0,0,0,0,0,0,0,0,0,0,0,0,0,0,0,
0,0,0,0,0,0,0,0,0,0,0,0,0,0,0,0,0,0,0,0,0,0,0,0,0,0,0,0,0,0,0,0,0,0,0,0,0,0,0,0,0,0,0,0,0,0,0,0,0,0,0,0,0,0,0,0,0,0,
0,0,0,0,0,0,0,0,0,0,0,0,0,0,0,0,0,0,0,0,0,0,0,0,0,0,0,0,0,0,0,0,0,0,0,0,0,0,0,0,0,0,0,0,0,0,0,0,0,0,0,0,0,0,0,0,0,0,
0,0,0,0,0,0,0,0,0,0,0,0,0,0,0,0,0,0,0,0,0,0,0,0,0,0,0,0,0,0,0,0,0,0,0,0,0,0,0,0,0,0,0,0,0,0,0,0,0,0,0,0,0,0,0,0,0,0,
0,0,0,0,0,0,0,0,0,0,0,0,0,0,0,0,0,0,0,0,0,0,0,0,0,0,0,0,0,0,0,0,0,0,0,0,0,0,0,0,0,0,0,0,0,0,0,0,0,0,0,0,0,0,0,0,0,0,
0,0,0,0,0,0,0,0,0,0,0,0,4,3,4,3,4,3,4,3,4,3,4,3,4,3,4,3,4,3,4,3,4,3,4,3,4,3,4,3,4,3,4,3,4,3,4,3,4,3,4,3,4,3,4,3,4,3,
0,0,0,0,0,0,0,0,0,0,0,0,3,4,3,4,3,4,3,4,3,4,3,4,3,4,3,4,3,4,3,4,3,4,3,4,3,4,3,4,3,4,3,4,3,4,3,4,3,4,3,4,3,4,3,4,3,4,
0,0,0,0,0,0,0,0,0,0,0,0,4,3,4,3,4,3,4,3,4,3,4,3,4,3,4,3,4,3,4,3,4,3,4,3,4,3,4,3,4,3,4,3,4,3,4,3,4,3,4,3,4,3,4,3,4,3,
0,0,0,0,0,0,0,0,0,0,0,0,3,4,3,4,3,4,3,4,3,4,3,4,3,4,3,4,3,4,3,4,3,4,3,4,3,4,3,4,3,4,3,4,3,4,3,4,3,4,3,4,3,4,3,4,3,4,
0,0,0,0,0,0,0,0,0,0,0,0,4,3,4,3,4,3,4,3,4,3,4,3,4,3,4,3,4,3,4,3,4,3,4,3,4,3,4,3,4,3,4,3,4,3,4,3,4,3,4,3,4,3,4,3,4,3,
0,0,0,0,0,0,0,0,0,0,0,0,3,4,3,4,3,4,3,4,3,4,3,4,3,4,3,4,3,4,3,4,3,4,3,4,3,4,3,4,3,4,3,4,3,4,3,4,3,4,3,4,3,4,3,4,3,4,
0,0,0,0,0,0,0,0,0,0,0,0,4,3,4,3,4,3,4,3,4,3,4,3,4,3,4,3,4,3,4,3,4,3,4,3,4,4,35,36,35,37,14,3,4,3,4,3,4,3,4,3,4,3,4,3,4,3,
0,0,0,0,0,0,0,0,0,0,0,0,3,4,3,4,3,4,3,4,3,4,42,43,42,43,42,43,3,4,3,4,3,4,3,4,42,43,42,43,42,43,3,4,3,4,3,4,3,4,3,4,3,4,3,4,3,4,
0,0,0,0,0,0,0,0,0,0,0,0,4,3,4,3,4,3,4,3,4,3,4,3,4,3,4,3,4,3,4,3,4,3,4,3,4,3,4,3,4,3,4,3,14,3,4,3,4,3,4,3,4,3,4,3,4,3,
0,0,0,0,0,0,0,0,0,0,0,0,3,4,3,4,3,4,3,4,3,4,3,4,3,4,3,4,3,4,3,4,3,4,3,4,3,4,3,4,3,4,3,4,3,4,3,4,3,4,3,4,3,4,3,4,3,4,
0,0,0,0,0,0,0,0,0,0,0,0,4,3,4,3,4,4,4,3,4,3,4,3,4,3,4,3,4,3,4,3,4,3,4,3,4,3,4,3,4,3,4,3,4,3,4,3,4,3,4,3,4,3,4,3,4,3,
0,0,0,0,0,0,0,0,0,0,0,0,3,4,42,4,3,4,4,4,3,4,3,4,3,3,3,4,3,4,3,4,3,4,3,4,3,3,4,3,3,3,3,4,3,4,3,4,3,4,3,4,3,4,3,4,3,4,
0,0,0,0,0,0,0,0,0,0,0,0,4,3,4,3,4,3,4,3,4,3,4,3,3,3,4,3,4,3,4,3,4,3,4,3,4,3,3,3,3,3,4,3,4,3,4,3,4,3,4,3,4,3,4,3,4,3,
0,0,0,0,0,0,0,0,0,0,0,0,239,239,239,239,239,239,239,246,3,4,3,3,117,3,3,4,3,4,3,4,3,4,3,4,3,3,117,116,117,3,3,4,3,4,3,4,3,4,3,4,3,4,3,4,3,4,
0,0,0,0,0,0,0,0,0,0,0,0,235,235,235,235,235,235,235,240,4,3,4,3,119,3,4,3,4,3,4,3,4,3,4,3,4,3,119,118,119,3,4,3,4,3,4,3,3,3,4,3,4,3,4,3,4,3,
0,0,0,0,0,0,0,0,0,0,0,0,235,236,241,237,235,235,235,240,3,3,3,118,117,118,3,3,3,3,3,3,3,3,3,3,3,118,116,117,116,3,3,4,3,4,3,4,3,3,3,4,3,4,3,4,3,4,
0,0,0,0,0,0,0,0,0,0,0,0,235,240,162,238,235,235,235,240,3,119,118,118,119,118,119,118,119,118,119,118,119,119,118,119,118,119,118,119,118,3,4,3,4,3,4,3,4,3,4,3,4,3,4,3,4,3,
0,0,0,0,0,0,0,0,0,0,0,0,241,243,244,242,241,241,241,247,3,117,118,3,3,3,3,3,3,3,3,3,118,117,118,3,3,3,3,3,3,3,3,4,3,4,3,4,3,3,3,4,3,4,3,4,3,4,
0,0,0,0,0,0,0,0,0,0,0,0,4,3,4,3,4,3,4,3,3,119,3,3,3,3,3,3,3,3,3,4,3,119,3,3,4,3,4,3,4,3,4,3,4,3,4,3,4,3,4,3,4,3,4,3,4,3,
0,0,0,0,0,0,0,0,0,0,0,0,3,4,3,4,3,4,3,4,3,117,3,4,3,3,3,3,3,3,3,4,3,117,3,4,4,4,3,4,3,4,3,4,3,4,3,4,3,4,3,4,3,4,3,4,3,4,
0,0,0,0,0,0,0,0,0,0,0,0,4,3,4,3,4,3,4,3,3,119,3,4,3,3,3,3,3,3,3,3,3,117,118,3,3,3,3,3,3,3,4,3,4,3,4,3,245,239,239,239,239,239,239,239,239,239,
20,20,20,20,20,20,20,20,20,20,21,0,3,4,3,4,3,4,3,4,3,117,3,3,3,3,3,3,3,3,3,3,3,119,118,119,118,119,118,119,118,3,3,4,3,4,3,4,238,235,235,235,235,235,235,235,235,235,
256,256,256,256,256,256,256,256,256,259,23,0,4,3,4,3,4,3,4,3,3,119,3,4,3,3,4,3,3,4,4,3,3,118,3,3,3,3,3,3,3,3,4,3,4,3,4,3,248,241,241,241,241,241,241,241,241,241,
250,250,250,250,250,250,250,250,250,257,23,0,3,4,3,4,3,4,3,4,3,117,118,3,3,3,3,3,3,3,3,3,118,3,249,3,3,4,3,4,3,4,3,4,3,4,3,4,3,4,4,4,3,4,4,4,3,4,
250,250,250,250,250,250,250,250,250,257,23,0,4,3,4,3,4,3,4,3,3,119,118,119,118,119,118,119,118,119,118,119,118,3,3,3,4,3,4,3,4,3,4,3,4,3,4,3,4,3,4,3,4,3,4,3,4,3,
250,250,250,250,250,250,250,250,250,257,24,20,20,20,21,4,3,4,3,4,3,3,3,3,3,3,3,3,3,3,3,3,3,3,3,3,3,4,3,4,3,4,3,16,3,4,3,4,3,4,3,4,3,4,3,4,3,4,
250,250,250,250,250,250,250,250,250,252,256,256,256,259,23,3,4,3,4,3,4,3,4,3,4,3,4,3,4,3,4,3,4,3,4,3,4,3,4,3,4,3,3,16,4,3,4,3,4,3,4,3,4,3,4,3,4,3,
250,250,250,250,250,250,250,250,250,250,250,250,250,257,23,4,3,4,3,4,3,4,3,4,3,4,3,4,3,4,3,4,3,4,3,4,3,4,3,4,3,4,18,19,3,4,3,4,3,4,3,4,3,4,3,4,3,4,
250,250,250,250,250,250,250,250,250,250,250,250,250,257,23,3,4,3,4,3,4,3,4,3,4,3,4,3,4,3,4,3,4,3,4,3,4,3,14,3,4,16,4,3,4,3,4,3,4,3,4,3,4,3,4,3,4,3,
250,250,250,250,250,250,250,250,250,250,250,250,250,257,24,20,20,20,20,20,20,20,20,20,20,20,21,4,3,4,3,4,3,4,3,4,3,4,17,4,3,19,3,4,3,4,3,4,3,4,3,4,3,4,3,4,3,4,
250,250,250,250,250,250,250,250,250,250,250,250,250,252,256,256,256,256,256,256,256,256,256,256,256,259,23,4,4,4,4,4,4,4,4,3,4,3,4,3,4,3,4,3,4,3,4,3,4,3,4,3,4,3,4,3,4,3,
250,250,250,250,250,250,250,250,250,250,250,250,250,250,250,250,250,250,250,250,250,250,250,250,250,257,24,20,20,20,20,20,20,20,21,4,3,4,3,4,3,4,3,4,3,4,3,4,3,4,3,4,3,4,3,4,3,4,
250,250,250,250,250,250,250,250,250,250,250,250,250,250,250,250,250,250,250,250,250,250,250,250,250,252,256,256,256,256,256,256,256,259,23,3,4,3,4,3,4,3,4,3,4,3,4,3,4,3,4,3,4,3,4,3,4,3,
250,250,250,250,250,250,250,250,250,250,250,250,250,250,250,250,250,250,250,250,250,250,253,258,258,254,250,250,250,250,250,250,250,257,24,20,20,20,20,20,20,20,21,0,0,0,0,0,0,0,0,0,0,0,0,0,0,0,
250,250,250,250,250,250,250,250,250,250,250,250,250,250,250,250,250,250,250,250,250,250,257,22,22,260,254,250,250,250,250,250,250,252,256,256,256,256,256,256,256,259,23,0,0,0,0,0,0,0,0,0,0,0,0,0,0,0,
250,250,250,250,250,250,250,250,250,250,250,250,250,250,250,250,250,250,250,250,250,250,257,22,22,22,255,250,250,250,250,250,250,250,250,250,250,250,250,250,250,257,24,20,20,20,20,20,21,0,0,0,0,0,0,0,0,0,
250,250,250,250,250,250,250,250,250,250,250,250,250,250,250,250,250,250,250,250,250,250,252,256,256,256,251,250,250,250,250,250,250,250,250,250,250,250,250,250,250,252,256,256,256,256,256,259,23,0,0,0,0,0,0,0,0,0,
250,250,250,250,250,250,250,250,250,250,250,250,250,250,250,250,250,250,250,250,250,250,250,250,250,250,250,250,250,250,250,250,250,250,250,250,250,250,250,250,250,250,250,250,250,250,250,257,23,0,0,0,0,0,0,0,0,0,
250,250,250,250,250,250,250,250,250,250,250,250,250,250,250,250,250,250,250,250,250,250,250,250,250,250,250,250,250,250,250,250,250,250,250,250,250,250,250,250,250,250,250,250,250,250,250,257,23,0,0,0,0,0,0,0,0,0,
250,250,250,250,250,250,250,250,250,250,250,250,250,250,250,250,250,250,250,250,250,250,250,250,250,250,250,250,250,250,250,250,250,250,250,250,250,250,250,250,250,250,250,250,250,250,250,257,23,0,0,0,0,0,0,0,0,0,
250,250,250,250,250,250,250,250,250,250,250,250,250,250,250,250,250,250,250,250,250,250,250,250,250,250,250,250,250,250,250,250,250,250,250,250,250,250,250,250,250,250,250,250,250,250,250,257,23,0,0,0,0,0,0,0,0,0,
250,250,250,250,250,250,250,250,250,250,250,250,250,250,250,250,250,250,250,250,250,250,250,250,250,250,250,250,250,250,250,250,250,250,250,250,250,250,250,250,250,250,250,250,250,250,250,257,0,0,0,0,0,0,0,0,0,0,
250,250,250,250,250,250,250,250,250,250,250,250,250,250,250,250,250,250,250,250,250,250,250,250,250,250,250,250,250,250,250,250,250,250,250,250,250,250,250,250,250,250,250,250,250,250,250,257,0,0,0,0,0,0,0,0,0,0,
250,250,250,250,250,250,250,250,250,250,250,250,250,250,250,250,250,250,250,250,250,250,250,250,250,250,250,250,250,250,250,250,250,250,250,250,250,250,250,250,250,250,250,250,250,250,250,257,0,0,0,0,0,0,0,0,0,0,
250,250,250,250,250,250,250,250,250,250,250,250,250,250,250,250,250,250,250,250,250,250,250,250,250,250,250,250,250,250,250,250,250,250,250,250,250,250,250,250,250,250,250,250,250,250,250,252,256,256,256,259,0,0,0,0,0,0,
250,250,250,250,250,250,250,250,250,250,250,250,250,250,250,250,250,250,250,250,250,250,250,250,250,250,250,250,250,250,250,250,250,250,250,250,250,250,250,250,250,250,250,250,250,250,250,250,250,250,250,257,0,0,0,0,0,0,
250,250,250,250,250,250,250,250,250,250,250,250,250,250,250,250,250,250,250,250,250,250,250,250,250,250,250,250,250,250,250,250,250,250,250,250,250,250,250,250,250,250,250,250,250,250,250,250,250,250,250,257,0,0,0,0,0,0
  </data>
 </layer>
 <layer id="2" name="middle" width="58" height="54">
  <data encoding="csv">
28,29,28,29,28,29,28,29,28,29,28,29,28,29,28,29,28,29,28,29,28,29,28,29,28,29,28,29,28,29,28,29,28,29,28,29,28,29,28,29,28,29,28,29,28,29,28,29,14,15,15,15,15,15,15,15,15,15,
25,26,25,26,25,26,25,26,25,26,25,26,25,26,25,26,25,26,25,26,25,26,25,26,25,26,25,26,25,26,25,26,25,26,25,26,25,26,25,26,25,26,25,26,25,26,25,26,14,15,15,15,15,15,15,15,15,15,
28,29,28,29,28,29,28,29,28,29,28,29,28,29,28,29,28,29,28,29,28,29,28,29,28,29,28,29,28,29,28,29,28,29,28,29,28,29,28,29,28,29,28,29,28,29,28,30,14,15,15,15,15,15,15,15,15,15,
25,26,25,26,25,26,25,26,25,26,25,26,25,26,25,26,25,26,25,26,25,26,25,26,25,26,25,26,25,26,25,26,25,26,25,26,25,26,25,26,25,26,25,26,25,26,25,27,14,15,15,15,15,15,15,15,15,15,
28,29,28,29,28,29,28,29,28,29,28,29,28,29,28,29,28,29,28,29,28,29,28,29,28,29,28,29,28,29,28,29,28,29,28,29,28,29,28,29,28,29,28,29,28,29,28,30,14,15,15,15,15,15,15,15,15,15,
25,26,25,26,25,26,25,26,25,26,25,26,25,26,25,26,25,26,25,26,25,26,25,26,25,26,25,26,25,26,25,26,25,26,25,26,25,26,25,26,25,26,25,26,25,26,25,27,14,15,15,15,15,15,15,15,15,15,
28,29,28,29,28,29,28,29,28,29,28,29,28,29,28,29,28,29,28,29,28,29,28,29,28,29,28,29,28,29,28,29,28,29,28,29,28,29,28,29,28,29,28,29,28,29,28,30,14,15,15,15,15,15,15,15,15,15,
25,26,25,26,25,26,25,26,25,26,25,26,25,26,25,26,25,26,25,26,25,26,25,26,25,26,25,26,25,26,25,26,25,26,25,26,25,26,25,26,25,26,25,26,25,26,25,27,14,15,15,15,15,15,15,15,15,15,
28,29,28,29,28,29,28,29,28,29,28,29,28,29,28,29,28,29,28,29,28,29,28,29,28,29,28,29,28,29,28,29,28,29,28,29,28,29,28,29,28,29,28,29,28,29,28,30,14,15,15,15,15,15,15,15,15,15,
25,26,25,26,25,26,25,26,25,26,25,26,25,26,25,26,25,26,25,26,25,26,25,26,25,26,25,26,25,26,25,26,25,26,25,26,25,26,25,26,25,26,35,36,35,36,35,37,14,15,15,15,15,15,15,15,15,15,
28,29,28,29,28,29,28,29,28,29,28,29,28,29,28,29,28,29,28,29,28,29,28,29,28,29,28,29,28,29,28,29,28,29,28,29,28,29,28,29,28,30,44,45,44,45,44,45,14,15,15,15,15,15,15,15,15,15,
25,26,25,26,25,26,25,26,25,26,25,26,25,26,25,26,25,26,25,26,25,26,25,26,25,26,25,26,25,26,25,26,25,26,25,26,25,26,25,26,25,27,11,12,12,12,12,12,10,15,15,15,15,15,15,15,15,15,
28,29,28,29,28,29,28,29,28,29,28,29,28,29,28,29,28,29,28,29,28,29,28,29,28,29,28,29,28,29,28,29,28,29,28,29,28,29,28,29,28,30,14,15,15,15,15,15,15,15,15,15,15,15,15,15,15,15,
25,26,25,26,25,26,25,26,25,26,25,26,25,26,25,26,25,26,25,26,35,36,35,36,35,36,35,36,25,26,25,26,35,36,35,36,35,36,0,0,120,121,33,15,15,15,15,15,15,15,15,15,15,15,15,15,15,15,
28,29,28,29,28,29,28,29,28,29,28,29,28,29,28,29,28,29,28,30,44,45,44,45,44,45,44,81,28,29,28,30,44,45,44,45,0,0,122,123,124,125,17,18,9,15,15,15,15,15,15,15,15,15,15,15,15,15,
25,26,25,26,25,26,25,26,25,26,25,26,25,26,25,26,35,36,35,37,33,34,0,0,0,0,0,87,35,36,35,37,11,12,12,13,0,0,126,127,128,129,25,37,33,15,15,15,15,15,15,15,15,15,15,15,15,15,
28,29,28,29,28,29,28,29,28,29,28,29,28,29,28,30,44,45,44,45,40,41,88,0,0,0,0,99,44,45,44,45,14,15,15,16,0,0,130,131,132,133,28,29,17,18,18,18,18,18,18,18,18,18,18,18,18,18,
25,26,25,26,25,26,25,26,25,26,25,26,25,26,35,37,0,0,0,55,35,37,94,0,0,0,0,100,11,12,12,12,10,15,15,16,0,0,134,0,135,136,25,26,25,27,0,0,0,0,0,0,25,26,25,26,25,26,
28,29,28,29,28,29,28,29,28,29,28,29,28,30,137,45,140,141,0,56,44,45,0,0,0,0,102,103,14,15,8,18,18,18,18,19,0,0,0,0,0,102,28,29,28,30,0,0,0,0,0,0,28,29,28,29,28,29,
25,26,25,26,25,26,25,26,25,26,25,26,25,27,142,143,144,145,58,57,6,5,7,108,109,110,6,5,14,15,16,177,178,179,180,181,0,108,109,109,109,110,35,36,35,37,0,1,0,0,0,0,25,26,25,26,25,26,
28,29,28,29,28,29,28,29,28,29,28,29,28,30,147,148,149,150,151,0,0,0,0,114,0,115,0,0,17,18,19,182,183,184,185,186,100,114,0,0,0,115,44,45,44,45,0,0,0,0,0,0,28,29,28,29,28,29,
25,26,25,26,25,26,25,26,25,26,25,26,25,27,152,153,154,155,156,0,0,0,0,114,0,115,1,0,0,0,0,187,188,0,189,190,100,114,0,0,0,115,0,0,0,0,0,0,0,0,0,0,25,26,25,26,25,26,
28,29,28,29,28,29,28,29,28,29,28,29,28,30,157,158,159,160,161,0,108,109,109,106,0,107,109,109,109,109,109,109,109,109,109,109,109,106,0,0,54,115,0,0,0,0,0,0,0,0,0,0,28,29,28,29,28,29,
25,26,25,26,25,26,25,26,25,26,25,26,25,27,33,163,164,165,166,0,114,0,0,0,0,0,0,0,0,0,0,0,0,0,0,0,0,59,60,61,62,115,33,34,33,34,0,0,0,0,0,0,35,36,25,26,25,26,
28,29,28,29,28,29,28,29,28,29,28,29,28,29,167,168,169,170,171,0,114,0,104,112,112,112,112,112,112,112,112,112,105,0,104,112,112,63,64,65,66,113,0,0,0,0,6,5,7,0,6,7,44,45,28,29,28,29,
25,26,25,26,25,26,25,26,25,26,25,26,25,26,25,26,25,26,25,27,114,0,115,0,0,0,0,0,0,0,0,0,114,0,115,0,0,67,68,69,70,99,25,26,25,27,33,34,0,0,0,0,0,0,35,36,35,36,
28,29,28,29,28,29,28,29,28,29,28,29,28,29,28,29,28,29,28,30,114,0,115,0,0,0,0,0,0,0,0,0,114,0,115,0,1,71,0,72,73,100,28,29,28,29,40,41,0,0,0,0,0,0,44,45,44,45,
35,36,35,36,35,36,35,36,35,36,25,26,25,26,25,26,25,26,25,27,114,0,115,0,0,0,0,0,0,0,0,0,114,0,107,109,109,109,109,109,109,110,25,26,25,26,25,27,0,0,0,0,0,0,0,0,0,0,
44,45,44,45,44,45,44,45,44,45,28,29,28,29,28,29,28,29,28,30,114,0,115,0,0,0,0,0,0,0,0,0,114,0,0,0,0,0,0,0,0,115,28,29,28,29,28,30,0,0,0,0,0,0,0,0,0,0,
0,0,0,0,0,0,0,0,0,0,25,26,25,26,25,26,25,26,25,27,114,0,115,0,0,0,0,0,0,0,0,0,114,104,112,112,112,112,112,112,112,113,35,36,25,26,25,27,33,34,33,34,33,34,33,34,33,34,
0,0,0,0,0,0,0,0,0,0,28,29,28,29,28,29,28,29,28,30,114,0,107,109,109,109,109,109,109,109,109,109,106,115,40,41,40,41,0,0,0,0,44,45,28,29,28,29,40,41,40,41,40,41,40,41,40,41,
0,0,0,0,0,0,0,0,0,0,35,36,35,36,25,26,25,26,25,27,114,34,0,0,0,0,33,34,33,34,33,34,33,115,25,26,25,27,0,0,11,12,12,13,25,26,25,26,25,26,25,26,25,26,25,26,25,26,
0,0,0,0,0,0,0,0,0,0,44,45,44,45,28,29,28,29,28,29,111,112,112,112,112,112,112,112,112,112,112,112,112,113,28,29,28,30,11,12,10,15,15,16,28,29,28,29,28,29,28,29,28,29,28,29,28,29,
0,0,0,0,0,0,0,0,0,0,0,0,0,0,25,26,25,26,25,26,25,27,0,0,0,0,25,26,25,26,25,26,25,26,25,26,25,27,14,15,15,15,15,0,25,26,25,26,25,26,25,26,25,26,25,26,25,26,
0,0,0,0,0,0,0,0,0,0,0,0,0,0,28,29,28,29,28,29,28,30,0,0,0,0,28,29,28,29,28,29,28,29,28,29,28,30,14,15,15,8,0,0,28,29,28,29,28,29,28,29,28,29,28,29,28,29,
0,0,0,0,0,0,0,0,0,0,0,0,0,0,35,36,35,36,35,36,35,37,0,0,0,0,25,26,25,26,25,26,25,26,25,26,25,27,0,15,15,34,25,26,25,26,25,26,25,26,25,26,25,26,25,26,25,26,
0,0,0,0,0,0,0,0,0,0,0,0,0,0,44,45,44,45,44,45,44,45,0,0,0,0,28,29,28,29,28,29,28,29,28,29,28,29,0,18,18,0,28,29,28,29,28,29,28,29,28,29,28,29,28,29,28,29,
0,0,0,0,0,0,0,0,0,0,0,0,0,0,46,47,0,0,0,0,0,0,0,0,0,0,35,36,35,36,35,36,35,36,25,26,25,26,25,26,25,26,25,26,25,26,25,26,25,26,25,26,25,26,25,26,25,26,
0,0,0,0,0,0,0,0,0,0,0,0,0,0,48,49,0,0,0,0,0,0,0,0,0,0,44,45,44,45,44,45,44,45,28,29,28,29,28,29,28,29,28,29,28,29,28,29,28,29,28,29,28,29,28,29,28,29,
0,0,0,0,0,0,0,0,0,0,0,0,0,0,0,50,51,46,47,0,0,0,0,0,0,0,0,0,0,0,0,0,0,0,35,36,35,36,35,36,35,36,25,26,25,26,25,26,25,26,25,26,25,26,25,26,25,26,
0,0,0,0,0,0,0,0,0,0,0,0,0,0,0,52,53,48,49,0,0,0,0,0,0,0,0,0,0,0,0,0,0,0,44,45,44,45,44,45,44,45,28,29,28,29,28,29,28,29,28,29,28,29,28,29,28,29,
0,0,0,0,0,0,0,0,0,0,0,0,0,0,0,0,0,0,50,51,0,0,0,0,0,0,0,0,0,0,0,0,0,50,51,0,0,0,0,0,0,0,35,36,35,36,35,36,25,26,25,26,25,26,25,26,25,26,
0,0,0,0,0,0,0,0,0,0,0,0,0,0,0,0,0,0,52,53,0,0,0,0,0,0,0,0,0,0,0,0,0,52,53,0,0,0,0,0,0,0,44,45,44,45,44,45,28,29,28,29,28,29,28,29,28,29,
0,0,0,0,0,0,0,0,0,0,0,0,0,0,0,0,0,0,0,0,46,47,0,0,0,0,0,0,0,0,0,0,46,47,0,0,0,0,0,0,0,0,0,0,0,0,0,0,25,26,25,26,25,26,25,26,25,26,
0,0,0,0,0,0,0,0,0,0,0,0,0,0,0,0,0,0,0,0,48,49,0,0,0,0,0,0,0,0,46,47,48,49,0,0,0,0,0,0,0,0,0,0,0,0,0,0,28,29,28,29,28,29,28,29,28,29,
0,0,0,0,0,0,0,0,0,0,0,0,0,0,0,0,0,0,0,0,50,51,46,47,0,0,50,51,0,0,48,49,0,0,0,0,0,0,0,0,0,0,0,0,0,0,0,0,25,26,25,26,25,26,25,26,25,26,
0,0,0,0,0,0,0,0,0,0,0,0,0,0,0,0,0,0,0,0,52,53,48,49,50,51,52,53,46,47,50,51,0,0,0,0,0,0,0,0,0,0,0,0,0,0,0,0,28,29,28,29,28,29,28,29,28,29,
0,0,0,0,0,0,0,0,0,0,0,0,0,0,0,0,0,0,0,0,0,0,0,0,52,53,0,0,48,49,52,53,0,0,0,0,0,0,0,0,0,0,0,0,0,0,0,0,25,26,25,26,25,26,25,26,25,26,
0,0,0,0,0,0,0,0,0,0,0,0,0,0,0,0,0,0,0,0,0,0,0,0,0,0,0,0,0,0,0,0,0,0,0,0,0,0,0,0,0,0,0,0,0,0,0,0,28,29,28,29,28,29,28,29,28,29,
0,0,0,0,0,0,0,0,0,0,0,0,0,0,0,0,0,0,0,0,0,0,0,0,0,0,0,0,0,0,0,0,0,0,0,0,0,0,0,0,0,0,0,0,0,0,0,0,35,36,35,36,25,26,25,26,25,26,
0,0,0,0,0,0,0,0,0,0,0,0,0,0,0,0,0,0,0,0,0,0,0,0,0,0,0,0,0,0,0,0,0,0,0,0,0,0,0,0,0,0,0,0,0,0,0,0,42,43,42,43,28,29,28,29,28,29,
0,0,0,0,0,0,0,0,0,0,0,0,0,0,0,0,0,0,0,0,0,0,0,0,0,0,0,0,0,0,0,0,0,0,0,0,0,0,0,0,0,0,0,0,0,0,0,0,0,0,0,0,25,26,25,26,25,26,
0,0,0,0,0,0,0,0,0,0,0,0,0,0,0,0,0,0,0,0,0,0,0,0,0,0,0,0,0,0,0,0,0,0,0,0,0,0,0,0,0,0,0,0,0,0,0,0,0,0,0,0,28,29,28,29,28,29,
0,0,0,0,0,0,0,0,0,0,0,0,0,0,0,0,0,0,0,0,0,0,0,0,0,0,0,0,0,0,0,0,0,0,0,0,0,0,0,0,0,0,0,0,0,0,0,0,0,0,0,0,25,26,25,26,25,26
  </data>
 </layer>
 <layer id="3" name="upper" width="58" height="54">
  <data encoding="csv">
0,0,0,0,0,0,0,0,0,0,0,0,0,0,0,0,0,0,0,0,0,0,0,0,0,0,0,0,0,0,0,0,0,0,0,0,0,0,0,0,0,0,0,0,0,0,0,0,0,0,0,0,0,0,0,0,0,0,
0,0,0,0,0,0,0,0,0,0,0,0,0,0,0,0,0,0,0,0,0,0,0,0,0,0,0,0,0,0,0,0,0,0,0,0,0,0,0,0,0,0,0,0,0,0,0,0,0,0,0,0,0,0,0,0,0,0,
0,0,0,0,0,0,0,0,0,0,0,0,0,0,0,0,0,0,0,0,0,0,0,0,0,0,0,0,0,0,0,0,0,0,0,0,0,0,0,0,0,0,0,0,0,0,0,0,31,0,0,0,0,0,0,0,0,0,
0,0,0,0,0,0,0,0,0,0,0,0,0,0,0,0,0,0,0,0,0,0,0,0,0,0,0,0,0,0,0,0,0,0,0,0,0,0,0,0,0,0,0,0,0,0,0,0,38,0,0,0,0,0,0,0,0,0,
0,0,0,0,0,0,0,0,0,0,0,0,0,0,0,0,0,0,0,0,0,0,0,0,0,0,0,0,0,0,0,0,0,0,0,0,0,0,0,0,0,0,0,0,0,0,0,0,31,0,0,0,0,0,0,0,0,0,
0,0,0,0,0,0,0,0,0,0,0,0,0,0,0,0,0,0,0,0,0,0,0,0,0,0,0,0,0,0,0,0,0,0,0,0,0,0,0,0,0,0,0,0,0,0,0,0,38,0,0,0,0,0,0,0,0,0,
0,0,0,0,0,0,0,0,0,0,0,0,0,0,0,0,0,0,0,0,0,0,0,0,0,0,0,0,0,0,0,0,0,0,0,0,0,0,0,0,0,0,0,0,0,0,0,0,31,0,0,0,0,0,0,0,0,0,
0,0,0,0,0,0,0,0,0,0,0,0,0,0,0,0,0,0,0,0,0,0,0,0,0,0,0,0,0,0,0,0,0,0,0,0,0,0,0,0,0,0,0,0,0,0,0,0,38,0,0,0,0,0,0,0,0,0,
0,0,0,0,0,0,0,0,0,0,0,0,0,0,0,0,0,0,0,0,0,0,0,0,0,0,0,0,0,0,0,0,0,0,0,0,0,0,0,0,0,0,0,0,0,0,0,0,31,0,0,0,0,0,0,0,0,0,
0,0,0,0,0,0,0,0,0,0,0,0,0,0,0,0,0,0,0,0,0,0,0,0,0,0,0,0,0,0,0,0,0,0,0,0,0,0,0,0,0,0,0,0,0,0,0,0,38,0,0,0,0,0,0,0,0,0,
0,0,0,0,0,0,0,0,0,0,0,0,0,0,0,0,0,0,0,0,0,0,0,0,0,0,0,0,0,0,0,0,0,0,0,0,0,0,0,0,0,0,31,0,0,0,0,0,0,0,0,0,0,0,0,0,0,0,
0,0,0,0,0,0,0,0,0,0,0,0,0,0,0,0,0,0,0,0,0,0,0,0,0,0,0,0,0,0,0,0,0,0,0,0,0,0,0,0,0,0,38,0,0,0,0,0,0,0,0,0,0,0,0,0,0,0,
0,0,0,0,0,0,0,0,0,0,0,0,0,0,0,0,0,0,0,0,0,0,0,0,0,0,0,0,0,0,0,0,0,0,0,0,0,0,0,0,0,0,31,0,0,0,0,0,0,0,0,0,0,0,0,0,0,0,
0,0,0,0,0,0,0,0,0,0,0,0,0,0,0,0,0,0,0,0,0,0,0,0,74,75,0,0,0,0,0,0,0,0,0,0,0,0,0,0,0,0,38,34,0,0,0,0,0,0,0,0,0,0,0,0,0,0,
0,0,0,0,0,0,0,0,0,0,0,0,0,0,0,0,0,0,0,0,31,0,76,77,78,79,80,32,0,0,0,0,31,0,0,0,0,0,0,0,0,0,40,41,31,0,0,0,0,0,0,0,0,0,0,0,0,0,
0,0,0,0,0,0,0,0,0,0,0,0,0,0,0,0,0,0,0,0,38,0,82,83,84,85,86,39,0,0,0,0,38,0,0,0,0,0,0,0,0,0,0,0,38,34,0,0,0,0,0,0,33,34,33,34,33,34,
0,0,0,0,0,0,0,0,0,0,0,0,0,0,0,0,31,0,0,32,0,0,31,89,90,91,92,93,0,0,0,0,0,0,0,0,0,0,0,0,0,32,0,0,40,41,31,0,0,0,0,32,40,41,40,41,40,41,
0,0,0,0,0,0,0,0,0,0,0,0,0,0,0,0,38,0,0,39,0,0,38,95,0,96,97,98,0,0,0,0,0,0,0,0,0,0,0,0,0,39,0,0,0,0,38,0,0,225,0,39,0,0,0,0,0,0,
0,0,0,0,0,0,0,0,0,0,0,0,0,0,0,138,139,140,141,0,0,0,0,101,102,102,0,0,0,0,0,172,173,174,175,176,0,0,101,102,102,32,0,0,0,0,31,0,226,227,228,32,0,0,0,0,0,0,
0,0,0,0,0,0,0,0,0,0,0,0,0,0,0,0,0,0,146,0,0,0,0,0,0,0,0,0,0,0,0,0,0,0,0,0,0,0,0,0,0,39,0,0,0,0,38,0,229,230,231,39,0,0,0,0,0,0,
0,0,0,0,0,0,0,0,0,0,0,0,0,0,0,0,0,0,0,0,0,0,0,0,0,0,0,0,0,0,0,0,0,0,0,0,0,0,0,0,0,0,0,0,0,0,0,0,232,233,234,32,0,0,0,0,0,0,
0,0,0,0,0,0,0,0,0,0,0,0,0,0,0,0,0,0,0,0,0,0,0,0,0,0,0,0,0,0,0,0,0,0,0,0,2,0,0,0,0,0,0,0,0,0,0,0,0,0,0,39,0,0,0,0,0,0,
0,0,0,0,0,0,0,0,0,0,0,0,0,0,31,0,0,0,0,0,0,0,0,0,0,0,0,0,0,0,0,101,102,102,102,102,103,0,0,0,0,0,0,0,0,0,0,0,0,0,0,32,0,0,0,0,0,0,
0,0,0,0,0,0,0,0,0,0,0,0,0,0,38,34,33,34,33,34,0,0,0,0,0,0,0,0,0,0,0,0,0,0,0,0,0,0,0,0,0,0,0,0,0,0,0,0,0,0,0,39,0,0,0,0,0,0,
0,0,0,0,0,0,0,0,0,0,0,0,0,0,40,41,40,41,40,41,31,0,0,0,191,192,193,194,195,196,197,0,0,0,0,0,0,0,0,0,0,32,40,41,40,41,31,0,0,0,0,0,0,32,0,0,0,0,
0,0,0,0,0,0,0,0,0,0,0,0,0,0,0,0,0,0,0,0,38,0,0,0,198,199,200,201,202,203,204,0,0,0,0,0,0,0,0,0,0,39,0,0,0,0,38,0,0,0,0,0,0,39,0,0,0,0,
0,0,0,0,0,0,0,0,0,0,0,0,0,0,0,0,0,0,0,0,31,0,0,0,205,206,207,208,209,210,211,0,0,0,0,0,0,0,0,0,0,32,0,0,0,0,0,0,31,0,0,0,0,0,0,0,0,0,
0,0,0,0,0,0,0,0,0,0,0,0,0,0,0,0,0,0,0,0,38,0,0,0,212,213,214,215,216,217,218,0,0,0,0,0,0,101,102,102,102,103,0,0,0,0,0,0,38,0,0,0,0,0,0,0,0,0,
0,0,0,0,0,0,0,0,0,32,0,0,0,0,0,0,0,0,0,0,31,0,0,0,219,220,221,0,222,223,224,0,0,0,0,0,0,0,0,0,0,32,0,0,0,0,0,0,31,0,0,0,0,0,0,0,0,0,
0,0,0,0,0,0,0,0,0,39,0,0,0,0,0,0,0,0,0,0,38,0,0,0,0,0,0,0,0,0,0,0,0,0,33,34,33,34,0,0,0,39,0,0,0,0,0,0,38,0,0,0,0,0,0,0,0,0,
0,0,0,0,0,0,0,0,0,32,0,0,0,0,0,0,0,0,0,0,31,0,0,0,0,0,0,0,0,0,0,0,0,32,0,0,0,0,31,0,0,0,0,32,0,0,0,0,0,0,0,0,0,0,0,0,0,0,
0,0,0,0,0,0,0,0,0,39,0,0,0,0,0,0,0,0,0,0,38,34,0,0,0,0,33,34,33,34,33,34,33,39,0,0,0,0,38,0,0,0,0,39,0,0,0,0,0,0,0,0,0,0,0,0,0,0,
0,0,0,0,0,0,0,0,0,0,0,0,0,32,0,0,0,0,0,0,40,41,31,0,0,32,40,41,40,41,40,41,40,41,0,0,0,0,31,0,0,0,0,32,0,0,0,0,0,0,0,0,0,0,0,0,0,0,
0,0,0,0,0,0,0,0,0,0,0,0,0,39,0,0,0,0,0,0,0,0,38,0,0,39,0,0,0,0,0,0,0,0,0,0,0,0,38,0,0,0,33,39,0,0,0,0,0,0,0,0,0,0,0,0,0,0,
0,0,0,0,0,0,0,0,0,0,0,0,0,32,0,0,0,0,0,0,0,0,31,0,0,32,0,0,0,0,0,0,0,0,0,0,0,0,31,0,0,32,40,41,0,0,0,0,0,0,0,0,0,0,0,0,0,0,
0,0,0,0,0,0,0,0,0,0,0,0,0,39,0,0,0,0,0,0,0,0,38,0,0,39,0,0,0,0,0,0,0,0,0,0,0,0,38,34,33,39,0,0,0,0,0,0,0,0,0,0,0,0,0,0,0,0,
0,0,0,0,0,0,0,0,0,0,0,0,0,0,0,0,0,0,0,0,0,0,0,0,0,32,0,0,0,0,0,0,0,0,0,0,0,0,40,41,40,41,0,0,0,0,0,0,0,0,0,0,0,0,0,0,0,0,
0,0,0,0,0,0,0,0,0,0,0,0,0,0,0,0,0,0,0,0,0,0,0,0,0,39,0,0,0,0,0,0,0,0,0,0,0,0,0,0,0,0,0,0,0,0,0,0,0,0,0,0,0,0,0,0,0,0,
0,0,0,0,0,0,0,0,0,0,0,0,0,0,0,0,0,0,0,0,0,0,0,0,0,0,0,0,0,0,0,0,0,32,0,0,0,0,0,0,0,0,0,0,0,0,0,0,0,0,0,0,0,0,0,0,0,0,
0,0,0,0,0,0,0,0,0,0,0,0,0,0,0,0,0,0,0,0,0,0,0,0,0,0,0,0,0,0,0,0,0,39,0,0,0,0,0,0,0,0,0,0,0,0,0,0,0,0,0,0,0,0,0,0,0,0,
0,0,0,0,0,0,0,0,0,0,0,0,0,0,0,0,0,0,0,0,0,0,0,0,0,0,0,0,0,0,0,0,0,0,0,0,0,0,0,0,0,32,0,0,0,0,0,0,0,0,0,0,0,0,0,0,0,0,
0,0,0,0,0,0,0,0,0,0,0,0,0,0,0,0,0,0,0,0,0,0,0,0,0,0,0,0,0,0,0,0,0,0,0,0,0,0,0,0,0,39,0,0,0,0,0,0,0,0,0,0,0,0,0,0,0,0,
0,0,0,0,0,0,0,0,0,0,0,0,0,0,0,0,0,0,0,0,0,0,0,0,0,0,0,0,0,0,0,0,0,0,0,0,0,0,0,0,0,0,0,0,0,0,0,32,0,0,0,0,0,0,0,0,0,0,
0,0,0,0,0,0,0,0,0,0,0,0,0,0,0,0,0,0,0,0,0,0,0,0,0,0,0,0,0,0,0,0,0,0,0,0,0,0,0,0,0,0,0,0,0,0,0,39,0,0,0,0,0,0,0,0,0,0,
0,0,0,0,0,0,0,0,0,0,0,0,0,0,0,0,0,0,0,0,0,0,0,0,0,0,0,0,0,0,0,0,0,0,0,0,0,0,0,0,0,0,0,0,0,0,0,32,0,0,0,0,0,0,0,0,0,0,
0,0,0,0,0,0,0,0,0,0,0,0,0,0,0,0,0,0,0,0,0,0,0,0,0,0,0,0,0,0,0,0,0,0,0,0,0,0,0,0,0,0,0,0,0,0,0,39,0,0,0,0,0,0,0,0,0,0,
0,0,0,0,0,0,0,0,0,0,0,0,0,0,0,0,0,0,0,0,0,0,0,0,0,0,0,0,0,0,0,0,0,0,0,0,0,0,0,0,0,0,0,0,0,0,0,32,0,0,0,0,0,0,0,0,0,0,
0,0,0,0,0,0,0,0,0,0,0,0,0,0,0,0,0,0,0,0,0,0,0,0,0,0,0,0,0,0,0,0,0,0,0,0,0,0,0,0,0,0,0,0,0,0,0,39,0,0,0,0,0,0,0,0,0,0,
0,0,0,0,0,0,0,0,0,0,0,0,0,0,0,0,0,0,0,0,0,0,0,0,0,0,0,0,0,0,0,0,0,0,0,0,0,0,0,0,0,0,0,0,0,0,0,32,0,0,0,0,0,0,0,0,0,0,
0,0,0,0,0,0,0,0,0,0,0,0,0,0,0,0,0,0,0,0,0,0,0,0,0,0,0,0,0,0,0,0,0,0,0,0,0,0,0,0,0,0,0,0,0,0,0,39,0,0,0,0,0,0,0,0,0,0,
0,0,0,0,0,0,0,0,0,0,0,0,0,0,0,0,0,0,0,0,0,0,0,0,0,0,0,0,0,0,0,0,0,0,0,0,0,0,0,0,0,0,0,0,0,0,0,0,0,0,0,32,0,0,0,0,0,0,
0,0,0,0,0,0,0,0,0,0,0,0,0,0,0,0,0,0,0,0,0,0,0,0,0,0,0,0,0,0,0,0,0,0,0,0,0,0,0,0,0,0,0,0,0,0,0,0,0,0,0,39,0,0,0,0,0,0,
0,0,0,0,0,0,0,0,0,0,0,0,0,0,0,0,0,0,0,0,0,0,0,0,0,0,0,0,0,0,0,0,0,0,0,0,0,0,0,0,0,0,0,0,0,0,0,0,0,0,0,32,0,0,0,0,0,0,
0,0,0,0,0,0,0,0,0,0,0,0,0,0,0,0,0,0,0,0,0,0,0,0,0,0,0,0,0,0,0,0,0,0,0,0,0,0,0,0,0,0,0,0,0,0,0,0,0,0,0,39,0,0,0,0,0,0
  </data>
 </layer>
 <objectgroup id="4" name="events"/>
</map>
