<?xml version="1.0" encoding="UTF-8"?>
<map version="1.10" tiledversion="1.10.2" orientation="orthogonal" renderorder="right-down" compressionlevel="0" width="64" height="47" tilewidth="32" tileheight="32" infinite="0" nextlayerid="8" nextobjectid="1">
 <tileset firstgid="1" source="goldenrod-city.tsx"/>
 <layer id="1" name="lower" width="64" height="47">
  <data encoding="csv">
470,470,470,470,470,470,470,470,470,470,470,470,470,474,4,4,4,4,4,4,4,4,4,4,4,4,4,4,4,4,465,464,464,466,4,4,4,4,4,4,4,4,4,4,4,4,4,4,4,4,4,4,4,4,4,4,4,4,0,0,0,0,0,0,
470,470,470,470,470,470,470,470,470,470,470,470,470,474,4,4,4,4,4,4,4,4,4,4,4,4,4,4,4,4,469,467,467,468,4,4,4,4,4,4,4,4,4,4,4,4,4,4,4,4,4,4,4,4,4,4,4,4,0,0,0,0,0,0,
470,470,470,470,470,470,470,470,470,470,470,470,470,471,473,473,473,473,473,479,78,78,78,78,78,78,78,78,78,78,86,87,87,88,78,78,78,78,78,78,78,78,78,78,78,78,78,78,78,78,78,78,78,12,12,12,12,12,12,12,12,12,12,12,
470,470,470,470,470,470,470,470,470,470,470,470,470,470,470,470,470,472,477,480,83,84,85,83,84,85,83,84,85,83,89,90,90,91,85,83,84,85,83,84,85,83,84,85,83,84,85,83,84,85,83,78,78,0,0,0,0,0,0,0,0,0,0,0,
470,470,470,470,470,470,470,470,470,470,470,470,470,470,470,470,470,474,78,79,77,78,79,77,78,79,77,78,79,77,89,90,90,91,79,77,78,79,77,78,79,77,78,79,77,78,79,77,78,79,77,78,79,0,0,0,0,0,0,0,0,0,0,0,
470,470,470,470,470,470,470,470,470,470,470,470,470,470,470,470,470,474,81,82,80,81,82,80,81,82,80,81,82,80,89,90,90,91,82,80,81,82,80,81,82,80,81,82,80,81,82,80,81,82,80,78,79,0,0,0,0,0,0,0,0,0,0,0,
470,470,470,470,470,470,470,470,470,470,470,470,470,470,470,470,472,480,84,85,83,84,85,83,84,85,83,84,85,83,89,90,90,91,85,83,84,85,83,84,85,83,84,85,83,84,85,83,84,85,81,78,79,0,0,0,0,0,0,0,0,0,0,0,
470,470,470,470,470,470,470,470,470,470,470,470,470,470,470,472,480,81,78,79,77,78,79,77,78,79,77,78,79,77,89,90,90,91,79,77,78,79,77,78,79,77,78,79,77,78,79,77,78,79,84,78,79,0,0,0,0,0,0,0,0,0,0,0,
470,470,470,470,470,470,470,470,470,470,470,470,470,470,470,474,79,84,81,82,80,86,87,87,87,87,87,87,87,87,99,90,90,91,82,80,81,82,80,81,82,80,86,87,87,88,82,80,81,82,78,78,79,0,0,0,0,0,0,0,0,0,0,0,
470,470,470,470,470,470,470,470,470,470,470,470,470,470,470,474,79,84,84,85,83,89,90,90,90,90,90,90,90,90,90,90,90,91,85,83,84,85,83,84,85,83,89,90,90,91,85,83,84,85,81,78,79,0,0,0,0,0,0,0,0,0,0,0,
470,470,470,470,470,470,470,470,470,470,470,470,470,470,470,474,79,84,78,79,77,92,93,93,93,93,93,93,93,93,95,90,90,97,87,87,87,87,87,87,87,87,99,90,90,91,79,77,0,79,77,78,79,0,0,0,0,0,0,0,0,0,0,0,
470,470,470,470,470,470,470,470,470,470,470,470,470,470,470,474,79,84,81,82,80,81,82,80,81,82,80,81,82,80,89,90,90,90,90,90,90,90,90,90,90,90,90,90,90,91,82,80,81,82,80,78,79,0,0,0,0,0,0,0,0,0,0,0,
470,470,470,470,470,470,470,470,470,470,470,470,470,470,470,474,79,84,84,85,83,84,85,83,84,85,83,84,85,83,89,90,90,96,93,93,93,93,93,93,93,93,93,93,93,94,85,83,84,85,83,78,79,0,0,0,0,0,0,0,0,0,0,0,
470,470,470,470,470,470,470,470,470,470,470,470,470,470,470,474,79,84,78,79,77,78,79,77,78,79,77,78,79,77,89,90,90,91,79,77,78,79,77,78,79,77,78,79,77,78,79,77,78,79,77,78,79,0,0,0,0,0,0,0,0,0,0,0,
470,470,470,470,470,470,470,470,470,470,470,470,470,470,470,474,79,84,81,82,80,81,82,80,81,82,80,81,82,80,89,90,90,91,82,80,81,82,80,81,82,80,81,82,80,81,82,80,81,82,80,78,79,0,0,0,0,0,0,0,0,0,0,0,
470,470,470,470,470,470,470,470,470,470,470,470,470,470,470,474,79,84,84,85,83,84,85,83,84,85,83,84,85,83,89,90,90,91,85,83,84,85,83,84,85,83,84,85,83,84,85,83,84,85,83,78,79,0,0,0,0,0,0,0,0,0,0,0,
470,470,470,470,470,470,470,470,470,470,470,470,470,470,470,474,79,84,78,79,77,78,79,77,78,79,77,78,79,77,89,90,90,91,79,77,78,79,77,78,79,77,78,79,77,78,79,77,78,79,77,78,79,0,0,0,0,0,0,0,0,0,0,0,
470,470,470,470,472,477,477,477,477,477,477,477,477,477,477,480,79,84,81,82,80,81,82,80,81,82,80,81,82,80,89,90,90,91,82,80,81,82,80,81,82,80,81,82,80,81,82,80,81,82,80,78,79,0,0,0,0,0,0,0,0,0,0,0,
470,470,470,470,474,17,18,18,18,18,18,18,18,18,18,18,19,84,84,86,87,87,87,87,87,87,87,87,87,87,99,90,90,91,85,83,84,85,83,84,85,83,84,85,83,84,85,83,84,85,83,78,79,0,0,0,0,0,0,0,0,0,0,0,
470,470,470,470,474,20,21,21,21,21,21,21,21,21,21,21,22,77,84,89,90,90,90,90,90,90,90,90,90,90,90,90,90,91,79,77,78,79,77,78,79,77,78,79,77,78,79,77,78,79,77,78,79,0,0,0,0,0,0,0,0,0,0,0,
470,470,470,470,474,20,21,26,24,27,21,21,26,24,27,21,22,80,84,92,93,93,93,93,93,93,93,93,93,93,95,90,90,97,87,87,87,87,87,88,82,80,81,82,80,81,82,80,81,82,80,78,79,0,0,0,0,0,0,0,0,0,0,0,
470,470,470,470,474,20,21,28,18,29,21,21,28,18,29,21,22,83,84,85,83,84,85,83,84,85,83,84,85,83,89,90,90,90,90,90,90,90,90,91,85,83,84,85,83,84,85,83,84,85,83,78,79,0,0,0,0,0,0,0,0,0,0,0,
470,470,470,470,474,20,21,21,21,21,21,21,21,21,21,21,22,77,78,79,77,78,79,77,78,79,77,78,79,77,89,90,90,96,93,93,93,93,93,94,79,77,78,79,77,78,79,77,78,79,77,78,79,0,0,0,0,0,0,0,0,0,0,0,
470,470,470,470,474,23,24,24,24,24,24,24,24,24,24,24,25,80,81,82,80,81,82,80,81,82,80,81,82,80,89,90,90,91,82,80,81,82,80,81,82,80,81,82,80,81,82,80,81,82,80,78,79,0,0,0,0,0,0,0,0,0,0,0,
470,470,470,470,471,473,473,473,473,473,473,473,26,27,473,473,473,479,84,85,83,84,85,83,84,85,83,84,85,83,89,90,90,91,85,83,84,85,83,84,85,83,84,85,83,84,85,83,84,85,83,78,79,0,0,0,0,0,0,0,0,0,0,0,
470,470,470,470,470,470,470,470,470,470,470,470,470,470,470,470,470,474,78,79,77,78,79,77,78,79,77,78,79,77,89,90,90,91,79,77,78,79,77,78,79,77,78,79,77,78,79,77,78,79,77,78,79,0,0,0,0,0,0,0,0,0,0,0,
470,470,470,470,470,470,470,470,470,470,470,470,470,472,477,477,477,480,81,82,80,81,82,80,81,82,80,81,82,80,89,90,90,91,82,80,81,82,80,81,82,80,81,82,80,81,82,80,81,82,80,78,79,0,0,0,0,0,0,0,0,0,0,0,
470,470,470,470,470,470,470,470,470,470,470,470,470,474,79,79,79,79,84,85,83,84,85,83,84,85,83,84,85,83,89,90,90,91,85,83,84,85,83,84,85,83,84,85,83,84,85,83,84,85,83,78,79,0,0,0,0,0,0,0,0,0,0,0,
470,470,470,470,470,470,470,470,470,470,470,470,470,474,77,78,79,77,78,79,77,78,79,77,78,79,77,78,79,77,89,90,90,91,79,77,78,79,77,78,79,77,78,79,77,78,79,77,78,79,77,78,79,0,0,0,0,0,0,0,0,0,0,0,
470,470,470,470,470,470,470,470,472,477,477,477,477,475,80,81,82,80,81,82,80,81,82,80,81,82,80,81,82,80,89,90,90,91,82,80,81,82,80,81,82,80,81,82,80,81,82,80,81,82,80,78,79,0,0,0,0,0,0,0,0,0,0,0,
470,470,470,470,470,470,470,470,474,12,12,12,12,478,83,84,85,83,84,85,83,84,85,83,84,85,83,84,85,83,89,90,90,91,85,83,84,85,83,84,85,83,84,85,83,84,85,83,84,85,83,78,79,0,0,0,0,0,0,0,0,0,0,0,
470,470,470,470,470,470,470,470,474,12,12,12,12,478,77,78,79,77,78,79,77,78,79,77,86,87,87,87,87,87,99,90,90,97,87,87,87,87,87,87,87,88,78,79,77,78,79,77,78,79,77,78,79,0,0,0,0,0,0,0,0,0,0,0,
470,470,470,470,470,470,470,470,471,473,479,12,12,478,80,81,82,80,81,82,80,81,82,80,89,90,90,90,90,90,90,90,90,90,90,90,90,90,90,90,90,91,81,82,80,81,82,80,81,82,80,78,79,0,0,0,0,0,0,0,0,0,0,0,
470,470,470,470,470,470,470,470,470,470,471,473,473,476,83,84,85,83,84,85,83,84,85,83,92,93,93,93,93,93,95,90,90,96,93,93,93,93,93,93,93,94,84,85,83,84,85,83,84,85,83,78,79,0,0,0,0,0,0,0,0,0,0,0,
470,470,470,470,470,470,470,470,470,470,470,470,470,474,85,85,79,77,78,79,77,78,79,77,78,79,77,78,79,77,89,90,90,91,79,77,78,79,77,78,79,77,78,79,77,78,79,77,78,79,77,78,79,0,0,0,0,0,0,0,0,0,0,0,
470,470,470,470,470,470,470,470,470,470,470,470,470,471,473,479,82,80,81,82,80,81,82,80,81,82,80,81,82,80,89,90,90,91,82,80,81,82,80,81,82,80,81,82,80,81,82,80,81,82,80,78,79,0,0,0,0,0,0,0,0,0,0,0,
470,470,470,470,470,470,470,470,470,470,470,470,470,470,470,474,85,83,84,85,83,84,85,83,84,85,83,84,85,83,89,90,90,91,85,83,84,85,83,84,85,83,84,85,83,84,85,83,84,85,83,78,79,0,0,0,0,0,0,0,0,0,0,0,
470,470,470,470,470,470,470,470,470,470,470,470,470,470,470,474,82,80,81,82,77,78,79,77,78,79,77,78,79,77,89,90,90,91,79,77,78,79,77,78,79,77,78,79,77,78,79,77,78,79,77,78,79,0,0,0,0,0,0,0,0,0,0,0,
470,470,470,470,470,470,470,470,470,470,470,470,470,470,470,474,85,83,84,85,80,81,82,80,81,82,80,81,82,80,89,90,90,91,82,80,81,82,80,81,82,80,81,82,80,81,82,80,81,82,80,78,79,12,0,0,0,0,0,0,0,0,0,0,
470,470,470,470,470,470,470,470,470,470,470,470,470,470,470,474,85,85,85,85,83,84,85,83,84,85,83,84,85,83,89,90,90,91,85,83,84,85,83,84,85,83,84,85,83,84,85,83,84,85,83,78,79,0,0,0,0,0,0,0,0,0,0,0,
470,470,470,470,470,470,470,470,470,470,470,470,470,470,470,474,85,85,85,85,85,85,85,85,85,79,79,78,79,77,89,90,90,91,79,77,78,79,77,78,79,77,78,79,77,78,79,77,78,79,77,78,79,0,0,0,0,0,0,0,0,0,0,0,
470,470,470,470,470,470,470,470,470,470,470,470,470,470,470,474,85,85,85,85,85,85,85,85,85,79,82,81,82,80,89,90,90,91,82,80,81,82,80,81,82,80,81,82,80,81,82,80,81,82,80,78,79,0,0,0,0,0,0,0,0,0,0,0,
470,470,470,470,470,470,470,470,470,470,470,470,470,470,470,471,473,473,473,479,85,85,85,85,85,79,78,79,78,79,89,90,90,91,78,79,78,79,78,79,78,79,78,79,78,79,78,79,78,79,78,78,79,0,0,0,0,0,0,0,0,0,0,0,
470,470,470,470,470,470,470,470,470,470,470,470,470,470,470,470,470,470,470,474,12,12,12,12,12,12,81,82,81,82,92,93,93,94,81,82,81,82,81,82,81,82,81,82,81,82,81,82,81,82,81,82,79,0,0,0,0,0,0,0,0,0,0,0,
470,470,470,470,470,470,470,470,470,470,470,470,470,470,470,470,470,470,470,474,12,12,12,12,12,12,4,4,4,4,3,4,4,4,4,4,4,4,4,4,4,4,4,4,4,4,4,4,4,4,4,4,0,0,0,0,0,0,0,0,0,0,0,0,
470,470,470,470,470,470,470,470,470,470,470,470,470,470,470,470,470,470,470,474,12,12,12,12,12,12,4,4,4,4,4,4,3,4,4,4,4,4,4,4,4,4,4,4,4,4,4,4,4,4,4,4,4,4,4,4,4,4,4,4,4,0,0,0,
470,470,470,470,470,470,470,470,470,470,470,470,470,470,470,470,470,470,470,471,473,473,473,473,473,479,4,4,4,4,3,4,4,3,4,4,4,4,4,4,4,4,4,4,4,4,4,4,4,4,4,4,4,4,4,4,4,4,4,4,4,0,0,0
  </data>
 </layer>
 <layer id="2" name="middle" width="64" height="47">
  <data encoding="csv">
0,0,0,0,0,0,0,0,0,0,0,0,0,0,0,0,0,0,0,0,0,0,0,0,0,0,0,0,0,0,0,0,0,0,0,0,0,0,0,0,0,0,0,0,11,12,12,12,12,12,12,12,12,12,12,12,12,12,12,12,12,12,12,12,
0,0,0,0,0,0,0,0,0,0,0,0,0,0,47,48,47,48,47,48,47,48,47,48,47,48,47,48,47,48,0,0,0,1,47,48,47,48,47,48,47,48,47,48,14,15,15,15,15,15,15,15,5,12,12,12,12,12,12,12,12,12,12,12,
0,0,0,0,0,0,0,0,0,0,0,0,0,0,0,0,0,145,146,147,148,409,409,409,409,409,409,409,409,410,0,0,0,0,408,409,409,409,409,409,409,409,149,150,151,152,149,150,151,152,409,410,11,8,9,9,9,9,9,9,9,9,9,9,
0,0,0,0,0,0,0,0,0,0,0,0,0,0,0,0,0,149,150,151,152,133,134,135,136,0,0,72,0,417,0,0,0,0,416,0,0,0,0,0,0,0,153,154,155,156,153,154,155,156,0,417,11,11,12,12,12,12,12,12,12,12,12,12,
0,0,0,0,0,0,0,0,0,0,0,0,0,0,0,0,0,153,154,155,156,137,138,139,140,0,0,0,0,417,0,0,0,0,416,0,0,0,0,0,0,0,157,154,155,158,102,154,155,158,0,0,11,11,12,12,12,12,12,12,12,12,12,12,
0,0,0,0,0,0,0,0,0,0,0,0,0,0,0,0,0,145,146,147,148,0,0,0,0,0,0,0,0,423,0,0,0,0,424,0,0,0,0,0,0,0,159,160,161,162,102,160,161,162,0,0,11,11,12,12,12,12,12,12,12,12,12,12,
0,0,0,0,0,0,0,0,0,0,0,0,0,0,0,0,0,149,150,151,152,396,397,398,102,102,134,135,136,101,0,0,0,0,0,209,210,211,212,213,214,215,102,104,104,102,101,104,104,0,0,0,11,11,12,12,12,12,12,12,12,12,12,12,
0,0,0,0,0,0,0,0,0,0,0,0,0,0,0,0,0,153,154,155,156,400,0,401,102,102,138,139,140,101,0,0,0,0,0,216,217,218,219,220,221,222,102,0,0,102,101,0,137,138,139,140,11,11,12,12,12,12,12,12,12,12,12,12,
0,0,0,0,0,0,0,0,0,0,0,0,0,0,0,0,408,157,154,155,158,103,104,104,104,104,104,104,104,105,0,0,0,0,0,223,224,225,226,227,228,229,103,104,104,104,105,0,0,0,0,0,11,11,12,12,12,12,12,12,12,12,12,12,
0,0,0,0,0,0,0,0,0,0,0,0,0,0,0,0,416,159,160,161,162,0,0,0,0,0,0,0,0,0,0,0,0,0,0,230,231,232,0,233,234,235,0,0,0,0,0,0,0,0,0,0,11,11,12,12,12,12,12,12,12,12,12,12,
0,0,0,0,0,0,0,0,0,0,0,0,0,0,0,0,416,103,104,104,104,0,0,0,0,0,0,0,0,0,0,0,0,0,0,0,0,0,0,0,0,0,0,0,0,0,409,409,0,0,0,0,11,11,12,12,12,12,12,12,12,12,12,12,
0,0,0,0,0,0,0,0,0,0,0,0,0,0,0,0,416,0,0,0,0,0,0,0,0,0,0,0,0,0,0,0,0,0,0,0,0,0,0,0,0,0,0,0,0,0,0,0,103,104,104,104,11,11,12,12,12,12,12,12,12,12,12,12,
0,0,0,0,0,0,0,0,0,0,0,0,0,0,0,0,416,0,0,425,426,427,428,429,0,0,0,0,0,0,0,0,0,0,0,0,0,0,0,0,0,0,0,0,0,0,0,0,0,0,0,0,11,11,12,12,12,12,12,12,12,12,12,12,
0,0,0,0,0,0,0,0,0,0,0,0,0,0,0,0,416,0,0,430,431,432,433,434,0,0,0,0,0,0,0,0,0,0,0,0,0,0,0,0,0,0,0,0,0,0,0,0,0,0,0,0,11,11,12,12,12,12,12,12,12,12,12,12,
0,0,0,0,0,0,0,0,0,0,0,0,0,0,0,0,416,0,0,435,436,437,438,439,0,0,0,0,0,0,0,0,0,0,0,0,0,0,0,0,0,0,0,0,0,0,0,0,0,0,0,0,11,11,12,12,12,12,12,12,12,12,12,12,
0,0,0,0,0,0,0,0,0,0,0,0,0,0,0,0,416,0,0,440,441,442,443,444,0,337,338,339,340,0,0,0,0,0,0,0,0,0,0,0,0,0,0,0,0,0,0,0,0,0,0,0,11,11,12,12,12,12,12,12,12,12,12,12,
0,0,0,0,0,0,0,0,0,0,0,0,0,0,0,0,416,0,0,445,445,102,445,445,0,102,343,344,345,102,102,102,102,102,102,102,102,102,102,102,102,102,102,102,102,102,102,102,102,102,102,102,11,11,12,12,12,12,12,12,12,12,12,12,
0,0,0,0,0,0,0,0,0,0,0,0,0,0,0,0,424,0,0,102,102,102,102,102,102,102,102,102,102,102,102,102,102,102,102,102,102,102,102,102,102,102,102,102,102,102,102,102,102,102,102,102,11,11,12,12,12,12,12,12,12,12,12,12,
0,0,0,0,0,67,0,409,409,409,409,409,409,67,409,409,0,0,0,0,0,0,0,0,0,0,0,0,0,0,0,0,0,0,0,0,0,0,0,0,0,0,0,0,0,0,0,0,0,0,0,0,11,11,12,12,12,12,12,12,12,12,12,12,
0,0,0,0,0,0,72,0,0,0,0,0,0,0,0,0,0,0,0,0,0,0,0,0,0,0,0,0,0,0,0,0,0,0,0,0,0,0,0,0,0,0,0,0,0,0,0,0,0,0,0,0,11,11,12,12,12,12,12,12,12,12,12,12,
0,0,0,0,0,67,0,0,0,0,0,0,0,0,0,0,0,0,0,0,0,0,0,0,0,0,0,0,0,0,0,0,0,0,0,0,0,0,0,0,0,0,0,0,0,0,0,0,145,146,147,148,11,11,12,12,12,12,12,12,12,12,12,12,
0,0,0,0,0,0,0,0,0,0,0,0,0,0,0,0,0,0,0,0,0,0,249,250,251,288,289,290,237,0,0,0,0,0,0,0,0,0,0,0,0,0,0,0,0,0,0,0,149,150,151,152,11,11,12,12,12,12,12,12,12,12,12,12,
0,0,0,0,0,67,0,0,0,0,0,0,0,0,0,0,0,0,0,0,0,0,257,258,259,296,297,298,238,0,0,0,0,0,0,0,0,0,0,0,133,134,135,136,133,134,135,136,153,154,155,156,11,11,12,12,12,12,12,12,12,12,12,12,
0,0,0,0,0,0,72,67,0,0,409,409,0,0,67,409,409,409,133,134,135,136,265,266,267,303,304,305,239,0,0,0,0,0,0,0,0,0,0,0,137,138,139,140,137,138,139,140,157,154,155,158,11,11,12,12,12,12,12,12,12,12,12,12,
0,0,0,0,0,0,0,0,0,0,0,0,0,0,0,0,0,0,137,138,139,140,273,274,275,0,306,307,240,72,0,0,0,0,72,0,252,253,254,255,103,104,104,104,103,104,104,104,159,160,161,162,11,11,12,12,12,12,12,12,12,12,12,12,
0,0,0,0,0,0,0,0,0,0,0,0,0,0,0,0,0,0,103,104,104,104,103,104,104,104,104,104,104,0,0,0,0,0,0,0,260,261,262,263,264,0,0,0,0,0,0,101,103,104,104,104,11,11,12,12,12,12,12,12,12,12,12,12,
0,0,0,0,0,0,0,0,0,0,0,0,0,0,0,0,0,0,69,0,0,0,0,0,0,0,0,0,0,0,0,0,0,0,0,0,268,269,270,271,272,0,0,0,0,0,0,101,0,0,0,0,11,11,12,12,12,12,12,12,12,12,12,12,
0,0,0,0,0,0,0,0,0,0,0,0,0,0,408,378,379,380,381,0,0,0,0,0,183,184,185,186,187,0,0,0,0,0,0,0,276,277,278,279,280,102,0,103,104,104,104,105,0,0,0,0,11,11,12,12,12,12,12,12,12,12,12,12,
0,0,0,0,0,0,0,0,0,0,0,0,0,0,416,382,383,384,385,101,0,0,0,0,188,189,190,191,192,0,0,0,0,0,0,0,283,284,285,286,287,102,0,0,0,0,0,0,137,138,139,140,11,11,12,12,12,12,12,12,12,12,12,12,
0,0,0,0,0,0,0,0,0,0,0,0,0,0,416,386,0,387,388,101,133,134,135,136,193,194,195,196,197,101,0,0,0,0,0,0,291,292,293,294,295,102,0,0,0,0,0,0,145,146,147,148,11,11,12,12,12,12,12,12,12,12,12,12,
0,0,0,0,0,0,0,0,0,8,9,9,10,0,416,103,104,104,104,105,137,138,139,140,198,199,0,200,201,101,0,0,0,0,0,0,299,300,0,301,302,102,0,0,0,0,0,0,149,150,151,152,11,11,12,12,12,12,12,12,12,12,12,12,
0,0,0,0,0,0,0,0,0,14,15,15,16,0,416,0,0,0,0,0,0,0,0,0,103,104,104,104,104,105,0,0,0,0,0,0,103,104,104,104,104,104,133,134,135,136,101,0,153,154,155,156,11,11,12,12,12,12,12,12,12,12,12,12,
0,0,0,0,0,0,0,0,0,0,0,0,0,0,416,0,0,0,0,0,0,0,0,0,0,0,0,0,0,0,0,0,0,0,0,0,0,0,0,0,0,0,137,138,139,140,101,0,159,160,161,162,11,11,12,12,12,12,12,12,12,12,12,12,
0,0,0,0,0,0,0,0,0,0,0,0,0,0,416,0,0,0,0,0,137,138,139,140,0,0,0,0,0,0,0,0,0,0,0,0,0,0,0,0,0,0,103,104,104,104,105,0,145,146,147,148,11,11,12,12,12,12,12,12,12,12,12,12,
0,0,0,0,0,0,0,0,0,0,0,0,0,0,423,409,0,0,0,0,103,104,104,104,0,0,0,0,0,0,0,0,0,0,0,0,0,0,0,0,0,0,0,0,0,0,0,0,149,150,151,152,11,11,12,12,12,12,12,12,12,12,12,12,
0,0,0,0,0,0,0,0,0,0,0,0,0,0,0,0,0,0,0,0,0,0,0,0,0,0,0,0,0,0,0,0,0,0,0,0,0,0,0,0,0,0,0,0,0,0,0,0,153,154,155,156,11,11,12,12,12,12,12,12,12,12,12,12,
0,0,0,0,0,0,0,0,0,0,0,0,0,0,0,0,72,0,0,0,0,0,0,133,134,135,136,101,0,0,0,0,0,0,0,0,133,134,135,136,101,0,110,111,112,113,0,0,157,154,155,158,11,11,12,12,12,12,12,12,12,12,12,12,
0,0,0,0,0,0,0,0,0,0,0,0,0,0,0,0,0,0,0,103,104,104,104,137,138,139,140,101,0,0,0,0,0,0,0,0,137,138,139,140,101,72,114,115,116,117,101,0,159,160,161,162,11,11,12,12,12,12,12,12,12,12,12,12,
0,0,0,0,0,0,63,64,0,0,0,0,0,0,0,0,0,0,0,0,0,0,0,103,104,104,104,105,409,410,0,0,0,0,408,409,409,409,409,409,409,409,118,0,119,120,101,0,409,409,409,409,11,14,15,15,15,15,15,15,15,15,15,15,
0,0,0,0,63,64,65,66,0,0,0,0,0,0,0,0,0,0,0,0,0,0,0,0,0,0,0,0,0,417,0,0,0,0,416,0,0,0,0,0,0,0,103,104,104,104,105,0,0,0,0,101,14,15,15,15,15,15,15,15,15,15,15,15,
0,0,0,0,65,66,0,0,63,64,0,0,0,0,0,0,0,0,0,0,0,0,0,0,0,0,0,0,0,417,0,0,0,0,416,0,0,0,0,0,0,0,0,0,0,0,0,0,0,0,0,101,0,0,0,0,0,0,0,0,0,0,0,0,
0,0,0,0,0,0,0,0,65,66,0,0,0,0,0,0,0,0,0,0,101,0,0,0,0,0,0,0,0,417,0,0,0,0,416,0,0,0,0,0,0,0,0,0,0,0,0,103,104,104,104,105,0,0,0,0,0,0,0,0,0,0,0,0,
0,0,0,0,0,0,0,0,0,0,63,64,63,64,0,0,0,0,0,0,101,159,160,161,162,159,160,161,162,417,0,0,0,0,416,137,138,139,140,159,160,161,162,0,0,0,0,0,0,0,0,0,0,0,0,0,0,0,0,0,0,0,0,0,
0,0,0,0,0,0,0,0,0,0,65,66,65,66,63,64,0,0,0,0,105,9,9,9,9,10,409,409,409,424,0,0,0,0,423,409,409,409,409,409,409,409,409,409,409,409,409,409,409,409,409,409,0,0,0,0,0,0,0,0,0,0,0,0,
0,0,0,0,0,0,0,0,0,0,0,0,0,0,65,66,0,0,63,64,11,12,12,12,12,13,0,0,0,0,0,0,0,0,0,0,0,0,0,0,0,0,0,0,0,0,0,0,0,0,0,0,0,0,0,0,0,0,0,0,0,0,0,0,
0,0,0,0,0,0,0,0,0,0,0,0,0,0,0,0,63,64,65,66,14,15,15,15,15,16,0,0,0,0,0,0,0,0,0,0,0,0,0,0,0,0,0,0,0,0,0,0,0,0,0,0,0,0,0,0,0,0,0,0,0,0,0,0,
0,0,0,0,0,0,0,0,0,0,0,0,0,0,0,0,65,66,0,0,0,0,0,0,0,0,0,0,0,0,0,0,0,0,0,0,0,0,0,0,0,0,0,0,0,0,0,0,0,0,0,0,0,0,0,0,0,0,0,0,0,0,0,0
  </data>
 </layer>
 <layer id="3" name="upper" width="64" height="47">
  <data encoding="csv">
0,0,0,0,0,0,0,0,0,0,0,0,0,0,0,0,0,0,0,0,0,0,0,0,0,0,0,0,0,0,0,0,0,0,0,0,0,0,0,0,0,0,0,0,0,0,0,0,0,0,0,0,0,0,0,0,0,0,0,0,0,0,0,0,
0,0,0,0,0,0,0,0,0,0,0,0,0,0,0,0,0,0,0,0,0,0,0,0,0,0,0,0,0,0,0,0,0,0,0,0,0,0,0,0,0,0,145,146,147,148,145,146,147,148,0,0,0,0,0,0,0,0,0,0,0,0,0,0,
0,0,0,0,0,0,0,0,0,0,0,0,0,0,0,0,0,0,0,0,0,0,0,0,0,0,0,0,0,0,0,0,0,0,0,0,0,0,0,0,0,0,0,0,0,0,0,0,0,0,0,0,0,0,0,0,0,0,0,0,0,0,0,0,
0,0,0,0,0,0,0,0,0,0,0,0,0,0,0,0,0,0,0,0,0,0,0,0,0,0,0,0,0,0,0,0,0,0,0,0,0,0,72,0,0,0,0,0,0,0,0,0,0,0,0,0,0,0,0,0,0,0,0,0,0,0,0,0,
0,0,0,0,0,0,0,0,0,0,0,0,0,0,0,0,0,0,0,0,0,0,0,0,0,0,0,0,0,0,0,0,0,0,0,75,76,0,0,0,75,76,0,0,0,0,157,0,0,0,0,0,0,0,0,0,0,0,0,0,0,0,0,0,
0,0,0,0,0,0,0,0,0,0,0,0,0,0,0,0,0,0,0,0,0,392,393,394,395,0,0,0,0,0,0,0,0,0,0,0,0,0,0,0,0,0,52,53,54,55,159,0,0,0,0,0,0,0,0,0,0,0,0,0,0,0,0,0,
0,0,0,0,0,0,0,0,0,0,0,0,0,0,0,0,0,0,0,0,0,0,0,0,399,133,0,0,0,171,172,0,0,173,174,0,0,0,0,0,0,0,56,57,58,59,103,0,133,134,135,136,0,0,0,0,0,0,0,0,0,0,0,0,
0,0,0,0,0,0,0,0,0,0,0,0,0,0,0,0,0,0,0,0,0,0,0,0,402,137,0,0,0,175,176,0,0,177,178,0,0,0,0,0,0,0,60,0,61,62,0,0,0,0,0,0,0,0,0,0,0,0,0,0,0,0,0,0,
0,0,0,0,0,0,0,0,0,0,0,0,0,0,0,0,0,0,0,0,0,0,0,0,0,0,0,0,0,0,104,0,0,0,0,0,0,0,0,0,0,0,0,0,0,0,0,0,378,379,380,381,0,0,0,0,0,0,0,0,0,0,0,0,
0,0,0,0,0,0,0,0,0,0,0,0,0,0,0,0,0,0,0,0,0,0,0,0,0,0,0,0,0,0,0,0,0,0,2,0,0,0,0,0,0,0,0,0,0,0,72,0,382,383,384,385,0,0,0,0,0,0,0,0,0,0,0,0,
0,0,0,0,0,0,0,0,363,364,365,366,367,368,0,0,0,0,0,0,0,0,0,0,0,0,0,0,0,0,0,0,0,0,0,0,0,0,0,0,0,0,0,0,0,0,0,0,386,0,387,388,0,0,0,0,0,0,0,0,0,0,0,0,
0,0,0,0,0,0,0,0,369,370,371,372,373,374,0,0,0,0,0,0,0,0,0,0,0,0,0,0,0,0,0,0,0,0,0,0,0,0,0,0,0,0,0,0,0,0,0,0,0,0,0,0,0,0,0,0,0,0,0,0,0,0,0,0,
0,0,0,0,0,0,0,0,0,0,0,0,0,0,0,0,0,0,0,0,0,0,0,0,0,0,0,0,0,0,0,0,0,0,0,0,0,0,0,0,0,0,0,0,0,0,0,0,0,0,0,0,0,0,0,0,0,0,0,0,0,0,0,0,
0,0,0,0,0,0,0,0,0,0,0,0,0,0,0,0,0,0,0,0,0,0,0,0,0,0,0,0,0,0,0,0,0,0,0,0,0,0,0,0,0,0,0,0,0,0,0,0,0,0,0,0,0,0,0,0,0,0,0,0,0,0,0,0,
63,64,0,0,63,64,0,0,0,0,0,0,0,0,0,0,0,0,0,0,0,0,0,0,0,0,0,0,0,0,0,0,0,0,0,0,0,0,0,0,0,0,0,0,0,0,0,0,0,0,0,0,0,0,0,0,0,0,0,0,0,0,0,0,
65,66,63,64,65,66,63,64,0,0,0,0,0,0,0,0,0,0,0,0,0,0,0,0,336,337,0,0,0,341,0,0,0,0,0,0,0,0,0,0,0,0,0,0,0,0,0,0,0,0,0,0,0,0,0,0,0,0,0,0,0,0,0,0,
0,0,65,66,0,0,65,66,63,64,363,364,365,366,367,368,0,72,0,0,0,0,0,0,342,0,0,0,0,346,0,0,0,0,0,0,0,0,0,462,463,0,0,0,0,0,0,462,463,0,0,0,0,0,0,0,0,0,0,0,0,0,0,0,
0,0,0,0,0,0,0,0,65,66,369,370,371,372,373,374,0,0,0,0,0,0,0,0,0,0,0,0,409,409,0,0,0,0,409,409,409,409,409,409,409,409,409,409,409,409,409,409,409,409,409,409,0,0,0,0,0,0,0,0,0,0,0,0,
0,0,0,0,0,0,0,0,0,0,0,0,0,0,0,0,0,0,0,0,0,0,0,0,0,0,0,0,0,0,0,0,0,0,0,0,0,0,0,0,0,0,0,0,0,0,0,0,0,0,0,0,0,0,0,0,0,0,0,0,0,0,0,0,
0,0,0,0,0,0,0,0,2,0,75,76,0,0,75,76,0,0,0,0,0,0,0,0,0,0,0,0,0,0,0,0,0,0,100,0,0,0,0,0,0,0,0,0,0,0,0,0,0,0,0,0,0,0,0,0,0,0,0,0,0,0,0,0,
0,0,0,0,0,0,0,0,0,0,0,0,0,0,0,0,0,0,0,0,0,0,0,0,0,0,0,0,0,0,0,0,0,0,0,0,0,0,0,0,0,0,0,0,0,0,0,0,0,0,0,0,0,0,0,0,0,0,0,0,0,0,0,0,
0,0,0,0,0,0,0,0,0,0,0,0,0,0,0,0,0,0,0,0,0,0,0,0,0,0,0,0,0,0,0,0,0,0,0,0,0,0,0,0,0,0,0,0,0,0,0,0,0,0,0,0,0,0,0,0,0,0,0,0,0,0,0,0,
0,0,0,0,0,0,0,0,0,0,0,0,0,0,0,0,0,0,0,0,0,0,0,0,0,0,0,0,0,0,0,0,0,0,0,0,0,0,0,0,0,0,0,0,0,0,0,0,0,0,0,0,0,0,0,0,0,0,0,0,0,0,0,0,
0,0,0,0,0,0,0,0,0,0,0,0,0,0,0,0,0,0,0,0,0,0,0,0,0,0,0,0,0,0,0,0,0,0,0,0,0,0,0,0,0,0,0,0,0,0,0,0,0,0,0,0,0,0,0,0,0,0,0,0,0,0,0,0,
0,0,0,0,0,0,0,0,0,0,0,0,0,0,0,0,0,0,0,0,0,0,0,0,0,0,0,0,0,0,0,0,0,0,0,0,0,352,0,0,256,0,0,378,379,380,381,0,0,0,0,0,0,0,0,0,0,0,0,0,0,0,0,0,
0,0,0,0,0,0,0,0,0,0,363,364,365,366,367,368,0,0,68,0,0,0,0,0,0,0,0,0,0,0,0,0,0,0,0,0,0,0,0,0,0,0,0,382,383,384,385,72,0,0,0,0,0,0,0,0,0,0,0,0,0,0,0,0,
0,0,0,0,0,0,0,0,0,0,369,370,371,372,373,374,0,0,0,0,0,0,0,0,0,0,0,0,0,0,0,0,0,0,0,0,0,0,0,0,0,0,0,386,0,387,388,0,0,0,0,0,0,0,0,0,0,0,0,0,0,0,0,0,
0,0,0,0,0,0,0,0,0,0,0,0,0,0,0,0,0,0,0,0,0,0,0,0,0,0,0,0,0,0,0,0,0,0,0,0,0,0,0,0,0,0,0,0,0,0,0,0,0,0,0,0,0,0,0,0,0,0,0,0,0,0,0,0,
0,0,0,0,0,0,0,0,0,0,0,0,0,0,0,0,0,0,0,0,0,0,0,0,0,0,0,0,0,0,0,0,0,0,0,0,0,0,0,0,0,0,0,0,0,0,0,0,0,0,0,0,0,0,0,0,0,0,0,0,0,0,0,0,
0,0,0,0,0,0,0,0,0,0,0,0,0,0,0,0,0,0,0,0,0,0,0,0,0,0,0,0,0,0,0,0,0,0,0,0,0,0,0,0,0,0,0,0,0,0,0,0,0,0,0,0,0,0,0,0,0,0,0,0,0,0,0,0,
0,0,0,0,0,0,0,0,0,0,0,0,0,0,0,0,0,0,0,0,0,0,0,0,0,0,0,0,0,100,0,0,0,0,2,0,0,0,0,0,0,0,0,0,0,0,0,0,0,0,0,0,0,0,0,0,0,0,0,0,0,0,0,0,
0,0,0,0,0,0,0,0,0,0,0,0,0,0,0,0,0,0,0,0,0,0,0,0,0,0,0,0,0,0,0,0,0,0,0,0,0,0,0,0,0,0,0,0,0,0,0,0,0,0,0,0,0,0,0,0,0,0,0,0,0,0,0,0,
0,0,0,0,0,0,0,0,0,0,0,0,0,0,0,0,0,0,0,0,133,134,135,136,0,0,0,0,0,0,0,0,0,0,0,0,0,0,0,0,0,0,0,0,0,0,0,0,0,0,0,0,0,0,0,0,0,0,0,0,0,0,0,0,
0,0,0,0,0,0,0,0,0,0,0,0,0,0,0,0,0,0,0,0,0,0,0,0,0,0,0,0,0,0,0,0,0,0,0,0,0,0,0,0,0,0,0,0,0,0,0,0,0,0,0,0,0,0,0,0,0,0,0,0,0,0,0,0,
0,0,0,0,0,0,0,0,0,0,0,0,0,0,0,0,0,0,0,392,393,394,395,0,0,0,0,0,0,0,0,0,0,0,0,0,0,0,0,0,0,0,0,0,0,0,0,0,0,0,0,0,0,0,0,0,0,0,0,0,0,0,0,0,
0,0,0,0,0,0,0,0,0,0,0,0,0,0,0,0,0,0,0,396,397,398,399,0,0,0,0,0,2,0,0,0,0,0,0,0,0,0,0,0,0,0,0,0,0,0,0,0,0,0,0,0,0,0,0,0,0,0,0,0,0,0,0,0,
0,0,0,0,0,0,0,0,0,0,0,0,0,0,0,0,0,0,0,400,0,401,402,0,0,0,0,0,0,171,172,0,0,173,174,0,0,0,0,0,0,0,0,0,0,0,0,0,0,0,0,0,0,0,0,0,0,0,0,0,0,0,0,0,
0,0,0,0,0,0,0,0,0,0,0,0,0,0,0,0,0,0,0,0,0,0,0,0,0,0,0,0,0,175,176,0,0,177,178,0,0,0,0,0,0,0,0,0,0,0,0,0,0,0,0,0,0,0,0,0,0,0,0,0,0,0,0,0,
0,0,0,0,0,0,0,0,0,363,364,365,366,367,368,0,0,0,0,0,0,145,146,147,148,145,146,147,148,0,0,0,0,0,0,0,0,0,0,145,146,147,148,0,0,0,0,0,0,0,0,0,0,0,0,0,0,0,0,0,0,0,0,0,
0,0,63,64,0,0,0,0,0,369,370,371,372,373,374,0,0,0,0,0,0,149,150,151,152,149,150,151,152,0,0,0,0,0,0,0,0,0,0,149,150,151,152,0,0,0,0,133,134,135,136,0,0,0,0,0,0,0,0,0,0,0,0,0,
0,0,65,66,0,0,0,0,0,0,0,0,0,0,0,0,133,134,135,136,0,153,154,155,156,153,154,155,156,0,0,0,0,0,0,0,0,0,0,153,154,155,156,0,0,0,0,137,138,139,140,0,0,0,0,0,0,0,0,0,0,0,0,0,
63,64,0,0,0,0,0,0,0,0,0,0,0,0,0,0,137,138,139,140,0,157,154,155,158,157,154,155,158,0,0,0,0,0,0,133,134,135,136,157,154,155,158,0,75,76,0,0,0,0,0,0,0,0,0,0,0,0,0,0,0,0,0,0,
65,66,0,0,0,0,0,0,0,0,0,0,0,0,0,0,103,104,104,104,409,0,0,0,0,0,0,0,0,0,0,0,0,0,0,0,0,0,0,0,0,0,0,0,0,0,0,0,0,0,0,0,0,0,0,0,0,0,0,0,0,0,0,0,
0,0,363,364,365,366,367,368,0,0,0,0,0,0,0,0,0,0,0,0,8,0,0,0,0,0,0,0,0,0,0,0,0,0,0,0,0,0,0,0,0,0,0,0,0,0,0,0,0,0,0,0,0,0,0,0,0,0,0,0,0,0,0,0,
0,0,369,370,371,372,373,374,0,0,0,0,0,0,0,0,0,0,0,0,0,0,0,0,0,0,0,0,0,0,0,0,0,0,0,0,0,0,0,0,0,0,0,0,0,0,0,0,0,0,0,0,0,0,0,0,0,0,0,0,0,0,0,0,
0,0,0,0,0,0,0,0,0,0,0,0,0,0,0,0,0,0,0,0,0,0,0,0,0,0,0,0,0,0,0,0,0,0,0,0,0,0,0,0,0,0,0,0,0,0,0,0,0,0,0,0,0,0,0,0,0,0,0,0,0,0,0,0,
0,0,0,0,0,0,0,0,0,0,0,0,0,0,0,0,0,0,0,0,0,0,0,0,0,0,0,0,0,0,0,0,0,0,0,0,0,0,0,0,0,0,0,0,0,0,0,0,0,0,0,0,0,0,0,0,0,0,0,0,0,0,0,0
  </data>
 </layer>
 <objectgroup id="4" name="events"/>
 <group id="7" name="above">
 <layer id="5" name="middle_above" width="64" height="47">
  <data encoding="csv">
0,0,0,0,0,0,0,0,0,0,0,0,0,0,40,41,40,41,40,41,40,41,40,41,40,41,40,41,40,42,0,0,0,0,40,41,40,41,40,41,40,41,40,42,0,0,0,0,0,0,0,0,0,0,0,0,0,0,0,0,0,0,0,0,
0,0,0,0,0,0,0,0,0,0,0,0,0,0,0,0,0,0,0,0,0,0,0,0,0,0,0,0,0,0,0,0,0,0,0,0,0,0,0,0,0,0,0,0,0,0,0,0,0,0,0,0,0,0,0,0,0,0,0,0,0,0,0,0,
0,0,0,0,0,0,0,0,0,0,0,0,0,0,0,0,0,0,0,0,0,0,0,0,0,0,0,0,0,0,0,0,0,0,0,0,0,0,0,0,0,0,0,0,0,0,0,0,0,0,0,0,0,0,0,0,0,0,0,0,0,0,0,0,
0,0,0,0,0,0,0,0,0,0,0,0,0,0,0,0,0,0,0,0,0,0,0,0,0,121,122,0,124,0,0,0,0,0,0,0,0,0,0,0,0,0,0,0,0,0,0,0,0,0,0,0,0,0,0,0,0,0,0,0,0,0,0,0,
0,0,0,0,0,0,0,0,0,0,0,0,0,0,0,0,0,0,0,0,0,0,0,0,0,125,126,127,128,0,0,0,0,0,0,0,0,0,0,0,0,0,0,0,0,0,0,0,0,0,0,0,0,0,0,0,0,0,0,0,0,0,0,0,
0,0,0,0,0,0,0,0,0,0,0,0,0,0,0,0,0,0,0,0,0,0,0,0,0,129,130,131,132,0,0,0,0,0,0,202,203,204,205,206,207,208,0,0,0,0,0,0,0,0,0,0,0,0,0,0,0,0,0,0,0,0,0,0,
0,0,0,0,0,0,0,0,0,0,0,0,0,0,0,0,0,0,0,0,0,0,0,0,0,0,0,0,0,0,0,0,0,0,0,0,0,0,0,0,0,0,0,0,0,0,0,0,0,0,0,0,0,0,0,0,0,0,0,0,0,0,0,0,
0,0,0,0,0,0,0,0,0,0,0,0,0,0,0,0,0,0,0,0,0,0,0,0,0,0,0,0,0,0,0,0,0,0,0,0,0,0,0,0,0,0,0,0,0,0,0,0,0,0,0,0,0,0,0,0,0,0,0,0,0,0,0,0,
0,0,0,0,0,0,0,0,0,0,0,0,0,0,0,0,0,0,0,0,0,0,0,0,0,0,0,0,0,0,0,0,0,0,0,0,0,0,0,0,0,0,0,0,0,0,0,0,0,0,0,0,0,0,0,0,0,0,0,0,0,0,0,0,
0,0,0,0,0,0,0,0,0,0,0,0,0,0,0,0,0,0,0,0,0,0,0,0,0,0,0,0,0,0,0,0,0,0,0,0,0,0,0,0,0,0,0,0,0,0,0,0,0,0,0,0,0,0,0,0,0,0,0,0,0,0,0,0,
0,0,0,0,0,0,0,0,0,0,0,0,0,0,0,0,0,0,0,0,0,0,0,0,0,0,0,0,0,70,0,0,0,0,0,0,0,0,0,0,0,0,0,0,0,0,0,0,0,0,0,0,0,0,0,0,0,0,0,0,0,0,0,0,
0,0,0,0,0,0,0,0,0,0,0,0,0,0,0,0,0,0,0,418,419,420,421,422,0,310,311,312,313,71,0,0,0,0,0,0,0,0,0,0,0,0,0,0,0,0,0,0,0,0,0,0,0,0,0,0,0,0,0,0,0,0,0,0,
0,0,0,0,0,0,0,0,0,0,0,0,0,0,0,0,0,0,0,0,0,0,0,0,0,317,318,319,320,446,447,447,447,447,447,447,448,446,447,447,447,447,447,447,448,446,447,447,447,447,447,447,0,0,0,0,0,0,0,0,0,0,0,0,
0,0,0,0,0,0,0,0,0,0,0,0,0,0,0,0,0,0,0,0,0,0,0,0,0,324,325,326,327,449,450,451,452,452,450,451,453,449,450,451,452,452,450,451,453,449,450,451,452,452,450,451,0,0,0,0,0,0,0,0,0,0,0,0,
0,0,0,0,0,0,0,0,0,0,0,0,0,0,0,0,0,0,0,0,0,0,0,0,0,331,332,333,334,454,455,456,457,457,455,456,458,454,455,456,457,457,455,456,458,454,455,456,457,457,455,456,0,0,0,0,0,0,0,0,0,0,0,0,
0,0,0,0,0,0,0,0,0,0,0,0,0,0,0,0,0,0,0,0,0,0,0,0,0,0,0,0,0,459,460,460,460,460,460,460,461,459,460,460,460,460,460,460,461,459,460,460,460,460,460,460,0,0,0,0,0,0,0,0,0,0,0,0,
0,0,0,0,0,0,0,0,0,0,0,0,0,0,0,0,0,0,0,0,0,0,0,0,0,0,0,0,0,0,0,0,0,0,0,0,0,0,0,0,0,0,0,0,0,0,0,0,0,0,0,0,0,0,0,0,0,0,0,0,0,0,0,0,
0,0,0,0,0,0,70,0,0,0,0,0,0,0,0,0,0,0,0,0,0,0,0,0,0,0,0,0,0,0,0,0,0,0,0,0,0,0,0,0,0,0,0,0,0,0,0,0,0,0,0,0,0,0,0,0,0,0,0,0,0,0,0,0,
0,0,0,0,0,0,71,0,0,0,0,0,0,0,0,0,0,0,0,0,0,0,0,0,0,0,0,0,0,0,0,0,0,0,0,0,0,0,0,0,0,0,0,0,0,0,0,0,0,0,0,0,0,0,0,0,0,0,0,0,0,0,0,0,
0,0,0,0,0,0,0,0,0,0,0,0,0,0,0,0,0,0,0,0,0,0,0,0,0,0,0,0,0,0,0,0,0,0,0,0,0,0,0,0,121,122,123,124,121,122,123,124,141,142,143,144,0,0,0,0,0,0,0,0,0,0,0,0,
0,0,0,0,0,0,0,0,0,0,0,0,0,0,0,0,0,0,121,122,123,124,241,242,243,281,282,242,236,0,0,0,0,0,0,0,0,0,0,0,125,126,127,128,125,126,127,128,0,0,0,0,0,0,0,0,0,0,0,0,0,0,0,0,
0,0,0,0,0,0,70,0,0,0,0,0,0,0,0,0,0,0,125,126,127,128,0,0,0,0,0,0,0,0,0,0,0,0,0,0,0,0,0,0,129,130,131,132,129,130,131,132,0,0,0,0,0,0,0,0,0,0,0,0,0,0,0,0,
0,0,0,0,0,0,71,0,0,0,0,0,0,0,0,0,0,0,129,130,131,132,0,0,0,0,0,0,0,70,0,0,0,0,70,0,0,0,0,0,0,0,0,0,0,0,0,0,0,0,0,0,0,0,0,0,0,0,0,0,0,0,0,0,
0,0,0,0,0,0,0,0,0,0,0,0,0,0,0,0,0,0,0,0,0,0,0,0,0,0,0,0,0,71,0,0,0,0,71,0,244,245,246,247,0,0,0,0,0,0,0,0,0,0,0,0,0,0,0,0,0,0,0,0,0,0,0,0,
0,0,0,0,0,0,0,0,0,0,0,0,0,0,0,0,0,0,0,0,0,0,0,0,0,0,0,0,0,0,0,0,0,0,0,0,0,0,0,0,0,0,0,0,0,0,0,0,0,0,0,0,0,0,0,0,0,0,0,0,0,0,0,0,
0,0,0,0,0,0,0,0,0,0,0,0,0,0,0,0,0,0,0,0,0,0,0,0,0,0,0,0,0,0,0,0,0,0,0,0,0,0,0,0,0,0,0,0,0,0,0,0,0,0,0,0,0,0,0,0,0,0,0,0,0,0,0,0,
0,0,0,0,0,0,0,0,0,0,0,0,0,0,0,375,376,376,0,0,121,122,123,124,0,0,0,0,0,0,0,0,0,0,0,0,0,0,0,0,0,0,0,0,0,0,0,0,125,126,127,128,0,0,0,0,0,0,0,0,0,0,0,0,
0,0,0,0,0,0,0,0,0,0,0,0,0,0,0,0,0,0,0,0,125,126,127,128,0,0,0,0,0,0,0,0,0,0,0,0,0,0,0,0,0,0,0,0,0,0,0,0,129,130,131,132,0,0,0,0,0,0,0,0,0,0,0,0,
0,0,0,0,0,0,0,0,0,0,0,0,0,0,0,0,0,0,0,0,129,130,131,132,0,0,0,0,0,0,0,0,0,0,0,0,0,0,0,0,0,0,121,122,123,124,0,0,0,0,0,0,0,0,0,0,0,0,0,0,0,0,0,0,
0,0,0,0,0,0,0,0,0,0,0,0,0,0,0,0,0,0,0,0,0,0,0,0,0,0,0,0,0,0,0,0,0,0,0,0,0,0,0,0,0,0,125,126,127,128,0,0,0,0,0,0,0,0,0,0,0,0,0,0,0,0,0,0,
0,0,0,0,0,0,0,0,0,0,0,0,0,0,0,0,0,0,0,0,0,0,0,0,0,0,0,0,0,0,0,0,0,0,0,0,0,0,0,0,0,0,129,130,131,132,0,0,0,0,0,0,0,0,0,0,0,0,0,0,0,0,0,0,
0,0,0,0,0,0,0,0,0,0,0,0,0,0,0,0,0,0,0,0,0,0,0,0,0,0,0,0,0,0,0,0,0,0,0,0,0,0,0,0,0,0,0,0,0,0,0,0,0,0,0,0,0,0,0,0,0,0,0,0,0,0,0,0,
0,0,0,0,0,0,0,0,0,0,0,0,0,0,0,0,0,0,0,0,0,0,0,0,0,0,0,0,0,0,0,0,0,0,0,0,0,0,0,0,0,0,0,0,0,0,0,0,0,0,0,0,0,0,0,0,0,0,0,0,0,0,0,0,
0,0,0,0,0,0,0,0,0,0,0,0,0,0,0,0,0,0,0,0,0,0,0,0,0,0,0,0,0,0,0,0,0,0,0,0,121,122,123,124,0,0,0,0,0,0,0,0,0,0,0,0,0,0,0,0,0,0,0,0,0,0,0,0,
0,0,0,0,0,0,0,0,0,0,0,0,0,0,0,0,70,0,0,0,0,0,0,0,126,127,128,0,0,0,0,0,0,0,0,0,125,126,127,128,0,0,0,0,0,0,0,0,0,0,0,0,0,0,0,0,0,0,0,0,0,0,0,0,
0,0,0,0,0,0,0,0,0,0,0,0,0,0,0,0,71,0,0,0,0,0,0,129,130,131,132,0,0,0,0,0,0,0,0,0,129,130,131,132,0,70,106,107,108,109,0,0,0,0,0,0,0,0,0,0,0,0,0,0,0,0,0,0,
0,0,0,0,0,0,0,0,0,0,0,0,0,0,0,0,0,0,0,0,0,0,0,0,0,0,0,0,0,0,0,0,0,0,0,0,0,0,0,0,0,71,0,0,0,0,0,0,0,0,0,0,0,0,0,0,0,0,0,0,0,0,0,0,
0,0,0,0,0,0,0,0,0,0,0,0,0,0,0,0,0,0,0,0,0,0,0,0,0,0,0,0,0,0,0,0,0,0,0,0,0,0,0,0,0,0,0,0,0,0,0,0,0,0,0,0,0,0,0,0,0,0,0,0,0,0,0,0,
0,0,0,0,0,0,0,0,0,0,0,0,0,0,0,0,0,0,0,0,0,0,0,0,0,0,0,0,0,0,0,0,0,0,0,0,0,0,0,0,0,0,0,0,0,0,0,0,0,0,0,0,0,0,0,0,0,0,0,0,0,0,0,0,
0,0,0,0,0,0,0,0,0,0,0,0,0,0,0,0,0,0,0,0,0,0,0,0,0,0,0,0,0,0,0,0,0,0,0,0,0,0,0,0,0,0,0,0,0,0,0,0,0,0,0,0,0,0,0,0,0,0,0,0,0,0,0,0,
0,0,0,0,0,0,0,0,0,0,0,0,0,0,0,0,0,0,0,0,0,0,0,0,0,0,0,0,0,0,0,0,0,0,0,0,0,0,0,0,0,0,0,0,0,0,0,0,0,0,0,0,31,30,31,30,31,30,31,30,31,30,31,32,
0,0,0,0,0,0,0,0,0,0,0,0,0,0,0,0,0,0,0,0,0,0,0,0,0,0,0,0,0,0,0,0,0,0,0,0,0,0,0,0,0,0,0,0,0,0,0,0,0,0,0,0,34,33,34,33,34,33,34,33,34,33,34,35,
0,0,0,0,0,0,0,0,0,0,0,0,0,0,0,0,0,0,0,0,0,0,0,0,0,0,0,0,0,0,0,0,0,0,0,0,0,0,0,0,0,0,0,0,0,0,0,0,0,0,0,44,31,30,31,30,31,30,31,30,31,30,31,32,
0,0,0,0,0,0,0,0,0,0,0,0,0,0,0,0,0,0,0,0,0,0,0,0,0,0,0,0,0,0,0,0,0,0,0,0,0,0,0,0,0,0,0,0,0,0,0,0,0,0,0,0,34,33,34,33,34,33,34,33,34,33,34,35,
0,0,0,0,0,0,0,0,0,0,0,0,0,0,0,0,0,0,0,0,0,0,0,0,0,0,31,30,31,32,0,0,0,0,31,30,31,30,31,30,31,30,31,30,31,30,31,30,31,30,31,30,31,30,31,30,31,30,31,30,31,30,31,32,
0,0,0,0,0,0,0,0,0,0,0,0,0,0,0,0,0,0,0,0,0,0,0,0,0,0,34,33,34,35,0,0,0,0,34,33,34,33,34,33,34,33,34,33,34,33,34,33,34,33,34,35,34,33,34,33,34,33,34,33,34,33,34,35,
0,0,0,0,0,0,0,0,0,0,0,0,0,0,0,0,0,0,0,0,0,0,0,0,0,0,40,41,40,42,0,0,0,0,40,41,31,30,31,30,31,30,31,30,31,30,31,30,31,30,31,30,31,30,31,30,31,30,31,30,31,30,31,32
  </data>
 </layer>
 <layer id="6" name="upper_above" width="64" height="47">
  <data encoding="csv">
0,0,0,0,0,0,0,0,0,0,0,0,0,44,0,0,0,0,0,0,0,121,122,123,124,0,0,0,0,0,43,0,0,44,0,0,0,0,0,0,0,0,141,142,143,144,141,142,143,144,0,0,0,0,0,0,0,0,0,0,0,0,0,0,
0,0,0,0,0,0,0,0,0,0,0,0,0,0,0,0,0,141,142,143,144,125,126,127,128,0,0,70,0,0,0,0,0,0,0,0,0,0,70,0,0,0,0,0,0,0,0,0,0,0,0,0,0,0,0,0,0,0,0,0,0,0,0,0,
0,0,0,0,0,0,0,0,0,0,0,0,0,0,0,0,0,0,0,0,0,129,130,131,132,0,0,71,0,0,0,0,0,0,0,0,0,0,71,0,0,0,0,0,0,0,0,0,0,0,0,0,0,0,0,0,0,0,0,0,0,0,0,0,
0,0,0,0,0,0,0,0,0,0,0,0,0,0,0,0,0,0,0,0,0,0,0,0,0,0,0,123,0,0,0,0,0,0,0,73,74,0,0,0,73,74,0,0,0,0,0,0,121,122,123,124,0,0,0,0,0,0,0,0,0,0,0,0,
0,0,0,0,0,0,0,0,0,0,0,0,0,0,0,0,0,141,142,143,144,389,389,390,391,0,0,0,0,163,164,165,166,179,180,0,0,0,0,0,0,0,49,50,50,51,0,0,125,126,127,128,0,0,0,0,0,0,0,0,0,0,0,0,
0,0,0,0,0,0,0,0,0,0,0,0,0,0,0,0,0,0,0,0,0,0,0,0,0,0,0,0,0,167,168,169,170,181,182,0,0,0,0,0,0,0,0,0,0,0,0,0,129,130,131,132,0,0,0,0,0,0,0,0,0,0,0,0,
0,0,0,0,0,0,0,0,0,0,350,351,0,0,0,0,0,0,0,0,0,0,0,0,0,0,0,0,0,0,0,0,0,0,0,0,0,0,0,0,0,0,0,0,0,0,0,0,0,0,0,0,0,0,0,0,0,0,0,0,0,0,0,0,
0,0,0,0,0,0,0,0,0,0,348,349,0,0,0,0,0,0,0,0,0,0,0,0,0,0,0,0,0,0,0,0,0,0,0,0,0,0,0,0,0,0,0,0,0,0,70,0,375,376,376,377,0,0,0,0,0,0,0,0,0,0,0,0,
0,0,0,0,0,0,0,0,0,353,354,355,356,0,0,0,0,0,0,0,0,0,0,0,0,0,0,0,0,0,0,0,0,0,0,0,0,0,0,0,0,0,0,0,0,0,71,0,0,0,0,0,0,0,0,0,0,0,0,0,0,0,0,0,
0,0,0,0,0,0,0,0,357,358,359,360,361,362,0,0,0,0,0,403,404,405,406,407,0,0,0,0,0,0,0,0,0,0,0,0,0,0,0,0,0,0,0,0,0,0,0,0,0,0,0,0,0,0,0,0,0,0,0,0,0,0,0,0,
0,0,0,0,0,0,0,0,0,0,0,0,0,0,0,0,0,0,0,411,412,413,414,415,0,0,0,0,0,0,0,0,0,0,0,0,0,0,0,0,0,0,0,0,0,0,0,0,0,0,0,0,0,0,0,0,0,0,0,0,0,0,0,0,
0,0,0,0,0,0,0,0,0,0,0,0,0,0,0,0,0,0,0,0,0,0,0,308,309,310,0,0,0,314,0,0,0,0,0,0,0,0,0,0,0,0,0,0,0,0,0,0,0,0,0,0,0,0,0,0,0,0,0,0,0,0,0,0,
0,0,0,0,0,0,0,0,0,0,0,0,350,351,0,0,0,0,0,0,0,0,0,315,316,317,0,0,0,321,0,0,0,0,0,0,0,0,0,0,0,0,0,0,0,0,0,0,0,0,0,0,448,446,447,447,447,447,447,447,448,446,447,446,
0,0,0,0,0,0,0,0,0,0,0,0,348,349,0,0,0,0,0,0,0,0,0,322,323,324,0,0,0,328,0,0,0,0,0,0,0,0,0,0,0,0,0,0,0,0,0,0,0,0,0,0,453,449,450,451,452,452,450,451,453,449,450,449,
0,0,0,0,0,0,0,0,0,0,0,353,354,355,356,0,0,70,0,0,0,0,0,329,330,331,0,0,0,335,0,0,0,0,0,0,0,0,0,0,0,0,0,0,0,0,0,0,0,0,0,0,458,454,455,456,457,457,455,456,458,454,455,454,
0,0,0,0,0,0,0,0,0,0,357,358,359,360,361,362,0,71,0,0,0,0,0,0,0,0,0,0,0,0,0,0,0,0,0,0,0,0,0,0,0,0,0,0,0,0,0,0,0,0,0,0,461,459,460,460,460,460,460,460,461,459,460,459,
0,0,0,0,0,0,0,0,0,0,0,0,0,0,0,0,0,0,0,0,0,0,0,0,0,0,0,0,0,0,0,0,0,0,0,0,0,0,0,0,0,0,0,0,0,0,0,0,0,0,0,0,0,0,0,0,0,0,0,0,0,0,0,0,
0,0,0,0,0,0,0,0,0,0,0,0,0,0,0,0,0,0,0,0,0,0,0,0,0,0,0,0,0,0,0,0,0,0,0,0,0,0,0,0,0,0,0,0,0,0,0,0,0,0,0,0,0,0,0,0,0,0,0,0,0,0,0,0,
0,0,0,0,0,0,0,0,0,0,73,74,0,0,73,74,0,0,0,0,0,0,0,0,0,0,0,0,0,0,0,0,0,0,98,0,0,0,0,0,0,0,0,0,0,0,0,0,0,0,0,0,0,0,0,0,0,0,0,0,0,0,0,0,
0,0,0,0,0,0,0,0,0,0,0,0,0,0,0,0,0,0,0,0,0,0,0,0,0,0,0,0,0,0,0,0,0,0,0,0,0,0,0,0,0,0,0,0,0,0,0,0,0,0,0,0,0,0,0,0,0,0,0,0,0,0,0,0,
0,0,0,0,0,0,0,0,0,0,0,0,0,0,0,0,0,0,0,0,0,0,0,0,0,0,0,0,0,0,0,0,0,0,0,0,0,0,0,0,0,0,0,0,0,0,0,0,0,0,0,0,0,0,0,0,0,0,0,0,0,0,0,0,
0,0,0,0,0,0,0,0,0,0,0,0,350,351,0,0,0,0,0,0,0,0,0,0,0,0,0,0,0,0,0,0,0,0,0,0,0,0,0,0,0,0,0,0,0,0,0,0,0,0,0,0,0,0,0,0,0,0,0,0,0,0,0,0,
0,0,0,0,0,0,0,0,0,0,0,0,348,349,0,0,0,0,0,0,0,0,0,0,0,0,0,0,0,0,0,0,0,0,0,0,0,0,0,0,0,0,0,0,0,0,0,0,0,0,0,0,0,0,0,0,0,0,0,0,0,0,0,0,
0,0,0,0,0,0,0,0,0,0,0,353,354,355,356,0,0,0,0,0,0,0,0,0,0,0,0,0,0,0,0,0,0,0,0,0,0,347,0,0,248,0,0,375,376,376,377,70,0,0,0,0,0,0,0,0,0,0,0,0,0,0,0,0,
0,0,0,0,0,0,0,0,0,0,357,358,359,360,361,362,0,0,0,0,0,0,0,0,0,0,0,0,0,0,0,0,0,0,0,0,0,0,0,0,0,0,0,0,0,0,0,71,0,0,0,0,0,0,0,0,0,0,0,0,0,0,0,0,
0,0,0,0,0,0,0,0,0,0,0,0,0,0,0,0,0,0,0,0,0,0,0,0,0,0,0,0,0,0,0,0,0,0,0,0,0,0,0,0,0,0,0,0,0,0,0,0,121,122,123,124,0,0,0,0,0,0,0,0,0,0,0,0,
0,0,0,0,0,0,0,0,0,0,0,0,0,0,0,0,0,0,377,0,0,0,0,0,0,0,0,0,0,0,0,0,0,0,0,0,0,0,0,0,0,0,0,0,0,0,0,0,0,0,0,0,0,0,0,0,0,0,0,0,0,0,0,0,
0,0,0,0,0,0,0,0,0,0,0,0,0,0,0,0,0,0,0,0,0,0,0,0,0,0,0,0,0,0,0,0,0,0,0,0,0,0,0,0,0,0,0,0,0,0,0,0,0,0,0,0,0,0,0,0,0,0,0,0,0,0,0,0,
0,0,0,0,0,0,0,0,0,0,0,0,0,0,0,0,0,0,0,0,0,0,0,0,0,0,0,0,0,0,0,0,0,0,0,0,0,0,0,0,0,0,0,0,0,0,0,0,141,142,143,144,0,0,0,0,0,0,0,0,0,0,0,0,
0,0,0,0,0,0,0,0,0,0,0,0,0,0,0,0,0,0,0,0,121,122,123,124,0,0,0,0,0,98,0,0,0,0,0,0,0,0,0,0,0,0,0,0,0,0,0,0,0,0,0,0,0,0,0,0,0,0,0,0,0,0,0,0,
0,0,0,0,0,0,0,0,0,0,0,0,0,0,0,0,0,0,0,0,125,126,127,128,0,0,0,0,0,0,0,0,0,0,0,0,0,0,0,0,0,0,0,0,0,0,0,0,0,0,0,0,0,0,0,0,0,0,0,0,0,0,0,0,
0,0,0,0,0,0,0,0,0,0,0,0,0,0,0,0,0,0,0,0,129,130,131,132,0,0,0,0,0,0,0,0,0,0,0,0,0,0,0,0,0,0,0,0,0,0,0,0,0,0,0,0,0,0,0,0,0,0,0,0,0,0,0,0,
0,0,0,0,0,0,0,0,0,0,0,0,0,0,0,0,0,0,0,0,0,0,0,0,0,0,0,0,0,0,0,0,0,0,0,0,0,0,0,0,0,0,0,0,0,0,0,0,141,142,143,144,0,0,0,0,0,0,0,0,0,0,0,0,
0,0,0,0,0,0,0,0,0,0,0,0,0,0,0,0,0,0,0,389,389,390,391,121,122,123,124,0,0,0,0,0,0,0,0,0,0,0,0,0,0,0,0,0,0,0,0,0,0,0,0,0,0,0,0,0,0,0,0,0,0,0,0,0,
0,0,0,0,0,0,0,0,0,0,0,350,351,0,0,0,0,0,0,0,0,0,0,125,0,0,0,0,0,163,164,165,166,179,180,0,0,0,0,0,0,0,0,0,0,0,0,0,0,0,0,0,0,0,0,0,0,0,0,0,0,0,0,0,
0,0,0,0,0,0,0,0,0,0,0,348,349,0,0,0,0,0,0,0,0,0,0,0,0,0,0,0,0,167,168,169,170,181,182,0,0,0,0,0,0,0,0,0,0,0,0,0,0,0,0,0,0,0,0,0,0,0,0,0,0,0,0,0,
0,0,0,0,0,0,0,0,0,0,353,354,355,356,0,0,0,0,0,0,0,0,0,0,0,0,0,0,0,0,0,0,0,0,0,0,0,0,0,0,0,0,0,0,0,0,0,121,122,123,124,0,0,0,0,0,0,0,0,0,0,0,0,0,
0,0,0,0,0,0,0,0,0,357,358,359,360,361,362,0,121,122,123,124,0,141,142,143,144,141,142,143,144,0,0,0,0,0,0,0,0,0,0,141,142,143,144,0,0,0,0,125,126,127,128,0,0,0,0,0,0,0,0,0,0,0,0,0,
0,0,0,0,0,0,0,0,0,0,0,0,0,0,0,0,125,126,127,128,0,0,0,0,0,0,0,0,0,0,0,0,0,0,0,121,122,123,124,0,0,0,0,0,0,0,0,129,130,131,132,0,38,39,38,39,38,39,38,39,38,39,38,39,
0,0,0,0,350,351,0,0,0,0,0,0,0,0,0,0,129,130,131,132,0,0,0,0,0,0,0,0,0,0,0,0,0,0,0,125,126,127,128,0,0,0,0,0,0,0,0,0,0,0,0,37,45,46,45,46,45,46,45,46,45,46,45,46,
0,0,0,0,348,349,0,0,0,0,0,0,0,0,0,0,0,0,0,0,0,0,0,0,0,0,0,0,0,0,0,0,0,0,0,129,130,131,132,0,0,0,0,0,73,74,0,0,0,0,0,44,0,0,0,0,0,0,0,0,0,0,0,0,
0,0,0,353,354,355,356,0,0,0,0,0,0,0,0,0,0,0,0,0,0,0,0,0,0,0,0,0,0,0,0,0,0,0,0,0,0,0,0,0,0,0,0,0,0,0,0,0,0,0,0,37,0,0,0,0,0,0,0,0,0,0,0,0,
0,0,357,358,359,360,361,362,0,0,0,0,0,0,0,0,0,0,0,0,0,0,0,0,0,0,38,39,38,39,0,0,0,0,38,39,38,39,38,39,38,39,38,39,38,39,38,39,38,39,38,39,0,0,0,0,0,0,0,0,0,0,0,0,
0,0,0,0,0,0,0,0,0,0,0,0,0,0,0,0,0,0,0,0,0,0,0,0,0,37,45,46,45,46,36,0,0,37,45,46,45,46,45,46,45,46,45,46,45,46,45,46,45,46,45,46,0,0,0,0,0,0,0,0,0,0,0,0,
0,0,0,0,0,0,0,0,0,0,0,0,0,0,0,0,0,0,0,0,0,0,0,0,0,44,0,0,0,0,43,0,0,44,0,0,0,0,0,0,0,0,0,0,0,0,0,0,0,0,0,0,0,0,0,0,0,0,0,0,0,0,0,0,
0,0,0,0,0,0,0,0,0,0,0,0,0,0,0,0,0,0,0,0,0,0,0,0,0,37,0,0,0,0,36,0,0,37,0,0,0,0,0,0,0,0,0,0,0,0,0,0,0,0,0,0,0,0,0,0,0,0,0,0,0,0,0,0,
0,0,0,0,0,0,0,0,0,0,0,0,0,0,0,0,0,0,0,0,0,6,7,0,0,44,0,0,0,0,43,0,0,44,0,0,0,0,0,0,0,0,0,0,0,0,0,0,0,0,0,0,0,0,0,0,0,0,0,0,0,0,0,0
  </data>
 </layer>
 </group>
</map>
