<?xml version="1.0" encoding="UTF-8"?>
<map version="1.10" tiledversion="1.10.2" orientation="orthogonal" renderorder="right-down" compressionlevel="0" width="47" height="52" tilewidth="32" tileheight="32" infinite="0" nextlayerid="4" nextobjectid="1">
 <tileset firstgid="1" source="mahogany-town.tsx"/>
 <layer id="1" name="lower" width="47" height="52">
  <data encoding="csv">
0,0,0,0,0,0,0,0,0,0,4,4,4,4,4,4,4,4,4,3,161,156,156,164,4,4,4,4,4,4,4,4,4,4,4,0,0,0,0,0,0,0,0,0,0,0,0,
0,0,0,0,0,0,0,0,0,0,4,4,4,4,4,4,4,4,4,3,161,156,156,164,4,4,4,4,4,4,4,4,4,4,4,0,0,0,0,0,0,0,0,0,0,0,0,
0,0,0,0,0,0,0,0,0,0,4,4,4,4,4,4,4,4,4,4,161,156,156,164,3,4,4,4,4,4,4,4,4,4,4,0,0,0,0,0,0,0,0,0,0,0,0,
0,0,0,0,0,0,0,0,0,0,4,4,4,4,4,4,4,4,4,4,161,156,156,164,3,4,4,4,4,4,4,4,4,4,4,0,0,0,0,0,0,0,0,0,0,0,0,
0,0,0,0,0,0,0,0,0,0,4,4,4,4,4,4,4,4,4,4,161,156,156,164,4,4,4,4,4,4,4,4,4,4,4,0,0,0,0,0,0,0,0,0,0,0,0,
0,0,0,0,0,0,0,0,0,0,4,4,4,4,4,4,4,4,4,4,161,156,156,164,4,4,4,4,4,4,4,4,4,4,4,0,0,0,0,0,0,0,0,0,0,0,0,
0,0,0,0,0,0,0,0,0,0,4,4,4,4,4,4,4,4,4,3,161,156,156,164,4,4,4,4,4,4,4,4,4,4,4,0,0,0,0,0,0,0,0,0,0,0,0,
0,0,0,0,0,0,0,0,0,0,4,4,4,4,4,4,4,4,4,4,161,156,156,164,4,4,4,4,4,4,4,4,4,4,4,0,0,0,0,0,0,0,0,0,0,0,0,
0,0,0,0,0,0,0,0,0,0,4,4,4,4,4,4,4,4,4,4,161,156,156,164,3,4,4,4,4,4,4,4,4,4,4,0,0,0,0,0,0,0,0,0,0,0,0,
0,0,0,0,0,0,0,0,0,0,4,4,4,4,4,4,4,4,4,3,161,156,156,164,3,4,4,4,4,4,4,4,4,4,4,0,0,0,0,0,0,0,0,0,0,0,0,
0,0,0,0,0,0,0,0,0,0,4,4,4,4,4,4,4,4,4,4,161,156,156,164,4,4,4,4,4,4,4,4,4,4,4,0,0,0,0,0,0,0,0,0,0,0,0,
0,0,0,0,0,0,0,0,0,0,4,4,4,4,4,4,4,4,4,4,161,156,156,164,4,4,4,4,4,4,4,4,4,4,4,0,0,0,0,0,0,0,0,0,0,0,0,
0,0,0,0,0,0,0,0,0,0,4,4,4,4,4,4,4,4,4,4,161,156,156,164,4,4,4,4,4,4,4,4,4,4,4,0,0,0,0,0,0,0,0,0,0,0,0,
0,0,0,0,0,0,0,0,0,0,4,4,4,4,4,4,4,4,4,3,161,156,156,164,3,4,4,4,4,4,4,4,4,4,4,0,0,0,0,0,0,0,0,0,0,0,0,
0,0,0,0,0,0,0,0,0,0,4,4,4,4,4,4,4,4,4,3,161,156,156,164,3,4,4,4,4,4,4,4,4,4,4,0,0,0,0,0,0,0,0,0,0,0,0,
4,4,4,4,4,4,4,4,4,4,4,4,4,4,4,4,4,4,4,4,161,156,156,164,4,4,4,4,4,4,4,4,4,4,4,0,0,0,0,0,0,0,0,0,0,0,0,
4,4,4,4,4,4,4,4,4,4,4,4,4,4,4,4,4,4,4,4,161,156,156,164,4,4,4,4,4,4,4,4,4,4,4,0,0,0,0,0,0,0,0,0,0,0,0,
4,4,4,4,4,4,4,4,4,4,4,4,4,4,4,4,4,4,4,170,157,156,159,168,172,4,4,4,4,4,4,4,4,4,4,0,0,0,0,0,0,0,0,0,0,0,0,
4,4,4,4,4,4,4,4,4,4,4,4,4,4,4,4,4,4,4,161,156,156,164,4,169,4,4,4,4,4,4,4,4,4,24,4,4,0,0,0,0,0,0,0,0,0,0,
4,4,4,4,4,4,4,4,4,4,4,4,4,4,4,4,24,4,4,161,156,156,158,163,166,4,4,4,4,4,4,4,4,4,24,4,4,0,0,0,0,0,0,0,0,0,0,
4,4,4,4,4,4,4,4,4,4,4,4,4,4,4,4,4,24,4,161,156,156,156,156,164,4,4,4,4,4,4,23,16,17,17,17,17,15,24,24,24,24,24,24,24,24,0,
163,163,163,163,163,163,163,163,171,4,4,4,4,4,4,4,4,4,4,161,156,156,156,156,164,4,4,4,4,4,4,23,14,4,4,4,4,13,24,24,24,24,24,24,24,24,0,
156,156,156,156,156,156,156,156,164,3,4,4,3,4,4,4,4,3,4,174,167,160,156,156,164,4,4,4,4,4,4,4,14,4,4,4,4,13,24,24,24,24,24,24,24,24,0,
156,156,156,156,156,156,156,156,164,4,5,5,4,4,4,4,4,3,4,3,4,161,156,156,158,163,163,163,163,163,171,4,14,4,4,4,4,13,24,24,24,24,24,24,24,24,0,
156,156,156,156,156,156,156,156,164,3,4,4,3,4,3,4,3,4,5,4,5,174,167,167,167,167,167,160,156,156,164,4,12,10,10,10,10,11,24,24,24,24,24,24,24,24,4,
156,156,156,156,156,156,156,156,164,4,5,5,4,4,4,4,4,4,4,4,4,4,4,4,4,4,4,161,156,156,164,4,4,4,4,4,4,4,4,4,4,4,4,4,4,4,4,
156,156,156,156,156,156,156,156,158,163,163,163,163,163,163,163,163,163,163,163,163,163,171,4,4,4,4,161,156,156,164,4,4,4,4,4,4,4,4,4,4,4,4,4,4,4,4,
156,156,156,156,156,156,156,156,156,156,156,156,156,156,156,156,156,156,156,156,156,156,164,4,4,4,4,161,156,156,164,4,4,4,4,4,4,4,4,4,4,4,4,4,4,4,4,
156,156,156,156,156,156,159,167,167,167,167,167,167,167,167,167,167,167,167,167,160,156,164,4,4,4,4,161,156,156,164,4,4,4,4,4,4,4,4,4,4,4,4,4,4,4,4,
167,167,167,167,167,167,165,24,24,24,24,4,3,4,3,4,3,4,4,4,161,156,158,163,163,163,163,157,156,156,158,163,163,163,163,163,163,163,163,163,163,163,163,163,163,163,163,
1,1,1,1,1,1,162,163,163,163,24,4,4,5,4,4,4,4,4,4,161,156,156,156,156,156,156,156,156,156,156,156,156,156,156,156,156,156,156,156,156,156,156,156,156,156,156,
1,1,1,1,1,1,174,167,167,167,171,4,3,4,4,4,4,4,4,4,174,167,160,156,156,159,167,167,167,167,167,167,167,167,167,167,167,167,167,167,167,167,167,167,167,167,167,
1,1,1,1,1,1,4,4,4,4,173,4,4,5,4,4,4,4,4,4,4,3,161,156,156,164,4,4,4,4,4,4,3,4,4,4,4,4,4,4,4,4,4,4,4,4,4,
4,4,4,4,4,4,4,4,4,4,4,4,4,4,4,4,4,4,4,4,4,4,161,156,156,164,3,4,4,4,4,4,4,5,4,24,24,24,24,24,24,24,24,24,24,24,24,
4,4,4,4,4,4,4,4,4,4,4,4,3,4,4,4,4,4,4,4,4,4,161,156,156,164,4,4,4,4,4,4,3,4,23,23,24,24,24,24,24,24,24,24,24,24,24,
24,24,24,24,24,24,24,24,4,4,4,4,4,5,4,4,4,4,4,4,4,3,161,156,156,164,4,4,4,4,4,4,4,4,23,23,0,0,0,0,24,24,0,0,0,0,0,
4,4,4,4,4,4,4,4,4,4,4,4,170,163,163,163,163,163,163,163,163,163,157,156,156,158,163,163,163,171,3,4,3,3,23,23,0,0,0,0,0,24,0,0,0,0,0,
4,4,4,4,4,4,4,4,4,4,4,4,161,156,156,156,156,156,156,156,156,156,156,156,156,156,156,156,156,164,4,5,4,4,23,23,0,0,0,0,0,0,0,0,0,0,0,
4,4,4,4,4,4,4,4,4,4,4,4,174,167,167,167,167,167,167,167,167,167,167,167,167,167,167,167,167,173,3,4,3,4,23,23,0,0,0,0,0,0,0,0,0,0,0,
4,4,4,4,4,4,4,4,4,4,4,4,4,4,4,4,4,4,4,4,4,4,4,4,4,4,4,4,4,4,4,4,4,4,4,24,0,0,0,0,0,0,0,0,0,0,0,
4,4,4,4,4,4,4,4,4,4,18,24,24,24,24,24,24,24,24,24,24,24,24,24,24,24,24,24,24,24,24,24,24,24,24,19,0,0,0,0,0,0,0,0,0,0,0,
0,0,0,0,0,0,0,0,0,0,24,4,4,4,4,4,4,4,4,4,4,4,4,4,4,4,4,4,4,4,4,4,4,4,4,24,0,0,0,0,0,0,0,0,0,0,0,
0,0,0,0,0,0,0,0,0,0,24,24,24,24,24,24,24,24,24,24,24,24,24,24,24,24,24,24,24,24,24,24,24,24,24,24,0,0,0,0,0,0,0,0,0,0,0,
0,0,0,0,0,0,0,0,0,0,0,0,0,0,0,0,0,0,0,0,0,0,0,0,0,0,0,0,0,0,0,0,24,24,24,24,24,24,24,24,24,24,0,0,0,0,0,
0,0,0,0,0,0,0,0,0,0,0,0,0,0,0,0,0,0,0,0,0,0,0,0,0,0,0,0,0,0,0,0,0,0,0,0,0,0,0,0,0,0,0,0,0,0,0,
0,0,0,0,0,0,0,0,0,0,0,0,0,0,0,0,0,0,0,0,0,0,0,0,0,0,0,0,0,0,0,0,0,0,0,0,0,0,0,0,0,0,0,0,0,0,0,
0,0,0,0,0,0,0,0,0,0,0,0,0,0,0,0,0,0,0,0,0,0,0,0,0,0,0,0,0,0,0,0,0,0,0,0,0,0,0,0,0,0,0,0,0,0,0,
0,0,0,0,0,0,0,0,0,0,0,0,0,0,0,0,0,0,0,0,0,0,0,0,0,0,0,0,0,0,0,0,0,0,0,0,0,0,0,0,0,0,0,0,0,0,24,
0,0,0,0,0,0,0,0,0,0,0,0,0,0,0,0,0,0,0,0,0,0,0,0,0,0,0,0,0,0,0,0,0,0,0,0,0,0,0,0,0,0,0,0,0,0,0,
0,0,0,0,0,0,0,0,0,0,0,0,0,0,0,0,0,0,0,0,0,0,0,0,0,0,0,0,0,0,0,0,0,0,0,0,0,0,0,0,0,0,0,0,0,0,0,
0,0,0,0,0,0,0,0,0,0,0,0,0,0,0,0,0,0,0,0,0,0,0,0,0,0,0,0,0,0,0,0,0,0,0,0,0,0,0,0,0,0,0,0,0,0,0,
0,0,0,0,0,0,0,0,0,0,0,0,0,0,0,0,0,0,0,0,0,0,0,0,0,0,0,0,0,0,0,0,0,0,0,0,0,0,0,0,0,0,0,0,0,0,0
  </data>
 </layer>
 <layer id="2" name="middle" width="47" height="52">
  <data encoding="csv">
24,24,24,24,24,24,24,24,24,24,24,24,24,24,24,24,25,25,25,0,0,0,0,0,0,42,43,42,43,42,43,42,44,23,23,24,24,24,24,24,24,24,24,24,24,24,24,
24,24,24,24,24,24,24,24,24,24,24,24,24,24,24,24,25,25,25,0,0,0,0,0,0,39,40,39,40,39,40,39,41,23,23,24,24,24,24,24,24,24,24,24,24,24,24,
24,24,24,24,24,24,24,24,24,24,24,24,24,24,24,24,25,25,25,0,0,0,0,0,0,42,43,42,43,42,43,42,44,23,23,24,24,24,24,24,24,24,24,24,24,24,24,
24,24,24,24,24,24,24,24,24,24,24,24,24,24,24,24,25,25,25,0,0,0,0,0,0,39,40,39,40,39,40,39,41,23,23,24,24,24,24,24,24,24,24,24,24,24,24,
24,24,24,24,24,24,24,24,24,24,24,24,24,24,24,24,25,25,25,0,0,0,0,0,0,42,43,42,43,42,43,42,44,23,23,24,24,24,24,24,24,24,24,24,24,24,24,
24,24,24,24,24,24,24,24,24,24,24,24,24,24,24,24,25,25,25,0,0,0,0,0,0,39,40,39,40,39,40,39,41,23,23,24,24,24,24,24,24,24,24,24,24,24,24,
24,24,24,24,24,24,24,24,24,24,24,24,24,24,24,24,25,25,25,0,0,0,0,0,0,42,43,42,43,42,43,42,44,23,23,24,24,24,24,24,24,24,24,24,24,24,24,
24,24,24,24,24,24,24,24,24,24,24,24,24,24,24,24,25,25,25,0,0,0,0,0,0,39,40,39,40,39,40,39,41,23,23,24,24,24,24,24,24,24,24,24,24,24,24,
24,24,24,24,24,24,24,24,24,24,24,24,24,24,24,24,25,25,25,0,0,0,0,0,0,42,43,42,43,42,43,42,44,23,23,24,24,24,24,24,24,24,24,24,24,24,24,
24,24,24,24,24,24,24,24,24,24,24,24,24,24,24,24,25,25,25,0,0,0,0,0,0,39,40,39,40,39,40,39,41,23,23,24,24,24,24,24,24,24,24,24,24,24,24,
24,24,24,24,24,24,24,24,24,24,24,24,24,24,24,24,25,25,25,0,0,0,0,0,0,42,43,42,43,42,43,42,44,23,23,24,24,24,24,24,24,24,24,24,24,24,24,
24,24,24,24,24,24,24,24,24,24,24,24,24,24,24,24,25,25,25,2,0,0,0,0,0,39,40,39,40,39,40,39,41,23,23,24,24,24,24,24,24,24,24,24,24,24,24,
24,24,24,24,24,24,24,24,24,24,24,24,24,24,24,24,25,25,25,0,0,0,0,0,0,42,43,42,43,42,43,42,44,23,23,24,24,24,24,24,24,24,24,24,24,24,24,
24,24,24,24,24,24,24,24,24,24,24,24,24,24,24,24,25,25,25,0,0,0,0,0,0,39,40,39,40,39,40,39,41,23,23,24,24,24,24,24,24,24,24,24,24,24,24,
24,24,24,24,24,24,24,24,24,24,24,24,24,24,24,24,25,25,25,0,0,0,0,0,0,42,43,42,43,42,43,42,44,23,23,24,24,24,24,24,24,24,24,24,24,24,24,
24,24,24,24,24,24,24,24,24,24,24,24,24,24,24,24,25,25,25,0,0,0,0,0,0,39,40,39,40,39,40,39,41,23,23,24,24,24,24,24,24,24,24,24,24,24,24,
24,24,24,24,24,24,24,24,24,24,24,24,24,24,24,24,25,25,25,0,0,0,0,0,0,42,43,42,43,42,43,42,44,23,23,24,24,24,24,24,24,24,24,24,24,24,24,
24,24,24,24,24,24,24,24,24,24,24,24,24,24,24,24,25,25,25,0,0,0,0,0,0,39,40,39,40,39,40,50,51,23,23,24,24,24,24,24,24,24,24,24,24,24,24,
24,24,24,24,24,24,24,24,24,24,24,24,24,24,24,24,25,25,25,0,0,0,0,0,0,42,43,42,43,42,43,56,57,23,23,24,24,24,24,24,24,24,24,24,24,24,24,
28,28,28,28,28,28,28,28,28,28,28,28,28,28,28,28,29,25,25,0,0,0,0,0,0,39,40,39,40,39,41,20,21,19,27,28,28,28,9,24,24,24,24,24,24,24,24,
28,28,28,28,28,28,28,28,28,28,28,28,28,28,28,28,28,29,25,0,0,0,0,0,0,42,43,42,43,42,43,45,0,0,0,0,0,0,23,24,24,24,24,24,24,24,24,
28,28,28,28,28,28,28,28,28,28,28,28,28,28,28,28,28,28,29,0,0,0,0,0,0,50,49,50,49,50,51,52,39,40,39,40,39,41,23,24,24,24,24,24,24,24,24,
0,0,0,0,0,0,0,0,0,0,0,0,0,69,0,0,0,0,0,0,0,0,0,0,0,56,57,56,57,56,57,23,42,43,42,43,42,44,23,24,24,24,24,24,24,24,24,
0,0,0,0,0,0,0,0,0,0,0,0,70,69,0,0,0,0,0,0,0,0,0,0,0,0,0,0,0,0,0,23,50,49,50,49,50,51,23,24,24,24,24,24,24,24,24,
0,0,0,0,0,0,0,0,0,71,72,72,72,73,0,0,0,0,0,0,0,0,0,0,74,75,0,0,0,0,0,23,56,57,56,57,56,57,27,28,28,28,28,28,28,28,28,
0,0,0,0,0,0,0,0,0,0,0,0,0,6,7,7,7,7,7,7,7,7,7,76,77,78,79,0,0,0,0,27,28,28,28,28,28,28,28,28,28,28,28,28,28,28,28,
0,0,0,0,0,0,0,0,0,0,0,0,0,0,0,0,0,0,0,0,0,0,0,80,81,82,83,0,0,0,0,0,0,0,0,0,0,0,0,0,0,0,0,0,0,0,0,
0,0,0,0,0,0,0,0,0,0,0,0,0,0,0,0,0,0,0,0,0,0,0,84,85,86,87,69,0,0,0,0,0,0,0,69,0,50,49,50,49,50,49,50,49,50,49,
0,0,0,0,0,0,20,21,21,21,21,22,0,0,0,0,0,0,0,0,0,0,0,88,0,89,70,69,0,0,0,0,0,0,70,69,0,56,57,56,57,56,57,56,57,56,57,
0,0,0,0,0,0,23,20,21,21,22,25,0,0,0,0,0,0,0,0,0,0,0,71,72,72,72,73,0,0,0,71,72,72,72,73,0,0,0,0,0,0,0,0,0,0,0,
0,0,0,0,0,0,23,23,24,24,25,25,0,0,0,0,0,0,0,0,0,0,0,0,0,0,0,0,0,0,0,0,0,0,0,0,0,0,0,0,0,0,0,0,0,0,0,
0,0,0,0,0,0,23,23,24,24,25,25,0,0,114,115,116,117,118,119,120,0,0,0,0,0,0,0,0,0,0,0,0,0,0,0,0,0,0,0,0,0,0,0,0,0,0,
0,0,0,0,0,0,23,23,24,24,25,25,0,0,121,122,123,124,125,126,127,0,0,0,0,0,0,95,96,97,98,99,0,0,20,21,21,21,21,21,21,21,21,21,21,21,21,
21,21,21,21,21,21,19,23,24,24,25,25,7,7,128,129,130,131,132,133,134,0,0,0,0,0,0,100,101,102,103,104,0,0,23,20,21,21,21,21,21,21,21,21,21,21,21,
24,24,24,24,24,24,24,23,24,24,25,25,0,0,135,136,137,138,139,140,141,0,0,0,0,0,0,105,106,107,108,109,7,7,0,64,24,24,24,24,24,69,20,21,21,21,22,
21,21,21,21,21,21,21,19,24,24,25,25,0,0,142,143,144,0,145,146,147,0,0,0,0,0,0,110,111,0,112,113,69,0,64,65,24,24,24,24,70,69,23,24,24,24,25,
24,24,24,24,24,24,24,24,24,24,25,25,0,0,0,0,0,0,0,0,0,0,0,0,0,0,0,71,72,72,72,72,73,0,65,66,24,24,24,24,24,73,23,24,24,24,25,
24,24,24,24,24,24,24,24,24,24,25,25,0,0,0,0,0,0,0,0,0,0,0,0,0,0,0,0,0,0,0,0,0,0,66,67,24,24,24,24,24,24,23,24,24,24,25,
24,24,24,24,24,24,24,24,24,24,25,25,0,0,0,0,0,0,0,0,0,0,0,0,0,0,0,0,0,0,0,0,0,0,67,68,24,24,24,24,24,24,23,24,24,24,25,
24,24,24,24,24,24,24,24,24,24,25,18,21,21,21,21,21,21,21,21,21,21,21,21,21,21,21,21,21,21,21,21,21,21,19,23,24,24,24,24,24,24,23,24,24,24,25,
24,24,24,24,24,24,24,24,24,24,38,34,34,34,34,34,34,34,34,34,34,34,34,34,34,34,34,34,34,34,34,34,34,34,34,37,24,24,24,24,24,24,23,24,24,24,25,
24,24,24,24,24,24,24,24,24,24,33,0,0,0,0,0,0,0,0,0,0,0,0,0,0,0,0,0,0,0,0,0,0,0,0,31,24,24,24,24,24,24,23,24,24,24,25,
24,24,24,24,24,24,24,24,24,24,36,30,30,30,30,30,30,30,30,30,30,30,30,30,30,30,30,30,30,30,30,30,30,30,30,35,24,24,24,24,24,24,23,24,24,24,25,
24,24,24,24,24,24,24,24,24,24,24,24,24,24,24,24,24,24,24,24,24,24,24,24,24,24,24,24,24,24,24,24,20,21,21,21,21,21,21,21,21,21,19,24,24,24,25,
24,24,24,24,24,24,24,24,24,24,24,24,24,24,24,24,24,24,24,24,24,24,24,24,24,24,24,24,24,24,24,24,23,24,24,24,24,24,24,24,24,24,24,24,24,24,25,
24,24,24,24,24,24,24,24,24,24,24,24,24,24,24,24,24,24,24,24,24,24,24,24,24,24,24,24,24,24,24,24,23,24,24,24,24,24,24,24,24,24,24,24,24,24,25,
24,24,24,24,24,24,24,24,24,24,24,24,24,24,24,24,24,24,24,24,24,24,24,24,24,24,24,24,24,24,24,24,23,24,24,24,24,24,24,24,24,24,24,24,24,24,25,
24,24,24,24,24,24,24,24,24,24,24,24,24,24,24,24,24,24,24,24,24,24,24,24,24,24,24,24,24,24,24,24,23,24,24,24,24,8,28,28,28,28,28,28,28,28,29,
24,24,24,24,24,24,24,24,24,24,24,24,24,24,24,24,24,24,24,24,24,24,24,24,24,24,24,24,24,24,24,24,23,24,24,24,24,25,24,24,24,24,24,24,24,24,24,
24,24,24,24,24,24,24,24,24,24,24,24,24,24,24,24,24,24,24,24,24,24,24,24,24,24,24,24,24,24,24,24,23,24,24,24,24,25,24,24,24,24,24,24,24,24,24,
24,24,24,24,24,24,24,24,24,24,24,24,24,24,24,24,24,24,24,24,24,24,24,24,24,24,24,24,24,24,24,24,23,24,24,24,24,25,24,24,24,24,24,24,24,24,24,
24,24,24,24,24,24,24,24,24,24,24,24,24,24,24,24,24,24,24,24,24,24,24,24,24,24,24,24,24,24,24,24,23,24,24,24,24,25,24,24,24,24,24,24,24,24,24
  </data>
 </layer>
 <layer id="3" name="upper" width="47" height="52">
  <data encoding="csv">
0,0,0,0,0,0,0,0,0,0,0,0,0,0,0,0,0,0,0,0,0,0,0,0,46,0,0,0,0,0,0,0,0,45,0,0,0,0,0,0,0,0,0,0,0,0,0,
0,0,0,0,0,0,0,0,0,0,0,0,0,0,0,0,0,0,0,0,0,0,0,0,53,0,0,0,0,0,0,0,0,52,0,0,0,0,0,0,0,0,0,0,0,0,0,
0,0,0,0,0,0,0,0,0,0,0,0,0,0,0,0,0,0,0,0,0,0,0,0,46,0,0,0,0,0,0,0,0,45,0,0,0,0,0,0,0,0,0,0,0,0,0,
0,0,0,0,0,0,0,0,0,0,0,0,0,0,0,0,0,0,0,0,0,0,0,0,53,0,0,0,0,0,0,0,0,52,0,0,0,0,0,0,0,0,0,0,0,0,0,
0,0,0,0,0,0,0,0,0,0,0,0,0,0,0,0,0,0,0,0,0,0,0,0,46,0,0,0,0,0,0,0,0,45,0,0,0,0,0,0,0,0,0,0,0,0,0,
0,0,0,0,0,0,0,0,0,0,0,0,0,0,0,0,0,0,0,0,0,0,0,0,53,0,0,0,0,0,0,0,0,52,0,0,0,0,0,0,0,0,0,0,0,0,0,
0,0,0,0,0,0,0,0,0,0,0,0,0,0,0,0,0,0,0,0,0,0,0,0,46,0,0,0,0,0,0,0,0,45,0,0,0,0,0,0,0,0,0,0,0,0,0,
0,0,0,0,0,0,0,0,0,0,0,0,0,0,0,0,0,0,0,0,0,0,0,0,53,0,0,0,0,0,0,0,0,52,0,0,0,0,0,0,0,0,0,0,0,0,0,
0,0,0,0,0,0,0,0,0,0,0,0,0,0,0,0,0,0,0,0,0,0,0,0,46,0,0,0,0,0,0,0,0,45,0,0,0,0,0,0,0,0,0,0,0,0,0,
0,0,0,0,0,0,0,0,0,0,0,0,0,0,0,0,0,0,0,0,0,0,0,0,53,0,0,0,0,0,0,0,0,52,0,0,0,0,0,0,0,0,0,0,0,0,0,
0,0,0,0,0,0,0,0,0,0,0,0,0,0,0,0,0,0,0,0,0,0,0,0,46,0,0,0,0,0,0,0,0,45,0,0,0,0,0,0,0,0,0,0,0,0,0,
0,0,0,0,0,0,0,0,0,0,0,0,0,0,0,0,0,0,0,0,0,0,0,0,53,0,0,0,0,0,0,0,0,52,0,0,0,0,0,0,0,0,0,0,0,0,0,
0,0,0,0,0,0,0,0,0,0,0,0,0,0,0,0,0,0,0,0,0,0,0,0,46,0,0,0,0,0,0,0,0,45,0,0,0,0,0,0,0,0,0,0,0,0,0,
0,0,0,0,0,0,0,0,0,0,0,0,0,0,0,0,0,0,0,0,0,0,0,0,53,0,0,0,0,0,0,0,0,52,0,0,0,0,0,0,0,0,0,0,0,0,0,
0,0,0,0,0,0,0,0,0,0,0,0,0,0,0,0,0,0,0,0,0,0,0,0,46,0,0,0,0,0,0,0,0,45,0,0,0,0,0,0,0,0,0,0,0,0,0,
0,0,148,152,91,0,0,0,0,0,0,0,0,0,0,0,0,0,0,0,0,0,0,0,53,0,0,0,0,0,0,0,0,52,148,152,91,0,0,0,0,0,0,0,0,0,0,
0,0,149,153,92,0,0,0,0,0,0,0,0,0,0,0,0,0,0,0,0,0,0,0,46,0,0,0,0,0,0,0,0,45,149,153,92,0,0,0,0,0,0,0,0,0,0,
0,0,150,154,93,0,0,0,0,0,0,0,0,0,0,0,0,0,0,0,0,0,0,0,53,0,0,0,0,0,0,0,0,52,150,154,93,0,0,0,0,0,0,0,0,0,0,
0,0,151,155,94,0,0,0,0,0,0,0,0,0,0,0,0,0,0,0,0,0,0,0,46,0,0,0,0,0,0,45,0,0,151,155,94,0,0,0,0,0,0,0,0,0,0,
0,0,0,0,0,0,0,0,0,0,74,75,0,0,0,0,0,0,0,0,0,0,0,0,53,0,0,0,0,0,0,52,47,48,47,48,47,48,0,0,0,0,0,0,0,0,0,
0,0,0,0,0,0,0,0,0,76,77,78,79,0,148,152,91,0,0,0,0,0,0,0,46,0,0,0,0,0,0,46,54,55,54,55,54,55,45,148,152,91,0,0,0,0,0,
0,0,0,0,0,0,0,0,0,80,81,82,83,0,149,153,92,0,0,0,0,0,0,0,53,0,0,0,0,0,0,53,0,0,0,0,0,0,52,149,153,92,0,0,0,0,0,
0,0,0,0,0,0,0,0,0,84,85,86,87,26,150,154,93,0,0,0,0,0,0,0,0,0,0,0,0,0,0,46,0,0,0,0,0,0,45,150,154,93,0,0,0,0,0,
0,0,0,0,0,0,0,0,0,88,0,89,90,26,151,155,94,0,0,0,0,0,0,0,0,0,0,0,0,0,0,53,0,0,0,0,0,0,52,151,155,94,0,0,0,0,0,
0,0,0,0,0,0,0,0,0,0,0,0,0,26,0,0,0,0,0,0,0,0,0,0,0,0,0,0,0,0,0,0,74,75,0,0,0,0,0,0,0,0,0,0,0,0,0,
0,0,0,0,0,0,0,0,0,0,0,0,0,0,0,0,0,0,0,0,0,0,0,0,0,0,0,0,0,0,0,76,77,78,79,47,48,47,48,47,48,47,48,47,48,47,48,
0,0,0,0,0,0,0,0,0,0,0,0,0,0,0,0,0,0,0,0,0,0,0,0,0,0,0,0,0,0,0,80,81,82,83,54,55,54,55,54,55,54,55,54,55,54,55,
0,0,0,0,0,0,0,0,0,0,0,0,0,0,0,0,0,0,0,0,0,0,0,0,0,0,0,0,0,0,0,84,85,86,87,50,49,0,0,0,0,0,0,0,0,0,0,
0,0,0,0,0,0,0,0,0,0,0,0,0,0,0,0,0,0,0,0,0,0,0,0,0,0,90,0,0,0,0,88,0,89,90,56,57,0,0,0,0,0,0,0,0,0,0,
0,0,0,0,0,0,0,0,0,0,0,0,0,0,0,0,0,0,0,0,0,0,0,0,0,0,0,0,0,0,0,0,0,0,0,0,0,0,0,0,0,0,0,0,0,0,0,
0,0,0,0,0,0,0,0,0,0,0,0,0,0,0,0,0,0,0,0,0,0,0,0,0,0,0,0,0,0,0,0,0,0,0,0,0,0,0,0,0,0,0,0,0,0,0,
0,0,0,0,0,0,0,0,0,0,0,0,0,0,0,0,0,0,0,0,0,0,0,0,0,0,0,0,0,0,0,0,0,0,0,0,0,0,74,75,0,0,0,0,0,0,0,
0,0,0,0,0,0,0,0,0,0,0,0,0,0,0,0,0,0,0,0,0,0,0,0,0,0,0,0,0,0,0,0,0,0,0,0,0,76,77,78,79,0,0,0,0,0,0,
0,0,0,0,0,0,0,0,0,0,0,0,0,0,0,0,0,0,0,0,0,0,0,0,0,0,0,0,0,0,0,0,0,0,0,0,0,80,81,82,83,0,0,0,0,0,0,
0,0,0,0,0,0,0,0,0,0,0,0,0,0,0,0,0,0,0,0,0,0,0,0,0,0,0,0,0,0,0,0,0,0,0,0,0,84,85,86,87,63,0,0,0,0,0,
0,0,0,0,0,0,0,148,152,91,0,0,0,0,0,0,0,0,0,0,0,0,0,0,0,0,0,0,0,0,0,0,0,0,0,0,0,88,0,89,90,0,0,0,0,0,0,
0,0,0,0,0,0,0,149,153,92,0,0,0,0,0,0,0,0,0,0,0,0,0,0,0,0,0,0,0,0,0,0,0,0,0,0,0,71,72,72,72,0,0,0,0,0,0,
0,0,0,0,0,0,0,150,154,93,0,0,0,0,0,0,0,0,0,0,0,0,0,0,0,0,0,0,0,0,0,0,0,0,0,0,0,32,0,0,0,0,0,0,0,0,0,
0,0,0,0,0,0,0,151,155,94,0,47,48,47,48,47,48,47,48,47,48,47,48,47,48,47,48,47,48,47,48,47,48,47,48,0,0,0,0,0,0,0,0,0,0,0,0,
0,0,0,0,0,0,0,0,0,0,46,54,55,54,55,54,55,54,55,54,55,54,55,54,55,54,55,54,55,54,55,54,55,54,55,45,0,0,0,0,0,0,0,0,0,0,0,
0,0,0,0,0,0,0,0,0,0,53,50,49,50,49,50,49,50,49,50,49,50,49,50,49,50,49,50,49,50,49,50,49,50,51,52,63,58,59,0,60,0,0,0,0,0,0,
0,0,0,0,0,0,0,0,0,0,0,56,57,56,57,56,57,56,57,56,57,56,57,56,57,56,57,56,57,56,57,56,57,56,57,0,0,61,62,0,0,0,0,0,0,0,0,
0,0,0,0,0,0,0,0,0,0,0,0,0,0,0,0,0,0,0,0,0,0,0,0,0,0,0,0,0,0,0,0,0,148,152,91,0,0,0,63,63,0,0,0,0,0,0,
0,0,0,0,0,0,0,0,0,0,0,0,0,0,0,0,0,0,0,0,0,0,0,0,0,0,0,0,0,0,0,0,0,149,153,92,0,0,0,0,0,0,0,0,0,0,0,
0,0,0,0,0,0,0,0,0,0,0,0,0,0,0,0,0,0,0,0,0,0,0,0,0,0,0,0,0,0,0,0,0,150,154,93,0,0,0,0,0,0,0,0,0,0,0,
0,0,0,0,0,0,0,0,0,0,0,0,0,0,0,0,0,0,0,0,0,0,0,0,0,0,0,0,0,0,0,0,0,151,155,94,0,0,0,0,0,0,0,0,0,0,0,
0,0,0,0,0,0,0,0,0,0,0,0,0,0,0,0,0,0,0,0,0,0,0,0,0,0,0,0,0,0,0,0,0,0,0,0,0,0,0,0,0,0,0,0,0,0,0,
0,0,0,0,0,0,0,0,0,0,0,0,0,0,0,0,0,0,0,0,0,0,0,0,0,0,0,0,0,0,0,0,0,0,0,0,0,0,0,0,0,0,0,0,0,0,0,
0,0,0,0,0,0,0,0,0,0,0,0,0,0,0,0,0,0,0,0,0,0,0,0,0,0,0,0,0,0,0,0,0,0,0,0,0,0,0,0,0,0,0,0,0,0,0,
0,0,0,0,0,0,0,0,0,0,0,0,0,0,0,0,0,0,0,0,0,0,0,0,0,0,0,0,0,0,0,0,0,0,0,0,0,0,0,0,0,0,0,0,0,0,0,
0,0,0,0,0,0,0,0,0,0,0,0,0,0,0,0,0,0,0,0,0,0,0,0,0,0,0,0,0,0,0,0,0,0,0,0,0,0,0,0,0,0,0,0,0,0,0,
0,0,0,0,0,0,0,0,0,0,0,0,0,0,0,0,0,0,0,0,0,0,0,0,0,0,0,0,0,0,0,0,0,0,0,0,0,0,0,0,0,0,0,0,0,0,0
  </data>
 </layer>
 <objectgroup id="4" name="events"/>
</map>
