<?xml version="1.0" encoding="UTF-8"?>
<map version="1.10" tiledversion="1.10.2" orientation="orthogonal" renderorder="right-down" compressionlevel="0" width="64" height="52" tilewidth="32" tileheight="32" infinite="0" nextlayerid="4" nextobjectid="1">
 <tileset firstgid="1" source="mt-moon.tsx"/>
 <layer id="1" name="lower" width="64" height="52">
  <data encoding="csv">
0,0,0,0,0,0,0,0,0,0,0,0,0,0,0,0,0,0,0,0,0,0,0,0,0,0,0,0,0,0,0,0,0,0,0,0,0,0,0,0,0,0,0,0,0,0,0,0,0,0,0,0,0,0,0,0,0,0,0,0,0,0,0,0,
0,0,0,0,0,0,0,0,0,0,0,0,0,0,0,0,0,0,0,0,0,0,0,0,0,0,0,0,0,0,0,0,0,0,0,0,0,0,0,0,0,0,0,0,0,0,0,0,0,0,0,0,0,0,0,0,0,0,0,0,0,0,0,0,
0,0,0,0,0,0,0,0,0,0,0,0,0,0,0,0,0,0,0,0,0,0,0,0,0,0,0,0,0,0,0,0,0,0,0,0,0,0,0,0,0,0,0,0,0,0,0,0,0,0,0,0,0,0,0,0,0,0,0,0,0,0,0,0,
0,0,0,0,0,0,0,0,0,0,0,0,0,0,0,0,0,0,0,0,0,0,0,0,0,0,0,0,0,0,0,0,0,0,0,0,0,0,0,0,0,0,0,0,0,0,0,0,0,0,0,0,0,0,0,0,0,0,0,0,0,0,0,0,
0,0,0,0,0,0,0,0,0,0,0,0,0,0,0,0,0,0,0,0,0,0,0,0,0,0,0,0,0,0,0,0,0,0,0,0,0,0,0,0,0,0,0,0,0,0,0,0,0,0,0,0,0,0,0,0,0,0,0,0,0,0,0,0,
0,0,0,0,0,0,0,0,0,0,0,0,0,0,0,0,0,0,0,0,0,0,0,0,0,0,0,0,0,0,0,0,0,0,0,0,0,0,0,0,0,0,0,0,0,0,0,0,0,0,0,0,0,0,0,0,0,0,0,0,0,0,0,0,
0,0,0,0,0,0,0,0,19,19,19,19,19,19,19,19,19,19,26,26,26,26,26,26,26,26,19,19,19,19,19,19,19,19,19,19,19,19,19,19,19,19,19,19,19,19,19,19,19,19,19,19,19,19,19,19,0,0,0,0,0,0,0,0,
0,0,0,0,0,0,0,0,19,19,19,19,19,19,19,19,19,19,26,26,26,26,26,26,26,26,19,19,19,19,19,19,19,19,19,19,19,19,19,19,19,19,19,19,19,19,19,19,19,19,19,19,19,19,19,19,0,0,0,0,0,0,0,0,
0,0,0,0,0,0,0,0,19,19,19,19,19,19,19,19,19,19,26,26,26,26,26,26,26,26,19,19,19,19,19,19,19,19,19,19,19,19,26,26,26,26,26,26,26,26,19,19,19,19,19,19,19,19,19,19,0,0,0,0,0,0,0,0,
0,0,0,0,0,0,0,0,19,19,19,19,19,19,19,19,26,26,26,26,26,26,26,26,26,26,19,19,19,19,19,19,19,19,19,26,26,26,26,26,26,26,26,26,26,26,26,26,26,26,19,19,19,19,19,19,0,0,0,0,0,0,0,0,
0,0,0,0,0,0,0,0,19,19,19,19,19,19,26,26,26,26,26,26,26,26,26,26,26,26,26,19,19,19,19,19,19,19,26,26,26,26,26,26,26,26,26,26,26,26,26,26,26,26,26,19,19,19,19,19,0,0,0,0,0,0,0,0,
0,0,0,0,0,0,0,0,19,19,19,19,19,26,26,26,26,26,26,26,26,26,26,26,26,26,26,26,19,19,19,26,26,26,26,26,26,26,26,26,26,26,26,26,26,26,26,26,26,26,26,26,19,19,19,19,0,0,0,0,0,0,0,0,
0,0,0,0,0,0,0,0,19,19,19,19,19,26,26,26,26,26,26,26,26,26,26,26,26,26,26,26,26,26,26,26,26,26,26,26,26,26,26,26,26,26,26,26,26,26,26,26,26,26,26,26,26,19,19,19,0,0,0,0,0,0,0,0,
0,0,0,0,0,0,0,0,19,19,19,19,26,26,26,26,26,26,26,26,26,19,19,26,26,26,26,26,26,26,26,26,26,26,26,26,26,26,26,26,26,26,26,26,26,26,26,26,26,26,26,26,26,19,19,19,0,0,0,0,0,0,0,0,
0,0,0,0,0,0,0,0,19,19,19,19,26,26,26,26,26,26,26,26,26,19,19,26,26,26,26,26,26,26,26,26,26,26,26,26,26,26,26,26,26,26,26,26,26,26,26,26,26,26,26,26,26,19,19,19,0,0,0,0,0,0,0,0,
0,0,0,0,0,0,0,0,19,19,19,19,26,26,26,26,26,26,26,26,26,19,19,26,26,26,26,26,26,26,26,26,26,26,26,26,26,26,26,26,26,26,26,26,26,26,26,26,26,26,26,26,26,19,19,19,0,0,0,0,0,0,0,0,
0,0,0,0,0,0,0,0,19,19,19,19,26,26,26,26,26,26,26,26,26,19,19,26,26,26,26,26,26,26,26,26,26,26,26,26,26,26,26,26,26,26,26,26,26,26,26,26,26,26,26,26,26,26,19,19,0,0,0,0,0,0,0,0,
0,0,0,0,0,0,0,0,19,19,19,26,26,26,26,26,26,26,26,26,19,19,19,26,26,26,26,26,26,26,26,26,26,26,26,26,26,26,26,26,26,26,26,26,26,26,26,26,26,26,26,26,26,26,19,19,0,0,0,0,0,0,0,0,
0,0,0,0,0,0,0,0,19,19,19,26,26,26,26,26,26,26,26,26,19,19,19,26,26,26,26,26,26,26,26,26,26,26,26,26,26,26,26,26,26,26,26,26,26,26,26,26,26,26,26,26,26,26,19,19,0,0,0,0,0,0,0,0,
0,0,0,0,0,0,0,0,19,19,19,26,26,26,26,26,26,26,26,26,19,19,19,26,26,26,26,26,26,26,26,26,26,26,26,26,26,26,26,26,26,26,26,26,26,26,26,26,26,26,26,26,26,26,19,19,0,0,0,0,0,0,0,0,
0,0,0,0,0,0,0,0,19,19,19,26,26,26,26,26,26,26,26,26,19,19,19,26,26,26,26,26,26,26,26,26,26,26,26,26,26,26,26,26,26,26,26,26,26,26,26,26,26,26,26,26,26,26,19,19,0,0,0,0,0,0,0,0,
0,0,0,0,0,0,0,0,19,19,19,26,26,26,26,26,26,26,26,26,19,19,19,26,26,26,26,26,26,26,26,26,26,26,26,26,26,26,26,26,26,26,26,26,26,26,26,26,26,26,26,26,26,26,26,19,0,0,0,0,0,0,0,0,
0,0,0,0,0,0,0,0,19,19,19,26,26,26,26,26,26,26,26,26,19,19,19,26,26,26,26,26,26,26,26,26,26,26,26,26,26,26,26,26,26,26,26,26,19,26,26,26,26,26,26,26,26,26,26,26,0,0,0,0,0,0,0,0,
0,0,0,0,0,0,0,0,26,26,26,26,26,26,26,26,26,26,26,26,26,19,26,26,26,26,26,26,26,26,26,26,26,26,26,26,26,26,26,26,26,26,26,19,19,26,26,26,26,26,26,26,26,26,26,26,0,0,0,0,0,0,0,0,
0,0,0,0,0,0,0,0,26,26,26,26,26,26,26,26,26,26,26,26,26,26,26,26,26,26,26,26,26,26,26,26,26,26,26,26,26,26,26,26,26,19,19,19,19,26,26,26,26,26,26,26,26,26,26,26,0,0,0,0,0,0,0,0,
0,0,0,0,0,0,0,0,26,26,26,26,26,26,26,26,26,26,26,26,26,26,26,26,26,26,26,26,26,26,26,26,26,26,26,26,26,26,26,26,19,19,19,19,19,26,26,26,26,26,26,26,26,26,26,26,0,0,0,0,0,0,0,0,
0,0,0,0,0,0,0,0,26,26,26,26,26,26,26,26,26,26,26,26,26,26,26,26,26,26,26,26,26,26,26,26,26,26,26,26,26,26,26,26,19,19,19,19,19,26,26,26,26,26,26,26,26,26,26,26,0,0,0,0,0,0,0,0,
0,0,0,0,0,0,0,0,26,26,26,26,26,26,26,26,26,26,26,26,26,26,26,26,26,26,26,26,26,26,26,26,26,26,26,26,26,26,26,26,19,19,19,19,19,26,26,26,26,26,26,26,26,26,26,26,0,0,0,0,0,0,0,0,
0,0,0,0,0,0,0,0,26,26,26,26,26,26,26,26,26,26,26,26,26,26,26,26,26,26,26,26,26,26,26,26,26,26,26,26,26,26,26,26,26,19,19,19,19,26,26,26,26,26,26,26,26,26,26,26,0,0,0,0,0,0,0,0,
0,0,0,0,0,0,0,0,26,26,26,26,26,26,26,26,26,26,26,26,26,26,26,26,26,26,26,26,26,26,26,26,26,26,26,26,26,26,26,26,26,19,19,19,26,26,26,26,26,26,26,26,26,26,26,26,0,0,0,0,0,0,0,0,
0,0,0,0,0,0,0,0,26,26,26,26,26,26,26,26,26,26,26,26,26,26,26,26,26,26,26,26,26,26,26,26,26,26,26,26,26,26,26,26,26,26,19,19,26,26,26,26,26,26,26,26,26,26,26,26,0,0,0,0,0,0,0,0,
0,0,0,0,0,0,0,0,26,26,26,26,26,26,26,26,26,26,26,26,26,26,26,26,26,26,26,26,26,26,26,26,26,26,26,26,26,26,26,26,26,26,26,26,26,26,26,26,26,26,26,26,26,26,26,26,0,0,0,0,0,0,0,0,
0,0,0,0,0,0,0,0,26,26,26,26,26,26,26,26,26,26,26,26,26,26,26,26,26,26,26,26,26,26,26,26,26,26,26,26,26,26,26,26,26,26,26,26,26,26,26,26,26,26,26,26,26,26,26,26,0,0,0,0,0,0,0,0,
0,0,0,0,0,0,0,0,26,26,26,26,26,26,26,26,26,26,26,26,26,26,26,26,26,26,26,26,26,26,26,26,26,26,26,26,26,26,26,26,26,26,26,26,26,26,26,26,26,26,26,26,26,26,26,26,0,0,0,0,0,0,0,0,
0,0,0,0,0,0,0,0,26,26,26,26,26,26,26,26,26,26,26,26,26,26,26,26,26,26,26,26,26,26,26,26,26,26,26,26,26,26,26,26,26,26,26,26,26,26,26,26,26,26,26,26,26,26,26,26,0,0,0,0,0,0,0,0,
0,0,0,0,0,0,0,0,26,26,26,26,26,26,26,26,26,26,26,26,26,26,26,26,26,26,26,26,26,26,26,26,26,26,26,26,26,26,26,26,26,26,26,26,26,26,26,26,26,26,26,26,26,26,26,19,0,0,0,0,0,0,0,0,
0,0,0,0,0,0,0,0,19,26,26,26,26,26,26,26,26,26,26,26,26,26,26,26,26,26,26,26,26,26,26,26,26,26,26,26,26,26,26,26,26,26,26,26,26,26,26,26,26,26,26,26,26,26,19,19,0,0,0,0,0,0,0,0,
0,0,0,0,0,0,0,0,19,19,26,26,26,26,26,26,26,26,26,26,26,26,26,26,26,26,26,26,26,26,26,26,26,26,26,26,26,26,26,26,26,26,26,26,26,26,26,26,26,26,26,26,26,26,19,19,0,0,0,0,0,0,0,0,
0,0,0,0,0,0,0,0,19,19,19,26,26,26,26,26,26,26,26,26,26,26,26,26,26,26,26,26,26,26,26,26,26,26,26,26,26,26,26,26,26,26,26,26,26,26,26,26,26,26,26,26,26,26,19,19,0,0,0,0,0,0,0,0,
0,0,0,0,0,0,0,0,19,19,19,19,19,26,26,26,26,26,26,26,26,26,26,26,26,26,26,26,26,26,26,26,26,26,26,26,26,26,26,26,26,26,26,26,26,26,26,26,26,26,26,26,26,26,19,19,0,0,0,0,0,0,0,0,
0,0,0,0,0,0,0,0,19,19,19,19,19,19,26,26,26,26,26,26,26,26,26,26,26,26,26,26,26,26,26,26,26,26,26,26,26,26,26,26,26,26,26,26,26,26,26,26,26,26,26,26,26,19,19,19,0,0,0,0,0,0,0,0,
0,0,0,0,0,0,0,0,19,19,19,19,19,19,26,26,26,26,26,26,26,26,26,26,26,26,26,26,26,26,26,26,26,26,26,26,26,26,26,26,26,26,26,26,26,26,26,26,26,26,26,26,26,19,19,19,0,0,0,0,0,0,0,0,
0,0,0,0,0,0,0,0,19,19,19,19,19,19,26,26,26,26,26,26,26,26,26,26,26,26,26,26,26,26,26,26,26,26,26,26,26,26,26,26,26,26,26,26,26,26,26,26,26,26,26,26,19,19,19,19,0,0,0,0,0,0,0,0,
0,0,0,0,0,0,0,0,19,19,19,19,19,19,19,26,26,26,26,26,26,26,26,26,26,26,26,26,26,26,26,26,26,26,26,26,26,26,26,26,26,26,26,26,26,26,26,26,26,26,26,19,19,19,19,19,0,0,0,0,0,0,0,0,
0,0,0,0,0,0,0,0,19,19,19,19,19,19,19,19,19,19,19,26,26,26,26,26,26,26,26,26,26,26,26,26,26,26,26,26,26,26,26,26,26,26,26,26,26,26,26,19,19,19,19,19,19,19,19,19,0,0,0,0,0,0,0,0,
0,0,0,0,0,0,0,0,19,8,8,8,8,8,8,8,8,8,8,8,8,8,8,8,8,8,8,8,8,8,8,8,8,8,8,8,8,8,8,8,8,8,8,8,8,8,8,8,8,8,8,8,8,8,8,8,0,0,0,0,0,0,0,0,
0,0,0,0,0,0,0,0,0,8,8,8,8,8,8,8,8,8,8,8,8,8,8,8,8,8,8,8,8,8,8,8,8,8,8,8,8,8,8,8,8,8,8,8,8,8,8,8,8,8,8,8,8,8,8,8,0,0,0,0,0,0,0,0,
0,0,0,0,0,0,0,0,0,0,0,0,0,0,0,0,0,0,0,0,0,0,0,0,0,0,0,0,0,0,0,0,0,0,0,0,0,0,0,0,0,0,0,0,0,0,0,0,0,0,0,0,0,0,0,0,0,0,0,0,0,0,0,0,
0,0,0,0,0,0,0,0,0,0,0,0,0,0,0,0,0,0,0,0,0,0,0,0,0,0,0,0,0,0,0,0,0,0,0,0,0,0,0,0,0,0,0,0,0,0,0,0,0,0,0,0,0,0,0,0,0,0,0,0,0,0,0,0,
0,0,0,0,0,0,0,0,0,0,0,0,0,0,0,0,0,0,0,0,0,0,0,0,0,0,0,0,0,0,0,0,0,0,0,0,0,0,0,0,0,0,0,0,0,0,0,0,0,0,0,0,0,0,0,0,0,0,0,0,0,0,0,0,
0,0,0,0,0,0,0,0,0,0,0,0,0,0,0,0,0,0,0,0,0,0,0,0,0,0,0,0,0,0,0,0,0,0,0,0,0,0,0,0,0,0,0,0,0,0,0,0,0,0,0,0,0,0,0,0,0,0,0,0,0,0,0,0,
0,0,0,0,0,0,0,0,0,0,0,0,0,0,0,0,0,0,0,0,0,0,0,0,0,0,0,0,0,0,0,0,0,0,0,0,0,0,0,0,0,0,0,0,0,0,0,0,0,0,0,0,0,0,0,0,0,0,0,0,0,0,0,0
  </data>
 </layer>
 <layer id="2" name="middle" width="64" height="52">
  <data encoding="csv">
8,8,8,8,8,8,8,8,8,8,8,8,8,8,8,8,8,8,8,8,8,8,8,8,8,8,8,8,8,8,8,8,8,8,8,8,8,8,8,8,8,8,8,8,8,8,8,8,8,8,8,8,8,8,8,8,8,8,8,8,8,8,8,8,
8,8,8,8,8,8,8,8,8,8,8,8,8,8,8,8,8,8,8,8,8,8,8,8,8,8,8,8,8,8,8,8,8,8,8,8,8,8,8,8,8,8,8,8,8,8,8,8,8,8,8,8,8,8,8,8,8,8,8,8,8,8,8,8,
8,8,8,8,8,8,8,8,8,8,8,8,8,8,8,8,8,8,8,8,8,8,8,8,8,8,8,8,8,8,8,8,8,8,8,8,8,8,8,8,8,8,8,8,8,8,8,8,8,8,8,8,8,8,8,8,8,8,8,8,8,8,8,8,
8,8,8,8,8,8,8,8,8,8,8,8,8,8,8,8,8,8,8,8,8,8,8,8,8,8,8,8,8,8,8,8,8,8,8,8,8,8,8,8,8,8,8,8,8,8,8,8,8,8,8,8,8,8,8,8,8,8,8,8,8,8,8,8,
8,8,8,8,8,8,8,8,8,8,8,8,8,8,8,8,8,8,8,8,8,8,8,8,8,8,8,8,8,8,8,8,8,8,8,8,8,8,8,8,8,8,8,8,8,8,8,8,8,8,8,8,8,8,8,8,8,8,8,8,8,8,8,8,
8,8,8,8,8,8,8,8,8,8,8,8,8,8,8,8,8,8,8,8,8,8,8,8,8,8,8,8,8,8,8,8,8,8,8,8,8,8,8,8,8,8,8,8,8,8,8,8,8,8,8,8,8,8,8,8,8,8,8,8,8,8,8,8,
8,8,8,8,8,8,8,8,4,13,13,13,13,13,13,13,13,13,13,13,13,13,5,8,8,8,4,13,13,13,13,13,13,13,13,13,13,13,13,13,13,13,13,13,13,13,13,13,13,13,13,13,13,13,13,5,8,8,8,8,8,8,8,8,
8,8,8,8,8,8,8,8,9,4,13,13,13,13,13,13,13,13,13,13,13,5,8,8,8,4,31,4,13,13,13,13,13,13,13,13,13,13,13,13,13,13,13,13,13,13,13,13,13,13,13,13,13,13,5,7,8,8,8,8,8,8,8,8,
8,8,8,8,8,8,8,8,9,9,0,0,0,0,0,0,0,0,20,30,30,7,8,8,4,31,4,14,0,0,0,0,0,0,0,0,0,0,24,22,22,22,22,22,22,25,0,0,0,0,0,0,0,0,7,7,8,8,8,8,8,8,8,8,
8,8,8,8,8,8,8,8,9,9,0,0,0,0,0,0,24,22,23,0,6,7,8,4,31,4,14,0,0,0,0,0,0,0,0,24,22,22,23,0,0,0,0,0,0,21,22,22,22,25,0,0,0,0,7,7,8,8,8,8,8,8,8,8,
8,8,8,8,8,8,8,8,9,9,0,0,0,0,24,22,23,0,0,0,0,7,8,8,4,14,21,25,0,0,0,0,0,0,24,23,0,0,0,0,0,0,0,0,0,0,0,0,0,21,25,0,0,0,7,7,8,8,8,8,8,8,8,8,
8,8,8,8,8,8,8,8,9,9,0,0,0,24,23,0,0,0,0,0,0,7,8,8,9,6,0,21,25,0,0,24,22,22,23,0,0,0,0,0,0,0,0,0,0,0,0,0,0,0,21,25,0,0,7,7,8,8,8,8,8,8,8,8,
8,8,8,8,8,8,8,8,9,9,0,0,24,23,0,0,0,0,0,0,0,7,8,4,14,0,0,0,21,22,22,23,0,0,0,0,0,0,0,0,0,0,0,0,0,0,0,0,0,30,0,21,25,0,7,7,8,8,8,8,8,8,8,8,
8,8,8,8,8,8,8,8,9,9,0,0,20,0,0,0,0,0,0,0,0,7,8,9,30,0,0,0,0,0,0,0,0,0,0,0,0,0,0,0,0,0,0,0,0,0,0,0,0,0,0,0,18,0,7,7,8,8,8,8,8,8,8,8,
8,8,8,8,8,8,8,8,9,9,0,0,20,0,0,0,0,0,0,0,0,7,8,9,0,0,0,0,0,0,0,0,0,0,0,0,0,0,0,0,0,0,0,0,0,0,0,0,6,0,0,6,18,0,7,7,8,8,8,8,8,8,8,8,
8,8,8,8,8,8,8,8,9,9,0,0,20,0,0,0,0,0,0,0,0,7,8,9,0,0,0,0,0,0,0,0,0,0,0,0,0,0,0,0,0,0,0,0,0,0,0,0,0,6,30,0,18,0,7,7,8,8,8,8,8,8,8,8,
8,8,8,8,8,8,8,8,9,9,0,0,20,0,0,0,0,0,0,15,16,7,8,9,0,0,0,0,1,2,2,2,2,3,1,2,2,2,2,3,1,2,3,0,0,0,0,0,0,0,0,0,21,25,7,7,8,8,8,8,8,8,8,8,
8,8,8,8,8,8,8,8,9,9,0,24,23,0,0,0,0,0,0,18,0,7,8,9,0,0,0,0,7,8,8,8,8,9,7,8,8,8,8,9,7,8,9,0,0,0,0,0,0,0,0,0,0,18,7,7,8,8,8,8,8,8,8,8,
8,8,8,8,8,8,8,8,9,9,0,20,0,0,0,0,0,0,0,18,0,7,8,9,0,0,0,0,12,13,13,13,13,14,12,13,13,13,13,14,12,13,14,0,0,0,0,0,0,0,0,0,0,18,7,7,8,8,8,8,8,8,8,8,
8,8,8,8,8,8,8,8,9,9,0,20,0,0,0,0,0,0,0,18,0,7,8,9,0,0,0,0,1,2,3,6,30,0,0,0,0,0,6,6,30,6,0,0,15,17,0,0,0,0,0,0,0,18,7,7,8,8,8,8,8,8,8,8,
8,8,8,8,8,8,8,8,9,9,0,20,0,0,0,0,0,0,0,18,0,7,8,9,0,0,0,0,7,8,9,30,0,0,0,0,0,0,0,0,0,0,0,0,18,20,0,1,2,3,0,0,0,18,7,7,8,8,8,8,8,8,8,8,
8,8,8,8,8,8,8,8,9,9,0,20,0,0,0,0,0,0,0,18,0,7,8,9,0,0,0,0,7,8,9,30,0,0,0,0,0,0,0,32,0,0,0,15,28,20,0,7,8,9,0,0,0,21,7,7,8,8,8,8,8,8,8,8,
8,8,8,8,8,8,8,8,9,9,0,20,0,0,0,0,0,0,0,18,0,12,13,14,0,0,0,0,7,8,9,0,0,0,0,0,0,0,33,34,35,0,15,28,0,20,0,7,8,9,0,0,0,0,7,7,8,8,8,8,8,8,8,8,
8,8,8,8,8,8,8,8,9,9,22,23,0,0,0,0,0,0,0,21,25,0,24,23,0,0,0,0,7,8,9,0,0,0,0,1,2,3,0,0,15,16,28,0,0,20,0,7,8,9,0,0,0,0,7,7,8,8,8,8,8,8,8,8,
8,8,8,8,8,8,8,8,9,9,0,0,0,0,0,0,0,0,0,0,21,22,23,0,0,0,0,0,12,13,14,0,0,0,0,7,8,9,0,15,28,0,0,0,0,20,0,7,8,9,0,0,0,0,7,7,8,8,8,8,8,8,8,8,
8,8,8,8,8,8,8,8,9,9,1,2,2,2,2,2,2,2,3,0,0,0,0,0,0,0,0,0,1,2,3,0,0,0,0,7,8,9,0,18,0,0,0,0,0,20,0,12,13,14,0,0,0,0,7,7,8,8,8,8,8,8,8,8,
8,8,8,8,8,8,8,8,9,9,7,8,8,8,8,8,8,8,9,0,0,0,0,0,0,0,0,0,7,8,9,0,0,0,0,7,8,9,0,18,0,0,0,0,0,20,0,1,2,3,0,0,0,0,7,7,8,8,8,8,8,8,8,8,
8,8,8,8,8,8,8,8,9,9,12,13,13,13,13,13,5,8,9,0,0,0,0,0,0,0,0,0,7,8,9,0,0,0,0,7,8,9,0,18,0,0,0,0,0,20,0,7,8,9,0,0,0,0,7,7,8,8,8,8,8,8,8,8,
8,8,8,8,8,8,8,8,9,9,0,0,0,0,6,30,7,8,9,1,2,2,2,2,2,2,2,3,7,8,9,0,0,0,0,12,13,14,0,21,25,0,0,0,0,20,0,7,8,9,0,0,0,0,7,7,8,8,8,8,8,8,8,8,
8,8,8,8,8,8,8,8,9,9,0,0,0,0,0,30,7,8,9,7,8,8,8,8,8,8,8,9,7,8,9,0,0,0,0,1,2,3,0,0,18,0,0,0,24,23,0,7,8,9,0,0,0,0,7,7,8,8,8,8,8,8,8,8,
8,8,8,8,8,8,8,8,9,9,0,0,0,0,0,0,7,8,9,12,13,13,13,13,13,13,13,14,12,13,14,0,0,0,0,7,8,9,0,0,21,25,0,0,20,0,0,7,8,9,0,0,0,0,7,7,8,8,8,8,8,8,8,8,
8,8,8,8,8,8,8,8,9,9,0,0,0,0,0,0,7,8,9,0,0,0,0,0,0,0,0,0,0,0,0,0,0,0,0,7,8,9,0,0,0,21,22,22,23,0,0,12,13,14,0,0,0,0,7,7,8,8,8,8,8,8,8,8,
8,8,8,8,8,8,8,8,9,9,0,0,0,0,0,0,7,8,9,0,0,0,0,0,0,0,0,0,0,0,0,0,0,0,0,7,8,9,0,0,0,0,0,0,0,0,0,1,2,3,0,0,0,0,7,7,8,8,8,8,8,8,8,8,
8,8,8,8,8,8,8,8,9,9,0,0,0,0,0,0,12,13,14,0,0,0,0,0,0,0,0,0,0,0,0,0,0,0,0,7,8,9,0,0,0,0,0,0,0,0,0,7,8,9,0,0,0,0,7,7,8,8,8,8,8,8,8,8,
8,8,8,8,8,8,8,8,9,9,0,0,0,0,0,0,0,0,0,0,0,0,0,0,0,0,0,0,0,0,0,0,0,0,0,12,13,14,0,0,0,0,0,0,0,0,0,7,8,9,0,0,0,0,7,7,8,8,8,8,8,8,8,8,
8,8,8,8,8,8,8,8,9,9,0,0,0,0,0,0,0,0,0,0,0,0,0,0,0,0,0,0,1,2,2,3,1,2,2,2,2,3,0,0,0,1,2,3,0,0,0,7,8,9,0,0,0,15,7,7,8,8,8,8,8,8,8,8,
8,8,8,8,8,8,8,8,9,9,17,0,0,0,0,0,0,0,0,0,0,0,0,0,0,0,0,0,7,8,8,9,7,8,8,8,8,9,0,0,0,7,8,9,0,0,0,7,8,9,0,0,0,18,7,7,8,8,8,8,8,8,8,8,
8,8,8,8,8,8,8,8,9,9,27,17,0,0,0,0,0,0,0,0,0,0,6,6,0,0,0,0,7,8,8,9,12,13,13,13,13,14,0,0,0,7,8,9,0,0,0,12,13,14,0,0,0,18,7,7,8,8,8,8,8,8,8,8,
8,8,8,8,8,8,8,8,9,9,0,27,16,17,0,0,0,0,0,0,0,1,2,2,3,0,0,0,7,8,8,9,6,0,0,0,0,0,0,0,0,7,8,9,0,0,0,0,0,0,0,0,0,18,7,7,8,8,8,8,8,8,8,8,
8,8,8,8,8,8,8,8,9,9,0,0,0,27,17,0,0,0,0,0,0,7,8,8,9,0,0,0,7,8,8,9,30,30,0,0,0,0,0,0,0,7,8,9,0,0,0,0,0,0,0,0,15,28,7,7,8,8,8,8,8,8,8,8,
8,8,8,8,8,8,8,8,9,9,0,0,0,0,20,0,0,0,0,0,0,7,8,8,9,0,0,0,7,8,8,9,6,30,0,0,0,0,0,0,0,12,13,14,0,0,0,0,0,0,0,0,18,0,7,7,8,8,8,8,8,8,8,8,
8,8,8,8,8,8,8,8,9,9,0,0,0,0,20,0,0,0,0,0,0,7,8,8,9,0,0,0,7,8,8,9,30,0,0,0,0,0,0,0,0,0,0,0,0,0,0,0,0,0,0,15,28,0,7,7,8,8,8,8,8,8,8,8,
8,8,8,8,8,8,8,8,9,9,0,0,0,0,27,17,0,0,0,0,0,7,8,8,9,0,0,0,7,8,8,9,0,0,0,0,0,0,0,0,0,0,0,0,0,0,0,0,0,0,15,28,0,0,7,7,8,8,8,8,8,8,8,8,
8,8,8,8,8,8,8,8,9,9,0,0,0,0,0,27,16,16,17,0,0,12,13,13,14,0,0,0,12,13,13,14,0,0,0,0,0,0,0,0,0,0,0,0,0,0,15,16,16,16,28,0,0,0,7,7,8,8,8,8,8,8,8,8,
8,8,8,8,8,8,8,8,9,10,2,2,2,2,2,2,2,2,2,2,2,2,2,2,2,2,29,2,2,2,2,2,2,2,2,2,2,2,2,2,2,2,2,2,2,2,2,2,2,2,2,2,2,2,11,7,8,8,8,8,8,8,8,8,
8,8,8,8,8,8,8,8,10,2,2,2,2,2,2,2,2,2,2,2,2,2,2,2,2,2,2,2,2,2,2,2,2,2,2,2,2,2,2,2,2,2,2,2,2,2,2,2,2,2,2,2,2,2,2,11,8,8,8,8,8,8,8,8,
8,8,8,8,8,8,8,8,8,8,8,8,8,8,8,8,8,8,8,8,8,8,8,8,8,8,8,8,8,8,8,8,8,8,8,8,8,8,8,8,8,8,8,8,8,8,8,8,8,8,8,8,8,8,8,8,8,8,8,8,8,8,8,8,
8,8,8,8,8,8,8,8,8,8,8,8,8,8,8,8,8,8,8,8,8,8,8,8,8,8,8,8,8,8,8,8,8,8,8,8,8,8,8,8,8,8,8,8,8,8,8,8,8,8,8,8,8,8,8,8,8,8,8,8,8,8,8,8,
8,8,8,8,8,8,8,8,8,8,8,8,8,8,8,8,8,8,8,8,8,8,8,8,8,8,8,8,8,8,8,8,8,8,8,8,8,8,8,8,8,8,8,8,8,8,8,8,8,8,8,8,8,8,8,8,8,8,8,8,8,8,8,8,
8,8,8,8,8,8,8,8,8,8,8,8,8,8,8,8,8,8,8,8,8,8,8,8,8,8,8,8,8,8,8,8,8,8,8,8,8,8,8,8,8,8,8,8,8,8,8,8,8,8,8,8,8,8,8,8,8,8,8,8,8,8,8,8,
8,8,8,8,8,8,8,8,8,8,8,8,8,8,8,8,8,8,8,8,8,8,8,8,8,8,8,8,8,8,8,8,8,8,8,8,8,8,8,8,8,8,8,8,8,8,8,8,8,8,8,8,8,8,8,8,8,8,8,8,8,8,8,8,
8,8,8,8,8,8,8,8,8,8,8,8,8,8,8,8,8,8,8,8,8,8,8,8,8,8,8,8,8,8,8,8,8,8,8,8,8,8,8,8,8,8,8,8,8,8,8,8,8,8,8,8,8,8,8,8,8,8,8,8,8,8,8,8
  </data>
 </layer>
 <layer id="3" name="upper" width="64" height="52">
  <data encoding="csv">
0,0,0,0,0,0,0,0,0,0,0,0,0,0,0,0,0,0,0,0,0,0,0,0,0,0,0,0,0,0,0,0,0,0,0,0,0,0,0,0,0,0,0,0,0,0,0,0,0,0,0,0,0,0,0,0,0,0,0,0,0,0,0,0,
0,0,0,0,0,0,0,0,0,0,0,0,0,0,0,0,0,0,0,0,0,0,0,0,0,0,0,0,0,0,0,0,0,0,0,0,0,0,0,0,0,0,0,0,0,0,0,0,0,0,0,0,0,0,0,0,0,0,0,0,0,0,0,0,
0,0,0,0,0,0,0,0,0,0,0,0,0,0,0,0,0,0,0,0,0,0,0,0,0,0,0,0,0,0,0,0,0,0,0,0,0,0,0,0,0,0,0,0,0,0,0,0,0,0,0,0,0,0,0,0,0,0,0,0,0,0,0,0,
0,0,0,0,0,0,0,0,0,0,0,0,0,0,0,0,0,0,0,0,0,0,0,0,0,0,0,0,0,0,0,0,0,0,0,0,0,0,0,0,0,0,0,0,0,0,0,0,0,0,0,0,0,0,0,0,0,0,0,0,0,0,0,0,
0,0,0,0,0,0,0,0,0,0,0,0,0,0,0,0,0,0,0,0,0,0,0,0,0,0,0,0,0,0,0,0,0,0,0,0,0,0,0,0,0,0,0,0,0,0,0,0,0,0,0,0,0,0,0,0,0,0,0,0,0,0,0,0,
0,0,0,0,0,0,0,0,0,0,0,0,0,0,0,0,0,0,0,0,0,0,0,0,0,0,0,0,0,0,0,0,0,0,0,0,0,0,0,0,0,0,0,0,0,0,0,0,0,0,0,0,0,0,0,0,0,0,0,0,0,0,0,0,
0,0,0,0,0,0,0,0,0,0,0,0,0,0,0,0,0,0,0,0,0,0,0,0,0,0,0,0,0,0,0,0,0,0,0,0,0,0,0,0,0,0,0,0,0,0,0,0,0,0,0,0,0,0,0,0,0,0,0,0,0,0,0,0,
0,0,0,0,0,0,0,0,0,0,0,0,0,0,0,0,0,0,0,0,0,0,7,0,0,0,14,0,0,0,0,0,0,0,0,0,0,0,0,0,0,0,0,0,0,0,0,0,0,0,0,0,0,0,0,0,0,0,0,0,0,0,0,0,
0,0,0,0,0,0,0,0,0,0,0,0,0,0,0,0,0,0,0,0,0,0,7,0,0,14,0,0,0,0,0,0,0,0,0,0,0,0,0,0,0,0,0,0,0,0,0,0,0,0,0,0,0,0,0,0,0,0,0,0,0,0,0,0,
0,0,0,0,0,0,0,0,0,0,0,0,0,0,0,0,0,0,0,0,0,0,7,0,14,0,0,0,0,0,0,0,0,0,0,0,0,0,0,0,0,0,0,0,0,0,0,0,0,0,0,0,0,0,0,0,0,0,0,0,0,0,0,0,
0,0,0,0,0,0,0,0,0,0,0,0,0,0,0,0,0,0,0,0,0,0,12,14,0,0,0,0,0,0,0,0,0,0,0,0,0,0,0,0,0,0,0,0,0,0,0,0,0,0,0,0,0,0,0,0,0,0,0,0,0,0,0,0,
0,0,0,0,0,0,0,0,0,0,0,0,0,32,0,0,0,0,0,0,0,0,0,0,0,0,0,0,0,0,0,0,0,0,0,0,0,0,0,0,0,0,0,0,0,0,0,0,0,0,0,0,0,0,0,0,0,0,0,0,0,0,0,0,
0,0,0,0,0,0,0,0,0,0,0,0,33,34,35,0,0,0,0,0,0,0,0,0,0,0,0,0,0,0,0,0,0,0,0,0,0,0,0,0,0,0,0,0,0,0,0,0,0,0,0,0,0,0,0,0,0,0,0,0,0,0,0,0,
0,0,0,0,0,0,0,0,0,0,0,0,0,0,0,0,0,0,0,0,0,0,0,0,0,0,0,0,0,0,0,0,0,0,0,0,0,0,0,0,0,0,0,0,0,0,0,0,0,0,0,0,0,0,0,0,0,0,0,0,0,0,0,0,
0,0,0,0,0,0,0,0,0,0,0,0,0,0,0,0,0,0,0,0,0,0,0,0,0,0,0,0,0,0,0,0,0,0,0,0,0,0,0,0,0,0,0,0,0,0,0,0,0,0,0,0,0,0,0,0,0,0,0,0,0,0,0,0,
0,0,0,0,0,0,0,0,0,0,0,0,0,0,0,0,0,0,0,0,0,0,0,0,0,0,0,0,0,0,0,0,0,0,0,0,0,0,0,0,0,0,0,0,0,0,0,0,0,0,0,0,0,0,0,0,0,0,0,0,0,0,0,0,
0,0,0,0,0,0,0,0,0,0,0,0,0,0,0,0,0,0,0,0,0,0,0,0,0,0,0,0,0,0,0,0,0,0,0,0,0,0,0,0,0,0,0,0,0,0,0,0,0,0,0,0,0,0,0,0,0,0,0,0,0,0,0,0,
0,0,0,0,0,0,0,0,0,0,0,0,0,0,0,0,0,0,0,0,0,0,0,0,0,0,0,0,0,0,0,0,0,0,0,0,0,0,0,0,0,0,0,0,0,0,0,0,0,0,0,0,0,0,0,0,0,0,0,0,0,0,0,0,
0,0,0,0,0,0,0,0,0,0,0,0,0,0,0,0,0,0,0,0,0,0,0,0,0,0,0,0,0,0,0,0,0,0,0,0,0,0,0,0,0,0,0,0,0,0,0,0,0,0,0,0,0,0,0,0,0,0,0,0,0,0,0,0,
0,0,0,0,0,0,0,0,0,0,0,0,0,0,0,0,0,0,0,0,0,0,0,0,0,0,0,32,0,0,0,0,0,0,0,0,0,0,0,0,0,0,0,0,0,0,0,0,0,0,0,0,0,0,0,0,0,0,0,0,0,0,0,0,
0,0,0,0,0,0,0,0,0,0,0,0,0,0,0,0,0,0,0,0,0,0,0,0,0,0,33,34,35,0,0,0,0,0,0,0,0,0,0,0,0,0,0,0,0,0,0,0,0,0,0,0,0,0,0,0,0,0,0,0,0,0,0,0,
0,0,0,0,0,0,0,0,0,0,0,0,0,0,0,0,0,0,0,0,0,0,0,0,0,0,0,0,0,0,0,0,0,0,0,0,0,0,0,0,0,0,0,0,0,0,0,0,0,0,0,0,0,0,0,0,0,0,0,0,0,0,0,0,
0,0,0,0,0,0,0,0,0,0,0,0,0,0,0,0,0,0,0,0,0,0,0,0,0,0,0,0,0,0,0,0,0,0,0,0,0,0,0,0,0,0,0,0,0,0,0,0,0,0,0,0,0,0,0,0,0,0,0,0,0,0,0,0,
0,0,0,0,0,0,0,0,0,0,0,0,0,0,0,0,0,0,0,0,0,0,0,0,0,0,0,0,0,0,0,0,0,0,0,0,0,0,0,0,0,0,0,0,0,0,0,0,0,0,0,0,0,0,0,0,0,0,0,0,0,0,0,0,
0,0,0,0,0,0,0,0,0,0,0,0,0,0,0,0,0,0,0,0,0,0,0,0,0,0,0,0,0,0,0,0,0,0,0,0,0,0,0,0,0,0,0,0,0,0,0,0,0,0,0,0,0,0,0,0,0,0,0,0,0,0,0,0,
0,0,0,0,0,0,0,0,0,0,0,0,0,0,0,0,0,0,0,0,0,0,0,0,0,0,0,0,0,0,0,0,0,0,0,0,0,0,0,0,0,0,0,0,0,0,0,0,0,0,0,0,0,0,0,0,0,0,0,0,0,0,0,0,
0,0,0,0,0,0,0,0,0,0,0,0,0,0,0,0,0,0,0,0,0,0,0,0,0,0,0,0,0,0,0,0,0,0,0,0,0,0,0,0,0,0,0,0,0,0,0,0,0,0,0,0,0,0,0,0,0,0,0,0,0,0,0,0,
0,0,0,0,0,0,0,0,0,0,0,0,0,0,0,0,0,0,0,0,0,0,0,0,0,0,0,0,0,0,0,0,0,0,0,0,0,0,0,0,0,0,0,0,0,0,0,0,0,0,0,0,0,0,0,0,0,0,0,0,0,0,0,0,
0,0,0,0,0,0,0,0,0,0,0,0,0,0,0,0,0,0,0,0,0,0,0,0,0,0,0,0,0,0,0,0,0,0,0,0,0,0,0,0,0,0,0,0,0,0,0,0,0,0,0,0,0,0,0,0,0,0,0,0,0,0,0,0,
0,0,0,0,0,0,0,0,0,0,0,0,0,0,0,0,0,0,0,0,0,0,0,0,0,0,0,0,0,0,0,0,0,0,0,0,0,0,0,0,0,0,0,0,0,0,0,0,0,0,0,0,0,0,0,0,0,0,0,0,0,0,0,0,
0,0,0,0,0,0,0,0,0,0,0,0,0,0,0,0,0,0,0,0,0,0,0,0,0,0,0,0,0,0,0,0,0,0,0,0,0,0,0,0,0,0,0,0,0,0,0,0,0,0,0,0,0,0,0,0,0,0,0,0,0,0,0,0,
0,0,0,0,0,0,0,0,0,0,0,0,0,0,0,0,0,0,0,0,0,0,0,0,0,0,0,0,0,0,0,0,0,0,0,0,0,0,0,0,0,0,0,0,0,0,0,0,0,0,0,0,0,0,0,0,0,0,0,0,0,0,0,0,
0,0,0,0,0,0,0,0,0,0,0,0,0,0,0,0,0,0,0,0,0,0,0,0,0,0,0,0,0,0,0,0,0,0,0,0,0,0,0,0,0,0,0,0,0,0,0,0,0,0,0,0,0,0,0,0,0,0,0,0,0,0,0,0,
0,0,0,0,0,0,0,0,0,0,0,0,0,0,0,0,0,0,0,0,0,0,0,0,0,0,0,0,0,0,0,0,0,0,0,0,0,0,0,0,0,0,0,0,0,0,0,0,0,0,0,0,0,0,0,0,0,0,0,0,0,0,0,0,
0,0,0,0,0,0,0,0,0,0,0,0,0,0,0,0,0,0,0,0,0,0,0,0,0,0,0,0,0,0,0,0,0,0,0,0,0,0,0,0,0,0,0,0,0,0,0,0,0,0,0,0,0,0,0,0,0,0,0,0,0,0,0,0,
0,0,0,0,0,0,0,0,0,0,0,0,0,0,0,0,0,0,0,0,0,0,0,0,0,0,0,0,0,0,0,0,0,0,0,0,0,0,0,0,0,0,0,0,0,0,0,0,0,0,0,0,0,0,0,0,0,0,0,0,0,0,0,0,
0,0,0,0,0,0,0,0,0,0,0,0,0,0,0,0,0,0,0,0,0,0,0,0,0,0,0,0,0,0,0,0,0,0,0,0,0,0,0,0,0,0,0,0,0,0,0,0,0,0,0,0,0,0,0,0,0,0,0,0,0,0,0,0,
0,0,0,0,0,0,0,0,0,0,0,0,0,0,0,0,0,0,0,0,0,0,0,0,0,0,0,0,0,0,0,0,0,0,0,0,0,0,0,0,0,0,0,0,0,0,0,0,0,0,0,0,0,0,0,0,0,0,0,0,0,0,0,0,
0,0,0,0,0,0,0,0,0,0,0,0,0,0,0,0,0,0,0,0,0,0,0,0,0,0,0,0,0,0,0,0,0,0,0,0,0,0,0,0,0,0,0,0,0,0,0,0,0,0,0,0,0,0,0,0,0,0,0,0,0,0,0,0,
0,0,0,0,0,0,0,0,0,0,0,0,0,0,0,0,0,0,0,0,0,0,0,0,0,0,0,0,0,0,0,0,0,0,0,0,0,0,0,0,0,0,0,0,0,0,0,0,0,0,0,0,0,0,0,0,0,0,0,0,0,0,0,0,
0,0,0,0,0,0,0,0,0,0,0,0,0,0,0,0,0,0,0,0,0,0,0,0,0,0,0,0,0,0,0,0,0,0,0,0,0,0,0,0,0,0,0,0,0,0,0,0,0,0,0,0,0,0,0,0,0,0,0,0,0,0,0,0,
0,0,0,0,0,0,0,0,0,0,0,0,0,0,0,0,0,0,0,0,0,0,0,0,0,0,0,0,0,0,0,0,0,0,0,0,0,0,0,0,0,0,0,0,0,0,0,0,0,0,0,0,0,0,0,0,0,0,0,0,0,0,0,0,
0,0,0,0,0,0,0,0,0,0,0,0,0,0,0,0,0,0,0,0,0,0,0,0,0,0,0,0,0,0,0,0,0,0,0,0,0,0,0,0,0,0,0,0,0,0,0,0,0,0,0,0,0,0,0,0,0,0,0,0,0,0,0,0,
0,0,0,0,0,0,0,0,0,0,0,0,0,0,0,0,0,0,0,0,0,0,0,0,0,0,0,0,0,0,0,0,0,0,0,0,0,0,0,0,0,0,0,0,0,0,0,0,0,0,0,0,0,0,0,0,0,0,0,0,0,0,0,0,
0,0,0,0,0,0,0,0,0,0,0,0,0,0,0,0,0,0,0,0,0,0,0,0,0,0,0,0,0,0,0,0,0,0,0,0,0,0,0,0,0,0,0,0,0,0,0,0,0,0,0,0,0,0,0,0,0,0,0,0,0,0,0,0,
0,0,0,0,0,0,0,0,0,0,0,0,0,0,0,0,0,0,0,0,0,0,0,0,0,0,0,0,0,0,0,0,0,0,0,0,0,0,0,0,0,0,0,0,0,0,0,0,0,0,0,0,0,0,0,0,0,0,0,0,0,0,0,0,
0,0,0,0,0,0,0,0,0,0,0,0,0,0,0,0,0,0,0,0,0,0,0,0,0,0,0,0,0,0,0,0,0,0,0,0,0,0,0,0,0,0,0,0,0,0,0,0,0,0,0,0,0,0,0,0,0,0,0,0,0,0,0,0,
0,0,0,0,0,0,0,0,0,0,0,0,0,0,0,0,0,0,0,0,0,0,0,0,0,0,0,0,0,0,0,0,0,0,0,0,0,0,0,0,0,0,0,0,0,0,0,0,0,0,0,0,0,0,0,0,0,0,0,0,0,0,0,0,
0,0,0,0,0,0,0,0,0,0,0,0,0,0,0,0,0,0,0,0,0,0,0,0,0,0,0,0,0,0,0,0,0,0,0,0,0,0,0,0,0,0,0,0,0,0,0,0,0,0,0,0,0,0,0,0,0,0,0,0,0,0,0,0,
0,0,0,0,0,0,0,0,0,0,0,0,0,0,0,0,0,0,0,0,0,0,0,0,0,0,0,0,0,0,0,0,0,0,0,0,0,0,0,0,0,0,0,0,0,0,0,0,0,0,0,0,0,0,0,0,0,0,0,0,0,0,0,0,
0,0,0,0,0,0,0,0,0,0,0,0,0,0,0,0,0,0,0,0,0,0,0,0,0,0,0,0,0,0,0,0,0,0,0,0,0,0,0,0,0,0,0,0,0,0,0,0,0,0,0,0,0,0,0,0,0,0,0,0,0,0,0,0,
0,0,0,0,0,0,0,0,0,0,0,0,0,0,0,0,0,0,0,0,0,0,0,0,0,0,0,0,0,0,0,0,0,0,0,0,0,0,0,0,0,0,0,0,0,0,0,0,0,0,0,0,0,0,0,0,0,0,0,0,0,0,0,0
  </data>
 </layer>
 <objectgroup id="4" name="events"/>
</map>
