<?xml version="1.0" encoding="UTF-8"?>
<map version="1.10" tiledversion="1.10.2" orientation="orthogonal" renderorder="right-down" compressionlevel="0" width="22" height="48" tilewidth="32" tileheight="32" infinite="0" nextlayerid="4" nextobjectid="1">
 <tileset firstgid="1" source="new-bark-town.tsx"/>
 <layer id="1" name="lower" width="22" height="48">
  <data encoding="csv">
0,0,0,0,0,0,0,0,0,0,0,0,0,0,0,0,0,0,0,0,0,0,
0,0,0,0,0,0,0,0,0,0,0,0,0,0,0,0,0,0,0,0,0,0,
0,0,0,0,0,0,0,0,0,0,0,0,0,0,0,0,0,0,0,0,0,0,
0,0,0,0,0,0,0,0,0,0,0,0,0,0,0,0,0,0,0,0,0,0,
0,0,0,0,0,0,0,0,0,0,0,0,0,0,0,0,0,0,0,0,0,0,
0,0,0,0,0,0,0,0,0,0,0,0,0,0,0,0,0,0,0,0,0,0,
0,0,0,0,0,0,0,0,0,0,0,0,0,0,0,0,0,0,0,0,0,0,
0,0,0,0,0,0,0,0,0,0,0,0,0,0,0,0,0,0,0,0,0,0,
0,0,0,0,0,0,0,0,0,0,0,0,0,0,0,0,0,0,0,0,0,0,
0,0,0,0,0,0,0,0,0,0,0,0,0,0,0,0,0,0,0,0,0,0,
0,0,0,0,0,0,0,0,0,0,0,0,0,0,0,0,0,0,0,0,0,0,
0,0,0,0,0,0,0,0,0,0,0,0,0,0,0,0,0,0,0,0,0,0,
0,0,0,0,0,0,0,0,0,0,0,0,0,0,0,0,0,0,0,0,0,0,
0,0,0,0,0,0,0,0,0,0,0,0,0,0,0,0,0,0,0,0,0,0,
4,4,4,4,4,4,4,4,4,4,4,4,4,4,4,4,4,4,4,4,4,4,
4,4,4,4,4,4,4,4,4,4,4,4,4,4,4,4,4,4,4,4,4,4,
4,4,4,4,4,4,4,4,4,4,4,4,4,4,4,4,4,4,4,4,4,4,
4,4,4,4,4,4,4,4,4,4,4,4,4,4,4,4,4,4,4,4,4,4,
4,4,4,4,4,4,4,4,4,4,4,4,4,4,4,4,4,4,4,4,4,4,
4,4,4,4,4,4,4,4,4,4,3,4,4,4,4,4,4,22,4,4,4,4,
4,4,3,4,4,4,4,4,4,4,4,3,4,4,4,4,4,4,4,4,4,4,
4,4,4,3,4,4,4,4,4,4,3,4,3,4,4,4,4,4,4,4,4,4,
4,4,3,4,113,110,110,110,110,110,114,3,3,4,4,4,4,4,4,4,4,4,
4,4,4,3,109,104,104,104,104,104,111,4,4,3,4,4,4,4,4,4,4,4,
4,4,113,110,105,104,104,104,104,104,106,110,110,110,110,110,110,110,110,114,121,119,
4,4,109,104,104,104,104,104,104,104,104,104,104,104,104,104,104,104,104,111,118,117,
110,110,105,104,104,104,104,104,104,104,104,104,104,104,104,104,104,104,104,111,118,117,
104,104,104,104,104,104,104,104,104,104,104,104,104,104,104,104,104,104,104,111,118,117,
112,112,108,104,104,104,104,104,104,104,104,104,104,104,104,104,104,107,112,115,122,120,
4,4,116,112,112,112,112,108,104,104,104,104,104,104,104,104,104,111,3,4,4,4,
4,4,4,3,4,4,3,109,104,104,104,107,112,108,104,104,104,111,4,3,4,4,
4,4,3,4,3,4,4,109,107,112,112,115,4,116,112,112,108,111,3,4,4,4,
4,4,4,3,4,3,3,109,111,3,4,3,4,4,4,4,109,111,4,3,4,4,
4,4,3,4,3,4,4,109,111,3,4,3,4,4,4,4,109,111,3,4,4,4,
4,4,4,3,4,3,3,109,106,110,110,110,110,110,110,110,105,111,4,3,4,4,
4,4,3,4,3,4,4,116,112,112,112,112,112,112,112,112,112,115,3,4,4,4,
4,4,4,3,4,3,4,4,4,4,4,4,4,4,4,4,4,4,4,3,4,4,
4,4,4,4,4,4,4,4,4,4,4,4,4,4,4,4,4,4,4,4,4,4,
4,4,4,4,4,4,4,4,4,4,4,4,4,4,4,4,4,4,4,4,4,4,
4,4,4,4,4,4,4,4,4,4,4,4,4,4,4,4,4,4,4,4,4,4,
0,0,0,0,0,0,0,0,0,0,0,0,0,0,0,0,0,0,0,0,0,0,
0,0,0,0,0,0,0,0,0,0,0,0,0,0,0,0,0,0,0,0,0,0,
0,0,0,0,0,0,0,0,0,0,0,0,0,0,0,0,0,0,0,0,0,0,
0,0,0,0,0,0,0,0,0,0,0,0,0,0,0,0,0,0,0,0,0,0,
0,0,0,0,0,0,0,0,0,0,0,0,0,0,0,0,0,0,0,0,0,0,
0,0,0,0,0,0,0,0,0,0,0,0,0,0,0,0,0,0,0,0,0,0,
0,0,0,0,0,0,0,0,0,0,0,0,0,0,0,0,0,0,0,0,0,0,
0,0,0,0,0,0,0,0,0,0,0,0,0,0,0,0,0,0,0,0,0,0
  </data>
 </layer>
 <layer id="2" name="middle" width="22" height="48">
  <data encoding="csv">
5,6,5,6,5,6,5,6,5,6,5,6,5,6,5,6,5,6,5,6,5,6,
8,9,8,9,8,9,8,9,8,9,8,9,8,9,8,9,8,9,8,9,8,9,
5,6,5,6,5,6,5,6,5,6,5,6,5,6,5,6,5,6,5,6,5,6,
8,9,8,9,8,9,8,9,8,9,8,9,8,9,8,9,8,9,8,9,8,9,
5,6,5,6,5,6,5,6,5,6,5,6,5,6,5,6,5,6,5,6,5,6,
8,9,8,9,8,9,8,9,8,9,8,9,8,9,8,9,8,9,8,9,8,9,
5,6,5,6,5,6,5,6,5,6,5,6,5,6,5,6,5,6,5,6,5,6,
8,9,8,9,8,9,8,9,8,9,8,9,8,9,8,9,8,9,8,9,8,9,
5,6,5,6,5,6,5,6,5,6,5,6,5,6,5,6,5,6,5,6,5,6,
8,9,8,9,8,9,8,9,8,9,8,9,8,9,8,9,8,9,8,9,8,9,
5,6,5,6,5,6,5,6,5,6,5,6,5,6,5,6,5,6,5,6,5,6,
8,9,8,9,8,9,8,9,8,9,8,9,8,9,8,9,8,9,8,9,8,9,
5,6,5,6,5,6,5,6,5,6,5,6,5,6,5,6,5,6,5,6,5,6,
8,9,8,9,8,9,8,9,8,9,8,9,8,9,8,9,8,9,8,9,8,9,
5,6,5,6,5,6,5,6,5,6,5,6,5,6,5,6,5,6,5,6,5,6,
8,9,8,9,8,9,8,9,8,9,8,9,8,9,8,9,8,9,8,9,8,9,
5,6,5,6,16,15,16,15,16,15,5,6,5,6,5,6,5,6,5,6,5,6,
8,9,8,10,23,24,23,24,23,24,8,9,8,9,8,9,8,9,8,9,8,9,
5,6,16,17,18,0,0,0,0,19,16,15,16,15,16,15,16,15,5,15,5,15,
8,10,23,24,0,0,0,0,0,0,23,24,23,24,23,24,23,12,8,9,8,10,
5,7,0,0,0,0,0,0,0,0,0,0,0,0,0,0,0,19,5,6,5,7,
8,10,0,2,0,0,0,0,0,0,0,0,0,0,0,0,0,64,8,9,8,10,
5,7,0,0,0,0,0,0,0,0,0,0,0,0,0,0,0,70,16,15,16,17,
8,10,0,0,0,0,0,0,0,0,0,2,0,0,0,0,0,75,23,24,23,24,
16,17,0,0,0,0,0,0,0,0,0,0,0,0,0,0,0,0,0,0,0,0,
23,24,0,0,0,0,0,0,0,0,0,0,0,0,0,0,0,0,0,0,0,0,
0,0,0,0,0,0,0,0,1,0,0,0,0,0,0,0,0,0,0,0,0,0,
13,14,0,0,0,0,0,0,0,0,0,0,0,0,0,0,0,0,0,0,13,14,
20,21,0,0,0,0,0,0,0,0,0,0,0,0,0,0,0,0,0,12,20,21,
5,7,0,0,0,0,0,0,0,0,0,0,0,0,0,0,0,0,0,19,5,6,
8,10,0,0,0,0,0,0,0,0,0,0,0,0,0,0,0,0,0,12,8,9,
5,7,0,0,0,0,0,0,0,0,0,0,0,0,0,0,0,0,0,19,5,6,
8,10,0,0,0,0,0,0,0,0,0,0,0,0,0,0,0,0,0,12,8,10,
5,7,18,14,0,0,0,0,0,0,2,0,0,0,0,0,0,0,0,19,5,7,
8,9,20,21,0,0,0,0,0,0,0,0,0,0,0,0,0,0,0,12,8,10,
5,6,5,7,13,14,13,14,13,14,13,14,13,14,13,14,13,14,13,19,5,7,
8,9,8,9,20,21,20,21,20,21,20,21,20,21,20,21,20,21,20,21,8,10,
5,6,5,6,5,6,5,6,5,6,5,6,5,6,5,6,5,6,5,6,5,7,
8,9,8,9,8,9,8,9,8,9,8,9,8,9,8,9,8,9,8,9,8,10,
5,6,5,6,5,6,5,6,5,6,5,6,5,6,5,6,5,6,5,6,5,7,
8,9,8,9,8,9,8,9,8,9,8,9,8,9,8,9,8,9,8,9,8,10,
5,6,5,6,5,6,5,6,5,6,5,6,5,6,5,6,5,6,5,6,5,7,
8,9,8,9,8,9,8,9,8,9,8,9,8,9,8,9,8,9,8,9,8,10,
5,6,5,6,5,6,5,6,5,6,5,6,5,6,5,6,5,6,5,6,5,7,
8,9,8,9,8,9,8,9,8,9,8,9,8,9,8,9,8,9,8,9,8,9,
5,6,5,6,5,6,5,6,5,6,5,6,5,6,5,6,5,6,5,6,5,6,
8,9,8,9,8,9,8,9,8,9,8,9,8,9,8,9,8,9,8,9,8,9,
5,6,5,6,5,6,5,6,5,6,5,6,5,6,5,6,5,6,5,6,5,6
  </data>
 </layer>
 <layer id="3" name="upper" width="22" height="48">
  <data encoding="csv">
0,0,0,0,0,0,0,0,0,0,0,0,0,0,0,0,0,0,0,0,0,0,
0,0,0,0,0,0,0,0,0,0,0,0,0,0,0,0,0,0,0,0,0,0,
0,0,0,0,0,0,0,0,0,0,0,0,0,0,0,0,0,0,0,0,0,0,
0,0,0,0,0,0,0,0,0,0,0,0,0,0,0,0,0,0,0,0,0,0,
0,0,0,0,0,0,0,0,0,0,0,0,0,0,0,0,0,0,0,0,0,0,
0,0,0,0,0,0,0,0,0,0,0,0,0,0,0,0,0,0,0,0,0,0,
0,0,0,0,0,0,0,0,0,0,0,0,0,0,0,0,0,0,0,0,0,0,
0,0,0,0,0,0,0,0,0,0,0,0,0,0,0,0,0,0,0,0,0,0,
0,0,0,0,0,0,0,0,0,0,0,0,0,0,0,0,0,0,0,0,0,0,
0,0,0,0,0,0,0,0,0,0,0,0,0,0,0,0,0,0,0,0,0,0,
0,0,0,0,0,0,0,0,0,0,0,0,0,0,0,0,0,0,0,0,0,0,
0,0,0,0,0,0,0,0,0,0,0,0,0,0,0,0,0,0,0,0,0,0,
0,0,0,0,0,0,0,0,0,0,0,0,0,0,0,0,0,0,0,0,0,0,
0,0,0,0,0,0,0,0,0,0,0,0,0,0,0,0,0,0,0,0,0,0,
0,0,0,0,0,0,0,0,0,0,0,0,0,0,0,0,0,0,0,0,0,0,
0,0,0,0,0,0,0,0,0,0,0,0,0,0,0,0,0,0,0,0,0,0,
0,0,0,0,0,0,0,0,0,0,0,0,0,0,0,0,0,0,0,0,0,0,
0,0,0,0,76,77,78,79,80,12,0,0,0,0,0,0,0,0,0,0,0,0,
0,0,0,0,81,82,83,84,85,86,0,0,0,0,44,45,46,0,0,0,0,0,
0,0,11,0,87,88,89,90,91,92,0,0,47,48,49,50,51,52,0,0,0,0,
0,0,18,0,93,94,95,96,97,98,0,0,53,54,55,56,57,58,0,0,0,0,
0,0,11,0,99,0,100,101,102,103,0,0,59,60,61,62,63,12,0,0,0,0,
0,0,18,0,26,27,27,27,27,27,0,0,65,66,67,68,69,19,0,0,0,0,
0,0,11,0,0,0,0,0,0,0,0,0,71,72,0,73,74,0,0,0,0,0,
0,0,18,0,0,0,0,0,0,0,0,0,0,26,27,27,27,28,0,0,0,0,
0,0,0,0,0,0,0,0,0,0,0,0,0,0,0,0,0,0,0,0,0,0,
0,0,0,0,0,0,0,0,0,0,0,0,0,0,0,0,0,0,0,0,0,0,
0,0,0,0,0,0,0,0,0,0,0,0,0,0,0,0,0,0,0,0,0,0,
0,0,11,29,30,31,32,0,0,0,0,0,0,44,45,46,0,0,0,0,0,0,
0,0,18,33,34,35,36,0,0,0,0,47,48,49,50,51,52,0,0,0,0,0,
0,0,11,37,38,39,40,25,0,0,0,53,54,55,56,57,58,0,0,0,0,0,
0,0,18,41,0,42,43,25,0,0,0,59,60,61,62,63,64,0,0,0,0,0,
0,0,11,26,27,27,27,28,0,0,0,65,66,67,68,69,70,0,0,0,0,0,
0,0,13,0,0,0,0,0,0,0,0,71,72,0,73,74,75,0,0,0,0,0,
0,0,0,0,11,0,0,0,0,0,0,0,26,27,27,27,28,0,0,0,0,0,
0,0,0,0,18,0,0,0,0,0,0,0,0,0,0,0,0,0,0,14,0,0,
0,0,0,0,0,0,0,0,0,0,0,0,0,0,0,0,0,0,0,0,0,0,
0,0,0,0,0,0,0,0,0,0,0,0,0,0,0,0,0,0,0,0,0,0,
0,0,0,0,0,0,0,0,0,0,0,0,0,0,0,0,0,0,0,0,0,0,
0,0,0,0,0,0,0,0,0,0,0,0,0,0,0,0,0,0,0,0,0,0,
0,0,0,0,0,0,0,0,0,0,0,0,0,0,0,0,0,0,0,0,0,0,
0,0,0,0,0,0,0,0,0,0,0,0,0,0,0,0,0,0,0,0,0,0,
0,0,0,0,0,0,0,0,0,0,0,0,0,0,0,0,0,0,0,0,0,0,
0,0,0,0,0,0,0,0,0,0,0,0,0,0,0,0,0,0,0,0,0,0,
0,0,0,0,0,0,0,0,0,0,0,0,0,0,0,0,0,0,0,0,0,0,
0,0,0,0,0,0,0,0,0,0,0,0,0,0,0,0,0,0,0,0,0,0,
0,0,0,0,0,0,0,0,0,0,0,0,0,0,0,0,0,0,0,0,0,0,
0,0,0,0,0,0,0,0,0,0,0,0,0,0,0,0,0,0,0,0,0,0
  </data>
 </layer>
 <objectgroup id="4" name="events"/>
</map>
