<?xml version="1.0" encoding="UTF-8"?>
<map version="1.10" tiledversion="1.10.2" orientation="orthogonal" renderorder="right-down" compressionlevel="0" width="52" height="20" tilewidth="32" tileheight="32" infinite="0" nextlayerid="6" nextobjectid="1">
 <tileset firstgid="1" source="pallet-town.tsx"/>
 <layer id="1" name="lower" width="52" height="20">
  <data encoding="csv">
50,50,50,50,50,50,50,50,50,50,50,50,50,50,50,50,50,50,50,50,50,50,51,1,6,8,1,49,50,50,50,50,50,50,50,50,50,50,50,50,50,50,50,50,50,50,50,50,50,50,50,50,
20,20,4,20,4,20,20,20,4,20,4,20,20,20,20,20,20,20,20,20,20,20,20,20,9,11,20,20,20,20,20,20,20,20,20,20,20,20,20,20,20,20,20,20,20,20,20,4,20,4,20,20,
38,38,38,38,38,38,38,38,38,38,38,38,39,4,6,7,7,7,7,7,7,7,7,7,19,18,7,7,7,7,7,7,7,8,4,37,38,38,38,38,38,38,38,38,38,38,38,38,38,38,38,38,
44,44,44,44,44,44,44,44,44,44,44,44,45,5,9,10,10,10,10,10,10,10,10,10,10,10,10,10,10,10,10,10,10,11,4,43,44,44,44,44,44,44,44,44,44,44,44,44,44,44,44,44,
44,44,44,44,44,44,44,44,44,44,44,44,45,20,9,32,33,33,33,33,33,33,34,10,32,33,33,33,33,33,33,34,10,11,20,43,44,44,44,44,44,44,44,44,44,44,44,44,44,44,44,44,
44,44,44,44,44,44,44,44,44,44,44,44,45,4,9,35,20,20,20,20,20,20,36,10,35,20,20,20,20,20,20,36,10,11,20,43,44,44,44,44,44,44,44,44,44,44,44,44,44,44,44,44,
44,44,44,44,44,44,44,44,44,44,44,44,45,20,9,35,20,20,20,20,20,20,36,10,35,20,20,20,20,20,20,36,10,11,4,43,44,44,44,44,44,44,44,44,44,44,44,44,44,44,44,44,
44,44,44,44,44,44,44,44,44,44,44,44,45,5,9,35,20,20,20,20,20,20,36,10,35,20,20,20,20,20,20,36,10,11,20,43,44,44,44,44,44,44,44,44,44,44,44,44,44,44,44,44,
44,44,44,44,44,44,44,44,44,44,44,44,45,4,9,40,41,41,41,41,41,41,42,10,40,41,41,41,41,41,41,42,10,11,20,43,44,44,44,44,44,44,44,44,44,44,44,44,44,44,44,44,
44,44,44,44,44,44,44,44,44,44,44,44,45,20,9,10,10,10,10,10,10,10,10,10,10,10,10,10,10,10,10,10,10,11,20,43,44,44,44,44,44,44,44,44,44,44,44,44,44,44,44,44,
44,44,44,44,44,44,44,44,44,44,44,44,45,5,9,10,10,10,10,10,10,10,10,10,16,13,13,13,13,13,13,13,17,11,4,43,44,44,44,44,44,44,44,44,44,44,44,44,44,44,44,44,
44,44,44,44,44,44,44,44,44,44,44,44,45,4,9,10,32,33,33,33,33,33,34,10,11,5,5,5,5,5,5,5,9,11,20,43,44,44,44,44,44,44,44,44,44,44,44,44,44,44,44,44,
44,44,44,44,44,44,44,44,44,44,44,44,45,20,9,10,35,20,26,27,27,28,36,10,11,5,5,5,5,5,5,5,9,11,20,43,44,44,44,44,44,44,44,44,44,44,44,44,44,44,44,44,
44,44,44,44,44,44,44,44,44,44,44,44,45,5,9,10,35,20,29,30,30,31,36,10,11,5,5,5,5,5,5,5,9,11,4,43,44,44,44,44,44,44,44,44,44,44,44,44,44,44,44,44,
44,44,44,44,44,44,44,44,44,44,44,44,45,5,9,10,40,41,41,41,41,41,42,10,11,5,5,5,5,5,5,5,9,11,20,43,44,44,44,44,44,44,44,44,44,44,44,44,44,44,44,44,
44,44,44,44,44,44,44,44,44,44,44,44,45,20,9,10,10,16,13,13,13,13,13,13,17,7,7,7,7,7,7,7,19,11,4,43,44,44,44,44,44,44,44,44,44,44,44,44,44,44,44,44,
44,44,44,44,44,44,44,44,44,44,44,44,45,4,9,10,10,11,21,22,22,22,22,23,9,32,33,33,33,33,33,33,34,11,20,43,44,44,44,44,44,44,44,44,44,44,44,44,44,44,44,44,
44,44,44,44,44,44,44,44,44,44,44,44,45,5,12,13,13,14,24,125,123,123,126,25,9,40,41,41,41,41,41,41,42,11,4,43,44,44,44,44,44,44,44,44,44,44,44,44,44,44,44,44,
44,44,44,44,44,44,44,44,44,44,44,44,45,4,5,5,3,5,24,122,121,121,124,25,12,13,13,13,13,13,13,13,13,14,20,43,44,44,44,44,44,44,44,44,44,44,44,44,44,44,44,44,
50,50,50,50,50,50,50,50,50,50,50,50,51,20,4,5,4,5,24,122,121,121,124,25,2,5,5,4,5,5,4,5,4,5,4,49,50,50,50,50,50,50,50,50,50,50,50,50,50,50,50,50
  </data>
 </layer>
 <layer id="2" name="middle" width="52" height="20">
  <data encoding="csv">
0,0,0,0,0,0,0,0,0,0,0,0,0,0,0,0,0,0,0,0,0,0,0,115,0,0,116,0,0,0,0,0,0,0,0,0,0,0,0,0,0,0,0,0,0,0,0,0,0,0,0,0,
120,120,120,120,120,120,120,120,120,120,120,120,120,113,120,120,120,120,120,120,120,120,120,118,0,0,117,120,120,120,120,120,120,120,114,120,120,120,120,120,120,120,120,120,120,120,120,120,120,120,120,120,
0,0,0,0,0,0,0,0,0,0,0,0,0,115,0,0,0,0,0,0,0,0,0,0,0,0,0,0,0,0,0,0,0,0,116,0,0,0,0,0,0,0,0,0,0,0,0,0,0,0,0,0,
46,47,48,46,47,48,46,47,48,46,47,48,0,115,0,0,0,0,0,0,0,0,0,0,0,0,0,0,0,0,0,0,0,0,116,0,46,47,48,46,47,48,46,47,48,46,47,48,46,47,48,46,
52,53,54,52,53,54,52,53,54,52,53,54,0,115,0,0,66,67,68,69,70,0,0,0,0,0,66,67,68,69,70,0,0,0,116,0,52,53,54,52,53,54,52,53,54,52,53,54,52,53,54,52,
52,53,54,52,53,54,52,53,54,52,53,54,0,115,0,0,71,72,73,74,75,0,0,0,0,0,71,72,73,74,75,0,0,0,116,0,52,53,54,52,53,54,52,53,54,52,53,54,52,53,54,52,
52,53,54,52,53,54,52,53,54,52,53,54,0,115,0,0,76,77,78,79,80,0,0,0,0,0,76,77,78,79,80,0,0,0,116,0,52,53,54,52,53,54,52,53,54,52,53,54,52,53,54,52,
52,53,54,52,53,54,52,53,54,52,53,54,0,115,0,0,81,0,82,83,84,0,0,0,0,112,81,0,82,83,84,0,0,0,116,0,52,53,54,52,53,54,52,53,54,52,53,54,52,53,54,52,
52,53,54,52,53,54,52,53,54,52,53,54,0,115,0,0,0,0,0,0,0,0,0,0,0,0,0,0,0,0,0,0,0,0,116,0,52,53,54,52,53,54,52,53,54,52,53,54,52,53,54,52,
52,53,54,52,53,54,52,53,54,52,53,54,0,115,0,0,0,0,0,0,0,0,0,0,0,0,0,0,0,0,0,0,0,0,116,0,52,53,54,52,53,54,52,53,54,52,53,54,52,53,54,52,
52,53,54,52,53,54,52,53,54,52,53,54,0,115,0,0,0,0,0,0,0,0,0,0,0,85,86,86,86,87,88,89,0,0,116,0,52,53,54,52,53,54,52,53,54,52,53,54,52,53,54,52,
52,53,54,52,53,54,52,53,54,52,53,54,0,115,0,0,0,120,120,120,120,0,0,0,0,90,91,91,91,92,93,94,0,0,116,0,52,53,54,52,53,54,52,53,54,52,53,54,52,53,54,52,
52,53,54,52,53,54,52,53,54,52,53,54,0,115,0,0,0,0,0,0,0,0,0,0,0,95,96,96,96,97,98,99,0,0,116,0,52,53,54,52,53,54,52,53,54,52,53,54,52,53,54,52,
52,53,54,52,53,54,52,53,54,52,53,54,0,115,0,0,0,120,0,0,0,0,0,0,0,100,101,102,103,102,104,105,0,0,116,0,52,53,54,52,53,54,52,53,54,52,53,54,52,53,54,52,
52,53,54,52,53,54,52,53,54,52,53,54,0,115,0,0,0,0,0,0,0,0,0,0,0,106,107,108,0,109,110,111,0,0,116,0,52,53,54,52,53,54,52,53,54,52,53,54,52,53,54,52,
52,53,54,52,53,54,52,53,54,52,53,54,0,115,0,0,0,0,0,0,0,0,0,0,15,0,0,0,0,0,0,0,0,0,116,0,52,53,54,52,53,54,52,53,54,52,53,54,52,53,54,52,
52,53,54,52,53,54,52,53,54,52,53,54,0,115,0,0,0,0,0,0,0,0,0,0,0,0,120,120,120,120,120,120,0,0,116,0,52,53,54,52,53,54,52,53,54,52,53,54,52,53,54,52,
52,53,54,52,53,54,52,53,54,52,53,54,0,115,0,0,0,0,0,0,0,0,0,0,0,0,0,0,0,0,0,0,0,0,116,0,52,53,54,52,53,54,52,53,54,52,53,54,52,53,54,52,
55,56,57,55,56,57,55,56,57,55,56,57,0,115,0,0,0,0,0,0,0,0,0,0,0,0,0,0,0,0,0,0,0,0,116,0,55,56,57,55,56,57,55,56,57,55,56,57,55,56,57,55,
0,0,0,0,0,0,0,0,0,0,0,0,0,119,0,0,0,0,0,0,0,0,0,0,0,0,0,0,0,0,0,0,0,0,116,0,0,0,0,0,0,0,0,0,0,0,0,0,0,0,0,0
  </data>
 </layer>
 <objectgroup id="3" name="events"/>
 <group id="5" name="above">
 <layer id="4" name="middle_above" width="52" height="20">
  <data encoding="csv">
0,0,0,0,0,0,0,0,0,0,0,0,0,0,0,0,0,0,0,0,0,0,0,0,0,0,0,0,0,0,0,0,0,0,0,0,0,0,0,0,0,0,0,0,0,0,0,0,0,0,0,0,
0,0,0,0,0,0,0,0,0,0,0,0,0,0,0,0,0,0,0,0,0,0,0,0,0,0,0,0,0,0,0,0,0,0,0,0,0,0,0,0,0,0,0,0,0,0,0,0,0,0,0,0,
0,0,0,0,0,0,0,0,0,0,0,0,0,0,0,0,0,58,59,60,0,0,0,0,0,0,0,58,59,60,0,0,0,0,0,0,0,0,0,0,0,0,0,0,0,0,0,0,0,0,0,0,
0,0,0,0,0,0,0,0,0,0,0,0,0,0,0,0,61,62,63,64,65,0,0,0,0,0,61,62,63,64,65,0,0,0,0,0,0,0,0,0,0,0,0,0,0,0,0,0,0,0,0,0,
0,0,0,0,0,0,0,0,0,0,0,0,0,0,0,0,0,0,0,0,0,0,0,0,0,0,0,0,0,0,0,0,0,0,0,0,0,0,0,0,0,0,0,0,0,0,0,0,0,0,0,0,
0,0,0,0,0,0,0,0,0,0,0,0,0,0,0,0,0,0,0,0,0,0,0,0,0,0,0,0,0,0,0,0,0,0,0,0,0,0,0,0,0,0,0,0,0,0,0,0,0,0,0,0,
0,0,0,0,0,0,0,0,0,0,0,0,0,0,0,0,0,0,0,0,0,0,0,0,0,0,0,0,0,0,0,0,0,0,0,0,0,0,0,0,0,0,0,0,0,0,0,0,0,0,0,0,
0,0,0,0,0,0,0,0,0,0,0,0,0,0,0,0,0,0,0,0,0,0,0,0,0,0,0,0,0,0,0,0,0,0,0,0,0,0,0,0,0,0,0,0,0,0,0,0,0,0,0,0,
0,0,0,0,0,0,0,0,0,0,0,0,0,0,0,0,0,0,0,0,0,0,0,0,0,0,0,0,0,0,0,0,0,0,0,0,0,0,0,0,0,0,0,0,0,0,0,0,0,0,0,0,
0,0,0,0,0,0,0,0,0,0,0,0,0,0,0,0,0,0,0,0,0,0,0,0,0,0,0,0,0,0,0,0,0,0,0,0,0,0,0,0,0,0,0,0,0,0,0,0,0,0,0,0,
0,0,0,0,0,0,0,0,0,0,0,0,0,0,0,0,0,0,0,0,0,0,0,0,0,0,0,0,0,0,0,0,0,0,0,0,0,0,0,0,0,0,0,0,0,0,0,0,0,0,0,0,
0,0,0,0,0,0,0,0,0,0,0,0,0,0,0,0,0,0,0,0,0,0,0,0,0,0,0,0,0,0,0,0,0,0,0,0,0,0,0,0,0,0,0,0,0,0,0,0,0,0,0,0,
0,0,0,0,0,0,0,0,0,0,0,0,0,0,0,0,0,0,0,0,0,0,0,0,0,0,0,0,0,0,0,0,0,0,0,0,0,0,0,0,0,0,0,0,0,0,0,0,0,0,0,0,
0,0,0,0,0,0,0,0,0,0,0,0,0,0,0,0,0,0,0,0,0,0,0,0,0,0,0,0,0,0,0,0,0,0,0,0,0,0,0,0,0,0,0,0,0,0,0,0,0,0,0,0,
0,0,0,0,0,0,0,0,0,0,0,0,0,0,0,0,0,0,0,0,0,0,0,0,0,0,0,0,0,0,0,0,0,0,0,0,0,0,0,0,0,0,0,0,0,0,0,0,0,0,0,0,
0,0,0,0,0,0,0,0,0,0,0,0,0,0,0,0,0,0,0,0,0,0,0,0,0,0,0,0,0,0,0,0,0,0,0,0,0,0,0,0,0,0,0,0,0,0,0,0,0,0,0,0,
0,0,0,0,0,0,0,0,0,0,0,0,0,0,0,0,0,0,0,0,0,0,0,0,0,0,0,0,0,0,0,0,0,0,0,0,0,0,0,0,0,0,0,0,0,0,0,0,0,0,0,0,
0,0,0,0,0,0,0,0,0,0,0,0,0,0,0,0,0,0,0,0,0,0,0,0,0,0,0,0,0,0,0,0,0,0,0,0,0,0,0,0,0,0,0,0,0,0,0,0,0,0,0,0,
0,0,0,0,0,0,0,0,0,0,0,0,0,0,0,0,0,0,0,0,0,0,0,0,0,0,0,0,0,0,0,0,0,0,0,0,0,0,0,0,0,0,0,0,0,0,0,0,0,0,0,0,
0,0,0,0,0,0,0,0,0,0,0,0,0,0,0,0,0,0,0,0,0,0,0,0,0,0,0,0,0,0,0,0,0,0,0,0,0,0,0,0,0,0,0,0,0,0,0,0,0,0,0,0
  </data>
 </layer>
 </group>
</map>
