<?xml version="1.0" encoding="UTF-8"?>
<map version="1.10" tiledversion="1.10.2" orientation="orthogonal" renderorder="right-down" compressionlevel="0" width="60" height="46" tilewidth="32" tileheight="32" infinite="0" nextlayerid="8" nextobjectid="1">
 <tileset firstgid="1" source="pewter-city.tsx"/>
 <layer id="1" name="lower" width="60" height="46">
  <data encoding="csv">
0,0,0,0,0,0,0,0,0,0,0,0,0,0,0,0,0,0,0,0,0,0,0,0,0,0,0,0,0,0,0,0,0,0,0,0,0,0,0,0,0,0,0,0,0,0,0,0,0,0,0,0,0,0,0,0,0,0,0,0,
0,0,0,0,0,0,0,0,0,0,0,0,0,0,0,0,0,0,0,0,0,0,0,0,0,0,0,0,0,0,0,0,0,0,0,0,0,0,0,0,0,0,0,0,0,0,0,0,0,0,0,0,0,0,0,0,0,0,0,0,
0,0,0,0,0,0,0,0,0,0,0,0,0,0,0,0,0,0,0,0,0,0,0,0,0,0,0,0,0,0,0,0,0,0,0,0,0,0,0,0,0,0,0,0,0,0,0,0,0,0,0,0,0,0,0,0,0,0,0,0,
0,0,0,0,0,0,0,0,0,0,0,0,0,0,0,0,0,0,0,0,0,0,0,0,0,0,0,0,0,0,0,0,0,0,0,0,0,0,0,0,0,0,0,0,0,0,0,0,0,0,0,0,0,0,0,0,0,0,0,0,
0,0,0,0,0,0,0,0,0,0,0,0,0,0,0,0,0,0,0,0,0,0,0,0,0,0,0,0,0,0,0,0,0,0,0,0,0,0,0,0,0,0,0,0,0,0,0,0,0,0,0,0,0,0,0,0,0,0,0,0,
0,0,0,0,0,0,0,0,0,0,0,0,0,0,0,0,0,0,0,0,0,0,0,0,0,0,0,0,0,0,0,0,0,0,0,0,0,0,0,0,0,0,0,0,0,0,0,0,0,0,0,0,0,0,0,0,0,0,0,0,
0,0,3,0,0,0,3,0,0,0,3,3,3,3,3,3,3,3,3,3,3,3,3,3,3,3,3,3,3,3,3,3,3,3,3,3,3,3,3,3,3,3,3,3,3,3,3,3,3,3,3,3,3,3,3,3,3,3,3,3,
0,0,3,0,0,0,3,0,0,0,3,3,3,3,3,3,3,3,3,3,3,3,3,3,3,3,3,3,3,3,3,3,3,3,3,3,3,3,3,3,3,3,3,3,3,3,3,3,3,3,3,3,3,3,3,3,3,3,3,3,
0,0,3,0,0,0,3,0,0,0,3,3,3,3,2,2,2,2,2,2,4,2,3,2,3,3,3,3,3,3,3,2,3,3,3,3,3,3,2,1,2,1,2,2,2,2,2,2,3,3,3,3,3,3,3,3,3,3,3,3,
0,0,3,0,0,0,3,0,0,0,3,3,3,3,1,1,1,1,4,4,2,2,3,5,6,7,7,7,7,7,8,3,2,3,3,3,3,3,5,2,1,2,2,6,7,7,7,8,3,3,3,3,3,3,3,3,3,3,3,3,
0,0,3,0,0,0,3,0,0,0,3,3,3,3,5,1,1,1,4,1,4,3,2,3,9,10,10,10,10,10,11,3,2,3,3,3,3,3,2,4,4,4,6,12,10,10,10,11,3,3,3,3,3,3,3,3,3,3,3,3,
0,0,3,0,0,0,3,0,0,0,3,3,3,3,1,1,1,1,4,4,1,4,3,4,9,10,10,10,10,10,11,4,3,2,3,2,3,1,1,3,2,3,13,16,10,10,10,11,3,3,3,3,3,3,3,3,3,3,3,3,
0,0,3,0,0,0,3,0,0,0,3,3,3,3,4,4,4,1,2,1,4,3,2,3,13,14,14,14,14,14,15,3,2,1,1,4,4,4,4,4,4,4,1,13,14,14,14,15,1,3,3,3,3,3,3,3,3,3,3,3,
0,0,3,0,0,0,3,0,0,0,3,3,3,3,2,2,2,1,4,2,2,2,2,2,2,2,3,5,3,5,2,2,2,2,2,2,2,2,2,2,2,2,2,2,2,2,2,3,2,3,3,3,3,3,3,3,3,3,3,3,
0,0,3,0,0,0,3,0,0,0,3,3,3,3,2,1,25,26,26,26,26,26,26,26,26,26,26,26,26,26,26,26,26,26,27,2,1,2,1,2,1,2,1,2,2,2,5,25,26,27,3,3,3,3,3,3,3,3,3,3,
0,0,3,0,0,0,3,0,0,0,3,3,3,3,4,5,30,31,31,31,31,31,31,31,31,31,31,31,31,31,31,31,31,31,32,3,1,1,2,1,2,2,3,3,3,3,3,30,31,32,3,3,3,3,3,3,3,3,3,3,
0,0,3,0,0,0,3,0,0,0,3,3,3,3,3,3,30,31,31,31,31,31,31,31,31,31,31,31,31,31,31,31,31,31,32,2,1,2,1,2,3,2,3,3,3,3,4,30,31,32,3,3,3,3,3,3,3,3,3,3,
0,0,3,0,0,0,3,0,0,0,3,3,3,3,3,3,30,31,34,36,36,36,36,36,36,36,36,36,36,36,36,36,33,31,32,3,1,3,1,3,4,3,3,3,3,3,3,30,31,32,3,3,3,3,3,3,3,3,3,3,
0,0,3,0,0,0,3,0,0,0,3,3,3,3,3,3,30,31,32,4,5,2,3,2,3,2,3,2,3,3,4,5,30,31,29,26,26,26,26,26,26,26,26,26,26,26,26,28,31,32,3,3,3,3,3,3,3,3,3,3,
0,0,3,0,0,0,3,0,0,0,3,3,3,3,3,3,30,31,32,3,3,5,4,3,4,3,4,3,2,2,3,3,30,31,31,31,31,31,31,31,31,31,31,31,31,31,31,31,31,32,3,3,3,3,3,3,3,3,3,3,
0,0,3,0,0,0,3,0,0,0,3,3,3,3,3,3,30,31,32,3,3,138,3,2,3,2,3,2,3,138,3,3,30,31,34,36,36,36,36,36,36,36,36,36,36,36,36,33,31,32,3,3,3,3,3,3,3,3,3,3,
0,0,3,0,0,0,3,0,0,0,3,3,3,3,3,3,30,31,32,3,3,2,4,3,4,3,4,3,2,3,3,3,30,31,32,3,3,3,3,3,2,2,6,7,7,7,8,30,31,32,3,3,3,3,3,3,3,3,3,3,
0,0,3,0,0,0,3,0,0,0,3,3,3,3,3,3,30,31,32,3,3,3,2,3,1,3,2,4,3,5,3,3,30,31,32,4,3,3,3,3,4,5,9,10,10,10,11,30,31,32,3,3,3,3,3,3,3,3,3,3,
0,0,3,0,0,0,3,0,0,0,3,3,3,3,3,3,30,31,29,26,26,26,26,26,26,26,26,26,26,27,2,2,30,31,32,2,3,3,3,3,3,3,9,10,10,10,11,30,31,32,3,3,3,3,3,3,3,3,3,3,
0,0,3,0,0,0,3,0,0,0,3,3,3,3,3,3,30,31,31,31,31,31,31,31,31,31,31,31,31,32,4,5,30,31,32,3,3,3,3,3,3,3,13,14,14,14,15,30,31,32,3,3,3,3,3,3,3,3,3,3,
0,0,3,0,0,0,3,0,0,0,3,3,3,3,3,3,35,36,36,36,36,36,36,36,36,36,36,36,36,37,2,5,30,31,29,26,26,26,26,26,26,26,26,26,26,26,26,28,31,32,3,3,3,3,3,3,3,3,3,3,
0,0,3,0,0,0,3,0,0,0,3,3,3,3,3,3,4,4,4,4,4,4,4,4,4,4,4,4,4,4,4,3,30,31,31,31,31,31,31,31,31,31,31,31,31,31,31,31,31,29,26,27,2,2,2,2,2,2,2,2,
0,0,3,0,0,0,3,0,0,0,3,3,3,3,3,3,2,2,2,2,2,2,2,4,5,2,3,2,3,2,4,5,30,31,34,36,36,36,36,36,36,36,36,36,36,36,36,33,31,31,31,32,2,3,2,3,2,3,2,3,
0,0,3,0,0,0,3,0,0,0,3,3,3,3,3,3,2,2,2,5,2,2,4,3,3,3,3,3,3,3,3,3,30,31,32,2,4,5,4,5,4,5,4,5,4,5,2,30,31,34,36,37,3,4,3,4,3,4,3,4,
0,0,3,0,0,0,3,0,0,0,3,3,3,3,3,3,5,2,2,2,2,5,4,3,3,3,3,3,3,3,3,3,30,31,32,4,3,3,3,3,3,3,3,3,3,3,4,30,31,32,4,5,2,3,2,3,2,3,2,3,
0,0,3,0,0,0,3,0,0,0,3,3,3,3,3,3,2,2,2,2,2,3,2,3,3,3,3,3,3,3,3,3,30,31,32,2,3,3,3,3,3,3,3,3,3,3,2,30,31,32,3,3,3,3,3,3,3,3,3,3,
0,0,3,0,0,0,3,0,0,0,3,3,3,3,3,3,4,2,2,2,2,5,4,3,3,3,4,3,4,3,3,3,30,31,32,3,5,5,5,5,5,5,5,5,5,5,3,30,31,32,3,3,3,3,3,3,3,3,3,3,
0,0,3,0,0,0,3,0,0,0,3,3,3,3,3,3,2,3,2,3,2,3,2,2,25,26,26,26,26,26,26,26,28,31,32,5,4,2,2,2,2,4,2,2,2,2,5,30,31,32,3,3,3,3,3,3,3,3,3,3,
0,0,3,0,0,0,3,0,0,0,3,3,3,3,3,3,4,5,5,2,2,2,5,4,30,31,31,31,31,31,31,31,31,31,32,2,4,4,5,4,5,4,5,4,5,4,5,30,31,32,3,3,3,3,3,3,3,3,3,3,
0,0,3,0,0,0,3,0,0,0,3,3,3,3,3,3,2,2,3,2,3,2,3,2,35,36,36,36,36,36,36,36,33,31,32,1,4,2,2,2,2,4,2,2,2,2,5,30,31,32,3,3,3,3,3,3,3,3,3,3,
0,0,3,0,0,0,3,0,0,0,3,3,3,3,3,3,4,3,4,3,4,3,4,3,5,2,3,5,4,5,4,2,30,31,32,2,4,4,5,4,5,4,5,4,5,4,5,30,31,32,3,3,3,3,3,3,3,3,3,3,
0,0,3,0,0,0,3,0,0,0,3,3,3,3,3,3,2,2,3,2,3,2,3,2,2,5,2,3,2,3,3,4,30,31,32,1,2,2,2,2,2,1,2,2,2,2,3,30,31,32,3,3,3,3,3,3,3,3,3,3,
0,0,3,0,0,0,3,0,0,0,3,3,3,3,3,3,2,2,3,25,26,26,26,26,26,26,26,26,26,26,26,26,28,31,29,26,26,26,26,26,26,26,26,26,26,26,26,28,31,32,3,3,3,3,3,3,3,3,3,3,
0,0,3,0,0,0,3,0,0,0,3,3,3,3,3,3,4,2,3,35,36,36,36,36,36,36,36,36,36,36,36,36,36,36,36,36,36,36,36,36,36,36,36,36,36,36,36,36,36,37,3,3,3,3,3,3,3,3,3,3,
0,0,3,0,0,0,3,0,0,0,3,3,3,3,3,3,2,3,2,3,2,3,2,3,2,3,2,3,2,3,17,18,18,19,3,2,3,2,3,2,3,2,3,2,3,2,3,2,3,2,3,3,3,3,3,3,3,3,3,3,
0,0,3,0,0,0,3,0,0,0,3,3,3,3,3,3,3,4,3,4,3,4,3,4,3,4,3,4,3,4,21,22,22,23,5,3,4,3,4,3,4,3,4,3,4,3,4,3,4,3,3,3,3,3,3,3,3,3,3,3,
0,0,3,0,0,0,3,0,0,0,3,3,3,3,3,3,2,3,2,3,2,3,2,3,2,3,2,3,2,3,21,22,22,23,4,5,4,2,3,2,3,2,3,2,3,2,3,2,3,2,3,3,3,3,3,3,3,3,3,3,
0,0,3,0,0,0,3,0,0,0,3,3,3,3,3,3,3,3,3,3,3,3,3,3,3,3,3,3,3,3,21,22,22,23,3,3,3,3,3,3,3,3,3,3,3,3,3,3,3,3,3,3,3,3,3,3,3,3,3,3,
0,0,3,0,0,0,3,0,0,0,3,3,3,3,3,3,3,3,3,3,3,3,3,3,3,3,3,3,3,3,21,22,22,23,3,3,3,3,3,3,3,3,3,3,3,3,3,3,3,3,3,3,3,3,3,3,3,3,3,3,
0,0,3,0,0,0,3,0,0,0,3,3,3,3,3,3,3,3,3,3,3,3,3,3,3,3,3,3,3,3,24,20,22,23,3,3,3,3,3,3,3,3,3,3,3,3,3,3,3,3,3,3,3,3,3,3,3,3,3,3,
0,0,3,0,0,0,3,0,0,0,3,3,3,3,3,3,3,3,3,3,3,3,3,3,3,3,3,3,3,3,5,21,22,23,3,3,3,3,3,3,3,3,3,3,3,3,3,3,3,3,3,3,3,3,3,3,3,3,3,3
  </data>
 </layer>
 <layer id="2" name="middle" width="60" height="46">
  <data encoding="csv">
0,44,0,44,0,44,0,44,0,44,0,44,0,44,0,44,0,44,0,44,0,44,0,44,0,44,0,44,0,44,0,44,0,44,0,44,0,44,0,44,0,44,0,44,0,44,0,44,0,44,0,44,0,44,0,44,0,0,0,0,
0,41,0,41,0,41,0,41,0,41,0,41,0,41,0,41,0,41,0,41,0,41,0,41,0,41,0,41,0,41,0,41,0,41,0,41,0,41,0,41,0,41,0,41,0,41,0,41,0,41,0,41,0,41,0,41,0,0,0,0,
0,44,0,44,0,44,0,44,0,44,0,44,0,44,0,44,0,44,0,44,0,44,0,44,0,44,0,44,0,44,0,44,0,44,0,44,0,44,0,44,0,44,0,44,0,44,0,44,0,44,0,44,0,44,0,44,0,0,0,0,
0,41,0,41,0,41,0,41,0,41,0,41,0,41,0,41,0,41,0,41,0,41,0,41,0,41,0,41,0,41,0,41,0,41,0,41,0,41,0,41,0,41,0,41,0,41,0,41,0,41,0,41,0,41,0,41,0,0,0,0,
0,44,0,44,0,44,0,44,0,44,0,44,0,44,0,44,0,44,0,44,0,44,0,44,0,44,0,44,0,44,0,44,0,44,0,44,0,44,0,44,0,44,0,44,0,44,0,44,0,44,0,44,0,44,0,44,0,0,0,0,
0,41,0,41,0,41,0,41,0,41,0,41,0,41,0,41,0,41,0,41,0,41,0,41,0,41,0,41,0,41,0,41,0,41,0,41,0,41,0,41,0,41,0,41,0,41,0,41,0,41,0,41,0,41,0,41,0,0,0,0,
0,44,0,44,0,44,0,44,0,44,0,44,0,44,0,44,0,44,0,44,0,44,0,44,0,44,0,44,0,44,0,44,0,44,0,44,0,44,0,44,0,44,0,44,0,44,0,44,0,44,0,44,0,44,0,44,0,0,0,0,
0,41,0,41,0,41,0,41,0,41,0,41,0,41,0,49,0,49,0,49,0,49,0,49,0,49,0,49,0,49,0,49,0,49,0,49,0,49,0,49,0,49,0,49,0,49,0,49,0,41,0,41,0,41,0,41,0,0,0,0,
0,44,0,44,0,44,0,44,0,44,0,44,0,0,54,55,54,55,54,55,54,55,54,55,54,55,54,55,54,55,54,55,54,55,54,55,54,55,54,55,54,55,54,55,54,55,54,55,0,44,0,44,0,44,0,44,0,0,0,0,
0,41,0,41,0,41,0,41,0,41,0,41,0,0,0,0,0,0,0,0,0,0,0,0,0,0,0,0,0,0,0,0,0,0,0,0,0,0,139,0,0,0,0,0,0,0,0,0,0,41,0,41,0,41,0,41,0,0,0,0,
0,44,0,44,0,44,0,44,0,44,0,44,0,0,0,0,0,0,0,0,0,0,0,0,0,0,0,0,0,0,0,0,0,0,0,0,0,0,140,137,137,137,0,0,0,0,0,0,0,44,0,44,0,44,0,44,0,0,0,0,
0,41,0,41,0,41,0,41,0,41,0,41,0,0,0,142,147,147,147,0,0,0,0,0,0,0,0,0,0,0,0,0,0,146,147,147,147,147,141,0,0,0,0,142,147,147,147,0,0,49,0,41,0,41,0,41,0,0,0,0,
0,44,0,44,0,44,0,44,0,44,0,44,0,0,137,137,137,0,0,0,0,0,0,0,0,0,0,0,0,0,0,0,0,0,0,137,137,137,137,137,137,137,0,0,0,0,0,0,54,55,0,44,0,44,0,44,0,0,0,0,
0,41,0,41,0,41,0,41,0,41,0,41,0,0,109,111,110,0,0,109,111,111,111,111,111,110,0,0,0,0,109,111,111,111,111,111,111,111,111,111,111,111,111,111,111,111,110,0,0,0,0,41,0,41,0,41,0,0,0,0,
0,44,0,44,0,44,0,44,0,44,0,44,0,0,0,0,0,0,0,0,0,0,0,0,0,0,0,0,0,0,0,0,0,0,0,0,0,0,0,0,0,0,0,0,0,0,0,0,0,0,0,44,0,44,0,44,0,0,0,0,
0,41,0,41,0,41,0,41,0,41,0,41,0,0,0,0,0,0,0,0,0,0,0,0,0,0,0,0,0,0,0,0,0,0,0,0,0,0,0,0,0,0,152,153,154,155,0,0,0,0,0,41,0,41,0,41,0,0,0,0,
0,44,0,44,0,44,0,44,0,44,0,44,0,44,0,0,0,0,0,0,0,0,0,0,0,0,0,0,0,0,0,0,0,0,0,0,0,0,0,0,0,0,156,157,158,159,0,0,0,0,0,44,0,44,0,44,0,0,0,0,
0,41,0,41,0,41,0,41,0,41,0,41,0,41,0,0,0,0,0,0,0,0,0,0,0,0,0,0,0,0,0,0,0,0,0,0,0,0,0,0,0,0,160,0,161,162,0,0,0,0,0,41,0,41,0,41,0,0,0,0,
0,44,0,44,0,44,0,44,0,44,0,44,0,44,0,0,0,0,0,0,0,0,0,0,0,0,0,0,0,0,0,0,0,0,0,0,0,0,0,0,0,0,142,147,147,147,0,0,0,0,0,44,0,44,0,44,0,0,0,0,
0,41,0,41,0,41,0,41,0,41,0,41,0,41,0,0,0,0,0,0,0,0,0,0,0,0,0,0,0,0,0,0,0,0,0,0,0,0,0,0,0,0,0,0,0,0,0,0,0,0,0,41,0,41,0,41,0,0,0,0,
0,44,0,44,0,44,0,44,0,44,0,44,0,44,0,0,0,0,0,0,0,0,0,0,0,0,0,0,0,0,0,0,0,0,0,0,0,0,0,0,0,0,0,0,0,0,0,0,0,0,0,44,0,44,0,44,0,0,0,0,
0,41,0,41,0,41,0,41,0,41,0,41,0,41,0,0,0,0,0,0,0,0,0,0,0,0,0,0,0,0,0,0,0,0,0,0,0,0,0,0,0,0,0,0,0,0,0,0,0,0,0,41,0,41,0,41,0,0,0,0,
0,44,0,44,0,44,0,44,0,44,0,44,0,44,0,0,0,0,0,54,55,114,0,0,0,0,0,0,0,114,54,55,0,0,0,152,153,154,155,0,0,0,0,0,0,0,0,0,0,0,0,44,0,44,0,44,0,0,0,0,
0,41,0,41,0,41,0,41,0,41,0,41,0,41,0,0,0,0,0,0,0,0,0,0,0,0,0,0,0,0,0,129,0,0,0,156,157,158,159,0,0,0,0,0,0,128,0,0,0,0,0,49,0,49,0,49,0,0,0,0,
0,44,0,44,0,44,0,44,0,44,0,44,0,44,0,0,0,0,0,0,0,0,0,0,0,0,0,0,0,0,0,132,0,0,0,160,0,161,162,114,0,0,0,0,0,0,0,0,0,0,54,55,54,55,54,55,54,53,54,53,
0,41,0,41,0,41,0,41,0,41,0,41,0,41,0,0,0,0,0,0,0,0,0,0,0,0,0,0,0,0,0,132,0,0,0,142,147,147,147,0,0,0,0,0,0,0,0,0,0,0,126,137,137,137,137,137,137,137,137,137,
0,44,0,44,0,44,0,44,0,44,0,44,0,44,0,0,137,137,137,137,137,137,137,137,137,137,137,137,137,137,137,135,0,0,0,0,0,0,0,0,0,0,0,0,0,0,0,0,0,0,0,0,0,0,0,0,0,0,0,0,
0,41,0,41,0,41,0,41,0,41,0,41,0,41,0,0,0,0,0,0,0,0,0,0,0,90,91,92,93,58,0,0,0,0,0,0,0,0,0,0,0,0,0,0,0,0,0,0,0,0,0,0,0,0,0,0,0,0,0,0,
0,44,0,44,0,44,0,44,0,44,0,44,0,44,0,0,0,0,0,0,0,0,0,0,0,95,96,97,98,59,40,0,0,0,0,0,0,0,0,0,0,0,0,0,0,0,0,0,0,0,0,0,0,0,0,0,0,0,0,0,
0,41,0,41,0,41,0,41,0,41,0,41,0,41,0,0,0,0,0,0,0,0,0,0,0,100,101,102,103,60,43,0,0,0,0,0,0,49,0,49,0,49,0,49,0,0,0,0,0,0,0,0,0,0,0,0,0,0,0,0,
0,44,0,44,0,44,0,44,0,44,0,44,0,44,0,0,0,0,0,0,0,0,0,0,0,105,106,0,107,61,48,0,0,0,0,0,54,55,54,55,54,55,54,55,54,55,0,0,0,0,0,0,114,0,0,0,0,0,0,0,
0,41,0,41,0,41,0,41,0,41,0,41,0,41,0,0,0,0,0,0,0,0,0,54,55,146,147,147,147,147,54,55,0,0,0,0,130,137,137,137,137,137,137,137,137,137,131,0,0,0,0,41,0,41,0,41,0,0,0,0,
0,44,0,44,0,44,0,44,0,44,0,44,0,44,0,0,0,0,0,0,0,0,0,0,0,0,0,0,0,0,0,0,0,0,0,0,133,0,0,0,0,0,0,0,0,0,132,0,0,0,0,44,0,44,0,44,0,0,0,0,
0,41,0,41,0,41,0,41,0,41,0,41,0,41,0,0,0,0,0,0,0,0,0,0,0,0,0,0,0,0,0,0,0,0,0,0,133,0,0,0,0,0,0,0,0,0,132,0,0,0,0,41,0,41,0,41,0,0,0,0,
0,44,0,44,0,44,0,44,0,44,0,44,0,44,0,0,0,0,0,152,153,154,155,0,0,0,0,0,0,0,0,0,0,0,0,0,133,142,147,147,147,0,142,147,147,147,132,0,0,0,0,44,0,44,0,44,0,0,0,0,
0,41,0,41,0,41,0,41,0,41,0,41,0,41,0,0,0,0,0,156,157,158,159,0,0,0,0,0,0,0,0,0,0,0,0,0,133,0,0,0,0,0,0,0,0,0,132,0,0,0,0,41,0,41,0,41,0,0,0,0,
0,44,0,44,0,44,0,44,0,44,0,44,0,44,0,44,0,0,0,160,0,161,162,0,0,0,0,0,0,0,0,0,0,0,0,0,134,109,111,111,110,0,109,111,111,110,135,0,0,0,0,44,0,44,0,44,0,0,0,0,
0,41,0,41,0,41,0,41,0,41,0,41,0,41,0,41,0,0,0,142,147,147,147,0,0,0,0,0,0,0,0,0,0,0,0,0,0,0,0,0,0,0,0,0,0,0,0,0,0,0,0,41,0,41,0,41,0,0,0,0,
0,44,0,44,0,44,0,44,0,44,0,44,0,44,0,44,0,44,0,0,0,0,0,0,0,0,0,0,0,0,0,0,0,0,0,0,0,0,0,0,0,0,0,0,0,0,0,0,0,0,0,44,0,44,0,44,0,0,0,0,
0,41,0,41,0,41,0,41,0,41,0,41,0,41,0,41,0,0,0,0,0,0,0,0,0,0,0,0,0,0,0,0,0,0,0,0,0,0,0,0,0,0,0,0,0,0,0,0,0,0,0,41,0,41,0,41,0,0,0,0,
0,44,0,44,0,44,0,44,0,44,0,44,0,44,0,44,0,0,0,0,0,0,0,0,0,0,0,0,0,114,0,0,0,0,114,0,0,0,0,0,0,0,0,0,0,0,0,0,0,0,43,44,0,44,0,44,0,0,0,0,
0,41,0,41,0,41,0,41,0,41,0,41,0,41,0,41,0,41,0,41,0,41,0,41,0,41,0,41,0,0,0,0,0,0,0,41,0,41,0,41,0,41,0,41,0,41,0,41,0,41,0,41,0,41,0,41,0,0,0,0,
0,44,0,44,0,44,0,44,0,44,0,44,0,44,0,44,0,44,0,44,0,44,0,44,0,44,0,44,0,0,0,0,0,0,0,44,0,44,0,44,0,44,0,44,0,44,0,44,0,44,0,44,0,44,0,44,0,0,0,0,
0,41,0,41,0,41,0,41,0,41,0,41,0,41,0,41,0,41,0,41,0,41,0,41,0,41,0,41,0,0,0,0,0,0,0,41,0,41,0,41,0,41,0,41,0,41,0,41,0,41,0,41,0,41,0,41,0,0,0,0,
0,44,0,44,0,44,0,44,0,44,0,44,0,44,0,44,0,44,0,44,0,44,0,44,0,44,0,44,0,0,0,0,0,0,43,44,0,44,0,44,0,44,0,44,0,44,0,44,0,44,0,44,0,44,0,44,0,0,0,0,
0,41,0,41,0,41,0,41,0,41,0,41,0,41,0,41,0,41,0,41,0,41,0,41,0,41,0,41,0,0,0,0,0,0,0,41,0,41,0,41,0,41,0,41,0,41,0,41,0,41,0,41,0,41,0,41,0,0,0,0
  </data>
 </layer>
 <layer id="3" name="upper" width="60" height="46">
  <data encoding="csv">
0,0,0,0,0,0,0,0,0,0,0,0,0,0,0,0,0,0,0,0,0,0,0,0,0,0,0,0,0,0,0,0,0,0,0,0,0,0,0,0,0,0,0,0,0,0,0,0,0,0,0,0,0,0,0,0,0,0,0,0,
0,0,0,0,0,0,0,0,0,0,0,0,0,0,0,0,0,0,0,0,0,0,0,0,0,0,0,0,0,0,0,0,0,0,0,0,0,0,0,0,0,0,0,0,0,0,0,0,0,0,0,0,0,0,0,0,0,0,0,0,
0,0,0,0,0,0,0,0,0,0,0,0,0,0,0,0,0,0,0,0,0,0,0,0,0,0,0,0,0,0,0,0,0,0,0,0,0,0,0,0,0,0,0,0,0,0,0,0,0,0,0,0,0,0,0,0,0,0,0,0,
0,0,0,0,0,0,0,0,0,0,0,0,0,0,0,0,0,0,0,0,0,0,0,0,0,0,0,0,0,0,0,0,0,0,0,0,0,0,0,0,0,0,0,0,0,0,0,0,0,0,0,0,0,0,0,0,0,0,0,0,
0,0,0,0,0,0,0,0,0,0,0,0,0,0,0,0,0,0,0,0,0,0,0,0,0,0,0,0,0,0,0,0,0,0,0,0,0,0,0,0,0,0,0,0,0,0,0,0,0,0,0,0,0,0,0,0,0,0,0,0,
0,0,0,0,0,0,0,0,0,0,0,0,0,0,0,0,0,0,0,0,0,0,0,0,0,0,0,0,0,0,0,0,0,0,0,0,0,0,0,0,0,0,0,0,0,0,0,0,0,0,0,0,0,0,0,0,0,0,0,0,
0,0,0,0,0,0,0,0,0,0,0,0,0,0,0,0,0,0,0,0,0,0,0,0,0,0,0,0,0,0,0,0,0,0,0,0,0,0,0,0,0,0,0,0,0,0,0,0,0,0,0,0,0,0,0,0,0,0,0,0,
0,0,0,0,0,0,0,0,0,0,0,0,0,0,0,0,0,0,0,0,0,0,0,0,0,0,0,0,0,0,0,0,0,163,163,163,164,165,0,0,0,0,0,0,0,0,0,0,0,0,0,0,0,0,0,0,0,0,0,0,
0,0,0,0,0,0,0,0,0,0,0,0,0,0,0,152,153,154,155,0,0,0,0,0,0,0,0,0,0,0,0,0,0,163,163,163,166,167,129,0,0,0,0,152,153,154,155,0,0,0,0,0,0,0,0,0,0,0,0,0,
0,0,0,0,0,0,0,0,0,0,0,0,0,0,0,156,157,158,159,0,0,0,0,0,0,0,0,0,0,0,0,0,0,168,169,170,171,172,132,0,0,0,0,156,157,158,159,0,0,0,0,0,0,0,0,0,0,0,0,0,
0,0,0,0,0,0,0,0,0,0,0,0,0,0,0,144,145,161,162,0,0,0,0,0,0,0,0,0,0,0,0,0,0,173,174,0,175,176,136,0,0,0,0,144,145,161,162,0,0,0,0,0,0,0,0,0,0,0,0,0,
0,0,0,0,0,0,0,0,0,0,0,0,0,0,0,0,0,0,0,0,114,0,0,0,0,0,0,0,0,0,0,0,0,0,0,0,0,0,0,0,0,0,0,0,0,0,0,0,0,0,0,0,0,0,0,0,0,0,0,0,
0,0,0,0,0,0,0,0,0,0,0,0,0,0,0,0,0,0,0,0,0,0,0,0,0,0,0,0,0,0,0,0,0,0,0,0,0,0,0,0,0,0,0,0,0,0,0,0,0,0,0,0,0,0,0,0,0,0,0,0,
0,0,0,0,0,0,0,0,0,0,0,0,0,0,0,0,0,0,0,0,0,0,0,0,0,0,0,0,0,0,0,0,0,0,0,0,0,0,0,0,0,0,0,0,0,0,0,0,0,0,0,0,0,0,0,0,0,0,0,0,
0,0,0,0,0,0,0,0,0,0,0,0,0,0,0,0,0,0,0,0,0,0,0,0,0,0,0,0,0,0,0,0,0,0,0,0,0,0,0,0,0,0,0,0,0,0,0,0,0,0,0,0,0,0,0,0,0,0,0,0,
0,0,0,0,0,0,0,0,0,0,0,0,0,0,0,0,0,0,0,0,0,0,0,0,0,0,0,0,0,0,0,0,0,0,0,0,0,0,0,0,0,0,0,0,0,0,0,0,0,0,0,0,0,0,0,0,0,0,0,0,
0,0,0,0,0,0,0,0,0,0,0,0,0,0,0,0,0,0,0,0,0,0,0,0,0,0,0,0,0,0,0,0,0,0,0,0,0,0,0,0,0,0,0,0,0,0,0,0,0,0,0,0,0,0,0,0,0,0,0,0,
0,0,0,0,0,0,0,0,0,0,0,0,0,0,0,0,0,0,0,0,0,0,62,63,64,65,66,67,89,0,0,0,0,0,0,0,0,0,0,0,0,0,0,0,0,0,0,0,0,0,0,0,0,0,0,0,0,0,0,0,
0,0,0,0,0,0,0,0,0,0,0,0,0,0,0,0,0,0,0,0,0,0,68,69,70,71,72,73,94,0,0,0,0,0,0,0,0,0,0,0,0,0,0,0,0,0,0,0,0,0,0,0,0,0,0,0,0,0,0,0,
0,0,0,0,0,0,0,0,0,0,0,0,0,0,0,0,0,0,0,0,0,0,74,75,76,77,78,75,99,0,0,0,0,0,0,0,0,0,0,0,0,0,0,0,0,0,0,0,0,0,0,0,0,0,0,0,0,0,0,0,
0,0,0,0,0,0,0,0,0,0,0,0,0,0,0,0,0,0,0,0,0,0,79,80,81,82,83,84,104,0,0,0,0,0,0,0,0,0,0,0,0,0,0,0,0,0,0,0,0,0,0,0,0,0,0,0,0,0,0,0,
0,0,0,0,0,0,0,0,0,0,0,0,0,0,0,0,0,0,0,0,0,0,85,86,87,0,88,86,108,0,0,0,0,0,0,0,0,0,0,0,0,0,0,0,0,0,0,0,0,0,0,0,0,0,0,0,0,0,0,0,
0,0,0,0,0,0,0,0,0,0,0,0,0,0,0,0,0,0,0,0,0,0,0,0,0,0,0,0,0,0,0,0,0,0,0,0,0,0,0,0,0,0,0,0,0,0,0,0,0,0,0,0,0,0,0,0,0,0,0,0,
0,0,0,0,0,0,0,0,0,0,0,0,0,0,0,0,0,0,0,0,0,0,0,0,0,0,0,0,0,0,0,0,0,0,0,0,0,0,0,0,0,0,0,0,0,0,0,0,0,0,0,0,0,0,0,0,0,0,0,0,
0,0,0,0,0,0,0,0,0,0,0,0,0,0,0,0,0,0,0,0,0,0,0,0,0,0,0,0,0,0,0,0,0,0,0,0,0,0,0,0,0,0,0,0,0,0,0,0,0,0,0,0,0,0,0,0,0,0,0,0,
0,0,0,0,0,0,0,0,0,0,0,0,0,0,0,0,0,0,0,0,0,0,0,0,0,0,0,0,0,0,0,0,0,0,0,0,0,0,0,0,0,0,0,0,0,0,0,0,0,0,0,0,0,0,0,0,0,0,0,0,
0,0,0,0,0,0,0,0,0,0,0,0,0,0,0,0,0,0,0,0,0,0,0,0,0,0,0,0,0,0,0,0,0,0,0,0,0,0,0,0,0,0,0,0,0,0,0,0,0,0,0,0,114,0,0,0,0,0,0,0,
0,0,0,0,0,0,0,0,0,0,0,0,0,0,0,0,0,115,116,116,117,0,0,0,0,0,0,0,0,0,0,0,0,0,0,0,0,0,0,0,0,0,0,0,0,0,0,0,0,0,0,0,0,0,0,0,0,0,0,0,
0,0,0,0,0,0,0,0,0,0,0,0,0,0,0,0,0,119,120,120,118,117,0,0,0,0,0,0,0,0,0,0,0,0,0,0,0,0,0,0,0,0,0,0,0,0,0,0,0,0,0,0,0,0,0,0,0,0,0,0,
0,0,0,0,0,0,0,0,0,0,0,0,0,0,0,0,0,119,120,120,120,121,0,0,0,0,0,0,0,0,0,0,0,0,0,0,0,0,0,0,0,0,0,0,0,0,0,0,0,0,0,0,0,0,0,0,0,0,0,0,
0,0,0,0,0,0,0,0,0,0,0,0,0,0,0,0,0,122,123,125,120,121,0,0,0,0,0,0,0,0,0,0,0,0,0,0,0,0,0,0,0,0,0,0,0,0,0,0,0,0,0,0,0,0,0,0,0,0,0,0,
0,0,0,0,0,0,0,0,0,0,0,0,0,0,0,0,0,0,0,122,123,124,0,0,0,0,0,0,0,0,0,0,0,0,0,0,0,152,153,154,155,0,152,153,154,155,0,0,0,0,0,0,0,0,0,0,0,0,0,0,
0,0,0,0,0,0,0,0,0,0,0,0,0,0,0,0,0,0,0,0,0,0,0,0,0,0,0,0,0,0,0,0,0,0,0,0,0,156,157,158,159,0,156,157,158,159,0,0,0,0,0,0,0,0,0,0,0,0,0,0,
0,0,0,0,0,0,0,0,0,0,0,0,0,0,0,0,0,0,0,0,0,0,0,114,0,0,0,0,0,0,0,0,0,0,0,0,0,160,0,161,162,0,160,143,161,162,0,0,0,0,0,0,0,0,0,0,0,0,0,0,
0,0,0,0,0,0,0,0,0,0,0,0,0,0,0,0,0,0,0,0,0,0,0,0,0,0,0,0,0,0,0,0,0,0,0,0,0,0,0,0,0,0,0,0,0,0,0,0,0,0,0,0,0,0,0,0,0,0,0,0,
0,0,0,0,0,0,0,0,0,0,0,0,0,0,0,0,0,0,0,0,0,0,0,0,0,0,0,0,0,0,0,0,0,0,0,0,0,0,0,0,0,0,0,0,0,0,0,0,0,0,0,0,0,0,0,0,0,0,0,0,
0,0,0,0,0,0,0,0,0,0,0,0,0,0,0,0,0,0,0,0,0,0,0,0,0,0,0,0,0,0,0,0,0,0,0,0,0,0,0,0,0,0,0,0,0,0,0,0,0,0,0,0,0,0,0,0,0,0,0,0,
0,0,0,0,0,0,0,0,0,0,0,0,0,0,0,0,0,0,0,0,0,0,0,0,0,0,0,0,0,0,0,0,0,0,0,0,0,0,0,0,0,0,0,0,0,0,0,0,0,0,0,0,0,0,0,0,0,0,0,0,
0,0,0,0,0,0,0,0,0,0,0,0,0,0,0,0,0,0,0,0,0,0,0,0,0,0,0,0,0,0,0,0,0,0,0,0,0,0,0,0,0,0,0,0,0,0,0,0,0,0,0,0,0,0,0,0,0,0,0,0,
0,0,0,0,0,0,0,0,0,0,0,0,0,0,0,0,0,0,0,0,0,0,0,0,0,0,0,0,0,0,0,0,0,0,0,0,0,0,0,0,0,0,0,0,0,0,0,0,0,0,0,0,0,0,0,0,0,0,0,0,
0,0,0,0,0,0,0,0,0,0,0,0,0,0,0,0,0,0,0,0,0,0,0,0,0,0,0,0,0,0,0,0,0,0,0,0,0,0,0,0,0,0,0,0,0,0,0,0,0,0,0,0,0,0,0,0,0,0,0,0,
0,0,0,0,0,0,0,0,0,0,0,0,0,0,0,0,0,0,0,0,0,0,0,0,0,0,0,0,0,0,0,0,0,0,0,0,0,0,0,0,0,0,0,0,0,0,0,0,0,0,0,0,0,0,0,0,0,0,0,0,
0,0,0,0,0,0,0,0,0,0,0,0,0,0,0,0,0,0,0,0,0,0,0,0,0,0,0,0,0,0,0,0,0,0,0,0,0,0,0,0,0,0,0,0,0,0,0,0,0,0,0,0,0,0,0,0,0,0,0,0,
0,0,0,0,0,0,0,0,0,0,0,0,0,0,0,0,0,0,0,0,0,0,0,0,0,0,0,0,0,0,0,0,0,0,0,0,0,0,0,0,0,0,0,0,0,0,0,0,0,0,0,0,0,0,0,0,0,0,0,0,
0,0,0,0,0,0,0,0,0,0,0,0,0,0,0,0,0,0,0,0,0,0,0,0,0,0,0,0,0,0,0,0,0,0,0,0,0,0,0,0,0,0,0,0,0,0,0,0,0,0,0,0,0,0,0,0,0,0,0,0,
0,0,0,0,0,0,0,0,0,0,0,0,0,0,0,0,0,0,0,0,0,0,0,0,0,0,0,0,0,0,0,0,0,0,0,0,0,0,0,0,0,0,0,0,0,0,0,0,0,0,0,0,0,0,0,0,0,0,0,0
  </data>
 </layer>
 <objectgroup id="4" name="events"/>
 <group id="7" name="above">
 <layer id="5" name="middle_above" width="60" height="46">
  <data encoding="csv">
43,0,43,0,43,0,43,0,43,0,43,0,43,0,43,0,43,0,43,0,43,0,43,0,43,0,43,0,43,0,43,0,43,0,43,0,43,0,43,0,43,0,43,0,43,0,43,0,43,0,43,0,43,0,43,0,43,45,43,45,
40,0,40,0,40,0,40,0,40,0,40,0,40,0,40,0,40,0,40,0,40,0,40,0,40,0,40,0,40,0,40,0,40,0,40,0,40,0,40,0,40,0,40,0,40,0,40,0,40,0,40,0,40,0,40,0,40,42,40,42,
43,0,43,0,43,0,43,0,43,0,43,0,43,0,43,0,43,0,43,0,43,0,43,0,43,0,43,0,43,0,43,0,43,0,43,0,43,0,43,0,43,0,43,0,43,0,43,0,43,0,43,0,43,0,43,0,43,45,43,45,
40,0,40,0,40,0,40,0,40,0,40,0,40,0,40,0,40,0,40,0,40,0,40,0,40,0,40,0,40,0,40,0,40,0,40,0,40,0,40,0,40,0,40,0,40,0,40,0,40,0,40,0,40,0,40,0,40,42,40,42,
43,0,43,0,43,0,43,0,43,0,43,0,43,0,43,0,43,0,43,0,43,0,43,0,43,0,43,0,43,0,43,0,43,0,43,0,43,0,43,0,43,0,43,0,43,0,43,0,43,0,43,0,43,0,43,0,43,45,43,45,
40,0,40,0,40,0,40,0,40,0,40,0,40,0,40,0,40,0,40,0,40,0,40,0,40,0,40,0,40,0,40,0,40,0,40,0,40,0,40,0,40,0,40,0,40,0,40,0,40,0,40,0,40,0,40,0,40,42,40,42,
43,0,43,0,43,0,43,0,43,0,43,0,43,0,43,0,43,0,43,0,43,0,43,0,43,0,43,0,43,0,43,0,43,0,43,0,43,0,43,0,43,0,43,0,43,0,43,0,43,0,43,0,43,0,43,0,43,45,43,45,
40,0,40,0,40,0,40,0,40,0,40,0,40,0,48,0,48,0,48,0,48,0,48,0,48,0,48,0,48,0,48,0,48,0,48,0,48,0,48,0,48,0,48,0,48,0,48,0,40,0,40,0,40,0,40,0,40,42,40,42,
43,0,43,0,43,0,43,0,43,0,43,0,43,45,0,0,0,0,0,0,0,0,0,0,0,0,0,0,0,0,0,0,0,0,0,0,0,0,0,0,0,0,0,0,0,0,0,0,43,0,43,0,43,0,43,0,43,45,43,45,
40,0,40,0,40,0,40,0,40,0,40,0,40,42,0,0,0,0,0,0,0,0,0,0,0,0,0,0,0,0,0,0,0,0,0,0,0,0,0,0,0,0,0,0,0,0,0,0,40,0,40,0,40,0,40,0,40,42,40,42,
43,0,43,0,43,0,43,0,43,0,43,0,43,45,0,0,0,0,0,0,0,0,0,0,0,0,0,0,0,0,0,0,0,0,0,0,0,0,0,0,0,0,0,0,0,0,0,0,43,0,43,0,43,0,43,0,43,45,43,45,
40,0,40,0,40,0,40,0,40,0,40,0,40,42,0,0,0,0,0,0,0,0,0,0,0,0,0,0,0,0,0,0,0,0,0,0,0,0,0,0,0,0,0,0,0,0,0,0,48,0,40,0,40,0,40,0,40,42,40,42,
43,0,43,0,43,0,43,0,43,0,43,0,43,45,0,0,0,0,0,0,0,0,0,0,0,0,0,0,0,0,0,0,0,0,0,0,0,0,0,0,0,0,0,0,0,0,0,0,0,0,43,0,43,0,43,0,43,45,43,45,
40,0,40,0,40,0,40,0,40,0,40,0,40,42,0,0,0,0,0,0,0,0,0,0,0,0,0,0,0,0,0,0,0,0,0,0,0,0,0,0,0,0,0,0,0,0,0,0,0,0,40,0,40,0,40,0,40,42,40,42,
43,0,43,0,43,0,43,0,43,0,43,0,43,45,46,0,0,0,0,0,0,0,0,0,0,0,0,0,0,0,0,0,0,0,0,0,0,0,0,0,0,0,148,149,150,151,0,0,0,0,43,0,43,0,43,0,43,45,43,45,
40,0,40,0,40,0,40,0,40,0,40,0,40,42,51,0,0,0,0,0,0,0,0,0,0,0,0,0,0,0,0,0,0,0,0,0,0,0,0,0,0,0,0,0,0,0,0,0,0,0,40,0,40,0,40,0,40,42,40,42,
43,0,43,0,43,0,43,0,43,0,43,0,43,0,56,57,46,0,0,0,0,0,0,0,0,0,0,0,0,0,0,0,0,0,0,0,0,0,0,0,0,0,0,0,0,0,0,0,0,0,43,0,43,0,43,0,43,45,43,45,
40,0,40,0,40,0,40,0,40,0,40,0,40,0,40,42,51,0,0,0,0,0,0,0,0,0,0,0,0,0,0,0,0,0,0,0,0,0,0,0,0,0,0,0,0,0,0,0,0,0,40,0,40,0,40,0,40,42,40,42,
43,0,43,0,43,0,43,0,43,0,43,0,43,0,43,45,46,0,0,56,57,0,0,0,0,0,0,0,0,0,56,57,0,0,0,0,0,0,0,0,0,0,0,0,0,0,0,0,0,0,43,0,43,0,43,0,43,45,43,45,
40,0,40,0,40,0,40,0,40,0,40,0,40,0,40,42,51,0,0,40,42,0,0,0,0,0,0,0,0,0,40,42,0,0,0,0,0,0,0,0,0,0,0,0,0,0,0,0,0,0,40,0,40,0,40,0,40,42,40,42,
43,0,43,0,43,0,43,0,43,0,43,0,43,0,43,45,46,0,0,43,45,112,0,0,0,0,0,0,0,112,43,45,0,0,0,0,0,0,0,0,0,0,0,0,0,0,0,0,0,0,43,0,43,0,43,0,43,45,43,45,
40,0,40,0,40,0,40,0,40,0,40,0,40,0,40,42,51,0,0,48,50,113,0,0,0,0,0,0,0,113,48,50,0,0,0,148,149,150,151,0,0,0,0,0,0,0,0,0,0,0,40,0,40,0,40,0,40,42,40,42,
43,0,43,0,43,0,43,0,43,0,43,0,43,0,43,45,46,0,0,0,0,0,0,0,0,0,0,0,0,0,0,0,0,0,0,0,0,0,0,112,0,0,0,0,0,127,0,0,0,0,43,0,43,0,43,0,43,45,43,45,
40,0,40,0,40,0,40,0,40,0,40,0,40,0,40,42,51,0,0,0,0,0,0,0,0,0,0,0,0,0,0,0,0,0,0,0,0,0,0,113,0,0,0,0,0,0,0,0,0,0,48,0,48,0,48,0,48,50,48,50,
43,0,43,0,43,0,43,0,43,0,43,0,43,0,43,45,46,0,0,0,0,0,0,0,0,0,0,0,0,0,0,0,0,0,0,0,0,0,0,0,0,0,0,0,0,0,0,0,0,0,0,0,0,0,0,0,0,0,0,0,
40,0,40,0,40,0,40,0,40,0,40,0,40,0,40,42,51,0,0,0,0,0,0,0,0,0,0,0,0,0,0,0,0,0,0,0,0,0,0,0,0,0,0,0,0,0,0,0,0,0,0,0,0,0,0,0,0,0,0,0,
43,0,43,0,43,0,43,0,43,0,43,0,43,0,43,45,0,0,0,0,0,0,0,0,0,0,0,0,0,0,0,0,0,0,0,0,0,0,0,0,0,0,0,0,0,0,0,0,0,0,0,0,0,0,0,0,0,0,0,0,
40,0,40,0,40,0,40,0,40,0,40,0,40,0,40,42,51,0,0,0,0,0,0,56,57,0,0,0,0,0,56,57,0,0,0,0,38,39,38,39,38,39,38,39,38,39,0,0,0,0,0,0,0,0,0,0,0,0,0,0,
43,0,43,0,43,0,43,0,43,0,43,0,43,0,43,45,46,0,0,0,0,0,0,40,42,0,0,0,0,0,0,42,0,0,0,0,56,57,56,57,56,57,56,57,56,57,0,0,0,0,0,0,112,0,0,0,0,0,0,0,
40,0,40,0,40,0,40,0,40,0,40,0,40,0,40,42,51,0,0,0,0,0,0,43,45,0,0,0,0,0,0,45,0,0,0,0,48,0,48,0,48,0,48,0,48,50,0,0,0,0,0,0,113,0,0,0,0,0,0,0,
43,0,43,0,43,0,43,0,43,0,43,0,43,0,43,45,46,0,0,0,0,0,0,48,50,0,0,0,0,0,0,50,0,0,0,0,0,0,0,0,0,0,0,0,0,0,0,0,0,0,56,57,0,57,56,57,56,57,56,57,
40,0,40,0,40,0,40,0,40,0,40,0,40,0,40,42,51,0,0,0,0,0,0,0,0,0,0,0,0,0,0,0,0,0,0,0,0,0,0,0,0,0,0,0,0,0,0,0,0,0,40,0,40,0,40,0,40,42,40,42,
43,0,43,0,43,0,43,0,43,0,43,0,43,0,43,45,46,0,0,0,0,0,0,0,0,0,0,0,0,0,0,0,0,0,0,0,0,0,0,0,0,0,0,0,0,0,0,0,0,0,43,0,43,0,43,0,43,45,43,45,
40,0,40,0,40,0,40,0,40,0,40,0,40,0,40,42,51,0,0,148,149,150,151,0,0,0,0,0,0,0,0,0,0,0,0,0,0,0,0,0,0,0,0,0,0,0,0,0,0,0,40,0,40,0,40,0,40,42,40,42,
43,0,43,0,43,0,43,0,43,0,43,0,43,0,43,45,46,0,0,0,0,0,0,0,0,0,0,0,0,0,0,0,0,0,0,0,0,0,0,0,0,0,0,0,0,0,0,0,0,0,43,0,43,0,43,0,43,45,43,45,
40,0,40,0,40,0,40,0,40,0,40,0,40,0,40,42,51,0,0,0,0,0,0,0,0,0,0,0,0,0,0,0,0,0,0,0,0,0,0,0,0,0,0,0,0,0,0,0,0,0,40,0,40,0,40,0,40,42,40,42,
43,0,43,0,43,0,43,0,43,0,43,0,43,0,43,0,56,57,46,0,0,0,0,0,0,0,0,0,0,0,0,0,0,0,0,0,0,0,0,0,0,0,0,0,0,0,0,0,0,0,43,0,43,0,43,0,43,45,43,45,
40,0,40,0,40,0,40,0,40,0,40,0,40,0,40,0,40,42,51,0,0,0,0,0,0,0,0,0,0,0,0,0,0,0,0,0,0,0,0,0,0,0,0,0,0,0,0,0,0,0,40,0,40,0,40,0,40,42,40,42,
43,0,43,0,43,0,43,0,43,0,43,0,43,0,43,0,43,0,46,0,0,0,0,0,0,0,0,0,0,112,0,0,0,0,112,0,0,0,0,0,0,0,0,0,0,0,0,0,0,0,43,0,43,0,43,0,43,45,43,45,
40,0,40,0,40,0,40,0,40,0,40,0,40,0,40,0,40,42,51,0,0,0,0,0,0,0,0,0,0,113,0,0,0,0,113,0,0,0,0,0,0,0,0,0,0,0,0,0,0,39,40,0,40,0,40,0,40,42,40,42,
43,0,43,0,43,0,43,0,43,0,43,0,43,0,43,0,43,45,56,57,56,57,56,57,56,57,56,57,56,0,0,0,0,0,0,0,56,57,56,57,56,57,56,57,56,57,56,57,56,57,0,0,43,0,43,0,43,45,43,45,
40,0,40,0,40,0,40,0,40,0,40,0,40,0,40,0,40,0,40,0,40,0,40,0,40,0,40,0,40,42,0,0,0,0,40,0,40,0,40,0,40,0,40,0,40,0,40,0,40,0,40,0,40,0,40,0,40,42,40,42,
43,0,43,0,43,0,43,0,43,0,43,0,43,0,43,0,43,0,43,0,43,0,43,0,43,0,43,0,43,45,0,0,0,0,43,0,43,0,43,0,43,0,43,0,43,0,43,0,43,0,43,0,43,0,43,0,43,45,43,45,
40,0,40,0,40,0,40,0,40,0,40,0,40,0,40,0,40,0,40,0,40,0,40,0,40,0,40,0,40,42,0,0,0,0,40,0,40,0,40,0,40,0,40,0,40,0,40,0,40,0,40,0,40,0,40,0,40,42,40,42,
43,0,43,0,43,0,43,0,43,0,43,0,43,0,43,0,43,0,43,0,43,0,43,0,43,0,43,0,43,45,0,0,0,0,0,0,43,0,43,0,43,0,43,0,43,0,43,0,43,0,43,0,43,0,43,0,43,45,43,45,
40,0,40,0,40,0,40,0,40,0,40,0,40,0,40,0,40,0,40,0,40,0,40,0,40,0,40,0,40,42,0,0,0,0,40,0,40,0,40,0,40,0,40,0,40,0,40,0,40,0,40,0,40,0,40,0,40,42,40,42
  </data>
 </layer>
 <layer id="6" name="upper_above" width="60" height="46">
  <data encoding="csv">
0,0,0,0,0,0,0,0,0,0,0,0,0,0,0,0,0,0,0,0,0,0,0,0,0,0,0,0,0,0,0,0,0,0,0,0,0,0,0,0,0,0,0,0,0,0,0,0,0,0,0,0,0,0,0,0,0,0,0,0,
0,0,0,0,0,0,0,0,0,0,0,0,0,0,0,0,0,0,0,0,0,0,0,0,0,0,0,0,0,0,0,0,0,0,0,0,0,0,0,0,0,0,0,0,0,0,0,0,0,0,0,0,0,0,0,0,0,0,0,0,
0,0,0,0,0,0,0,0,0,0,0,0,0,0,0,0,0,0,0,0,0,0,0,0,0,0,0,0,0,0,0,0,0,0,0,0,0,0,0,0,0,0,0,0,0,0,0,0,0,0,0,0,0,0,0,0,0,0,0,0,
0,0,0,0,0,0,0,0,0,0,0,0,0,0,0,0,0,0,0,0,0,0,0,0,0,0,0,0,0,0,0,0,0,0,0,0,0,0,0,0,0,0,0,0,0,0,0,0,0,0,0,0,0,0,0,0,0,0,0,0,
0,0,0,0,0,0,0,0,0,0,0,0,0,0,0,0,0,0,0,0,0,0,0,0,0,0,0,0,0,0,0,0,0,0,0,0,0,0,0,0,0,0,0,0,0,0,0,0,0,0,0,0,0,0,0,0,0,0,0,0,
0,0,0,0,0,0,0,0,0,0,0,0,0,0,0,0,0,0,0,0,0,0,0,0,0,0,0,0,0,0,0,0,0,0,0,0,0,0,0,0,0,0,0,0,0,0,0,0,0,0,0,0,0,0,0,0,0,0,0,0,
0,0,0,0,0,0,0,0,0,0,0,0,0,0,0,0,0,0,0,0,0,0,0,0,0,0,0,0,0,0,0,0,0,0,0,0,0,0,0,0,0,0,0,0,0,0,0,0,0,0,0,0,0,0,0,0,0,0,0,0,
0,0,0,0,0,0,0,0,0,0,0,0,0,0,0,148,149,150,151,0,0,0,0,0,0,0,0,0,0,0,0,0,0,0,0,0,0,0,0,0,0,0,0,148,149,150,151,0,0,0,0,0,0,0,0,0,0,0,0,0,
0,0,0,0,0,0,0,0,0,0,0,0,0,0,46,0,0,0,0,0,0,0,0,0,0,0,0,0,0,0,0,0,0,0,0,0,0,0,0,0,0,0,0,0,0,0,0,47,0,0,0,0,0,0,0,0,0,0,0,0,
0,0,0,0,0,0,0,0,0,0,0,0,0,0,51,0,0,0,0,0,112,0,0,0,0,0,0,0,0,0,0,0,0,0,0,0,0,0,0,0,0,0,0,0,0,0,0,52,0,0,0,0,0,0,0,0,0,0,0,0,
0,0,0,0,0,0,0,0,0,0,0,0,0,0,46,0,0,0,0,0,113,0,0,0,0,0,0,0,0,0,0,0,0,0,0,0,0,0,0,0,0,0,0,0,0,0,0,47,0,0,0,0,0,0,0,0,0,0,0,0,
0,0,0,0,0,0,0,0,0,0,0,0,0,0,51,0,0,0,0,0,0,0,0,0,0,0,0,0,0,0,0,0,0,0,0,0,0,0,0,0,0,0,0,0,0,0,0,52,0,0,0,0,0,0,0,0,0,0,0,0,
0,0,0,0,0,0,0,0,0,0,0,0,0,0,46,0,0,0,0,0,0,0,0,0,0,0,0,0,0,0,0,0,0,0,0,0,0,0,0,0,0,0,0,0,0,0,0,0,0,47,0,0,0,0,0,0,0,0,0,0,
0,0,0,0,0,0,0,0,0,0,0,0,0,0,51,0,0,0,0,0,0,0,0,0,0,0,0,0,0,0,0,0,0,0,0,0,0,0,0,0,0,0,0,0,0,0,0,0,0,52,0,0,0,0,0,0,0,0,0,0,
0,0,0,0,0,0,0,0,0,0,0,0,0,0,0,0,0,0,0,0,0,0,0,0,0,0,0,0,0,0,0,0,0,0,0,0,0,0,0,0,0,0,0,0,0,0,0,0,0,47,0,0,0,0,0,0,0,0,0,0,
0,0,0,0,0,0,0,0,0,0,0,0,0,0,38,39,0,0,0,0,0,0,0,0,0,0,0,0,0,0,0,0,0,0,0,0,0,0,0,0,0,0,0,0,0,0,0,0,0,52,0,0,0,0,0,0,0,0,0,0,
0,0,0,0,0,0,0,0,0,0,0,0,0,0,0,0,0,0,0,0,0,0,0,0,0,0,0,0,0,0,0,0,0,0,0,0,0,0,0,0,0,0,0,0,0,0,0,0,0,47,0,0,0,0,0,0,0,0,0,0,
0,0,0,0,0,0,0,0,0,0,0,0,0,0,0,0,0,0,0,38,39,0,0,0,0,0,0,0,0,0,38,39,0,0,0,0,0,0,0,0,0,0,0,0,0,0,0,0,0,52,0,0,0,0,0,0,0,0,0,0,
0,0,0,0,0,0,0,0,0,0,0,0,0,0,0,0,0,0,47,0,0,46,0,0,0,0,0,0,0,47,0,0,46,0,0,0,0,0,0,0,0,0,0,0,0,0,0,0,0,47,0,0,0,0,0,0,0,0,0,0,
0,0,0,0,0,0,0,0,0,0,0,0,0,0,0,0,0,0,52,0,0,51,0,0,0,0,0,0,0,52,0,0,51,0,0,0,0,0,0,0,0,0,0,0,0,0,0,0,0,52,0,0,0,0,0,0,0,0,0,0,
0,0,0,0,0,0,0,0,0,0,0,0,0,0,0,0,0,0,47,0,0,46,0,0,0,0,0,0,0,47,0,0,46,0,0,0,0,0,0,0,0,0,0,0,0,0,0,0,0,47,0,0,0,0,0,0,0,0,0,0,
0,0,0,0,0,0,0,0,0,0,0,0,0,0,0,0,0,0,52,0,0,51,0,0,0,0,0,0,0,52,0,0,51,0,0,0,0,0,0,0,0,0,0,0,0,0,0,0,0,52,0,0,0,0,0,0,0,0,0,0,
0,0,0,0,0,0,0,0,0,0,0,0,0,0,0,0,0,0,0,0,0,0,0,0,0,0,0,0,0,0,0,0,0,0,0,0,0,0,0,0,0,0,0,0,0,0,0,0,0,47,0,0,0,0,0,0,0,0,0,0,
0,0,0,0,0,0,0,0,0,0,0,0,0,0,0,0,0,0,0,0,0,0,0,0,0,0,0,0,0,0,0,0,0,0,0,0,0,0,0,0,0,0,0,0,0,0,0,0,0,52,0,0,0,0,0,0,0,0,0,0,
0,0,0,0,0,0,0,0,0,0,0,0,0,0,0,0,0,0,0,0,0,0,0,0,0,0,0,0,0,0,0,0,0,0,0,0,0,0,0,0,0,0,0,0,0,0,0,0,0,0,0,0,112,0,0,0,0,0,0,0,
0,0,0,0,0,0,0,0,0,0,0,0,0,0,0,0,0,0,0,0,0,0,0,0,0,0,0,0,0,0,0,0,0,0,0,0,0,0,0,0,0,0,0,0,0,0,0,0,0,0,0,0,113,0,0,0,0,0,0,0,
0,0,0,0,0,0,0,0,0,0,0,0,0,0,0,0,46,0,0,0,0,0,0,0,0,0,0,0,0,0,0,0,0,0,0,0,0,0,0,0,0,0,0,0,0,0,0,0,0,0,0,0,0,0,0,0,0,0,0,0,
0,0,0,0,0,0,0,0,0,0,0,0,0,0,0,0,0,0,0,0,0,0,47,0,0,0,0,0,0,0,0,0,46,0,0,0,0,0,0,0,0,0,0,0,0,0,0,0,0,0,0,0,0,0,0,0,0,0,0,0,
0,0,0,0,0,0,0,0,0,0,0,0,0,0,0,0,0,0,0,0,0,0,52,0,0,0,0,0,0,0,0,0,51,0,0,47,0,0,0,0,0,0,0,0,0,0,46,0,0,0,0,0,0,0,0,0,0,0,0,0,
0,0,0,0,0,0,0,0,0,0,0,0,0,0,0,0,0,0,0,0,0,0,47,0,0,46,0,0,0,47,0,0,46,0,0,52,0,0,0,0,0,0,0,0,0,0,51,0,0,0,38,39,38,39,38,39,38,39,38,39,
0,0,0,0,0,0,0,0,0,0,0,0,0,0,0,0,0,0,0,0,0,0,52,0,0,51,0,0,0,52,0,0,51,0,0,0,0,148,149,150,151,0,148,149,150,151,0,0,0,47,0,0,56,0,0,0,0,0,0,0,
0,0,0,0,0,0,0,0,0,0,0,0,0,0,0,0,0,0,0,0,0,0,0,112,0,0,0,0,0,0,0,0,0,0,0,0,0,0,0,0,0,0,0,0,0,0,0,0,0,52,0,0,0,0,0,0,0,0,0,0,
0,0,0,0,0,0,0,0,0,0,0,0,0,0,0,0,0,0,0,0,0,0,0,113,0,0,0,0,0,0,0,0,0,0,0,0,0,0,0,0,0,0,0,0,0,0,0,0,0,47,0,0,0,0,0,0,0,0,0,0,
0,0,0,0,0,0,0,0,0,0,0,0,0,0,0,0,0,0,0,0,0,0,0,0,0,0,0,0,0,0,0,0,0,0,0,0,0,0,0,0,0,0,0,0,0,0,0,0,0,52,0,0,0,0,0,0,0,0,0,0,
0,0,0,0,0,0,0,0,0,0,0,0,0,0,0,0,0,0,0,0,0,0,0,0,0,0,0,0,0,0,0,0,0,0,0,0,0,0,0,0,0,0,0,0,0,0,0,0,0,47,0,0,0,0,0,0,0,0,0,0,
0,0,0,0,0,0,0,0,0,0,0,0,0,0,0,0,38,39,0,0,0,0,0,0,0,0,0,0,0,0,0,0,0,0,0,0,0,0,0,0,0,0,0,0,0,0,0,0,0,52,0,0,0,0,0,0,0,0,0,0,
0,0,0,0,0,0,0,0,0,0,0,0,0,0,0,0,0,0,0,0,0,0,0,0,0,0,0,0,0,0,0,0,0,0,0,0,0,0,0,0,0,0,0,0,0,0,0,0,0,47,0,0,0,0,0,0,0,0,0,0,
0,0,0,0,0,0,0,0,0,0,0,0,0,0,0,0,0,0,0,0,0,0,0,0,0,0,0,0,0,0,0,0,0,0,0,0,0,0,0,0,0,0,0,0,0,0,0,0,0,52,0,0,0,0,0,0,0,0,0,0,
0,0,0,0,0,0,0,0,0,0,0,0,0,0,0,0,0,0,0,0,0,0,0,0,0,0,0,0,0,0,0,0,0,0,0,0,0,0,0,0,0,0,0,0,0,0,0,0,0,47,0,0,0,0,0,0,0,0,0,0,
0,0,0,0,0,0,0,0,0,0,0,0,0,0,0,0,0,0,38,39,38,39,38,39,38,39,38,39,38,39,0,0,0,0,38,39,38,39,38,39,38,39,38,39,38,39,38,39,38,52,0,0,0,0,0,0,0,0,0,0,
0,0,0,0,0,0,0,0,0,0,0,0,0,0,0,0,0,0,0,0,0,0,0,0,0,0,0,0,0,57,46,0,0,47,56,57,0,0,0,0,0,0,0,0,0,0,0,0,0,0,0,0,0,0,0,0,0,0,0,0,
0,0,0,0,0,0,0,0,0,0,0,0,0,0,0,0,0,0,0,0,0,0,0,0,0,0,0,0,0,0,51,0,0,52,0,0,0,0,0,0,0,0,0,0,0,0,0,0,0,0,0,0,0,0,0,0,0,0,0,0,
0,0,0,0,0,0,0,0,0,0,0,0,0,0,0,0,0,0,0,0,0,0,0,0,0,0,0,0,0,0,46,0,0,47,0,0,0,0,0,0,0,0,0,0,0,0,0,0,0,0,0,0,0,0,0,0,0,0,0,0,
0,0,0,0,0,0,0,0,0,0,0,0,0,0,0,0,0,0,0,0,0,0,0,0,0,0,0,0,0,0,51,0,0,52,0,0,0,0,0,0,0,0,0,0,0,0,0,0,0,0,0,0,0,0,0,0,0,0,0,0,
0,0,0,0,0,0,0,0,0,0,0,0,0,0,0,0,0,0,0,0,0,0,0,0,0,0,0,0,0,0,46,0,0,47,0,0,0,0,0,0,0,0,0,0,0,0,0,0,0,0,0,0,0,0,0,0,0,0,0,0,
0,0,0,0,0,0,0,0,0,0,0,0,0,0,0,0,0,0,0,0,0,0,0,0,0,0,0,0,0,0,51,0,0,52,0,0,0,0,0,0,0,0,0,0,0,0,0,0,0,0,0,0,0,0,0,0,0,0,0,0
  </data>
 </layer>
 </group>
</map>
