<?xml version="1.0" encoding="UTF-8"?>
<map version="1.10" tiledversion="1.10.2" orientation="orthogonal" renderorder="right-down" compressionlevel="0" width="84" height="38" tilewidth="32" tileheight="32" infinite="0" nextlayerid="4" nextobjectid="1">
 <tileset firstgid="1" source="route-29.tsx"/>
 <layer id="1" name="lower" width="84" height="38">
  <data encoding="csv">
8,8,8,8,0,0,0,0,0,0,0,0,0,0,8,8,8,8,8,8,8,8,8,8,8,8,8,8,8,8,8,8,8,8,8,8,8,8,8,8,8,8,8,8,8,158,152,152,160,8,8,8,8,8,8,8,8,8,8,8,8,8,8,8,8,8,8,8,8,8,8,8,8,8,8,8,8,8,8,8,8,8,8,8,
8,8,8,8,0,0,0,0,0,0,0,0,0,0,8,8,8,8,8,8,8,8,8,8,8,8,8,8,8,8,8,8,8,8,8,8,8,8,8,8,8,8,8,9,8,165,161,161,164,8,9,8,8,8,8,8,8,8,8,8,8,8,8,8,8,8,8,8,8,8,8,8,8,8,8,8,8,8,8,8,8,8,8,8,
8,8,8,8,0,0,0,0,0,0,0,0,0,0,8,8,8,8,8,8,8,8,8,8,8,8,8,8,8,8,8,8,8,8,8,8,8,8,8,8,8,8,8,8,8,8,10,8,8,8,8,8,8,8,8,8,8,8,8,8,8,8,8,8,8,8,8,8,8,8,8,8,8,8,8,8,8,8,8,8,8,8,8,8,
8,8,8,8,0,0,0,0,0,0,0,0,0,0,8,8,8,8,8,8,8,8,8,8,8,8,8,8,8,8,8,8,8,8,8,8,8,8,8,8,8,8,8,8,8,8,8,6,8,8,8,8,8,8,8,8,8,8,8,8,8,8,8,8,8,8,8,8,8,8,8,8,8,8,8,8,8,8,8,8,8,8,8,8,
8,8,8,8,8,8,8,8,8,8,8,8,8,8,8,8,8,8,8,8,8,8,8,8,8,8,8,8,8,8,8,8,8,8,8,8,8,8,8,8,8,8,8,8,8,8,10,8,8,8,8,8,8,8,8,8,8,8,8,8,8,8,8,8,8,8,8,8,8,8,8,8,8,8,8,8,8,8,8,8,8,8,8,8,
8,8,8,8,8,8,8,8,8,8,8,8,8,8,8,8,8,8,8,8,8,8,8,8,8,8,8,8,8,8,8,8,8,8,8,8,8,8,8,8,8,8,8,8,8,8,8,6,8,8,8,8,8,8,8,8,8,8,8,8,8,8,8,8,8,8,8,8,8,8,8,8,8,8,8,8,8,8,8,8,8,8,8,8,
8,8,8,8,8,8,8,8,8,8,8,8,8,8,8,8,8,8,8,8,8,8,8,8,8,8,8,19,8,8,20,8,8,8,8,8,8,8,8,8,8,8,8,8,8,8,10,8,8,8,8,8,8,8,8,8,8,8,8,8,8,8,8,8,8,8,8,8,8,8,8,8,8,8,8,8,8,8,8,8,8,8,8,8,
8,8,8,6,8,8,8,8,8,8,8,8,8,8,8,8,8,8,8,8,8,8,8,8,8,8,19,30,25,25,29,20,8,8,6,8,8,8,8,8,8,8,6,6,8,8,8,8,8,8,8,8,8,8,8,8,8,8,1,1,1,1,1,1,1,1,8,6,8,8,8,8,8,8,8,8,8,8,8,8,8,8,8,8,
8,8,6,6,8,8,8,8,8,8,8,8,8,8,8,8,8,8,8,8,8,8,8,8,8,8,31,24,25,25,25,29,20,8,8,6,8,8,8,8,8,8,8,8,8,21,22,23,8,5,8,8,8,8,8,8,8,8,1,1,1,1,1,1,1,1,8,8,8,8,8,8,8,8,8,8,8,8,8,8,8,8,8,8,
8,8,8,8,8,8,8,8,8,8,8,8,8,8,8,8,8,8,10,8,10,8,8,8,8,8,8,31,32,32,32,32,33,8,1,1,1,1,5,8,5,8,21,22,22,37,27,38,23,8,8,8,8,8,1,1,1,5,1,1,1,1,1,1,8,8,8,8,8,8,8,8,8,8,8,8,8,8,8,8,8,8,8,8,
8,8,8,8,8,6,8,8,10,8,10,8,10,8,8,8,8,8,8,6,8,8,8,8,8,8,8,8,8,8,8,8,8,8,1,1,1,1,6,5,10,5,26,27,27,27,27,27,38,23,8,8,8,8,1,1,6,6,1,1,1,1,1,1,8,8,8,8,8,8,8,8,8,8,8,8,8,8,8,8,8,8,8,8,
159,159,159,159,159,159,159,159,159,159,159,159,159,159,159,159,159,159,159,159,159,159,159,163,8,6,6,1,1,1,1,1,1,1,1,1,1,1,6,6,5,6,34,39,27,27,27,27,27,28,6,8,1,1,1,1,1,1,6,8,6,8,8,8,8,8,8,8,8,8,5,8,8,6,8,8,8,8,8,8,8,8,8,8,
152,152,152,152,152,152,152,152,152,161,161,161,161,152,152,152,152,152,152,152,152,152,152,160,8,6,6,5,1,1,1,1,1,1,1,1,8,8,8,5,10,5,8,34,39,27,27,27,27,28,8,8,1,1,1,1,1,1,8,8,5,6,8,8,8,8,8,6,5,5,6,8,8,6,8,8,8,8,8,8,8,8,8,8,
161,161,161,161,161,161,161,161,161,6,8,6,8,161,161,161,161,161,161,161,161,156,152,160,10,8,8,1,1,1,1,1,1,1,1,1,8,8,8,8,8,1,1,8,34,35,35,39,40,36,9,9,1,1,1,1,1,1,8,8,1,162,159,159,159,159,159,159,159,159,159,159,159,159,159,159,159,159,159,159,159,159,159,159,
6,8,6,8,6,8,6,6,6,6,6,6,6,6,8,8,8,8,10,8,8,158,152,160,8,6,8,8,8,8,8,5,8,8,8,8,8,8,8,8,8,1,6,6,8,8,6,34,36,8,8,8,8,8,8,8,1,1,8,8,1,158,152,152,152,152,152,152,152,152,152,152,152,152,152,152,152,152,152,152,152,152,152,152,
8,6,8,6,8,6,6,6,6,6,6,6,6,6,8,8,8,8,8,6,8,158,152,160,8,8,8,8,8,8,8,8,8,8,8,8,8,8,8,8,8,8,8,8,8,8,8,8,8,8,8,8,8,8,8,8,1,1,8,8,1,158,152,155,161,161,161,161,161,161,161,161,161,161,161,161,161,161,161,161,161,161,161,161,
6,8,6,8,6,6,6,6,6,6,6,6,6,6,8,8,8,8,1,1,1,158,152,154,159,159,159,159,159,159,159,159,159,159,159,159,159,159,163,8,8,8,162,159,159,159,159,159,159,159,159,159,159,159,159,159,159,159,159,159,159,153,152,160,1,1,1,1,1,8,5,6,8,8,8,8,8,8,8,8,8,8,8,8,
8,6,8,6,8,6,6,6,6,6,6,6,6,6,8,8,8,8,1,1,1,158,152,152,152,152,152,152,152,152,152,152,152,152,152,155,161,161,157,159,159,159,153,152,152,152,152,152,152,152,152,152,152,152,152,152,152,152,152,152,152,152,152,160,1,1,1,1,1,1,8,5,5,6,8,8,8,8,8,8,8,8,8,8,
6,8,6,8,6,6,6,6,6,6,6,6,6,6,8,8,8,8,1,1,1,165,161,161,161,161,161,161,161,161,161,161,161,161,161,164,8,8,165,161,156,152,152,152,155,161,161,161,161,156,152,155,161,161,161,161,161,161,161,161,161,161,161,164,1,1,1,1,1,1,1,1,1,1,8,8,8,8,8,8,8,8,8,8,
8,6,8,6,8,6,6,6,6,6,6,6,6,6,8,8,8,8,1,1,1,1,1,1,1,1,8,8,8,8,7,5,5,9,8,9,8,8,8,8,165,161,161,161,164,5,8,8,8,158,152,160,8,8,8,8,8,8,8,8,8,8,8,8,1,1,1,1,1,1,1,1,1,1,8,8,8,8,8,8,8,8,8,8,
6,8,6,8,6,6,6,6,6,6,6,6,6,6,8,8,8,8,1,1,1,1,1,1,1,1,8,8,8,8,8,7,8,8,6,8,8,8,8,8,8,8,8,8,8,10,8,8,8,158,152,160,6,8,8,8,8,8,1,1,1,1,1,1,1,1,1,1,1,1,1,1,1,1,8,8,8,8,8,8,8,8,8,8,
8,6,8,6,8,6,8,6,6,6,6,6,6,6,8,8,8,8,1,1,1,1,1,1,1,1,8,8,8,8,8,8,8,8,8,8,8,8,8,8,8,1,6,6,8,5,8,6,5,158,152,160,8,6,8,8,8,8,1,1,1,1,1,1,1,1,1,1,1,1,1,1,1,1,8,8,8,8,8,8,8,8,8,8,
6,8,6,8,6,8,6,8,6,6,6,6,6,6,8,8,8,8,1,1,1,1,1,1,8,8,8,8,8,8,8,8,8,6,6,5,1,1,8,5,5,10,5,10,5,10,5,8,1,158,152,154,159,159,159,163,8,6,1,1,1,1,1,1,1,1,1,1,8,8,8,8,8,8,8,8,8,8,8,8,8,8,8,8,
6,8,6,8,6,8,6,8,6,6,6,6,6,6,8,8,8,8,1,1,1,1,1,1,8,8,8,8,8,8,8,8,1,1,8,8,8,8,8,8,8,8,1,1,5,6,5,1,5,158,152,152,152,152,152,160,6,8,8,6,1,1,1,1,1,1,1,1,8,8,8,8,8,8,8,8,8,8,8,8,8,8,8,8,
8,6,8,6,8,6,8,6,6,6,6,6,6,6,8,8,8,8,8,8,8,8,8,8,8,8,8,8,8,8,8,8,8,8,8,8,8,8,8,8,8,8,8,5,10,5,10,5,10,165,161,161,161,161,161,164,8,5,5,8,1,1,1,1,8,8,8,8,8,8,8,8,8,8,8,8,8,8,8,8,8,8,8,8,
41,41,41,41,41,41,41,41,6,6,6,6,6,6,8,8,8,8,8,8,8,8,8,8,8,8,8,8,8,8,8,8,8,8,8,8,8,8,8,8,8,8,8,8,8,8,8,8,8,8,8,8,8,8,8,8,8,8,8,8,1,1,1,1,8,8,8,8,8,8,8,8,8,8,8,8,8,8,8,8,8,8,8,8,
168,168,168,168,168,168,168,170,6,6,6,6,6,6,6,6,6,6,6,6,8,8,8,8,8,8,8,8,8,8,8,8,8,8,8,8,8,8,8,8,8,8,8,8,8,8,8,8,8,8,8,8,8,8,8,8,8,8,8,8,8,8,8,8,8,8,8,8,8,8,8,8,8,8,8,8,8,8,8,8,8,8,8,8,
166,166,166,166,166,166,166,169,41,41,6,6,6,6,6,6,6,6,6,6,8,8,8,8,8,8,8,8,8,8,8,8,8,8,8,8,8,8,8,8,8,8,8,8,8,8,8,8,8,8,8,8,8,8,8,8,8,8,8,8,8,8,8,8,8,8,8,8,8,8,8,8,8,8,8,8,8,8,8,8,8,8,8,8,
166,166,166,166,166,166,166,167,168,170,6,6,6,6,6,6,6,6,6,6,8,8,8,8,8,8,8,8,8,8,8,8,8,8,8,8,8,8,8,8,8,8,8,8,8,8,8,8,8,8,8,8,8,8,8,8,8,8,8,8,8,8,8,8,8,8,8,8,8,8,8,8,8,8,8,8,8,8,8,8,8,8,8,8,
166,166,166,166,166,166,166,166,166,169,41,41,41,41,41,41,41,41,41,41,41,41,41,41,41,8,8,8,8,8,8,8,8,8,8,8,8,8,8,8,8,8,8,8,8,8,8,8,8,8,8,8,8,8,8,8,8,8,8,8,8,8,8,8,8,8,8,8,8,8,8,8,8,8,8,8,8,8,8,8,8,8,8,8,
166,166,166,166,166,166,166,166,166,167,168,168,168,168,168,168,168,168,168,168,168,168,168,170,41,8,8,8,8,8,8,8,8,8,8,8,8,8,8,8,8,8,8,8,8,8,8,8,8,8,8,8,8,8,8,8,8,8,8,8,8,8,8,8,8,8,8,8,8,8,8,8,8,8,8,8,8,8,8,8,8,8,8,8,
166,166,166,166,166,166,166,166,166,166,166,166,166,166,166,166,166,166,166,166,166,166,166,169,41,8,8,8,8,8,8,8,8,8,8,8,8,8,8,8,8,8,8,8,8,8,8,8,8,8,8,8,8,8,8,8,8,8,8,8,8,8,8,8,8,8,8,8,8,8,8,8,8,8,8,8,8,8,8,8,8,8,8,8,
166,166,166,166,166,166,166,166,166,166,166,166,166,166,166,166,166,166,166,166,166,166,166,169,41,0,0,0,0,0,0,0,0,0,0,0,0,0,0,0,0,0,0,0,0,0,0,0,0,0,0,0,0,0,0,0,0,0,0,0,0,0,0,0,0,0,0,0,0,0,0,0,0,0,0,0,0,0,0,0,0,0,0,0,
166,166,166,166,166,166,166,166,166,166,166,166,166,166,166,166,166,166,166,166,166,166,166,169,41,41,41,41,41,0,0,0,0,0,0,0,0,0,0,0,0,0,0,0,0,0,0,0,0,0,0,0,0,0,0,0,0,0,0,0,0,0,0,0,0,0,0,0,0,0,0,0,0,0,0,0,0,0,0,0,0,0,0,0,
166,166,166,166,166,166,166,166,166,166,166,166,166,166,166,166,166,166,166,166,166,166,166,167,168,168,168,170,41,0,0,0,0,0,0,0,0,0,0,0,0,0,0,0,0,0,0,0,0,0,0,0,0,0,0,0,0,0,0,0,0,0,0,0,0,0,0,0,0,0,0,0,0,0,0,0,0,0,0,0,0,0,0,0,
166,166,166,166,166,166,166,166,166,166,166,166,166,166,166,166,166,166,166,166,166,166,166,166,166,166,166,169,41,0,0,0,0,0,0,0,0,0,0,0,0,0,0,0,0,0,0,0,0,0,0,0,0,0,0,0,0,0,0,0,0,0,0,0,0,0,0,0,0,0,0,0,0,0,0,0,0,0,0,0,0,0,0,0,
166,166,166,166,166,166,166,166,166,166,166,166,166,166,166,166,166,166,166,166,166,166,166,166,166,166,166,169,41,0,0,0,0,0,0,0,0,0,0,0,0,0,0,0,0,0,0,0,0,0,0,0,0,0,0,0,0,0,0,0,0,0,0,0,0,0,0,0,0,0,0,0,0,0,0,0,0,0,0,0,0,0,0,0,
166,166,166,166,166,166,166,166,166,166,166,166,166,166,166,166,166,166,166,166,166,166,166,166,166,166,166,169,41,0,0,0,0,0,0,0,0,0,0,0,0,0,0,0,0,0,0,0,0,0,0,0,0,0,0,0,0,0,0,0,0,0,0,0,0,0,0,0,0,0,0,0,0,0,0,0,0,0,0,0,0,0,0,0
  </data>
 </layer>
 <layer id="2" name="middle" width="84" height="38">
  <data encoding="csv">
46,47,46,47,46,47,46,47,46,47,46,47,46,47,46,47,46,47,46,47,46,47,46,47,46,47,46,47,46,47,46,47,46,47,46,47,46,47,46,47,46,47,46,47,46,47,0,0,46,47,46,47,46,47,46,47,46,47,46,47,46,47,46,47,46,47,46,47,46,47,46,47,46,47,46,47,46,47,46,47,46,47,46,47,
43,44,43,44,43,44,43,44,43,44,43,44,43,44,43,44,43,44,43,44,43,44,43,44,43,44,43,44,43,44,43,44,43,44,43,44,43,44,43,44,43,44,43,44,43,45,0,0,43,44,43,44,43,44,43,44,43,44,43,44,43,44,43,44,43,44,43,44,43,44,43,44,43,44,43,44,43,44,43,44,43,44,43,44,
46,47,46,47,46,47,46,47,46,47,46,47,46,47,46,47,46,47,46,47,46,47,46,47,46,47,46,47,46,47,46,47,46,47,46,47,46,47,46,47,46,47,46,47,46,47,0,0,46,47,46,47,46,47,46,47,46,47,46,47,46,47,46,47,46,47,46,47,46,47,46,47,46,47,46,47,46,47,46,47,46,47,46,47,
43,44,43,44,43,44,43,44,43,44,43,44,43,44,43,44,43,44,43,44,43,44,43,44,43,44,53,54,53,54,53,54,43,44,43,44,43,44,43,44,43,44,43,44,43,45,0,0,43,44,43,44,43,44,43,44,43,44,43,44,43,44,43,44,43,44,43,44,43,44,43,44,43,44,43,44,43,44,43,44,43,44,43,44,
46,47,46,47,46,47,46,47,46,47,46,47,46,47,46,47,46,47,46,47,46,47,46,47,46,48,60,61,60,61,60,61,46,47,46,47,46,47,46,47,46,47,46,47,46,47,0,0,46,47,46,47,46,47,46,47,46,47,46,47,46,47,46,47,46,47,46,47,46,47,46,47,46,47,46,47,46,47,46,47,46,47,46,47,
53,54,53,54,53,54,43,44,43,44,43,44,43,44,43,44,43,44,43,44,43,44,43,44,43,45,42,3,76,42,3,76,53,54,53,54,53,54,53,54,43,44,53,54,53,55,0,0,53,54,43,44,43,44,43,44,43,44,53,54,53,54,53,54,53,54,53,54,53,54,43,44,43,44,43,44,43,44,43,44,43,44,43,44,
60,61,60,61,60,61,46,47,46,47,46,47,46,47,46,47,46,47,46,47,46,47,46,47,46,48,3,0,80,81,0,71,60,61,60,61,60,61,60,61,46,47,60,61,60,61,0,0,60,61,46,47,46,47,46,47,46,47,60,61,60,61,60,61,60,61,60,61,60,61,46,47,46,47,46,47,46,47,46,47,46,47,46,47,
144,145,0,0,15,16,43,44,43,44,43,44,43,44,43,44,53,54,53,54,53,54,53,54,43,45,0,0,82,83,0,0,0,0,0,0,0,3,42,3,53,55,0,0,0,0,0,0,0,0,53,54,43,44,53,54,53,55,0,0,0,0,0,0,51,52,0,0,0,57,43,44,43,44,43,44,43,44,43,44,43,44,43,44,
146,147,77,0,17,18,46,47,46,47,46,47,46,47,46,48,60,61,60,61,60,61,60,61,46,48,0,0,0,0,0,0,0,0,0,0,0,0,0,0,60,61,0,0,0,0,0,0,0,0,60,61,46,47,60,61,60,61,0,0,0,0,0,0,58,59,3,3,3,3,46,47,46,47,46,47,46,47,46,47,46,47,46,47,
148,149,84,4,67,0,53,54,53,54,53,54,53,54,53,55,0,0,0,0,0,0,3,76,53,55,0,0,0,0,0,0,0,0,0,0,0,0,0,0,0,3,0,0,0,0,0,0,0,0,3,42,53,55,0,0,0,0,0,0,0,0,51,52,43,44,53,54,53,54,53,54,53,54,43,44,43,44,43,44,43,44,43,44,
150,151,84,11,69,0,60,61,60,61,60,61,60,61,60,61,0,2,0,0,0,0,0,3,60,61,13,14,0,0,13,12,12,14,0,0,0,0,0,0,0,0,0,0,0,0,0,0,0,0,0,3,60,61,0,0,0,0,51,52,0,0,58,59,46,48,60,61,60,61,60,61,60,61,46,47,46,47,46,47,46,47,46,47,
85,85,86,0,0,0,0,0,126,127,128,129,130,131,0,0,0,0,0,0,0,0,0,0,0,0,0,0,0,0,0,0,0,0,0,0,0,0,3,0,0,0,0,0,0,0,0,0,0,0,0,0,0,0,0,0,0,0,58,59,0,0,53,54,53,55,3,3,3,0,0,0,0,0,53,54,53,54,53,54,53,54,53,54,
0,0,0,0,51,52,51,52,132,133,134,135,136,137,51,52,51,52,0,0,0,0,0,0,0,0,0,0,0,0,0,0,0,0,0,0,42,3,42,0,0,0,0,0,0,0,0,0,0,0,0,0,0,0,0,0,0,0,43,45,0,0,60,61,60,61,3,0,0,0,0,2,0,0,60,61,60,61,60,61,60,61,60,61,
0,0,0,0,58,59,58,59,138,139,140,141,142,143,58,59,58,59,0,0,0,0,0,0,0,0,0,0,0,0,0,0,0,0,0,0,3,3,71,76,42,0,0,0,0,0,0,0,0,0,0,0,0,0,0,0,0,0,46,48,0,0,0,0,0,0,0,0,0,0,0,0,0,0,0,0,0,0,0,0,0,0,0,0,
0,0,0,0,43,44,43,44,43,44,43,44,43,44,43,44,43,45,0,0,0,0,0,0,0,0,0,0,0,0,0,0,0,71,3,42,76,3,42,42,3,0,0,0,0,0,0,0,0,3,0,0,42,3,3,3,0,0,53,55,0,0,0,0,0,0,0,0,0,0,0,0,0,0,51,52,51,52,51,52,51,52,51,52,
0,0,0,0,46,47,46,47,46,47,46,47,46,47,46,47,46,48,0,0,0,0,0,0,13,12,12,14,0,0,13,12,14,3,76,71,3,76,3,3,42,3,13,12,12,12,12,14,3,42,0,76,3,3,76,42,0,0,60,61,0,0,0,0,0,0,0,0,0,0,0,0,0,0,58,59,58,59,58,59,58,59,58,59,
0,0,0,0,43,44,43,44,43,44,43,44,43,44,43,44,43,45,0,0,0,0,0,0,0,0,0,0,0,0,0,0,0,0,0,0,0,0,0,76,71,76,0,0,0,0,0,0,0,0,0,0,0,0,0,0,0,0,0,0,0,0,0,0,0,0,0,0,0,0,0,0,0,0,43,44,43,44,43,44,43,44,43,44,
0,99,100,101,46,47,46,47,46,47,46,47,46,47,46,47,46,48,0,0,0,0,0,0,0,0,0,0,0,0,0,0,0,0,0,0,0,0,0,0,0,0,0,0,0,0,0,0,0,0,0,0,0,0,0,0,0,0,0,0,0,0,0,0,0,0,0,0,0,0,0,0,0,0,46,47,46,47,46,47,46,47,46,47,
0,102,103,104,43,44,43,44,43,44,43,44,43,44,43,44,43,45,0,0,0,0,0,0,0,0,51,52,51,52,0,0,0,0,0,0,3,76,0,0,0,0,0,0,0,0,0,0,0,0,0,0,0,0,0,3,51,52,0,0,0,0,0,0,0,0,0,0,0,0,0,0,0,0,43,44,43,44,43,44,43,44,43,44,
0,105,106,107,46,47,46,47,46,47,46,47,46,47,46,47,46,48,0,0,0,0,0,0,0,0,58,59,58,59,0,0,0,0,0,0,42,3,3,76,0,0,0,72,73,13,12,12,14,0,0,0,13,14,3,3,58,59,13,12,12,12,12,14,0,0,0,0,0,0,0,0,0,0,46,47,46,47,46,47,46,47,46,47,
43,44,43,44,43,44,43,44,43,44,43,44,43,44,43,44,43,45,0,0,0,0,0,0,51,52,43,44,43,55,56,0,0,0,0,0,3,76,42,0,42,0,0,74,75,0,0,0,0,0,0,0,0,0,53,54,53,55,0,0,0,0,0,0,0,0,0,0,51,52,51,52,51,52,43,44,43,44,43,44,43,44,43,44,
46,47,46,47,46,47,46,47,46,47,46,47,46,47,46,47,46,48,0,0,0,0,0,0,58,59,46,47,46,48,3,3,13,12,12,14,42,3,3,0,0,0,0,0,0,0,0,0,0,0,0,0,0,0,60,61,60,61,0,0,0,0,0,0,0,0,0,0,58,59,58,59,58,59,46,47,46,47,46,47,46,47,46,47,
43,44,43,44,43,44,43,44,43,44,43,44,43,44,43,44,43,45,51,52,51,52,51,52,43,44,43,44,43,44,43,55,51,52,51,52,51,52,51,52,51,52,0,0,0,0,0,0,0,0,0,0,0,0,0,0,0,0,0,0,0,0,0,0,51,52,51,52,43,44,43,44,43,44,43,44,43,44,43,44,43,44,43,44,
46,47,46,47,46,47,46,47,46,47,46,47,46,47,46,47,46,47,58,59,58,59,58,59,46,47,46,47,46,47,46,47,58,59,58,59,58,59,58,59,58,59,49,0,0,0,0,0,0,0,0,0,0,0,0,0,0,0,0,0,0,0,0,0,58,59,58,59,46,47,46,47,46,47,46,47,46,47,46,47,46,47,46,47,
53,54,53,54,53,54,53,54,43,44,43,44,43,44,43,44,43,44,43,44,43,44,43,44,43,44,43,44,43,44,43,44,43,44,43,44,43,44,43,44,43,45,56,0,51,52,51,52,51,52,51,52,51,52,51,52,51,52,51,52,51,52,51,52,43,44,43,44,43,44,43,44,43,44,43,44,43,44,43,44,43,44,43,44,
60,61,60,61,60,61,60,61,46,47,46,47,46,47,46,47,46,47,46,47,46,47,46,47,46,47,46,47,46,47,46,47,46,47,46,47,46,47,46,47,46,47,3,3,58,59,58,59,58,59,58,59,58,59,58,59,58,59,58,59,58,59,58,59,46,47,46,47,46,47,46,47,46,47,46,47,46,47,46,47,46,47,46,47,
0,0,0,0,0,0,0,0,53,54,43,44,43,44,43,44,43,44,43,44,43,44,43,44,43,44,43,44,43,44,43,44,43,44,43,44,43,44,43,44,43,44,43,44,43,44,43,44,43,44,43,44,43,44,43,44,43,44,43,44,43,44,43,44,43,44,43,44,43,44,43,44,43,44,43,44,43,44,43,44,43,44,43,44,
62,63,0,0,0,0,0,0,60,61,46,47,46,47,46,47,46,47,46,47,46,47,46,47,46,47,46,47,46,47,46,47,46,47,46,47,46,47,46,47,46,47,46,47,46,47,46,47,46,47,46,47,46,47,46,47,46,47,46,47,46,47,46,47,46,47,46,47,46,47,46,47,46,47,46,47,46,47,46,47,46,47,46,47,
64,65,0,0,0,0,0,0,0,0,53,54,53,54,53,54,53,54,53,54,53,54,53,54,43,44,43,44,43,44,43,44,43,44,43,44,43,44,43,44,43,44,43,44,43,44,43,44,43,44,43,44,43,44,43,44,43,44,43,44,43,44,43,44,43,44,43,44,43,44,43,44,43,44,43,44,43,44,43,44,43,44,43,44,
70,0,0,0,0,0,0,0,0,0,60,61,60,61,60,61,60,61,60,61,60,61,60,61,46,47,46,47,46,47,46,47,46,47,46,47,46,47,46,47,46,47,46,47,46,47,46,47,46,47,46,47,46,47,46,47,46,47,46,47,46,47,46,47,46,47,46,47,46,47,46,47,46,47,46,47,46,47,46,47,46,47,46,47,
66,0,0,0,0,0,0,0,0,0,0,0,0,0,0,0,0,0,0,0,0,0,0,0,43,44,43,44,43,44,43,44,43,44,43,44,43,44,43,44,43,44,43,44,43,44,43,44,43,44,43,44,43,44,43,44,43,44,43,44,43,44,43,44,43,44,43,44,43,44,43,44,43,44,43,44,43,44,43,44,43,44,43,44,
68,0,0,0,0,0,0,0,0,0,0,0,0,0,0,0,0,0,0,0,0,0,0,0,46,47,46,47,46,47,46,47,46,47,46,47,46,47,46,47,46,47,46,47,46,47,46,47,46,47,46,47,46,47,46,47,46,47,46,47,46,47,46,47,46,47,46,47,46,47,46,47,46,47,46,47,46,47,46,47,46,47,46,47,
0,0,0,0,0,0,0,0,0,0,0,0,0,0,0,0,0,0,0,0,0,0,0,0,53,54,53,54,43,44,43,44,43,44,43,44,43,44,43,44,43,44,43,44,43,44,43,44,43,44,43,44,43,44,43,44,43,44,43,44,43,44,43,44,43,44,43,44,43,44,43,44,43,44,43,44,43,44,43,44,43,44,43,44,
0,0,0,0,0,0,0,0,0,0,0,0,0,0,0,0,0,0,0,0,0,0,0,0,60,61,60,61,46,47,46,47,46,47,46,47,46,47,46,47,46,47,46,47,46,47,46,47,46,47,46,47,46,47,46,47,46,47,46,47,46,47,46,47,46,47,46,47,46,47,46,47,46,47,46,47,46,47,46,47,46,47,46,47,
0,0,0,0,0,0,0,0,0,0,0,0,0,0,0,0,0,0,0,0,0,0,0,0,0,0,0,0,43,44,43,44,43,44,43,44,43,44,43,44,43,44,43,44,43,44,43,44,43,44,43,44,43,44,43,44,43,44,43,44,43,44,43,44,43,44,43,44,43,44,43,44,43,44,43,44,43,44,43,44,43,44,43,44,
0,0,0,0,0,0,0,0,0,0,0,0,0,0,0,0,0,0,0,0,0,0,0,0,0,0,0,0,46,47,46,47,46,47,46,47,46,47,46,47,46,47,46,47,46,47,46,47,46,47,46,47,46,47,46,47,46,47,46,47,46,47,46,47,46,47,46,47,46,47,46,47,46,47,46,47,46,47,46,47,46,47,46,47,
0,0,0,0,0,0,0,0,0,0,0,0,0,0,0,0,0,0,0,0,0,0,0,0,0,0,0,0,43,44,43,44,43,44,43,44,43,44,43,44,43,44,43,44,43,44,43,44,43,44,43,44,43,44,43,44,43,44,43,44,43,44,43,44,43,44,43,44,43,44,43,44,43,44,43,44,43,44,43,44,43,44,43,44,
0,0,0,0,0,0,0,0,0,0,0,0,0,0,0,0,0,0,0,0,0,0,0,0,0,0,0,0,46,47,46,47,46,47,46,47,46,47,46,47,46,47,46,47,46,47,46,47,46,47,46,47,46,47,46,47,46,47,46,47,46,47,46,47,46,47,46,47,46,47,46,47,46,47,46,47,46,47,46,47,46,47,46,47
  </data>
 </layer>
 <layer id="3" name="upper" width="84" height="38">
  <data encoding="csv">
0,0,0,0,0,0,0,0,0,0,0,0,0,0,0,0,0,0,0,0,0,0,0,0,0,0,0,0,0,0,0,0,0,0,0,0,0,0,0,0,0,0,0,0,0,0,49,50,0,0,0,0,0,0,0,0,0,0,0,0,0,0,0,0,0,0,0,0,0,0,0,0,0,0,0,0,0,0,0,0,0,0,0,0,
0,0,0,0,0,0,0,0,0,0,0,0,0,0,0,0,0,0,0,0,0,0,0,0,0,0,0,0,0,0,0,0,0,0,0,0,0,0,0,0,0,0,0,0,0,0,56,57,0,0,0,0,0,0,0,0,0,0,0,0,0,0,0,0,0,0,0,0,0,0,0,0,0,0,0,0,0,0,0,0,0,0,0,0,
0,0,0,0,0,0,0,0,0,0,0,0,0,0,0,0,0,0,0,0,0,0,0,0,0,0,0,0,0,0,0,0,0,0,0,0,0,0,0,0,0,0,0,0,0,0,49,50,0,0,0,0,0,0,0,0,0,0,0,0,0,0,0,0,0,0,0,0,0,0,0,0,0,0,0,0,0,0,0,0,0,0,0,0,
0,0,0,0,0,0,0,0,0,0,0,0,0,0,0,0,0,0,0,0,0,0,0,0,0,0,0,0,0,0,0,0,0,0,0,0,0,0,0,0,0,0,0,0,0,0,56,57,0,0,0,0,0,0,0,0,0,0,0,0,0,0,0,0,0,0,0,0,0,0,0,0,0,0,0,0,0,0,0,0,0,0,0,0,
0,0,0,0,0,0,0,0,0,0,0,0,0,0,0,0,0,0,0,0,0,0,0,0,0,0,49,0,0,0,0,50,0,0,0,0,0,0,0,0,0,0,0,0,0,0,49,50,0,0,0,0,0,0,0,0,0,0,0,0,0,0,0,0,0,0,0,0,0,0,0,0,0,0,0,0,0,0,0,0,0,0,0,0,
0,0,0,0,0,0,0,0,0,0,0,0,0,0,0,0,0,0,0,0,0,0,0,0,0,0,56,0,0,0,0,57,0,0,0,0,0,0,0,0,0,0,0,0,0,0,56,57,0,0,0,0,0,0,0,0,0,0,0,0,0,0,0,0,0,0,0,0,0,0,0,0,0,0,0,0,0,0,0,0,0,0,0,0,
0,0,0,0,0,50,0,0,0,0,0,0,0,0,0,0,0,0,0,0,0,0,0,0,0,0,49,0,0,0,0,0,0,0,0,0,0,0,0,50,0,0,49,0,0,0,0,0,0,50,0,0,0,0,0,0,0,0,49,0,0,0,0,0,0,0,0,0,0,50,0,0,0,0,0,0,0,0,0,0,0,0,0,0,
0,0,0,0,0,57,0,0,0,0,0,0,0,0,0,0,0,0,0,0,0,0,0,0,0,0,56,0,0,0,0,0,0,0,0,0,0,0,0,57,0,0,56,0,0,0,0,0,0,57,0,0,0,0,0,0,0,0,56,0,0,0,0,0,0,0,51,52,51,52,0,0,0,0,0,0,0,0,0,0,0,0,0,0,
0,0,0,0,0,50,0,0,108,109,110,111,112,113,0,0,49,0,0,0,0,0,0,50,0,0,49,0,0,0,0,0,0,0,0,0,0,0,0,0,0,0,0,0,0,0,0,0,0,0,0,50,0,0,49,0,0,0,0,0,0,0,0,50,0,0,58,59,58,59,0,0,0,0,0,0,0,0,0,0,0,0,0,0,
0,0,78,0,0,57,0,0,114,115,116,117,118,119,0,0,56,0,0,0,0,0,0,57,0,0,56,0,0,0,0,0,0,0,0,0,0,0,0,0,0,0,0,0,0,0,0,0,0,0,0,57,0,0,56,0,0,0,0,0,0,0,0,57,0,0,0,0,0,0,0,0,0,0,0,0,0,0,0,0,0,0,0,0,
0,0,79,0,0,0,0,0,120,121,122,123,124,125,0,0,0,0,0,0,0,0,0,0,0,0,0,0,0,0,0,0,0,0,0,0,0,0,0,0,0,0,0,0,0,0,0,0,0,0,0,0,0,0,0,0,0,0,0,0,0,50,0,0,0,0,49,0,0,0,0,0,0,50,0,0,0,0,0,0,0,0,0,0,
0,0,0,0,0,0,0,0,0,0,0,0,0,0,0,0,0,0,0,0,0,0,0,0,0,0,0,0,0,0,0,0,0,0,0,0,0,0,0,0,0,0,0,0,0,0,0,0,0,0,0,0,0,0,0,0,0,50,0,0,49,57,0,0,0,0,56,0,0,0,0,0,0,57,0,0,0,0,0,0,0,0,0,0,
0,0,0,0,0,0,0,0,51,52,51,52,51,52,0,0,0,0,0,0,0,0,0,0,0,0,0,0,0,0,0,0,0,0,0,0,0,0,0,0,0,0,0,0,0,0,0,0,0,0,0,0,0,0,0,0,0,57,0,0,56,0,0,0,0,0,0,0,0,0,0,0,0,0,0,0,0,0,0,0,0,0,0,0,
0,87,88,89,0,0,0,0,58,59,58,59,58,59,0,0,0,0,49,0,0,0,0,0,0,0,0,0,0,0,0,0,0,0,0,0,0,0,0,0,0,0,0,0,0,0,0,0,0,0,0,0,0,0,0,0,0,50,0,0,49,0,0,0,0,0,0,0,0,0,0,0,0,0,0,0,0,0,0,0,0,0,0,0,
0,90,91,92,0,0,0,0,0,0,0,0,0,0,0,0,0,0,56,0,0,0,0,0,0,0,0,0,0,0,0,0,0,0,0,0,0,0,0,0,0,0,0,0,0,0,0,0,0,0,0,0,0,0,0,0,0,57,0,0,56,0,0,0,0,0,0,0,0,0,0,0,0,0,0,0,0,0,0,0,0,0,0,0,
0,93,94,95,0,0,0,0,0,0,0,0,0,0,0,0,0,0,49,0,0,0,0,0,0,0,0,0,0,0,0,0,0,0,0,0,0,0,0,0,0,0,0,0,0,0,0,0,0,0,0,0,0,0,0,0,0,0,0,0,0,0,0,0,0,0,0,0,0,0,0,0,0,50,0,0,0,0,0,0,0,0,0,0,
0,96,97,98,0,0,0,0,0,0,0,0,0,0,0,0,0,0,56,0,0,0,0,0,0,0,0,0,0,0,0,0,0,0,0,0,0,0,0,0,0,0,0,0,0,0,0,0,0,0,0,0,0,0,0,0,0,0,0,0,0,0,0,0,0,0,0,0,0,0,0,0,0,57,0,0,0,0,0,0,0,0,0,0,
0,0,0,50,0,0,0,0,0,0,0,0,0,0,0,0,0,0,49,0,0,0,0,0,0,0,0,0,0,0,0,0,0,0,0,0,0,0,0,0,0,0,0,0,0,0,0,0,0,0,0,0,0,0,0,0,0,0,0,0,0,0,0,0,0,0,0,0,0,0,0,0,0,50,0,0,0,0,0,0,0,0,0,0,
51,52,51,57,0,0,0,0,0,0,0,0,0,0,0,0,0,0,56,0,0,0,0,0,0,0,0,0,0,0,0,0,0,0,0,0,0,0,0,0,0,0,0,0,0,0,0,0,0,0,0,0,0,0,51,52,0,0,0,0,0,0,0,0,0,0,0,0,0,0,0,0,0,57,0,0,0,0,0,0,0,0,0,0,
58,59,58,59,0,0,0,0,0,0,0,0,0,0,0,0,0,0,49,0,0,0,0,0,0,50,0,0,0,0,49,0,0,0,0,0,0,0,0,0,0,0,0,0,0,0,0,0,0,0,0,0,0,50,58,59,0,0,49,0,0,0,0,0,0,0,0,0,0,0,0,0,0,50,0,0,0,0,0,0,0,0,0,0,
0,0,0,0,0,0,0,0,0,0,0,0,0,0,0,0,0,0,56,0,0,0,0,0,0,57,0,0,0,0,51,52,0,0,0,0,0,0,0,0,0,0,0,0,0,0,0,0,0,0,0,0,0,57,0,0,0,0,56,0,0,0,0,0,0,0,0,0,0,0,0,0,0,57,0,0,0,0,0,0,0,0,0,0,
0,0,0,0,0,0,0,0,0,0,0,0,0,0,0,0,0,0,49,0,0,0,0,50,0,0,0,0,0,0,58,59,49,0,0,0,0,0,0,0,0,0,0,0,0,0,0,0,0,0,0,0,0,0,0,0,0,0,0,0,0,0,0,0,0,0,0,50,0,0,0,0,0,0,0,0,0,0,0,0,0,0,0,0,
0,0,0,0,0,0,0,0,0,0,0,0,0,0,0,0,0,0,56,0,0,0,0,57,0,0,0,0,0,0,0,0,56,0,0,0,0,0,0,0,0,0,0,0,0,0,0,0,0,0,0,0,0,0,0,0,0,0,0,0,0,0,0,0,0,0,0,57,0,0,0,0,0,0,0,0,0,0,0,0,0,0,0,0,
0,0,0,0,0,0,0,0,0,0,0,0,0,0,0,0,0,0,0,0,0,0,0,0,0,0,0,0,0,0,0,0,0,0,0,0,0,0,0,0,0,0,0,0,0,0,0,0,0,0,0,0,0,0,0,0,0,0,0,0,0,0,0,50,0,0,0,0,0,0,0,0,0,0,0,0,0,0,0,0,0,0,0,0,
0,0,0,0,0,0,0,0,0,0,0,0,0,0,0,0,0,0,0,0,0,0,0,0,0,0,0,0,0,0,0,0,0,0,0,0,0,0,0,0,0,0,51,52,0,0,0,0,0,0,0,0,0,0,0,0,0,0,0,0,0,0,0,57,0,0,0,0,0,0,0,0,0,0,0,0,0,0,0,0,0,0,0,0,
0,0,0,0,0,0,0,50,0,0,0,0,0,0,0,0,0,0,0,0,0,0,0,0,0,0,0,0,0,0,0,0,0,0,0,0,0,0,0,0,0,0,58,59,0,0,0,0,0,0,0,0,0,0,0,0,0,0,0,0,0,0,0,0,0,0,0,0,0,0,0,0,0,0,0,0,0,0,0,0,0,0,0,0,
0,0,0,0,0,0,0,57,0,0,0,0,0,0,0,0,0,0,0,0,0,0,0,0,0,0,0,0,0,0,0,0,0,0,0,0,0,0,0,0,0,0,0,0,0,0,0,0,0,0,0,0,0,0,0,0,0,0,0,0,0,0,0,0,0,0,0,0,0,0,0,0,0,0,0,0,0,0,0,0,0,0,0,0,
0,0,0,0,0,0,0,0,0,50,0,0,0,0,0,0,0,0,0,0,0,0,0,0,0,0,0,0,0,0,0,0,0,0,0,0,0,0,0,0,0,0,0,0,0,0,0,0,0,0,0,0,0,0,0,0,0,0,0,0,0,0,0,0,0,0,0,0,0,0,0,0,0,0,0,0,0,0,0,0,0,0,0,0,
0,0,0,0,0,0,0,0,0,57,0,0,0,0,0,0,0,0,0,0,0,0,0,0,0,0,0,0,0,0,0,0,0,0,0,0,0,0,0,0,0,0,0,0,0,0,0,0,0,0,0,0,0,0,0,0,0,0,0,0,0,0,0,0,0,0,0,0,0,0,0,0,0,0,0,0,0,0,0,0,0,0,0,0,
0,0,0,0,0,0,0,0,0,0,0,0,0,0,0,0,0,0,0,0,0,0,0,50,0,0,0,0,0,0,0,0,0,0,0,0,0,0,0,0,0,0,0,0,0,0,0,0,0,0,0,0,0,0,0,0,0,0,0,0,0,0,0,0,0,0,0,0,0,0,0,0,0,0,0,0,0,0,0,0,0,0,0,0,
0,0,0,0,0,0,0,0,0,0,0,0,0,0,0,0,0,0,0,0,0,0,0,57,0,0,0,0,0,0,0,0,0,0,0,0,0,0,0,0,0,0,0,0,0,0,0,0,0,0,0,0,0,0,0,0,0,0,0,0,0,0,0,0,0,0,0,0,0,0,0,0,0,0,0,0,0,0,0,0,0,0,0,0,
0,0,0,0,0,0,0,0,0,0,0,0,0,0,0,0,0,0,0,0,0,0,0,50,0,0,0,0,0,0,0,0,0,0,0,0,0,0,0,0,0,0,0,0,0,0,0,0,0,0,0,0,0,0,0,0,0,0,0,0,0,0,0,0,0,0,0,0,0,0,0,0,0,0,0,0,0,0,0,0,0,0,0,0,
0,0,0,0,0,0,0,0,0,0,0,0,0,0,0,0,0,0,0,0,0,0,0,57,0,0,0,0,0,0,0,0,0,0,0,0,0,0,0,0,0,0,0,0,0,0,0,0,0,0,0,0,0,0,0,0,0,0,0,0,0,0,0,0,0,0,0,0,0,0,0,0,0,0,0,0,0,0,0,0,0,0,0,0,
0,0,0,0,0,0,0,0,0,0,0,0,0,0,0,0,0,0,0,0,0,0,0,0,0,0,0,50,0,0,0,0,0,0,0,0,0,0,0,0,0,0,0,0,0,0,0,0,0,0,0,0,0,0,0,0,0,0,0,0,0,0,0,0,0,0,0,0,0,0,0,0,0,0,0,0,0,0,0,0,0,0,0,0,
0,0,0,0,0,0,0,0,0,0,0,0,0,0,0,0,0,0,0,0,0,0,0,0,0,0,0,57,0,0,0,0,0,0,0,0,0,0,0,0,0,0,0,0,0,0,0,0,0,0,0,0,0,0,0,0,0,0,0,0,0,0,0,0,0,0,0,0,0,0,0,0,0,0,0,0,0,0,0,0,0,0,0,0,
0,0,0,0,0,0,0,0,0,0,0,0,0,0,0,0,0,0,0,0,0,0,0,0,0,0,0,50,0,0,0,0,0,0,0,0,0,0,0,0,0,0,0,0,0,0,0,0,0,0,0,0,0,0,0,0,0,0,0,0,0,0,0,0,0,0,0,0,0,0,0,0,0,0,0,0,0,0,0,0,0,0,0,0,
0,0,0,0,0,0,0,0,0,0,0,0,0,0,0,0,0,0,0,0,0,0,0,0,0,0,0,57,0,0,0,0,0,0,0,0,0,0,0,0,0,0,0,0,0,0,0,0,0,0,0,0,0,0,0,0,0,0,0,0,0,0,0,0,0,0,0,0,0,0,0,0,0,0,0,0,0,0,0,0,0,0,0,0,
0,0,0,0,0,0,0,0,0,0,0,0,0,0,0,0,0,0,0,0,0,0,0,0,0,0,0,50,0,0,0,0,0,0,0,0,0,0,0,0,0,0,0,0,0,0,0,0,0,0,0,0,0,0,0,0,0,0,0,0,0,0,0,0,0,0,0,0,0,0,0,0,0,0,0,0,0,0,0,0,0,0,0,0
  </data>
 </layer>
 <objectgroup id="4" name="events"/>
</map>
