<?xml version="1.0" encoding="UTF-8"?>
<map version="1.10" tiledversion="1.10.2" orientation="orthogonal" renderorder="right-down" compressionlevel="0" width="98" height="39" tilewidth="32" tileheight="32" infinite="0" nextlayerid="4" nextobjectid="1">
 <tileset firstgid="1" source="route-38.tsx"/>
 <layer id="1" name="lower" width="98" height="39">
  <data encoding="csv">
5,4,5,4,5,4,5,4,5,4,5,4,5,4,5,4,5,4,5,4,5,4,5,4,5,4,5,4,5,4,5,4,5,4,5,4,5,4,5,4,5,4,5,4,5,4,5,4,5,4,5,4,5,4,5,4,5,4,5,4,5,4,5,4,5,4,5,4,5,4,5,4,198,4,5,4,0,0,0,0,0,0,0,0,0,0,0,0,0,0,0,0,0,0,0,0,0,0,
4,3,4,3,4,3,4,3,4,3,4,3,4,3,4,3,4,3,4,3,4,3,4,3,4,3,4,3,4,3,4,3,4,3,4,3,4,3,4,3,4,3,4,3,4,3,4,3,4,3,4,3,4,3,4,3,4,3,4,3,4,3,4,3,4,3,4,3,4,3,4,3,204,3,4,3,0,0,0,0,0,0,0,0,0,0,0,0,0,0,0,0,0,0,0,0,0,0,
5,4,5,4,5,4,5,4,5,4,5,4,5,4,5,4,5,4,5,4,5,4,5,4,5,4,5,4,5,4,5,4,5,4,5,4,5,4,5,4,5,4,5,4,5,4,5,4,5,4,5,4,5,4,5,4,5,4,5,4,5,4,5,4,5,4,5,4,5,4,5,4,5,4,5,4,0,0,0,0,0,0,0,0,0,0,0,0,0,0,0,0,0,0,0,0,0,0,
4,3,4,3,4,3,4,3,4,3,4,3,4,3,4,3,4,3,4,3,4,3,4,3,4,3,4,3,4,3,4,3,4,3,4,3,4,3,4,3,4,3,4,3,4,3,4,3,4,3,4,3,4,3,4,3,4,3,4,3,4,3,4,3,4,3,4,3,4,3,4,3,4,3,4,3,0,0,0,0,0,0,0,0,0,0,0,0,0,0,0,0,0,0,0,0,0,0,
5,4,5,4,5,4,5,4,5,4,5,4,5,4,5,4,5,4,5,4,5,4,5,4,5,4,5,4,5,4,5,4,5,4,5,4,5,4,5,4,5,4,5,4,5,4,5,4,5,4,5,4,5,4,5,4,5,4,5,4,5,4,5,4,5,4,5,4,5,4,5,4,5,4,5,4,0,0,0,0,0,0,0,0,0,0,0,0,0,0,0,0,0,0,0,0,0,0,
4,3,4,3,4,3,4,3,4,3,4,3,4,3,4,3,4,3,4,3,4,3,4,3,4,3,4,3,4,3,4,3,4,3,4,3,4,3,4,3,4,3,4,3,4,3,4,3,4,3,4,3,4,3,4,3,4,3,4,3,4,3,4,3,4,3,4,3,4,3,4,3,4,3,4,3,0,0,0,0,0,0,0,0,0,0,0,0,0,0,0,0,0,0,0,0,0,0,
5,4,5,4,5,4,5,4,5,4,5,4,5,4,5,4,5,4,5,4,5,4,5,4,5,4,5,4,5,4,5,4,5,4,5,4,5,4,5,4,5,4,5,4,5,4,5,4,5,4,5,4,5,4,5,4,5,4,5,4,5,4,5,4,5,4,5,4,5,4,5,4,5,4,5,4,0,0,0,0,0,0,0,0,0,0,0,0,0,0,0,0,0,0,0,0,0,0,
4,3,4,3,4,3,4,3,4,3,4,3,4,3,4,3,4,3,4,3,4,3,4,3,4,3,4,3,4,3,4,3,4,3,4,3,4,3,4,3,4,3,4,3,4,3,4,3,4,3,4,3,4,3,4,3,4,3,4,3,4,3,4,3,4,3,4,3,4,3,4,3,4,3,4,3,0,0,0,0,0,0,0,0,0,0,0,0,0,0,0,0,0,0,0,0,0,0,
5,4,5,4,5,4,5,4,5,4,5,4,5,4,5,4,5,4,5,4,5,4,5,4,5,4,5,4,5,4,5,4,5,4,5,4,5,4,5,4,5,4,5,4,5,4,5,4,5,4,5,4,5,4,5,4,5,4,5,4,5,4,5,4,5,4,5,4,5,4,5,4,5,4,5,4,0,0,0,0,0,0,0,0,0,0,0,0,0,0,0,0,0,0,0,0,0,0,
4,3,4,3,4,3,4,3,4,3,4,3,4,3,4,3,4,3,4,3,4,3,4,3,4,3,4,3,4,3,4,3,4,3,4,3,4,3,4,3,4,3,4,3,4,3,4,3,4,3,4,3,4,3,4,3,4,3,4,3,4,3,4,3,4,3,4,3,4,3,4,3,4,3,4,3,0,0,0,0,0,0,0,0,0,0,0,0,0,0,0,0,0,0,0,0,0,0,
5,4,5,4,5,4,5,4,5,4,5,4,5,4,5,4,5,4,5,4,5,4,5,4,5,4,5,4,5,4,5,4,5,4,5,4,5,4,5,4,5,4,5,4,5,4,5,4,5,4,5,4,5,4,5,4,5,4,5,4,5,4,5,4,5,4,5,4,5,4,5,4,5,4,5,4,0,0,0,0,0,0,0,0,0,0,0,0,0,0,0,0,0,0,0,0,0,0,
19,19,19,19,19,19,19,19,19,19,19,19,19,19,19,19,19,19,19,19,19,19,19,19,19,19,19,19,15,3,4,3,4,3,4,3,4,200,191,191,191,191,191,191,191,191,191,191,201,3,4,3,4,3,4,3,4,3,4,3,4,3,4,3,4,3,4,3,4,3,4,3,4,3,4,3,0,0,0,0,0,0,0,0,0,0,0,0,0,0,0,0,0,0,0,0,0,0,
5,4,5,4,5,4,5,4,5,4,5,4,200,192,199,199,199,199,199,199,193,191,191,201,5,4,5,4,13,4,5,4,5,4,5,4,5,190,184,184,184,184,184,184,184,184,187,195,202,4,5,4,5,4,5,4,5,4,5,4,5,4,5,4,5,4,5,4,5,4,5,4,5,4,5,4,0,0,0,0,0,0,0,0,0,0,0,0,0,0,0,0,0,0,0,0,0,0,
4,3,4,3,4,3,4,3,4,3,4,3,190,194,4,4,4,4,4,4,203,195,189,194,4,3,4,3,13,3,4,3,4,3,4,200,191,188,195,195,195,195,195,195,195,195,202,4,1,1,4,3,4,3,4,3,4,3,4,3,4,3,4,3,4,3,4,3,4,3,4,3,4,3,4,3,0,0,0,0,0,0,0,0,0,0,4,4,4,4,4,4,0,0,0,0,0,0,
5,4,5,4,5,4,5,4,5,4,5,4,190,194,4,4,4,4,4,4,4,4,190,194,5,4,5,4,13,4,5,4,5,4,5,190,184,194,1,1,4,4,4,4,4,4,4,4,1,1,1,4,5,4,5,4,5,4,5,4,5,4,5,4,5,4,5,4,5,4,5,4,5,4,5,4,0,0,0,0,0,0,0,0,0,0,4,4,4,4,4,4,0,0,0,0,0,0,
4,3,4,3,4,3,4,3,4,3,4,3,190,194,4,4,4,4,4,4,4,4,190,194,4,3,4,3,17,3,4,3,4,3,4,190,184,194,1,1,4,4,4,4,4,4,4,4,1,1,1,1,4,3,4,3,4,3,4,3,4,3,4,3,4,3,4,3,4,3,4,3,4,3,4,3,0,0,0,0,0,0,0,0,0,0,4,4,4,4,4,4,0,0,0,0,0,0,
5,4,5,4,5,4,5,4,5,4,5,4,190,186,191,191,191,191,191,191,191,191,185,186,191,201,5,4,200,201,5,4,5,4,5,190,184,194,1,1,1,1,1,1,1,1,1,1,1,1,1,1,5,4,5,4,5,4,5,4,5,4,5,4,5,4,5,4,5,4,5,4,5,4,5,4,0,0,0,0,0,0,0,0,0,0,4,4,4,4,4,4,4,4,4,4,4,4,
4,3,4,3,4,3,4,3,4,3,4,3,190,184,184,184,184,184,184,184,184,184,184,184,184,194,4,3,190,194,4,3,4,3,4,190,184,194,1,1,1,1,1,1,1,1,1,1,1,1,1,1,4,3,4,3,4,3,4,3,4,3,4,3,4,3,4,3,4,3,4,3,4,3,4,3,4,3,4,3,4,3,4,3,4,3,5,4,5,4,5,4,4,4,4,4,4,4,
5,4,5,4,5,4,5,4,5,4,5,4,190,184,184,184,184,184,184,184,184,184,184,184,184,194,5,4,190,186,191,191,191,201,5,190,184,194,1,1,4,4,1,1,4,4,4,4,4,4,1,1,1,1,1,1,1,1,1,1,1,1,1,1,1,1,1,1,1,1,1,1,1,1,1,200,191,191,191,191,191,191,191,191,191,191,191,191,191,191,191,191,191,191,191,191,191,191,
4,3,4,3,4,3,4,3,4,3,4,3,190,184,184,184,184,184,184,184,184,184,184,184,184,186,191,191,185,184,184,184,184,186,191,185,184,194,1,1,4,4,1,1,4,4,4,4,4,4,1,1,1,1,1,1,1,1,1,1,1,1,1,1,1,1,1,1,1,1,1,1,1,1,1,190,184,184,184,184,184,184,184,184,184,184,184,195,195,195,195,184,184,184,184,184,184,184,
5,4,5,4,5,4,5,4,5,4,5,4,190,184,184,184,184,184,184,184,184,184,184,184,184,184,184,184,184,184,184,184,184,184,184,184,184,194,1,1,4,4,1,1,4,5,4,5,4,4,4,4,4,4,4,4,4,4,4,4,4,4,200,191,191,191,191,191,191,191,191,191,191,191,191,185,184,184,184,184,184,184,184,184,184,184,184,3,4,3,4,184,184,184,184,184,184,184,
4,3,4,3,4,3,4,3,4,3,4,3,190,187,195,195,195,195,195,195,195,195,195,189,184,184,184,184,184,184,184,184,184,184,184,184,184,194,1,1,4,4,1,1,4,5,200,191,191,191,191,191,191,191,191,191,191,191,191,191,191,191,185,184,184,184,184,184,184,184,184,184,184,184,184,184,184,184,187,195,195,195,195,195,195,195,197,199,199,199,199,196,195,195,195,195,195,195,
5,4,5,4,5,4,5,4,5,4,5,4,190,194,5,4,5,4,5,4,5,4,5,190,184,184,184,184,184,184,184,184,184,184,184,184,184,186,191,201,5,4,1,1,4,4,190,184,184,184,184,184,184,184,184,184,184,184,184,184,184,184,184,184,184,184,184,184,184,184,184,184,184,184,184,184,184,184,194,4,4,4,4,4,4,4,4,4,4,4,4,4,4,4,4,4,4,4,
4,3,4,3,4,3,4,3,4,3,4,3,203,202,4,3,4,3,4,3,4,3,4,190,184,187,195,195,189,184,184,184,184,184,184,184,184,184,184,194,4,4,1,1,4,5,190,184,184,184,184,184,184,184,184,184,187,195,195,189,184,184,184,184,184,187,195,195,195,195,195,195,195,195,195,195,195,195,202,0,0,0,0,0,0,4,3,4,3,4,3,4,0,0,0,0,0,0,
5,4,5,4,5,4,5,4,5,4,5,4,5,4,5,4,5,4,5,4,5,4,5,190,184,194,3,4,203,195,195,195,195,189,184,184,184,184,184,194,4,4,1,1,4,5,203,195,195,195,195,195,195,195,195,195,202,4,3,190,184,187,195,195,195,202,3,4,3,4,3,4,3,4,0,0,0,0,0,0,0,0,0,0,0,0,4,4,4,4,4,4,0,0,0,0,0,0,
4,3,4,3,4,3,4,3,4,3,4,3,4,3,4,3,4,3,4,3,4,3,4,190,184,194,4,5,13,5,4,5,4,190,184,184,184,184,184,194,5,4,5,4,4,4,4,4,4,4,4,4,4,4,4,4,4,4,3,190,184,194,4,5,4,5,4,5,4,5,4,5,4,5,0,0,0,0,0,0,0,0,0,0,0,0,0,0,0,0,0,0,0,0,0,0,0,0,
5,4,5,4,5,4,5,4,5,4,5,4,5,4,5,4,5,4,5,4,5,4,5,190,184,186,201,4,13,4,3,4,3,203,195,189,184,184,184,194,4,4,4,3,4,5,5,200,191,191,191,191,191,191,191,191,191,191,191,185,184,194,3,4,3,4,3,4,3,4,3,4,3,4,0,0,0,0,0,0,0,0,0,0,0,0,0,0,0,0,0,0,0,0,0,0,0,0,
4,3,4,3,4,3,4,3,4,3,4,3,4,3,4,3,4,3,4,3,4,3,4,190,184,184,194,5,13,28,28,28,28,28,28,190,184,184,184,194,5,5,4,4,200,191,191,185,184,184,184,184,184,184,184,184,184,184,184,187,195,202,4,5,4,5,4,5,4,5,4,5,4,5,0,0,0,0,0,0,0,0,0,0,0,0,0,0,0,0,0,0,0,0,0,0,0,0,
5,4,5,4,5,4,5,4,5,4,5,4,5,4,5,4,5,4,5,4,5,4,5,190,184,184,194,4,16,19,19,19,19,15,28,190,184,184,184,186,191,191,191,191,185,184,184,184,184,187,195,195,195,195,195,195,195,195,195,202,3,4,3,4,3,4,3,4,3,4,3,4,3,4,0,0,0,0,0,0,0,0,0,0,0,0,0,0,0,0,0,0,0,0,0,0,0,0,
4,3,4,3,4,3,4,3,4,3,4,3,4,3,4,3,4,3,4,3,4,5,200,185,184,187,202,5,14,5,4,5,4,13,28,203,195,195,195,195,195,195,195,195,195,195,195,195,195,202,4,5,4,5,4,5,4,5,4,5,4,5,4,5,4,5,4,5,4,5,4,5,4,5,0,0,0,0,0,0,0,0,0,0,0,0,0,0,0,0,0,0,0,0,0,0,0,0,
5,4,5,4,5,4,5,4,5,4,5,4,5,4,5,4,5,4,5,4,5,5,190,184,184,194,3,4,14,4,3,4,3,13,28,4,3,4,3,4,3,4,3,4,3,4,3,4,3,4,3,4,3,4,3,4,3,4,3,4,3,4,3,4,3,4,3,4,3,4,3,4,3,4,0,0,0,0,0,0,0,0,0,0,0,0,0,0,0,0,0,0,0,0,0,0,0,0,
4,3,4,3,4,3,4,3,4,3,4,3,4,3,4,3,4,3,4,3,4,5,190,184,187,202,4,5,14,5,4,5,4,13,28,4,4,5,4,5,4,5,4,5,4,5,4,28,28,28,28,28,28,28,28,28,28,28,28,28,28,28,28,28,28,5,4,5,4,5,4,5,4,5,4,5,0,0,0,0,0,0,0,0,0,0,0,0,0,0,0,0,0,0,0,0,0,0,
5,4,5,4,5,4,5,4,5,4,5,4,5,4,5,4,5,4,5,4,5,4,190,184,194,4,3,4,14,4,3,4,3,13,20,28,28,28,28,28,28,28,28,28,28,28,28,21,19,19,19,19,19,19,19,19,19,19,19,19,19,19,19,19,3,4,3,4,3,4,3,4,3,4,3,4,0,0,0,0,0,0,0,0,0,0,0,0,0,0,0,0,0,0,0,0,0,0,
4,3,4,3,4,3,4,3,4,3,4,12,12,12,12,12,12,12,12,12,12,200,185,184,194,54,12,12,14,5,4,5,4,18,19,19,19,19,19,19,19,19,19,19,19,19,19,19,4,5,4,5,4,5,4,5,4,5,4,5,4,5,4,13,4,5,4,5,4,5,4,5,4,5,4,5,0,0,0,0,0,0,0,0,0,0,0,0,0,0,0,0,0,0,0,0,0,0,
5,4,5,4,5,4,5,4,5,4,5,4,5,4,5,4,5,4,5,4,5,190,184,184,194,4,3,4,14,4,3,4,3,4,3,4,3,4,3,4,3,4,3,4,3,4,3,4,3,4,3,4,3,4,3,4,3,4,3,4,3,4,3,13,3,4,3,4,3,4,3,4,3,4,3,4,0,0,0,0,0,0,0,0,0,0,0,0,0,0,0,0,0,0,0,0,0,0,
4,3,4,3,4,3,4,3,4,3,4,3,4,3,4,3,4,3,4,3,4,190,184,184,194,5,4,5,14,5,4,5,4,5,4,5,4,5,4,5,4,5,4,5,4,5,4,5,4,5,4,5,4,5,4,5,4,5,4,5,4,5,4,13,4,5,4,5,4,5,4,5,4,5,4,5,0,0,0,0,0,0,0,0,0,0,0,0,0,0,0,0,0,0,0,0,0,0,
5,4,5,4,5,4,5,4,5,4,5,4,5,4,5,4,5,4,5,4,5,190,184,184,194,4,3,4,14,4,3,4,3,4,3,4,3,4,3,4,3,4,3,4,3,4,3,4,3,4,3,4,3,4,3,4,3,4,3,4,3,4,3,13,3,4,3,4,3,4,3,4,3,4,3,4,0,0,0,0,0,0,0,0,0,0,0,0,0,0,0,0,0,0,0,0,0,0,
4,3,4,3,4,3,4,3,4,3,4,3,4,3,4,3,4,3,4,3,4,190,184,184,194,5,4,5,14,5,4,5,4,5,4,5,4,5,4,5,4,5,4,5,4,5,4,5,4,5,4,5,4,5,4,5,4,5,4,5,4,5,4,13,4,5,4,5,4,5,4,5,4,5,4,5,0,0,0,0,0,0,0,0,0,0,0,0,0,0,0,0,0,0,0,0,0,0,
5,4,5,4,5,4,5,4,5,4,5,4,5,4,5,4,5,4,5,4,5,190,184,184,194,4,3,4,14,4,3,4,3,4,3,4,3,4,3,4,3,4,3,4,3,4,3,4,3,4,3,4,3,4,3,4,3,4,3,4,3,4,3,13,3,4,3,4,3,4,3,4,3,4,3,4,0,0,0,0,0,0,0,0,0,0,0,0,0,0,0,0,0,0,0,0,0,0
  </data>
 </layer>
 <layer id="2" name="middle" width="98" height="39">
  <data encoding="csv">
35,36,35,36,35,36,35,36,35,36,35,36,35,36,35,36,35,36,35,36,35,36,35,36,35,36,35,36,35,36,35,36,35,36,35,36,35,36,35,36,35,36,35,36,35,36,35,36,35,36,35,36,35,36,35,36,35,36,35,36,35,36,35,36,35,36,35,36,35,36,35,36,35,36,35,36,35,36,35,36,35,36,35,36,35,36,35,36,35,36,35,36,35,36,35,36,35,36,
38,39,38,39,38,39,38,39,38,39,38,39,38,39,38,39,38,39,38,39,38,39,38,39,38,39,38,39,38,39,38,39,38,39,38,39,38,39,38,39,38,39,38,39,38,39,38,39,38,39,38,39,38,39,38,39,38,39,38,39,38,39,38,39,38,39,38,39,38,39,38,39,38,39,38,39,38,39,38,39,38,39,38,39,38,39,38,39,38,39,38,39,38,39,38,39,38,39,
35,36,35,36,35,36,35,36,35,36,35,36,35,36,35,36,35,36,35,36,35,36,35,36,35,36,35,36,35,36,35,36,35,36,35,36,35,36,35,36,35,36,35,36,35,36,35,36,35,36,35,36,35,36,35,36,35,36,35,36,35,36,35,36,35,36,35,36,35,36,35,36,35,36,35,36,35,36,35,36,35,36,35,36,35,36,35,36,35,36,35,36,35,36,35,36,35,36,
38,39,38,39,38,39,38,39,38,39,38,39,38,39,38,39,38,39,38,39,38,39,38,39,38,39,38,39,38,39,38,39,38,39,38,39,38,39,38,39,38,39,38,39,38,39,38,39,38,39,38,39,38,39,38,39,38,39,38,39,38,39,38,39,38,39,38,39,38,39,38,39,38,39,38,39,38,39,38,39,38,39,38,39,38,39,38,39,38,39,38,39,38,39,38,39,38,39,
35,36,35,36,35,36,35,36,35,36,35,36,35,36,35,36,35,36,35,36,35,36,35,36,35,36,35,36,35,36,35,36,35,36,35,36,35,36,35,36,35,36,35,36,35,36,35,36,35,36,35,36,35,36,35,36,35,36,35,36,35,36,35,36,35,36,35,36,35,36,35,36,35,36,35,36,35,36,35,36,35,36,35,36,35,36,35,36,35,36,35,36,35,36,35,36,35,36,
38,39,38,39,38,39,38,39,38,39,38,39,38,39,38,39,38,39,38,39,38,39,38,39,38,39,38,39,38,39,38,39,38,39,38,39,38,39,38,39,38,39,38,39,38,39,38,39,38,39,38,39,38,39,38,39,38,39,38,39,38,39,38,39,38,39,38,39,38,39,38,39,38,39,38,39,38,39,38,39,38,39,38,39,38,39,38,39,38,39,38,39,38,39,38,39,38,39,
35,36,35,36,35,36,35,36,35,36,35,36,35,36,35,36,35,36,35,36,35,36,35,36,35,36,35,36,35,36,35,36,35,36,35,36,35,36,35,36,35,36,35,36,35,36,35,36,35,36,35,36,35,36,35,36,35,36,35,36,35,36,35,36,35,36,35,36,35,36,35,36,35,36,35,36,35,36,35,36,35,36,35,36,35,36,35,36,35,36,35,36,35,36,35,36,35,36,
38,39,38,39,38,39,38,39,38,39,38,39,38,39,38,39,38,39,38,39,38,39,38,39,38,39,38,39,38,39,38,39,38,39,38,39,38,39,38,39,38,39,38,39,38,39,38,39,38,39,38,39,38,39,38,39,38,39,38,39,38,39,38,39,38,39,38,39,38,39,38,39,38,39,38,39,38,39,38,39,38,39,38,39,38,39,38,39,38,39,38,39,38,39,38,39,38,39,
45,46,45,46,45,46,45,46,45,46,45,46,45,46,45,46,45,46,45,46,45,46,45,46,45,46,45,46,45,46,35,36,35,36,35,36,45,46,45,46,45,46,45,46,45,46,45,46,45,46,45,46,45,46,35,36,35,36,35,36,35,36,35,36,35,36,35,36,35,36,35,36,35,36,35,36,35,36,35,36,35,36,35,36,35,36,35,36,35,36,35,36,35,36,35,36,35,36,
52,53,52,53,52,53,52,53,52,53,52,53,52,53,52,53,52,53,52,53,52,53,52,53,52,53,52,53,52,53,38,39,38,39,38,40,52,53,52,53,52,53,52,53,52,53,52,53,52,53,52,53,52,53,38,39,38,39,38,39,38,39,38,39,38,39,38,39,38,39,38,39,38,39,38,39,38,39,38,39,38,39,38,39,38,39,38,39,38,39,38,39,38,39,38,39,38,39,
23,23,23,23,23,23,23,23,23,23,23,23,23,23,23,23,23,23,23,23,23,23,23,23,23,23,23,23,23,24,35,36,35,36,45,47,72,72,72,72,72,72,72,72,72,72,72,72,72,72,72,72,72,72,35,36,35,36,35,36,35,36,35,36,35,36,35,36,35,36,35,36,35,36,35,36,35,36,35,36,35,36,35,36,35,36,35,36,35,36,35,36,35,36,35,36,35,36,
50,51,50,51,50,51,50,51,50,51,50,51,72,72,72,72,72,72,72,72,72,72,72,72,72,72,72,72,72,29,38,39,38,40,52,53,72,0,0,0,0,0,0,0,0,0,0,0,0,0,0,0,0,0,38,39,38,39,38,39,38,39,38,39,38,39,38,39,38,39,38,39,38,39,38,39,38,39,38,39,38,39,38,39,38,39,38,39,38,39,38,39,38,39,38,39,38,39,
35,36,35,36,35,36,35,36,35,36,35,37,67,73,74,75,76,0,0,0,0,0,0,0,0,0,0,0,72,29,35,36,35,37,64,72,72,0,0,0,43,44,43,44,43,44,43,44,0,0,0,0,0,0,35,36,35,36,35,36,35,36,35,36,35,36,35,36,35,36,35,36,35,36,35,36,35,36,35,36,35,36,35,36,35,36,35,36,35,36,35,36,35,36,35,36,35,36,
38,39,38,39,38,39,38,39,38,39,38,40,67,77,78,79,80,0,0,0,0,0,0,0,0,0,33,0,72,29,38,39,38,40,67,0,0,0,0,0,50,51,50,51,50,51,50,51,0,0,0,0,0,0,38,39,38,39,38,39,38,39,38,39,38,39,38,39,38,39,38,39,38,39,38,39,38,39,38,39,38,39,38,39,38,39,38,39,38,39,38,39,38,39,38,39,38,39,
35,36,35,36,35,36,35,36,35,36,35,37,67,81,82,83,84,0,0,0,0,0,0,0,0,0,34,0,72,29,35,36,35,37,67,0,0,0,0,0,45,46,45,46,45,46,45,47,0,0,0,0,43,44,35,36,35,36,35,36,35,36,35,36,35,36,35,36,35,36,35,36,35,36,35,36,35,36,35,36,35,36,35,36,35,36,35,36,35,36,35,36,35,36,35,36,35,36,
38,39,38,39,38,39,38,39,38,39,38,40,67,85,0,86,87,0,0,0,0,0,0,0,0,0,0,0,72,29,38,39,38,40,67,0,0,0,0,0,52,53,52,53,52,53,52,53,0,0,0,0,50,51,38,39,38,39,38,39,38,39,38,39,38,39,38,39,38,39,38,39,38,39,38,39,38,39,38,39,38,39,38,39,38,39,38,39,38,39,38,39,38,39,38,39,38,39,
35,36,35,36,35,36,35,36,35,36,35,37,67,0,0,0,0,0,0,0,0,0,0,0,0,0,0,0,72,29,45,46,45,47,67,0,0,0,0,0,43,44,0,0,43,44,43,44,43,44,0,0,45,46,45,46,45,46,45,46,45,46,45,46,45,46,45,46,45,46,45,46,45,46,45,46,45,46,45,46,45,46,45,46,45,46,45,46,45,46,45,46,45,46,45,46,45,46,
38,39,38,39,38,39,38,39,38,39,38,40,67,72,72,72,0,0,0,0,0,0,0,72,72,72,2,72,72,29,52,53,52,53,67,0,0,0,0,0,50,51,0,0,50,51,50,51,50,51,0,0,52,53,52,53,52,53,52,53,52,53,52,53,52,53,52,53,52,53,52,53,52,53,52,53,52,53,52,53,52,53,52,53,52,53,52,53,52,53,52,53,52,53,52,53,52,53,
35,36,35,36,35,36,35,36,35,36,35,37,67,0,0,0,0,0,0,0,0,0,0,0,0,0,0,0,0,29,72,72,72,72,71,0,0,0,0,0,35,37,0,0,45,46,45,46,45,47,0,0,0,0,0,0,0,0,0,0,0,0,0,0,0,0,0,0,0,0,0,0,0,0,0,0,0,2,0,0,0,0,0,0,0,0,160,161,162,163,164,165,0,0,0,0,0,0,
38,39,38,39,38,39,38,39,38,39,38,40,67,0,0,0,0,0,0,0,0,0,0,0,0,0,0,0,0,29,0,0,0,0,0,0,0,0,0,0,38,40,0,0,52,53,52,53,52,53,0,0,0,0,0,0,0,0,0,0,0,0,0,0,0,0,0,0,0,0,0,0,0,0,0,0,0,0,0,0,0,0,0,0,0,0,166,167,168,169,170,171,0,0,0,0,0,0,
35,36,35,36,35,36,35,36,35,36,35,37,67,72,72,72,0,0,0,0,72,72,72,0,0,0,0,0,0,29,0,0,0,0,0,0,0,0,0,0,45,47,0,0,25,0,0,0,64,72,72,72,72,72,72,72,72,72,72,72,72,72,72,72,72,72,72,72,72,72,72,72,72,72,0,0,0,0,43,44,43,44,43,44,43,44,172,173,174,175,176,177,0,0,0,0,0,0,
38,39,38,39,38,39,38,39,38,39,38,40,67,0,0,0,0,0,0,0,0,0,72,0,0,0,0,0,0,29,0,0,0,0,0,0,0,0,0,0,52,53,0,0,30,0,0,0,67,0,0,0,0,0,0,0,0,0,0,0,0,0,0,0,0,0,0,0,0,0,0,0,0,0,0,0,0,0,50,51,50,51,50,51,50,51,178,179,180,181,182,183,0,0,0,0,0,0,
35,36,35,36,35,36,35,36,35,36,35,37,67,0,0,0,0,0,0,0,43,44,72,0,0,0,0,0,0,29,0,0,0,0,0,0,0,0,0,0,0,26,0,0,30,0,0,0,67,0,0,0,0,0,0,0,0,0,0,0,0,0,0,0,0,0,0,0,0,0,43,44,43,44,43,44,43,44,35,36,35,36,35,36,35,36,35,36,35,36,35,36,35,36,35,36,35,36,
38,39,38,39,38,39,38,39,38,39,38,40,67,0,0,0,0,0,0,0,50,51,72,0,0,0,0,0,0,29,0,0,0,0,0,0,0,0,0,0,0,31,0,0,30,0,0,0,68,72,0,0,72,72,72,72,72,72,72,72,72,72,72,0,0,0,72,72,72,72,50,51,50,51,50,51,50,51,38,39,38,39,38,39,38,39,38,39,38,39,38,39,38,39,38,39,38,39,
35,36,35,36,35,36,35,36,35,36,35,37,67,0,0,0,0,0,0,0,35,37,72,0,0,0,0,72,72,29,0,0,0,0,0,0,0,0,0,0,2,31,0,0,30,0,0,0,0,0,0,0,0,0,0,0,0,26,0,0,0,0,0,0,43,44,43,44,43,44,35,36,35,36,35,36,35,36,35,36,35,36,35,36,35,36,35,36,35,36,35,36,35,36,35,36,35,36,
38,39,38,39,38,39,38,39,38,39,38,40,67,0,0,0,0,0,0,0,38,40,72,0,0,0,0,72,0,29,72,72,72,72,72,72,65,0,0,0,0,31,0,0,6,7,7,7,7,7,7,7,7,7,7,7,7,8,0,0,0,0,0,0,50,51,50,51,50,51,38,39,38,39,38,39,38,39,38,39,38,39,38,39,38,39,38,39,38,39,38,39,38,39,38,39,38,39,
35,36,35,36,35,36,35,36,35,36,35,37,67,0,0,0,0,0,0,0,45,47,72,0,0,0,0,72,0,20,23,23,23,23,23,24,66,9,7,7,7,8,0,0,0,0,0,0,0,0,0,0,0,0,0,0,0,0,0,0,43,44,43,44,35,36,35,36,35,36,35,36,35,36,35,36,35,36,35,36,35,36,35,36,35,36,35,36,35,36,35,36,35,36,35,36,35,36,
38,39,38,39,38,39,38,39,38,39,38,40,67,0,0,0,0,0,0,0,52,53,72,0,0,0,0,22,23,23,23,23,23,23,24,29,66,0,0,0,0,0,0,0,0,0,0,0,0,0,0,0,0,0,0,0,0,0,0,0,50,51,50,51,38,39,38,39,38,39,38,39,38,39,38,39,38,39,38,39,38,39,38,39,38,39,38,39,38,39,38,39,38,39,38,39,38,39,
35,36,35,36,35,36,35,36,35,36,35,37,67,0,0,0,0,0,0,0,0,72,72,0,0,0,0,27,35,36,35,36,35,37,29,29,66,0,0,0,0,0,0,0,0,0,0,0,0,0,0,0,0,0,0,0,0,0,0,0,45,46,45,46,45,46,35,36,35,36,35,36,35,36,35,36,35,36,35,36,35,36,35,36,35,36,35,36,35,36,35,36,35,36,35,36,35,36,
38,39,38,39,38,39,38,39,38,39,38,40,67,0,0,0,0,0,0,0,0,72,0,0,0,0,0,27,38,39,38,39,38,40,29,29,66,0,0,0,0,0,0,0,0,63,72,72,72,72,72,72,72,72,72,72,72,72,72,72,52,53,52,53,52,53,38,39,38,39,38,39,38,39,38,39,38,39,38,39,38,39,38,39,38,39,38,39,38,39,38,39,38,39,38,39,38,39,
35,36,35,36,35,36,35,36,35,36,35,37,67,0,0,0,0,0,0,0,0,72,0,0,0,0,0,27,35,36,35,36,35,37,29,29,70,72,72,72,72,72,72,72,72,69,22,23,23,23,23,23,23,23,23,23,23,23,23,23,23,23,23,23,23,24,35,36,35,36,35,36,35,36,35,36,35,36,35,36,35,36,35,36,35,36,35,36,35,36,35,36,35,36,35,36,35,36,
38,39,38,39,38,39,38,39,38,39,38,40,67,0,0,0,0,0,0,0,0,72,0,0,0,0,0,27,38,39,38,39,38,40,29,20,23,23,23,23,23,23,23,23,23,23,21,22,23,23,23,23,23,23,23,23,23,23,23,23,23,23,23,23,24,29,38,39,38,39,38,39,38,39,38,39,38,39,38,39,38,39,38,39,38,39,38,39,38,39,38,39,38,39,38,39,38,39,
35,36,35,36,35,36,35,36,35,36,35,37,67,0,140,138,0,0,0,0,0,72,0,0,0,0,0,27,35,36,35,36,35,37,43,23,23,23,23,23,23,23,23,23,23,23,23,44,35,36,35,36,35,36,35,36,35,36,35,36,35,36,35,37,29,29,35,36,35,36,35,36,35,36,35,36,35,36,35,36,35,36,35,36,35,36,35,36,35,36,35,36,35,36,35,36,35,36,
38,39,38,39,38,39,38,39,38,39,38,39,68,72,72,72,72,72,72,72,72,72,0,0,0,0,0,27,38,39,38,39,38,39,0,0,0,0,0,0,0,0,0,0,0,0,0,0,38,39,38,39,38,39,38,39,38,39,38,39,38,39,38,40,29,29,38,39,38,39,38,39,38,39,38,39,38,39,38,39,38,39,38,39,38,39,38,39,38,39,38,39,38,39,38,39,38,39,
35,36,35,36,35,36,35,36,35,36,35,36,35,36,35,37,10,32,32,32,32,32,0,0,32,32,11,27,35,36,35,36,35,36,35,36,35,36,35,36,35,36,35,36,35,36,35,36,35,46,45,46,45,46,45,46,45,46,45,46,45,46,45,37,29,29,35,36,35,36,35,36,35,36,35,36,35,36,35,36,35,36,35,36,35,36,35,36,35,36,35,36,35,36,35,36,35,36,
38,39,38,39,38,39,38,39,38,39,38,39,38,39,38,40,29,10,32,32,32,32,0,0,32,11,27,27,38,39,38,39,38,39,38,39,38,39,38,39,38,39,38,39,38,39,38,39,38,39,38,39,38,39,38,39,38,39,38,39,38,39,38,40,29,29,38,39,38,39,38,39,38,39,38,39,38,39,38,39,38,39,38,39,38,39,38,39,38,39,38,39,38,39,38,39,38,39,
35,36,35,36,35,36,35,36,35,36,35,36,35,36,35,37,29,29,0,0,0,0,0,0,0,27,27,27,35,36,35,36,35,46,35,36,35,36,35,36,35,36,35,36,35,36,35,36,35,36,35,36,35,36,35,36,35,36,35,36,35,36,35,37,29,29,35,36,35,36,35,36,35,36,35,36,35,36,35,36,35,36,35,36,35,36,35,36,35,36,35,36,35,36,35,36,35,36,
38,39,38,39,38,39,38,39,38,39,38,39,38,39,38,40,29,29,0,0,0,0,0,0,0,27,27,27,38,39,38,39,38,39,38,39,38,39,38,39,38,39,38,39,38,39,38,39,38,39,38,39,38,39,38,39,38,39,38,39,38,39,38,40,29,29,38,39,38,39,38,39,38,39,38,39,38,39,38,39,38,39,38,39,38,39,38,39,38,39,38,39,38,39,38,39,38,39,
35,36,35,36,45,46,45,46,45,46,45,46,45,46,45,47,29,29,0,0,0,0,0,0,0,27,27,27,35,36,35,36,35,46,35,36,35,36,35,36,35,36,35,36,35,36,35,36,35,36,35,36,35,36,35,36,35,36,35,36,35,36,35,37,29,29,35,36,35,36,35,36,35,36,35,36,35,36,35,36,35,36,35,36,35,36,35,36,35,36,35,36,35,36,35,36,35,36
  </data>
 </layer>
 <layer id="3" name="upper" width="98" height="39">
  <data encoding="csv">
0,0,0,0,0,0,0,0,0,0,0,0,0,0,0,0,0,0,0,0,0,0,0,0,0,0,0,0,0,0,0,0,0,0,0,0,0,0,0,0,0,0,0,0,0,0,0,0,0,0,0,0,0,0,0,0,0,0,0,0,0,0,0,0,0,0,0,0,0,0,0,0,0,0,0,0,0,0,0,0,0,0,0,0,0,0,0,0,0,0,0,0,0,0,0,0,0,0,
0,0,0,0,0,0,0,0,0,0,0,0,0,0,0,0,0,0,0,0,0,0,0,0,0,0,0,0,0,0,0,0,0,0,0,0,0,0,0,0,0,0,0,0,0,0,0,0,0,0,0,0,0,0,0,0,0,0,0,0,0,0,0,0,0,0,0,0,0,0,0,0,0,0,0,0,0,0,0,0,0,0,0,0,0,0,0,0,0,0,0,0,0,0,0,0,0,0,
0,0,0,0,0,0,0,0,0,0,0,0,0,0,0,0,0,0,0,0,0,0,0,0,0,0,0,0,0,0,0,0,0,0,0,0,0,0,0,0,0,0,0,0,0,0,0,0,0,0,0,0,0,0,0,0,0,0,0,0,0,0,0,0,0,0,0,0,0,0,0,0,0,0,0,0,0,0,0,0,0,0,0,0,0,0,0,0,0,0,0,0,0,0,0,0,0,0,
0,0,0,0,0,0,0,0,0,0,0,0,0,0,0,0,0,0,0,0,0,0,0,0,0,0,0,0,0,0,0,0,0,0,0,0,0,0,0,0,0,0,0,0,0,0,0,0,0,0,0,0,0,0,0,0,0,0,0,0,0,0,0,0,0,0,0,0,0,0,0,0,0,0,0,0,0,0,0,0,0,0,0,0,0,0,0,0,0,0,0,0,0,0,0,0,0,0,
0,0,0,0,0,0,0,0,0,0,0,0,0,0,0,0,0,0,0,0,0,0,0,0,0,0,0,0,0,0,0,0,0,0,0,0,0,0,0,0,0,0,0,0,0,0,0,0,0,0,0,0,0,0,0,0,0,0,0,0,0,0,0,0,0,0,0,0,0,0,0,0,0,0,0,0,0,0,0,0,0,0,0,0,0,0,0,0,0,0,0,0,0,0,0,0,0,0,
0,0,0,0,0,0,0,0,0,0,0,0,0,0,0,0,0,0,0,0,0,0,0,0,0,0,0,0,0,0,0,0,0,0,0,0,0,0,0,0,0,0,0,0,0,0,0,0,0,0,0,0,0,0,0,0,0,0,0,0,0,0,0,0,0,0,0,0,0,0,0,0,0,0,0,0,0,0,0,0,0,0,0,0,0,0,0,0,0,0,0,0,0,0,0,0,0,0,
0,0,0,0,0,0,0,0,0,0,0,0,0,0,0,0,0,0,0,0,0,0,0,0,0,0,0,0,0,0,0,0,0,0,0,0,0,0,0,0,0,0,0,0,0,0,0,0,0,0,0,0,0,0,0,0,0,0,0,0,0,0,0,0,0,0,0,0,0,0,0,0,0,0,0,0,0,0,0,0,0,0,0,0,0,0,0,0,0,0,0,0,0,0,0,0,0,0,
0,0,0,0,0,0,0,0,0,0,0,0,0,0,0,0,0,0,0,0,0,0,0,0,0,0,0,0,0,0,0,0,0,0,0,0,0,0,0,0,0,0,0,0,0,0,0,0,0,0,0,0,0,0,0,0,0,0,0,0,0,0,0,0,0,0,0,0,0,0,0,0,0,0,0,0,0,0,0,0,0,0,0,0,0,0,0,0,0,0,0,0,0,0,0,0,0,0,
0,0,0,0,0,0,0,0,0,0,0,0,0,0,0,0,0,0,0,0,0,0,0,0,0,0,0,0,0,0,0,0,0,0,0,0,0,0,0,0,0,0,0,0,0,0,0,0,0,0,0,0,0,0,0,0,0,0,0,0,0,0,0,0,0,0,0,0,0,0,0,0,0,0,0,0,0,0,0,0,0,0,0,0,0,0,0,0,0,0,0,0,0,0,0,0,0,0,
0,0,0,0,0,0,0,0,0,0,0,0,0,0,0,0,0,0,0,0,0,0,0,0,0,0,0,0,0,42,0,0,0,0,0,0,41,0,0,0,0,0,0,0,0,0,0,0,0,0,0,0,0,42,0,0,0,0,0,0,0,0,0,0,0,0,0,0,0,0,0,0,0,0,0,0,0,0,0,0,0,0,0,0,0,0,0,0,0,0,0,0,0,0,0,0,0,0,
43,44,43,44,43,44,43,44,43,44,43,44,0,0,0,0,0,0,88,89,90,0,0,0,0,0,0,0,0,49,0,0,0,0,0,0,48,0,0,0,0,0,0,0,0,0,0,0,0,0,0,0,0,49,0,0,0,0,0,0,0,0,0,0,0,0,0,0,0,0,0,0,0,0,0,0,0,0,0,0,0,0,0,0,0,0,0,0,0,0,0,0,0,0,0,0,0,0,
0,0,0,0,0,0,0,0,0,0,0,0,41,0,0,0,0,91,92,93,94,95,0,0,0,0,0,0,0,42,0,0,0,0,41,0,0,0,0,0,0,0,0,0,0,0,0,0,0,0,0,0,0,42,0,0,0,0,0,0,0,0,0,0,0,0,0,0,0,0,0,0,0,0,0,0,0,0,0,0,0,0,0,0,0,0,0,0,0,0,0,0,0,0,0,0,0,0,
0,0,0,0,0,0,0,0,0,0,0,0,48,0,0,0,0,96,97,98,99,100,0,0,0,0,0,0,0,49,0,0,0,0,48,0,0,0,0,0,0,0,0,0,0,0,0,0,0,0,0,0,0,49,0,0,0,0,0,0,0,0,0,0,0,0,0,0,0,0,0,0,0,0,0,0,0,0,0,0,0,0,0,0,0,0,0,0,0,0,0,0,0,0,0,0,0,0,
0,0,0,0,0,0,0,0,0,0,0,0,41,0,0,0,0,101,102,103,104,105,0,0,0,0,0,0,0,42,0,0,0,0,41,0,0,0,0,42,0,0,0,0,0,0,0,0,41,0,0,0,0,42,0,0,0,0,0,0,0,0,0,0,0,0,0,0,0,0,0,0,0,0,0,0,0,0,0,0,0,0,0,0,0,0,0,0,0,0,0,0,0,0,0,0,0,0,
0,0,0,0,0,0,0,0,0,0,0,0,48,0,0,0,0,106,107,108,109,110,0,0,0,0,0,0,0,49,0,0,0,0,48,0,0,0,0,49,0,0,0,0,0,0,0,0,48,0,0,0,0,49,0,0,0,0,0,0,0,0,0,0,0,0,0,0,0,0,0,0,0,0,0,0,0,0,0,0,0,0,0,0,0,0,0,0,0,0,0,0,0,0,0,0,0,0,
0,0,0,0,0,0,0,0,0,0,0,0,41,0,0,0,0,111,112,0,113,114,0,0,0,0,0,0,0,42,0,0,0,0,41,0,0,0,0,0,0,0,0,0,0,0,0,0,0,0,0,42,0,0,0,0,0,0,0,0,0,0,0,0,0,0,0,0,0,0,0,0,0,0,0,0,0,0,0,0,0,0,0,0,0,0,142,143,144,145,146,147,0,0,0,0,0,0,
0,0,0,0,0,0,0,0,0,0,0,0,48,0,0,0,0,0,0,0,0,0,0,0,0,0,0,0,0,49,0,0,0,0,48,0,0,0,0,0,0,0,0,0,0,0,0,0,0,0,0,49,0,0,0,0,0,0,0,0,0,0,0,0,0,0,0,0,0,0,0,0,0,0,0,0,0,0,0,0,0,0,0,0,0,0,148,149,150,151,152,153,0,0,0,0,0,0,
0,0,0,0,0,0,0,0,0,0,0,0,41,0,0,0,0,0,0,0,0,0,0,0,0,0,0,0,0,0,0,0,0,0,0,0,0,0,0,42,0,0,41,42,0,0,0,0,0,0,41,0,0,0,0,0,0,0,0,0,0,0,0,0,0,0,0,0,0,0,0,0,0,0,0,0,0,0,0,0,0,0,0,0,0,0,154,155,156,157,158,159,0,0,0,0,0,0,
0,0,0,0,0,0,0,0,0,0,0,0,48,0,0,0,0,0,0,0,0,0,0,0,0,0,0,0,0,0,0,0,0,0,0,0,0,0,0,49,0,0,48,49,0,0,0,0,0,0,48,0,0,0,0,0,0,0,0,0,0,0,0,0,0,0,0,0,0,0,0,0,0,0,0,0,0,0,0,0,0,0,0,0,0,0,0,0,0,0,0,0,0,0,0,0,0,0,
0,0,0,0,0,0,0,0,0,0,0,0,41,0,0,0,0,0,0,0,0,0,0,0,0,0,0,0,0,59,0,0,0,0,0,0,0,0,0,42,0,0,41,0,0,0,0,0,0,0,0,0,0,0,0,0,0,0,0,0,0,0,0,0,0,0,0,0,0,0,0,0,0,0,0,0,0,0,0,0,0,0,0,0,0,0,0,0,0,0,0,0,0,0,0,0,0,0,
0,0,0,0,0,0,0,0,0,0,0,0,48,0,0,0,0,0,0,0,0,0,0,0,0,0,0,0,0,60,0,0,0,0,0,0,0,0,0,49,0,0,48,0,0,0,0,0,0,0,0,0,0,0,0,0,0,0,0,0,0,0,0,0,0,0,0,0,0,0,0,0,0,0,0,0,0,0,0,0,0,0,0,0,0,0,43,44,43,44,43,44,43,44,43,44,43,44,
0,0,0,0,0,0,0,0,0,0,0,0,41,0,0,0,0,0,0,0,0,0,0,0,0,0,0,0,0,61,0,0,0,0,0,0,0,0,0,0,0,0,0,0,0,0,0,0,0,0,0,0,0,0,0,0,0,0,0,0,0,0,0,0,0,0,0,0,0,0,0,0,0,0,0,0,0,42,0,0,0,0,0,0,0,0,50,51,50,51,50,51,50,51,50,51,50,51,
0,0,0,0,0,0,0,0,0,0,0,0,48,0,0,0,0,0,0,0,0,0,0,0,0,0,0,0,0,62,0,0,0,0,0,0,0,0,0,0,0,0,0,0,0,0,0,0,0,0,0,0,0,0,0,0,0,0,0,0,0,0,0,0,0,0,0,0,0,0,0,0,0,0,0,0,0,49,0,0,0,0,0,0,0,0,0,0,0,0,0,0,0,0,0,0,0,0,
0,0,0,0,0,0,0,0,0,0,0,0,41,0,0,0,0,0,0,42,0,0,41,0,0,0,0,0,0,0,0,0,0,0,0,0,0,0,0,0,0,0,0,0,0,0,0,0,0,0,0,0,0,0,0,0,0,0,0,0,0,0,0,0,0,0,0,0,0,42,0,0,0,0,0,0,0,0,0,0,0,0,0,0,0,0,0,0,0,0,0,0,0,0,0,0,0,0,
0,0,0,0,0,0,0,0,0,0,0,0,48,0,0,0,0,0,0,49,0,0,48,0,0,0,0,0,0,0,0,0,0,0,0,0,0,0,0,0,0,0,0,0,0,0,0,0,0,0,0,0,0,0,0,0,0,0,0,0,0,0,0,0,0,0,0,0,0,49,0,0,0,0,0,0,0,0,0,0,0,0,0,0,0,0,0,0,0,0,0,0,0,0,0,0,0,0,
0,0,0,0,0,0,0,0,0,0,0,0,41,0,0,0,0,0,0,42,0,0,41,0,0,0,0,0,0,0,0,0,0,0,0,0,0,0,0,0,0,0,0,0,0,0,0,0,0,0,0,0,0,0,0,0,0,0,0,0,0,0,0,42,0,0,0,0,0,0,0,0,0,0,0,0,0,0,0,0,0,0,0,0,0,0,0,0,0,0,0,0,0,0,0,0,0,0,
0,0,0,0,0,0,0,0,0,0,0,0,48,0,115,116,117,0,0,49,0,0,48,0,0,0,0,0,43,44,43,44,43,44,0,0,0,0,0,0,0,0,0,0,0,0,0,0,0,0,0,0,0,0,0,0,0,0,0,0,0,0,0,49,0,0,0,0,0,0,0,0,0,0,0,0,0,0,0,0,0,0,0,0,0,0,0,0,0,0,0,0,0,0,0,0,0,0,
0,0,0,0,0,0,0,0,0,0,0,0,41,133,118,119,120,135,0,0,0,0,0,0,0,0,0,42,50,51,50,51,50,51,41,0,0,0,0,0,0,0,0,0,0,0,0,0,0,0,0,0,0,0,0,0,0,0,0,42,0,0,0,0,0,0,0,0,0,0,0,0,0,0,0,0,0,0,0,0,0,0,0,0,0,0,0,0,0,0,0,0,0,0,0,0,0,0,
0,0,0,0,0,0,0,0,0,0,0,0,48,0,121,122,123,0,0,0,0,0,0,0,0,0,0,49,0,0,0,0,0,0,48,0,0,0,0,0,0,0,0,0,0,0,0,0,0,0,0,0,0,0,0,0,0,0,0,49,0,0,0,0,0,0,0,0,0,0,0,0,0,0,0,0,0,0,0,0,0,0,0,0,0,0,0,0,0,0,0,0,0,0,0,0,0,0,
0,0,0,0,0,0,0,0,0,0,0,0,41,134,124,125,126,136,0,0,0,0,0,0,0,0,0,42,0,0,0,0,0,0,41,0,0,0,0,0,0,0,0,0,0,0,0,0,0,0,0,0,0,0,0,0,0,0,0,0,0,0,0,0,0,42,0,0,0,0,0,0,0,0,0,0,0,0,0,0,0,0,0,0,0,0,0,0,0,0,0,0,0,0,0,0,0,0,
0,0,0,0,0,0,0,0,0,0,0,0,48,0,127,128,129,137,0,0,0,0,0,0,0,0,0,49,0,0,0,0,0,0,48,0,0,0,0,0,0,0,0,0,0,0,0,0,43,44,43,44,43,44,43,44,43,44,43,44,43,44,43,44,0,49,0,0,0,0,0,0,0,0,0,0,0,0,0,0,0,0,0,0,0,0,0,0,0,0,0,0,0,0,0,0,0,0,
0,0,0,0,0,0,0,0,0,0,0,0,41,0,130,131,132,141,0,0,0,0,0,0,0,0,0,42,0,0,0,0,0,0,41,0,0,0,0,0,0,0,0,0,0,0,0,42,50,51,50,51,50,51,50,51,50,51,50,51,50,51,50,51,41,42,0,0,0,0,0,0,0,0,0,0,0,0,0,0,0,0,0,0,0,0,0,0,0,0,0,0,0,0,0,0,0,0,
0,0,0,0,0,0,0,0,0,0,0,0,48,44,43,44,138,139,0,0,0,0,0,0,0,0,0,49,0,0,0,0,0,0,48,44,43,44,43,44,43,44,43,44,43,44,43,49,0,0,0,0,0,0,0,0,0,0,0,0,0,0,0,0,48,49,0,0,0,0,0,0,0,0,0,0,0,0,0,0,0,0,0,0,0,0,0,0,0,0,0,0,0,0,0,0,0,0,
0,0,0,0,0,0,0,0,0,0,0,0,50,51,50,51,41,0,0,0,0,0,0,0,0,0,0,42,0,0,0,0,0,0,50,51,50,51,50,51,50,51,50,51,50,51,50,51,0,0,0,0,0,0,0,0,0,0,0,0,0,0,0,0,41,42,0,0,0,0,0,0,0,0,0,0,0,0,0,0,0,0,0,0,0,0,0,0,0,0,0,0,0,0,0,0,0,0,
0,0,0,0,0,0,0,0,0,0,0,0,0,0,0,0,48,0,0,0,0,56,57,58,55,0,0,49,0,0,0,0,0,0,0,0,0,0,0,0,0,0,0,0,0,0,0,0,0,0,0,0,0,0,0,0,0,0,0,0,0,0,0,0,48,49,0,0,0,0,0,0,0,0,0,0,0,0,0,0,0,0,0,0,0,0,0,0,0,0,0,0,0,0,0,0,0,0,
0,0,0,0,0,0,0,0,0,0,0,0,0,0,0,0,41,0,0,0,0,56,57,58,55,0,0,42,0,0,0,0,0,0,0,0,0,0,0,0,0,0,0,0,0,0,0,0,0,0,0,0,0,0,0,0,0,0,0,0,0,0,0,0,41,42,0,0,0,0,0,0,0,0,0,0,0,0,0,0,0,0,0,0,0,0,0,0,0,0,0,0,0,0,0,0,0,0,
0,0,0,0,0,0,0,0,0,0,0,0,0,0,0,0,48,0,0,0,0,0,0,0,0,0,0,49,0,0,0,0,0,0,0,0,0,0,0,0,0,0,0,0,0,0,0,0,0,0,0,0,0,0,0,0,0,0,0,0,0,0,0,0,48,49,0,0,0,0,0,0,0,0,0,0,0,0,0,0,0,0,0,0,0,0,0,0,0,0,0,0,0,0,0,0,0,0,
0,0,0,0,0,0,0,0,0,0,0,0,0,0,0,0,41,0,0,0,0,0,0,0,0,0,0,42,0,0,0,0,0,0,0,0,0,0,0,0,0,0,0,0,0,0,0,0,0,0,0,0,0,0,0,0,0,0,0,0,0,0,0,0,41,42,0,0,0,0,0,0,0,0,0,0,0,0,0,0,0,0,0,0,0,0,0,0,0,0,0,0,0,0,0,0,0,0,
0,0,0,0,0,0,0,0,0,0,0,0,0,0,0,0,48,0,0,0,0,0,0,0,0,0,0,49,0,0,0,0,0,0,0,0,0,0,0,0,0,0,0,0,0,0,0,0,0,0,0,0,0,0,0,0,0,0,0,0,0,0,0,0,48,49,0,0,0,0,0,0,0,0,0,0,0,0,0,0,0,0,0,0,0,0,0,0,0,0,0,0,0,0,0,0,0,0
  </data>
 </layer>
 <objectgroup id="4" name="events"/>
</map>
