<?xml version="1.0" encoding="UTF-8"?>
<map version="1.10" tiledversion="1.10.2" orientation="orthogonal" renderorder="right-down" compressionlevel="0" width="46" height="34" tilewidth="32" tileheight="32" infinite="0" nextlayerid="4" nextobjectid="1">
 <tileset firstgid="1" source="route-39.tsx"/>
 <layer id="1" name="lower" width="46" height="34">
  <data encoding="csv">
5,5,5,5,5,5,14,15,15,15,15,15,15,15,15,15,15,15,17,5,5,7,5,68,60,59,59,66,5,5,5,21,5,5,5,5,5,5,5,5,5,5,5,5,5,5,
5,5,5,5,5,5,19,5,5,5,5,5,5,5,5,5,5,5,5,20,5,5,4,64,59,59,59,66,5,5,5,21,5,5,5,5,5,5,5,5,5,5,5,5,5,5,
5,5,5,5,5,5,19,33,23,25,25,22,5,5,5,5,5,5,5,5,5,7,5,64,59,59,59,66,5,5,5,21,5,5,5,5,5,5,5,5,5,5,5,5,5,5,
5,5,5,5,5,5,19,33,21,5,5,19,5,1,1,1,5,7,5,7,5,5,68,60,59,59,59,66,5,5,5,21,5,5,5,5,5,5,5,5,5,5,5,5,5,5,
5,5,5,5,5,5,19,33,21,5,5,19,5,1,5,1,5,5,4,5,68,65,60,59,59,59,59,66,5,5,5,21,5,5,5,5,5,5,5,5,5,5,5,5,5,5,
5,5,5,5,5,5,19,33,21,5,5,19,5,1,1,1,5,7,5,5,64,59,59,59,59,59,59,66,5,5,5,21,5,5,5,5,5,5,5,5,5,5,5,5,5,5,
5,5,5,5,5,5,19,33,21,5,5,19,5,1,1,1,5,5,4,5,64,59,62,67,67,67,67,70,5,5,5,21,5,5,5,5,5,5,5,5,5,5,5,5,5,5,
5,5,5,5,5,5,19,33,5,5,5,19,5,1,1,1,5,5,5,5,64,59,66,5,5,5,5,5,5,5,5,21,5,5,5,5,5,5,5,5,5,5,5,5,5,5,
5,5,5,5,5,5,19,33,5,5,5,19,5,1,1,1,5,7,7,5,64,59,66,7,5,7,5,7,5,5,5,21,5,5,5,5,5,5,5,5,5,5,5,5,5,5,
5,5,5,5,5,5,19,33,5,5,5,19,5,1,1,1,5,5,5,4,64,59,66,5,4,5,4,5,5,5,5,21,5,5,5,5,5,5,5,5,5,5,5,5,5,5,
5,5,5,5,5,5,19,33,5,5,5,19,5,1,1,1,5,7,7,5,64,59,66,7,5,7,5,7,5,5,5,18,15,15,16,5,5,5,5,5,5,5,5,5,5,5,
5,5,5,5,5,5,19,33,5,5,5,19,5,1,1,1,5,7,5,4,64,59,66,5,4,5,4,5,5,5,20,5,5,5,21,5,5,5,5,5,5,5,5,5,5,5,
5,5,5,5,5,5,19,33,5,5,5,19,5,1,1,1,5,5,5,5,64,59,66,7,5,7,5,5,5,5,23,25,22,5,21,4,5,5,5,5,5,5,5,5,5,5,
5,5,5,5,5,5,19,33,5,5,5,19,5,1,1,1,5,7,5,7,64,59,66,5,5,7,5,7,5,5,21,4,19,5,21,5,5,5,5,5,5,5,5,5,5,5,
5,5,5,5,5,5,19,33,5,5,5,19,5,1,1,1,5,5,4,5,64,59,66,7,5,7,4,5,5,5,21,5,19,5,21,4,5,5,5,5,5,5,5,5,5,5,
5,5,5,5,5,5,19,33,5,5,5,19,5,1,1,1,72,7,5,7,64,59,66,5,4,5,5,7,5,5,18,15,17,5,21,5,5,5,5,5,5,5,5,5,5,5,
0,0,0,0,0,0,19,33,0,5,5,19,5,1,1,1,5,5,5,5,64,59,66,7,5,7,4,5,5,20,5,5,5,5,18,15,16,0,0,0,0,0,0,0,0,0,
0,0,0,0,0,0,19,33,0,5,5,19,5,1,1,1,7,68,65,65,60,59,66,5,4,5,5,4,5,23,25,22,5,21,5,5,21,0,0,0,0,0,0,0,0,0,
0,0,0,0,0,0,19,33,0,0,5,19,5,1,1,1,5,64,59,59,59,59,66,5,5,4,5,5,5,18,15,17,5,18,15,5,21,0,0,0,0,0,0,0,0,0,
0,0,0,0,0,0,19,33,0,0,5,19,5,1,1,1,7,64,59,62,67,67,70,5,6,5,3,5,5,5,5,5,21,5,5,5,21,0,0,0,0,0,0,0,0,0,
0,0,0,0,0,0,19,33,0,0,0,19,5,7,5,7,5,64,59,66,5,6,5,6,5,6,5,6,5,5,5,5,21,5,5,5,21,5,5,5,5,5,5,5,5,5,
0,0,0,0,0,0,19,33,0,0,0,5,27,5,5,5,5,64,59,66,6,5,3,5,3,5,3,5,7,5,7,5,21,5,5,5,21,7,5,7,5,7,5,5,5,5,
0,0,0,0,0,0,19,33,0,0,0,5,25,25,25,22,5,64,59,66,5,3,5,6,5,3,7,5,7,4,5,5,21,5,5,5,21,5,4,5,4,5,4,5,4,5,
0,0,0,0,0,0,19,33,0,0,0,0,0,0,0,19,5,64,59,61,65,65,65,69,7,5,5,4,5,5,5,5,21,5,5,5,21,0,0,0,0,0,0,0,0,0,
0,0,0,0,0,0,19,33,0,0,0,0,0,0,0,19,5,64,59,59,59,59,59,66,5,4,5,5,5,5,5,5,21,5,5,5,21,0,0,0,0,0,0,0,0,0,
0,0,0,0,0,0,19,33,0,0,0,0,0,0,0,19,5,71,67,67,63,59,59,61,69,5,5,23,25,25,25,25,26,5,5,5,21,0,0,0,0,0,0,0,0,0,
0,0,0,0,0,0,19,5,15,15,15,15,15,15,15,17,5,5,5,5,64,59,59,59,66,5,5,21,5,5,5,5,5,5,5,5,21,5,5,5,5,5,5,5,5,5,
0,0,0,0,0,0,19,20,20,20,20,20,20,20,20,20,20,20,20,5,64,59,59,59,66,5,23,5,20,20,20,20,20,20,20,5,21,7,5,7,5,7,5,7,5,7,
5,5,5,5,5,5,24,25,25,25,25,25,25,25,25,25,25,22,5,5,64,59,59,59,66,5,21,5,5,23,25,25,25,25,25,25,26,5,4,5,4,5,4,5,4,5,
5,5,5,5,5,5,5,5,5,5,5,5,5,5,5,5,5,19,5,5,64,59,59,59,66,5,21,5,5,21,0,0,0,0,0,0,0,0,0,0,0,0,0,0,0,0,
25,25,25,25,25,25,25,25,25,25,25,25,25,25,25,25,22,19,5,5,64,59,59,59,66,5,21,5,5,21,0,0,0,0,0,0,0,0,0,0,0,0,0,0,0,0,
0,0,0,0,0,0,0,0,0,0,0,0,0,0,0,0,19,19,0,5,71,67,63,59,66,5,5,20,5,21,0,0,0,0,0,0,0,0,0,0,0,0,0,0,0,0,
0,0,0,0,0,0,0,0,0,0,0,0,0,0,0,0,0,19,0,5,7,5,71,67,70,5,5,5,23,26,5,5,5,5,5,5,5,5,5,5,5,5,5,5,5,5,
0,0,0,0,0,0,0,0,0,0,0,0,0,0,0,0,0,19,0,5,7,7,5,5,7,5,5,5,21,5,5,5,5,5,5,5,5,5,5,5,5,5,5,5,5,5
  </data>
 </layer>
 <layer id="2" name="middle" width="46" height="34">
  <data encoding="csv">
44,43,44,43,44,43,45,57,58,57,58,57,58,57,58,57,58,57,58,33,33,0,0,0,0,0,0,0,32,32,32,43,44,43,44,43,44,43,44,43,44,43,44,43,44,43,
41,40,41,40,41,40,42,12,36,36,36,36,36,36,36,36,36,36,36,37,33,0,0,0,0,0,0,0,32,32,32,40,41,40,41,40,41,40,41,40,41,40,41,40,41,40,
44,43,44,43,44,43,45,47,0,0,0,0,12,36,36,36,36,36,36,36,37,0,0,0,0,0,0,0,32,32,32,43,44,43,44,43,44,43,44,43,44,43,44,43,44,43,
41,40,41,40,41,40,42,54,40,41,40,42,33,0,38,0,34,0,0,0,0,0,0,0,0,0,0,0,32,32,32,40,41,40,41,40,41,40,41,40,41,40,41,40,41,40,
44,43,44,43,44,43,45,47,43,44,43,45,33,0,39,0,34,0,0,0,0,0,0,0,0,0,0,0,32,32,32,43,44,43,44,43,44,43,44,43,44,43,44,43,44,43,
41,40,41,40,41,40,42,54,40,41,40,42,33,0,0,0,34,0,0,0,0,0,0,0,0,0,0,0,32,32,32,40,41,40,41,40,41,40,41,40,41,40,41,40,41,40,
44,43,44,43,44,43,45,47,43,44,43,45,33,0,0,0,34,0,0,0,0,0,0,0,0,0,0,0,32,32,32,43,44,43,44,43,44,43,44,43,44,43,44,43,44,43,
41,40,41,40,41,40,42,54,40,41,40,42,33,0,0,0,34,9,9,11,0,0,0,10,9,9,9,9,32,32,32,40,41,40,41,40,41,40,41,40,41,40,41,40,41,40,
44,43,44,43,44,43,45,47,43,44,43,45,33,0,0,0,34,0,0,0,0,0,0,0,0,0,0,0,32,32,32,43,44,43,44,43,44,43,44,43,44,43,44,43,44,43,
41,40,41,40,41,40,42,54,40,41,40,42,33,0,0,0,34,0,2,0,0,0,0,0,0,0,0,0,32,32,32,51,50,51,50,40,41,40,41,40,41,40,41,40,41,40,
44,43,44,43,44,43,45,47,43,44,43,45,33,0,0,0,34,0,0,0,0,0,0,0,0,0,0,0,32,32,32,57,58,57,58,43,44,43,44,43,44,43,44,43,44,43,
41,40,41,40,41,40,42,54,40,41,40,42,33,0,0,0,34,0,0,0,0,0,0,0,0,0,0,0,32,32,35,36,36,13,0,40,41,40,41,40,41,40,41,40,41,40,
44,43,44,43,44,43,45,47,43,44,43,45,33,0,0,0,34,9,9,11,0,0,0,10,9,9,9,9,32,32,0,0,0,32,0,43,44,43,44,43,44,43,44,43,44,43,
41,40,41,40,41,40,42,54,40,41,40,42,33,0,0,0,34,0,0,0,0,0,0,0,0,0,0,0,32,32,0,0,0,32,0,40,41,40,41,40,41,40,41,40,41,40,
44,43,44,43,44,43,45,47,43,44,43,45,33,0,0,0,34,0,0,0,0,0,0,0,0,0,0,0,32,32,51,52,0,32,0,43,44,43,44,43,44,43,44,43,44,43,
41,40,41,40,41,40,42,54,40,41,40,42,33,0,0,0,34,0,0,0,0,0,0,0,0,0,0,0,32,32,57,58,0,32,0,51,50,40,41,40,41,40,41,40,41,40,
44,43,44,43,44,43,45,47,43,44,43,45,33,0,0,0,8,9,9,11,0,0,0,10,9,9,9,9,32,35,36,36,13,32,0,57,58,43,44,43,44,43,44,43,44,43,
41,40,41,40,41,40,42,54,40,41,40,42,33,0,0,0,0,0,0,0,0,0,0,0,0,0,0,0,32,0,0,0,32,35,36,13,0,40,41,40,41,40,41,40,41,40,
44,43,44,43,44,43,45,47,43,44,43,45,33,0,0,0,0,0,0,0,0,0,0,0,0,0,0,0,32,0,0,0,32,0,0,32,0,43,44,43,44,43,44,43,44,43,
41,40,41,40,41,40,42,54,40,41,40,42,33,0,0,0,0,0,0,0,0,0,0,0,0,0,0,0,35,36,36,13,35,36,13,32,0,51,50,51,50,51,50,51,50,51,
44,43,44,43,44,43,45,47,43,44,43,45,33,0,0,0,0,0,0,0,0,0,0,0,0,0,0,0,0,2,0,32,0,0,32,32,0,57,58,57,58,57,58,57,58,57,
41,40,41,40,41,40,42,54,40,41,40,42,48,30,30,30,31,0,0,0,0,0,0,0,0,0,0,0,0,0,0,32,51,52,32,32,48,49,48,49,48,49,48,49,48,49,
44,43,44,43,44,43,45,47,43,44,43,44,0,0,0,0,33,0,0,0,0,0,0,0,0,0,0,0,0,0,0,32,57,58,32,32,55,56,55,56,55,56,55,56,55,56,
41,40,41,40,41,40,42,54,40,41,40,41,40,41,40,42,33,0,0,0,0,0,0,0,0,0,0,0,0,29,30,28,0,0,32,32,40,41,40,41,40,41,40,41,40,41,
44,43,44,43,44,43,45,47,43,44,43,44,43,44,43,45,33,0,0,0,0,0,0,0,0,0,29,30,30,28,51,50,51,52,32,32,43,44,43,44,43,44,43,44,43,44,
41,40,41,40,41,40,42,54,51,50,51,50,51,50,51,52,33,0,0,0,0,0,0,0,0,0,32,0,0,0,57,58,57,58,32,32,51,50,51,50,51,50,51,50,51,50,
44,43,44,43,44,43,45,33,57,58,57,58,57,58,57,58,27,30,30,31,0,0,0,0,0,29,28,29,30,30,30,30,30,30,28,32,57,58,57,58,57,58,57,58,57,58,
50,51,50,51,50,51,52,27,30,30,30,30,30,30,30,30,30,30,31,33,0,0,0,0,0,32,0,32,29,30,30,30,30,30,30,28,0,0,0,0,0,0,0,0,0,0,
58,57,58,57,58,57,58,0,0,0,0,0,0,0,0,0,0,0,33,33,0,0,0,0,0,32,0,32,32,0,0,0,0,0,0,0,0,0,0,0,0,0,0,0,0,0,
30,30,30,30,30,30,30,30,30,30,30,30,30,30,30,30,30,31,33,33,0,0,0,0,0,32,0,32,32,40,41,40,41,40,41,40,41,40,41,40,41,40,41,40,41,40,
0,0,0,0,0,0,0,0,0,0,0,0,0,0,0,0,0,33,33,33,0,0,0,0,0,32,29,28,32,43,44,43,44,43,44,43,44,43,44,43,44,43,44,43,44,43,
41,40,41,40,41,40,41,40,41,40,41,40,41,40,41,40,42,33,33,33,0,0,0,0,0,32,32,29,28,51,50,51,50,51,50,51,50,51,50,51,50,51,50,51,50,51,
44,43,44,43,44,43,44,43,44,43,44,43,44,43,44,43,45,33,33,33,0,0,0,0,0,32,32,32,0,57,58,57,58,57,58,57,58,57,58,57,58,57,58,57,58,57,
50,51,50,51,50,51,50,51,50,51,50,51,50,51,50,51,52,33,33,33,0,0,0,0,0,32,32,32,29,30,30,30,30,30,30,30,30,30,30,30,30,30,30,30,30,30
  </data>
 </layer>
 <layer id="3" name="upper" width="46" height="34">
  <data encoding="csv">
0,0,0,0,0,0,0,46,0,0,0,0,0,0,0,0,0,0,0,0,0,0,0,0,0,0,0,0,0,0,47,0,0,0,0,0,0,0,0,0,0,0,0,0,0,0,
0,0,0,0,0,0,0,53,48,49,48,49,0,0,0,0,0,0,0,0,0,0,0,0,0,0,0,0,0,0,54,0,0,0,0,0,0,0,0,0,0,0,0,0,0,0,
0,0,0,0,0,0,0,46,55,56,55,56,46,0,0,0,0,0,0,0,0,0,0,0,0,0,0,0,0,0,47,0,0,0,0,0,0,0,0,0,0,0,0,0,0,0,
0,0,0,0,0,0,0,53,0,0,0,0,53,0,0,0,0,0,0,0,0,0,0,0,0,0,0,0,0,0,54,0,0,0,0,0,0,0,0,0,0,0,0,0,0,0,
0,0,0,0,0,0,0,46,0,0,0,0,46,0,0,0,0,0,0,0,0,0,0,0,0,0,0,0,0,0,47,0,0,0,0,0,0,0,0,0,0,0,0,0,0,0,
0,0,0,0,0,0,0,53,0,0,0,0,53,0,0,0,0,0,0,0,0,0,0,0,0,0,0,0,0,0,54,0,0,0,0,0,0,0,0,0,0,0,0,0,0,0,
0,0,0,0,0,0,0,46,0,0,0,0,46,0,0,0,0,0,0,0,0,0,0,0,0,0,0,0,0,0,47,0,0,0,0,0,0,0,0,0,0,0,0,0,0,0,
0,0,0,0,0,0,0,53,0,0,0,0,53,0,0,0,8,0,0,0,0,0,0,0,0,0,0,0,0,0,54,0,0,0,0,0,0,0,0,0,0,0,0,0,0,0,
0,0,0,0,0,0,0,46,0,0,0,0,46,0,0,0,0,0,0,0,0,0,0,0,0,0,0,0,0,0,47,0,0,0,0,0,0,0,0,0,0,0,0,0,0,0,
0,0,0,0,0,0,0,53,0,0,0,0,53,0,0,0,0,0,0,0,0,0,0,0,0,0,0,0,0,0,54,0,0,0,0,0,0,0,0,0,0,0,0,0,0,0,
0,0,0,0,0,0,0,46,0,0,0,0,46,0,0,0,0,0,0,0,0,0,0,0,0,0,0,0,0,0,0,0,0,0,47,0,0,0,0,0,0,0,0,0,0,0,
0,0,0,0,0,0,0,53,0,0,0,0,53,0,0,0,0,0,0,0,0,0,0,0,0,0,0,0,0,0,0,0,0,0,54,0,0,0,0,0,0,0,0,0,0,0,
0,0,0,0,0,0,0,46,0,0,0,0,46,0,0,0,8,0,0,0,0,0,0,0,0,0,0,0,0,0,48,49,0,0,47,0,0,0,0,0,0,0,0,0,0,0,
0,0,0,0,0,0,0,53,0,0,0,0,53,0,0,0,0,0,0,0,0,0,0,0,0,0,0,0,0,47,55,56,46,0,54,0,0,0,0,0,0,0,0,0,0,0,
0,0,0,0,0,0,0,46,0,0,0,0,46,0,0,0,0,0,0,0,0,0,0,0,0,0,0,0,0,54,0,0,53,0,47,0,0,0,0,0,0,0,0,0,0,0,
0,0,0,0,0,0,0,53,0,0,0,0,53,0,0,0,0,0,0,0,0,0,0,0,0,0,0,0,0,0,0,0,0,0,54,0,0,0,0,0,0,0,0,0,0,0,
0,0,0,0,0,0,0,46,0,0,0,0,46,0,0,0,0,0,0,0,0,0,0,0,0,0,0,0,0,0,0,0,0,0,0,0,47,0,0,0,0,0,0,0,0,0,
0,0,0,0,0,0,0,53,0,0,0,0,53,0,0,0,0,0,0,0,0,0,0,0,0,0,0,0,0,0,0,0,0,0,0,0,54,0,0,0,0,0,0,0,0,0,
0,0,0,0,0,0,0,46,0,0,0,0,46,0,0,0,0,0,0,0,0,0,0,0,0,0,0,0,0,0,0,0,0,0,0,0,47,0,0,0,0,0,0,0,0,0,
0,0,0,0,0,0,0,53,0,0,0,0,53,0,0,0,0,0,0,0,0,0,0,0,0,0,0,0,0,0,0,0,48,49,0,0,54,0,0,0,0,0,0,0,0,0,
0,0,0,0,0,0,0,46,0,0,0,0,46,0,0,0,0,0,0,0,0,0,0,0,0,0,0,0,0,0,0,47,55,56,46,0,0,0,0,0,0,0,0,0,0,0,
0,0,0,0,0,0,0,53,0,0,0,0,53,49,48,49,0,0,0,0,0,0,0,0,0,0,0,0,0,0,0,54,0,0,53,0,0,0,0,0,0,0,0,0,0,0,
0,0,0,0,0,0,0,46,0,0,0,0,55,56,55,56,46,0,0,0,0,0,0,0,0,0,0,0,0,0,48,49,48,49,0,47,0,0,0,0,0,0,0,0,0,0,
0,0,0,0,0,0,0,53,0,0,0,0,0,0,0,0,53,0,0,0,0,0,0,0,0,0,0,0,0,47,55,56,55,56,46,54,0,0,0,0,0,0,0,0,0,0,
0,0,0,0,0,0,0,46,0,0,0,0,0,0,0,0,46,0,0,0,0,0,0,0,0,0,0,0,0,54,0,0,0,0,53,47,0,0,0,0,0,0,0,0,0,0,
0,0,0,0,0,0,0,53,0,0,0,0,0,0,0,0,53,0,0,0,0,0,0,0,0,0,0,0,0,0,0,0,0,0,0,54,0,0,0,0,0,0,0,0,0,0,
0,0,0,0,0,0,0,46,0,0,0,0,0,0,0,0,0,0,0,0,0,0,0,0,0,0,0,0,0,0,0,0,0,0,0,0,0,0,0,0,0,0,0,0,0,0,
0,0,0,0,0,0,0,53,0,0,0,0,0,0,0,0,0,0,0,0,0,0,0,0,0,0,0,0,0,48,49,48,49,48,49,48,49,48,49,48,49,48,49,48,49,48,
0,0,0,0,0,0,0,0,0,0,0,0,0,0,0,0,0,0,0,0,0,0,0,0,0,0,0,0,47,55,56,55,56,55,56,55,56,55,56,55,56,55,56,55,56,55,
49,48,49,48,49,48,49,48,49,48,49,48,49,48,49,48,49,0,0,0,0,0,0,0,0,0,0,0,54,0,0,0,0,0,0,0,0,0,0,0,0,0,0,0,0,0,
56,55,56,55,56,55,56,55,56,55,56,55,56,55,56,55,56,46,0,0,0,0,0,0,0,0,0,0,47,0,0,0,0,0,0,0,0,0,0,0,0,0,0,0,0,0,
0,0,0,0,0,0,0,0,0,0,0,0,0,0,0,0,0,53,0,0,0,0,0,0,0,0,0,0,54,0,0,0,0,0,0,0,0,0,0,0,0,0,0,0,0,0,
0,0,0,0,0,0,0,0,0,0,0,0,0,0,0,0,0,46,0,0,0,0,0,0,0,0,0,0,0,0,0,0,0,0,0,0,0,0,0,0,0,0,0,0,0,0,
0,0,0,0,0,0,0,0,0,0,0,0,0,0,0,0,0,53,0,0,0,0,0,0,0,0,0,0,0,48,49,48,49,48,49,48,49,48,49,48,49,48,49,48,49,48
  </data>
 </layer>
 <objectgroup id="4" name="events"/>
</map>
