<?xml version="1.0" encoding="UTF-8"?>
<map version="1.10" tiledversion="1.10.2" orientation="orthogonal" renderorder="right-down" compressionlevel="0" width="76" height="40" tilewidth="32" tileheight="32" infinite="0" nextlayerid="4" nextobjectid="1">
 <tileset firstgid="1" source="route-11.tsx"/>
 <layer id="1" name="lower" width="76" height="40">
  <data encoding="csv">
43,43,43,43,43,43,44,3,3,3,3,3,2,2,2,2,2,2,2,2,2,2,2,2,2,2,2,2,2,2,2,2,2,2,2,2,2,2,2,2,2,2,2,2,2,2,2,2,2,2,2,2,2,2,4,4,4,4,3,3,3,3,3,3,3,3,199,194,194,196,200,200,195,196,3,3,
43,43,43,43,43,43,44,3,3,3,3,3,2,2,2,2,2,2,2,2,2,2,2,2,2,2,2,2,2,2,2,2,2,2,2,2,2,2,2,2,2,2,2,2,2,2,2,2,2,2,2,2,2,2,2,2,2,2,2,2,3,3,3,3,3,3,199,194,194,194,194,194,194,194,3,3,
43,43,43,43,43,43,44,3,3,3,3,3,2,2,2,2,2,2,2,2,2,2,2,2,2,2,2,2,2,2,2,2,2,2,2,2,2,2,2,2,2,2,2,2,2,2,2,2,2,2,2,2,2,2,2,2,2,2,2,2,3,3,3,3,3,3,199,194,194,194,194,194,194,194,3,3,
43,43,43,43,43,43,44,3,3,3,3,3,2,2,2,2,2,2,2,38,39,39,39,39,39,39,39,39,39,39,39,39,39,39,39,39,39,39,39,40,2,2,2,2,2,38,39,39,39,39,39,39,39,40,2,2,2,2,2,2,3,3,3,3,3,3,3,3,3,3,3,3,194,194,3,3,
43,43,43,43,43,43,44,3,3,3,3,3,2,2,2,2,2,2,2,45,46,46,46,46,46,46,46,46,46,46,46,46,46,46,46,46,46,46,46,47,2,2,2,2,2,45,46,46,46,46,46,46,46,47,2,2,2,2,2,2,3,3,3,3,3,3,3,3,3,3,3,3,194,197,202,202,
43,43,43,43,43,43,44,3,3,3,3,3,2,2,2,2,2,2,2,38,39,39,39,39,39,39,39,39,39,39,39,39,39,39,39,39,39,39,39,40,2,2,2,2,2,38,39,39,39,39,39,39,39,40,2,2,2,2,2,2,3,3,3,3,3,3,3,3,194,194,3,3,194,201,11,12,
43,43,43,43,43,43,44,3,3,3,3,3,2,2,2,2,2,2,2,42,43,43,43,43,43,43,43,43,43,43,43,43,43,43,43,43,43,43,43,44,2,2,2,2,2,42,43,43,43,43,43,43,43,44,2,2,2,2,2,2,3,3,3,3,3,3,3,3,194,194,3,3,194,201,10,3,
43,43,43,43,43,43,44,2,3,3,3,3,2,2,2,2,2,2,2,45,46,46,46,46,46,46,46,46,46,46,46,46,46,46,46,46,46,46,46,47,2,2,2,2,2,45,46,46,46,46,46,46,46,47,2,2,2,2,2,2,3,3,3,3,3,3,3,3,194,194,3,3,194,201,10,2,
43,43,43,43,43,43,44,3,3,3,3,3,2,2,2,2,2,2,2,38,39,39,39,39,39,39,39,39,39,39,39,39,39,39,39,39,39,39,39,40,2,2,2,2,2,38,39,39,39,39,39,39,39,40,2,2,2,2,2,2,3,3,3,3,3,3,3,3,194,197,3,3,3,3,10,2,
43,43,43,43,43,43,44,3,3,3,3,3,2,2,2,2,2,2,2,42,43,43,43,43,43,43,43,43,43,43,43,43,43,43,43,43,43,43,43,44,2,2,2,2,2,42,43,43,43,43,43,43,43,44,2,2,2,2,2,2,3,3,3,3,3,3,3,3,194,201,9,9,3,3,8,7,
43,43,43,43,43,43,44,3,2,3,3,3,2,2,2,2,2,2,2,45,46,46,46,46,46,46,46,46,46,46,46,46,46,46,46,46,46,46,46,47,2,2,2,2,2,45,46,46,46,46,46,46,46,47,2,2,2,2,2,2,3,3,3,3,3,3,3,3,194,201,9,9,199,196,200,200,
43,43,41,46,46,46,47,2,3,3,3,3,3,3,3,3,3,3,3,3,3,3,3,3,3,3,3,3,3,3,3,3,3,3,3,3,3,3,3,3,3,3,3,3,3,3,3,3,3,3,3,3,3,3,3,3,3,3,3,3,3,3,3,3,3,3,3,3,194,196,200,200,195,194,194,194,
43,43,44,1,3,3,2,3,3,2,3,3,3,2,2,14,15,15,15,15,15,15,15,15,15,15,15,15,15,15,15,15,16,6,6,6,6,14,15,15,15,15,15,15,15,15,15,15,15,15,15,16,6,6,6,2,3,2,3,2,3,3,3,3,3,3,48,3,194,194,194,194,194,194,194,194,
43,43,44,1,3,3,3,3,3,3,3,3,4,4,4,20,21,21,21,21,21,21,21,21,21,21,21,21,21,21,21,21,22,6,6,6,6,20,21,21,21,21,21,21,21,21,21,21,21,21,21,22,6,6,6,3,4,3,4,3,3,3,3,3,3,3,52,3,3,3,3,3,3,3,3,3,
43,43,44,1,2,3,3,3,2,2,3,3,2,3,3,20,21,17,26,26,26,26,26,26,26,26,26,26,26,26,18,21,22,6,6,6,6,20,21,17,26,26,26,26,26,26,26,26,26,18,21,22,6,6,6,2,3,2,3,2,3,3,3,3,3,3,55,43,43,3,3,3,3,3,3,3,
46,46,47,1,3,3,3,3,3,3,3,3,5,4,2,20,21,22,6,6,6,6,6,6,6,6,6,6,6,6,20,21,22,6,6,6,6,20,21,22,6,6,6,6,6,6,6,6,6,25,26,27,6,6,6,3,4,3,4,3,3,3,3,3,3,3,58,43,43,199,194,194,3,3,194,201,
3,2,3,1,3,3,3,3,3,3,3,3,2,2,3,20,21,22,6,6,6,6,6,6,6,6,6,6,6,6,20,21,22,6,6,6,6,20,21,22,6,6,6,6,6,6,6,6,6,6,6,6,6,6,6,2,3,2,3,2,3,3,3,3,3,3,203,200,200,195,194,194,3,3,194,196,
5,5,5,5,3,3,3,3,3,3,3,3,5,4,2,20,21,22,6,6,6,6,14,15,15,15,15,15,15,15,24,21,22,6,6,6,6,20,21,23,15,15,15,15,15,15,15,16,6,6,6,6,6,6,6,3,5,5,5,5,3,3,3,3,3,3,199,194,194,194,194,194,3,3,194,194,
2,3,2,3,2,3,2,3,2,2,14,15,15,15,15,24,21,22,6,6,6,6,20,21,21,21,21,21,21,21,21,21,22,6,6,6,6,20,21,21,21,21,21,21,21,21,21,22,6,6,6,6,6,6,6,4,3,2,2,5,5,5,5,5,5,5,206,202,202,202,202,198,3,3,194,194,
4,5,4,5,4,5,4,5,4,5,20,21,21,21,21,21,21,22,6,6,6,6,20,21,17,26,26,26,26,26,18,21,22,6,6,6,6,20,21,17,26,26,26,26,26,18,21,22,6,6,6,6,14,15,15,16,2,28,29,29,2,3,2,3,2,2,2,3,2,3,2,3,3,3,194,194,
34,34,34,34,34,34,34,34,35,5,25,26,26,26,26,18,21,23,15,15,15,15,24,21,22,6,6,6,6,6,20,21,23,15,15,15,15,24,21,22,6,6,6,6,6,20,21,22,6,6,6,6,20,21,21,22,3,30,31,31,3,4,3,4,3,5,4,3,3,4,3,4,3,3,194,194,
200,200,200,200,200,200,200,204,36,4,4,4,4,4,3,20,21,21,21,21,21,21,21,21,22,6,6,6,6,6,20,21,21,21,21,21,21,21,21,22,6,6,6,6,6,20,21,22,6,6,6,6,20,21,17,27,5,32,33,33,2,3,2,3,2,2,2,3,2,3,2,3,3,3,194,194,
194,194,194,194,194,194,194,201,36,5,4,5,4,5,5,25,26,26,26,26,26,26,26,26,27,6,6,6,6,6,25,26,26,26,26,26,26,18,21,22,6,6,6,6,6,20,21,22,6,6,6,6,20,21,22,2,5,2,5,5,5,5,5,5,5,5,203,200,200,200,200,204,3,3,194,194,
202,202,202,202,202,202,202,205,36,2,5,2,5,2,4,6,6,6,6,6,6,6,6,6,6,6,6,6,6,6,6,6,6,6,6,6,6,20,21,22,6,6,6,6,6,20,21,22,6,6,6,6,20,21,22,2,3,2,3,2,3,3,3,3,3,3,199,194,194,194,194,196,3,3,194,194,
12,12,12,12,12,12,12,12,37,3,3,3,1,1,5,6,6,6,6,6,6,6,6,6,6,6,6,6,6,6,6,6,6,6,6,6,6,20,21,23,15,15,15,15,15,24,21,22,6,6,6,6,20,21,22,3,4,3,4,3,3,3,3,3,3,3,199,194,194,194,194,194,3,3,194,194,
3,3,3,3,3,3,3,3,3,3,3,3,4,2,3,6,6,6,6,6,6,6,6,6,6,6,6,6,6,6,6,6,6,6,6,6,6,20,21,21,21,21,21,21,21,21,21,22,6,6,6,6,20,21,22,2,3,2,3,2,3,4,3,4,3,5,199,194,194,194,194,194,3,3,194,194,
3,3,3,3,3,3,3,3,3,3,3,3,3,3,5,14,15,16,6,6,6,6,6,6,6,6,6,6,6,6,6,6,6,6,6,6,6,20,21,17,26,26,26,26,26,18,21,22,6,6,6,6,20,21,22,3,4,3,4,3,2,3,2,3,2,2,199,194,194,194,194,194,3,3,194,194,
3,3,3,3,3,3,3,3,3,3,3,3,3,3,2,20,21,23,15,15,15,15,15,15,15,15,15,15,15,15,15,15,15,15,15,15,15,24,21,22,6,6,6,6,6,20,21,23,15,15,15,15,24,21,22,2,3,2,3,2,5,5,5,5,5,5,199,194,194,194,194,194,3,3,194,194,
3,3,3,3,3,3,3,3,3,3,3,3,3,3,2,20,21,21,21,21,21,21,21,21,21,21,21,21,21,21,21,21,21,21,21,21,21,21,21,22,6,6,6,6,6,20,21,21,21,21,21,21,21,21,22,3,4,3,4,3,3,3,3,3,3,3,199,194,194,194,194,194,3,3,194,194,
3,3,3,3,3,3,3,3,3,3,3,3,3,3,4,25,26,26,26,26,26,26,26,26,26,26,26,26,26,26,26,26,26,26,26,26,26,26,26,27,6,6,6,6,6,25,26,26,26,26,26,26,26,26,27,5,4,5,4,5,3,3,3,3,3,3,199,194,194,194,194,197,3,3,3,3,
3,3,3,3,3,3,3,3,3,3,3,3,3,3,3,3,2,3,3,3,3,3,3,2,3,3,3,3,3,3,3,3,3,2,2,3,3,3,2,3,3,3,3,2,3,3,3,3,3,2,2,3,3,3,3,3,3,2,3,3,3,3,3,3,3,3,199,194,194,194,194,201,9,9,3,3,
3,3,3,3,3,3,3,3,3,3,3,3,3,3,136,3,3,3,3,3,3,3,3,3,3,3,3,3,3,3,3,3,3,3,3,3,3,3,3,3,3,3,3,3,3,3,3,3,3,3,3,3,3,3,3,3,3,3,3,136,3,3,3,3,3,3,199,194,194,194,194,201,9,9,199,194,
3,3,3,3,3,3,3,3,3,3,3,3,3,3,3,3,3,3,3,3,3,3,3,3,3,3,3,3,3,3,3,3,3,3,3,3,3,3,3,3,3,3,3,3,3,3,3,3,38,39,39,39,39,40,3,3,3,3,3,3,3,3,3,3,3,3,199,194,194,194,194,196,200,200,195,194,
3,3,3,3,3,3,3,3,3,3,3,3,3,3,3,3,3,3,3,3,3,3,3,3,3,3,3,3,3,3,3,3,3,3,3,3,3,3,3,3,3,3,3,3,3,3,3,3,45,46,46,46,46,47,3,3,3,3,3,3,3,3,3,3,3,3,199,197,202,202,202,202,202,202,202,202,
3,3,3,3,3,3,3,3,3,3,3,3,3,3,3,3,3,3,3,3,3,3,3,3,3,3,3,3,3,3,3,3,3,3,3,3,3,3,3,3,3,3,3,3,3,3,3,3,38,39,39,39,39,40,3,3,3,3,3,3,3,3,3,3,3,3,199,201,11,12,12,12,12,12,12,12,
3,3,3,3,3,3,3,3,3,3,3,3,3,3,3,3,3,3,3,3,3,3,3,3,3,3,3,3,3,3,3,3,3,3,3,3,3,3,3,3,3,3,3,3,3,3,3,3,45,46,46,46,46,47,3,3,3,3,3,3,3,3,3,3,3,3,199,201,10,3,3,3,3,3,3,2,
3,3,3,3,3,3,3,3,3,3,3,3,3,3,3,3,3,3,3,3,3,3,3,3,3,3,3,3,3,3,3,3,3,3,3,3,3,3,3,3,3,3,3,3,3,3,3,3,38,39,39,39,39,40,3,3,3,3,3,3,3,3,3,3,3,3,199,201,10,4,3,3,3,2,2,3,
3,3,3,3,3,3,3,3,3,3,3,3,3,3,3,3,3,3,3,3,3,3,3,3,3,3,3,3,3,3,3,3,3,3,3,3,3,3,3,3,3,3,3,3,3,3,3,3,45,46,46,46,46,47,3,3,3,3,3,3,3,3,3,3,3,3,199,201,10,2,4,5,4,5,4,5,
3,3,3,3,3,3,3,3,3,3,3,3,3,3,3,3,3,3,3,3,3,3,3,3,3,3,3,3,3,3,3,3,3,3,3,3,3,3,3,3,3,3,3,3,3,3,3,3,38,39,39,39,39,40,3,3,3,3,3,3,3,3,3,3,3,3,199,201,8,7,7,7,7,7,7,7,
3,3,3,3,3,3,3,3,3,3,3,3,3,3,3,3,3,3,3,3,3,3,3,3,3,3,3,3,3,3,3,3,3,3,3,3,3,3,3,3,3,3,3,3,3,3,3,3,45,46,46,46,46,47,4,4,4,4,4,3,3,3,3,3,3,3,199,196,200,200,5,5,200,200,200,200
  </data>
 </layer>
 <layer id="2" name="middle" width="76" height="40">
  <data encoding="csv">
0,0,0,0,0,0,0,0,65,64,65,66,0,0,0,0,0,0,0,0,0,0,0,0,0,0,0,0,0,0,0,0,0,0,0,0,0,0,0,0,0,0,0,0,0,0,0,0,0,0,0,0,0,0,0,0,0,0,0,0,0,0,0,0,0,0,0,0,0,0,0,0,0,0,48,49,
0,0,0,0,0,0,0,0,68,67,68,69,0,0,0,0,0,0,0,0,0,0,0,0,0,0,0,0,0,0,0,0,0,0,0,0,0,0,0,0,0,0,0,0,0,0,0,0,0,0,0,0,0,0,0,0,0,0,0,0,0,0,0,0,0,0,0,0,0,0,0,0,0,0,48,49,
0,0,0,0,0,0,0,0,65,64,65,66,0,0,0,0,0,0,0,0,0,0,0,0,0,0,0,0,0,0,0,0,0,0,0,0,0,0,0,0,0,0,0,0,0,0,0,0,0,0,0,0,0,0,0,0,0,0,0,0,0,0,0,0,0,0,0,0,0,0,0,0,0,0,48,49,
0,0,0,0,0,0,0,0,68,67,68,69,0,0,0,0,0,0,0,0,0,0,0,0,0,0,0,0,0,0,0,0,0,0,0,0,0,0,0,0,0,0,0,0,0,0,0,0,0,0,0,0,0,0,0,0,0,0,0,0,0,0,0,0,0,0,48,49,50,50,48,49,0,0,48,49,
0,0,0,0,0,0,0,0,65,64,65,66,0,0,0,0,0,0,0,0,0,0,0,0,0,0,0,0,0,0,0,0,0,0,0,0,0,0,0,0,0,0,0,0,0,0,0,0,0,0,0,0,0,0,0,0,0,0,0,0,0,0,0,0,0,0,48,49,51,51,48,49,0,0,48,49,
0,0,0,0,0,0,0,0,68,67,68,69,0,0,0,0,0,0,0,0,0,0,0,0,0,0,0,0,0,0,0,0,0,0,0,0,0,0,0,0,0,0,0,0,0,0,0,0,0,0,0,0,0,0,0,0,0,0,0,0,0,0,0,0,0,0,48,49,0,0,48,49,0,0,0,0,
0,0,0,0,0,0,0,0,65,64,65,66,0,0,0,0,0,0,0,0,0,0,0,0,0,0,0,0,0,0,0,0,0,0,0,0,0,0,0,0,0,0,0,0,0,0,0,0,0,0,0,0,0,0,0,0,0,0,0,0,0,0,0,0,0,0,48,49,0,0,48,49,0,0,0,0,
0,0,0,0,0,0,0,0,68,67,68,69,0,0,0,0,0,0,0,0,0,0,0,0,0,0,0,0,0,0,0,0,0,0,0,0,0,0,0,0,0,0,0,0,0,0,0,0,0,0,0,0,0,0,0,0,0,0,0,0,0,0,0,0,0,0,48,49,0,0,48,49,0,0,0,0,
0,0,0,0,0,0,0,0,65,64,65,66,0,0,0,0,0,0,0,0,0,0,0,0,0,0,0,0,0,0,0,0,0,0,0,0,0,0,0,0,0,0,0,0,0,0,0,0,0,0,0,0,0,0,0,0,0,0,0,0,0,0,0,0,0,0,48,49,0,0,48,49,50,50,0,0,
0,0,0,0,0,0,0,0,68,67,68,69,0,0,0,0,0,0,0,0,0,0,0,0,0,0,0,0,0,0,0,0,0,0,0,0,0,0,0,0,0,0,0,0,0,0,0,0,0,0,0,0,0,0,0,0,0,0,0,0,0,0,0,0,0,0,48,49,0,0,48,49,51,51,0,0,
0,0,0,0,0,0,0,0,65,64,65,66,0,0,0,0,0,0,0,0,0,0,0,0,0,0,0,0,0,0,0,0,0,0,0,0,0,0,0,0,0,0,0,0,0,0,0,0,0,0,0,0,0,0,0,0,0,0,0,0,0,0,0,0,0,0,48,49,0,0,120,122,0,0,0,0,
0,0,0,0,0,0,0,0,68,67,68,69,135,135,135,135,135,135,135,135,135,135,135,135,135,135,135,135,135,135,135,135,135,135,135,135,135,135,135,135,135,135,135,135,135,135,135,135,135,135,135,135,135,135,135,135,135,135,135,135,0,0,0,0,0,0,48,49,0,0,0,0,0,0,0,0,
0,0,0,0,0,0,0,0,72,73,65,66,0,0,0,0,0,0,0,0,0,0,0,0,0,0,0,0,0,0,0,0,0,0,0,0,0,0,0,0,0,0,0,0,0,0,0,0,0,0,0,0,0,0,0,0,0,0,0,0,0,0,0,0,0,0,90,49,0,0,0,0,0,0,0,0,
0,0,0,0,0,0,0,0,0,0,68,69,0,0,0,0,0,0,0,0,0,0,0,0,0,0,0,0,0,0,0,0,0,0,0,0,0,0,0,0,0,0,0,0,0,0,0,0,0,0,0,0,0,0,0,0,62,0,0,0,0,0,0,0,0,0,91,53,54,50,50,50,48,49,50,50,
0,0,0,78,79,79,79,79,79,80,65,66,0,0,0,0,0,0,0,0,0,0,0,0,0,0,0,0,0,0,0,0,0,0,0,0,0,0,0,0,0,0,0,0,0,0,0,0,0,0,0,0,0,0,0,0,0,0,0,0,0,0,0,0,0,0,90,56,57,51,51,51,48,49,51,51,
0,0,0,81,81,83,83,83,82,82,68,69,0,0,0,0,0,0,0,0,0,0,0,0,0,0,0,0,0,0,0,0,0,0,0,0,0,0,0,0,0,0,0,0,0,0,0,0,0,0,0,0,0,0,0,0,0,0,89,0,0,0,0,0,0,0,91,59,60,0,0,0,48,49,0,0,
0,0,0,81,87,85,85,85,88,82,72,73,0,0,0,0,0,0,0,0,0,0,0,0,0,0,0,0,0,0,0,0,0,0,0,0,0,0,0,0,0,0,0,0,0,0,0,0,0,0,0,0,0,0,0,0,0,0,0,0,68,67,68,67,68,0,120,121,122,0,0,0,48,49,0,0,
128,128,92,84,85,85,98,85,85,86,0,0,0,0,0,0,0,0,0,0,0,0,0,0,0,0,0,0,0,0,0,0,0,0,0,0,0,0,0,0,0,0,0,0,0,0,0,0,0,0,0,0,0,0,0,0,135,135,135,131,72,73,72,73,72,0,0,0,0,0,0,0,48,49,0,0,
0,0,0,0,0,0,0,0,0,0,0,0,0,0,0,0,0,0,0,0,0,0,0,0,0,0,0,0,0,0,0,0,0,0,0,0,0,0,0,0,0,0,0,0,0,0,0,0,0,0,0,0,0,0,0,0,0,0,0,134,135,135,135,135,135,0,0,0,0,0,0,0,48,49,0,0,
0,0,0,0,0,0,0,0,0,0,0,0,0,0,0,0,0,0,0,0,0,0,0,0,0,0,0,0,0,0,0,0,0,0,0,0,0,0,0,0,0,0,0,0,0,0,0,0,0,0,0,0,0,0,0,0,0,0,0,0,0,0,0,0,0,134,135,135,135,135,135,135,48,49,0,0,
0,0,0,0,0,0,0,0,0,0,0,0,0,0,0,0,0,0,0,0,0,0,0,0,0,0,0,0,0,0,0,0,0,0,0,0,0,0,0,0,0,0,0,0,0,0,0,0,0,0,0,0,0,0,0,0,0,0,0,0,0,0,0,0,0,0,0,0,0,0,0,0,48,49,0,0,
0,0,0,0,0,0,0,0,0,0,0,0,0,0,0,0,0,0,0,0,0,0,0,0,0,0,0,0,0,0,0,0,0,0,0,0,0,0,0,0,0,0,0,0,0,0,0,0,0,0,0,0,0,0,0,0,0,0,0,0,0,0,0,0,0,129,135,135,135,135,135,135,48,49,0,0,
0,0,0,0,0,0,0,0,0,0,0,0,0,0,0,0,0,0,0,0,0,0,0,0,0,0,0,0,0,0,0,0,0,0,0,0,0,0,0,0,0,0,0,0,0,0,0,0,0,0,0,0,0,0,0,0,0,0,0,129,135,135,135,135,135,133,0,0,0,0,0,0,48,49,0,0,
76,77,76,77,76,77,76,77,76,77,76,77,0,0,0,0,0,0,0,0,0,0,0,0,0,0,0,0,0,0,0,0,0,0,0,0,0,0,0,0,0,0,0,0,0,0,0,0,0,0,0,0,0,0,0,135,135,135,135,133,0,0,0,0,0,0,0,0,0,0,0,0,48,49,0,0,
68,67,68,67,68,67,68,67,68,67,68,69,135,135,0,0,0,0,0,0,0,0,0,0,0,0,0,0,0,0,0,0,0,0,0,0,0,0,0,0,0,0,0,0,0,0,0,0,0,0,0,0,0,0,0,62,0,0,0,0,0,0,0,0,0,0,0,0,0,0,0,0,48,49,0,0,
65,64,65,64,65,64,65,64,65,64,65,64,76,77,0,0,0,0,0,0,0,0,0,0,0,0,0,0,0,0,0,0,0,0,0,0,0,0,0,0,0,0,0,0,0,0,0,0,0,0,0,0,0,0,0,0,0,0,62,0,0,0,0,0,0,0,0,0,0,0,0,0,48,49,0,0,
68,67,68,67,68,67,68,67,68,67,68,67,68,69,0,0,0,0,0,0,0,0,0,0,0,0,0,0,0,0,0,0,0,0,0,0,0,0,0,0,0,0,0,0,0,0,0,0,0,0,0,0,0,0,0,0,0,0,0,62,0,0,0,0,0,0,0,0,0,0,0,0,48,49,0,0,
65,64,65,64,65,64,65,64,65,64,65,64,65,66,0,0,0,0,0,0,0,0,0,0,0,0,0,0,0,0,0,0,0,0,0,0,0,0,0,0,0,0,0,0,0,0,0,0,0,0,0,0,0,0,0,0,62,0,62,62,0,0,0,0,0,0,0,0,0,0,0,0,48,49,0,0,
68,67,68,67,68,67,68,67,68,67,68,67,68,69,0,0,0,0,0,0,0,0,0,0,0,0,0,0,0,0,0,0,0,0,0,0,0,0,0,0,0,0,0,0,0,0,0,0,0,0,0,0,0,0,0,62,0,0,0,0,0,0,0,0,0,0,0,0,0,0,0,0,48,49,0,0,
65,64,65,64,65,64,65,64,65,64,65,64,65,66,61,61,0,61,61,61,61,61,0,0,61,61,61,61,0,61,61,61,61,0,0,61,61,61,0,0,61,61,61,0,61,61,61,61,61,0,0,61,61,61,61,61,61,0,61,61,0,0,0,0,0,0,0,0,0,0,0,0,48,49,50,50,
68,67,68,67,68,67,68,67,68,67,68,67,68,69,63,63,0,63,63,63,63,63,0,0,63,63,63,63,0,63,63,63,63,0,0,63,63,63,0,0,63,63,63,0,63,63,63,63,63,0,0,63,63,63,63,63,63,0,63,63,0,0,0,0,0,0,0,0,0,0,0,0,48,49,51,51,
65,64,65,64,65,64,65,64,65,64,65,64,65,66,0,135,135,135,135,135,135,135,130,135,135,135,135,135,135,135,135,135,135,131,135,135,135,135,135,135,135,135,135,135,135,135,135,135,130,135,135,135,135,135,135,135,135,135,135,135,0,0,0,0,0,0,0,0,0,0,0,0,120,122,0,0,
68,67,68,67,68,67,68,67,68,67,68,67,68,67,68,67,68,67,68,67,68,69,68,69,68,69,68,69,68,69,68,69,68,69,68,67,68,67,68,67,68,67,68,67,68,67,68,69,132,0,0,0,0,0,76,77,76,77,76,77,0,0,0,0,0,0,0,0,0,144,145,146,147,0,0,0,
65,64,65,64,65,64,65,64,65,64,65,64,65,64,65,64,65,64,65,64,65,66,65,66,65,66,65,66,65,66,65,66,65,66,65,64,65,64,65,64,65,64,65,64,65,64,65,66,132,0,0,0,0,0,68,67,68,67,68,67,0,0,0,0,0,0,0,0,0,148,149,150,151,0,0,0,
68,67,68,67,68,67,68,67,68,67,68,67,68,67,68,67,68,67,68,67,68,69,68,69,68,69,68,69,68,69,68,69,68,69,68,67,68,67,68,67,68,67,68,67,68,67,68,69,132,0,0,0,0,0,65,64,65,64,65,64,0,0,0,0,0,0,0,0,0,152,153,154,155,0,0,0,
65,64,65,64,65,64,65,64,65,64,65,64,65,64,65,64,65,64,65,64,65,66,65,66,65,66,65,66,65,66,65,66,65,66,65,64,65,64,65,64,65,64,65,64,65,64,65,66,132,0,0,0,0,0,68,67,68,67,68,67,0,0,0,0,0,0,0,0,0,156,157,158,159,0,0,0,
68,67,68,67,68,67,68,67,68,67,68,67,68,67,68,67,68,67,68,67,68,69,68,69,68,69,68,69,68,69,68,69,68,69,68,67,68,67,68,67,68,67,68,67,68,67,68,69,132,0,0,0,0,0,65,64,65,64,65,64,0,0,0,0,0,0,0,0,0,0,0,0,0,0,0,0,
65,64,65,64,65,64,65,64,65,64,65,64,65,64,65,64,65,64,65,64,65,66,65,66,65,66,65,66,65,66,65,66,65,66,65,64,65,64,65,64,65,64,65,64,65,64,65,66,132,0,0,0,0,0,68,67,68,67,68,67,0,0,0,0,0,0,0,0,0,0,0,0,0,0,0,0,
68,67,68,67,68,67,68,67,68,67,68,67,68,67,68,67,68,67,68,67,68,69,68,69,68,69,68,69,68,69,68,69,68,69,68,67,68,67,68,67,68,67,68,67,68,67,68,69,132,0,0,0,0,0,65,64,65,64,65,64,0,0,0,0,0,0,0,0,128,128,0,0,128,128,128,128,
65,64,65,64,65,64,65,64,65,64,65,64,65,64,65,64,65,64,65,64,65,66,65,66,65,66,65,66,65,66,65,66,65,66,65,64,65,64,65,64,65,64,65,64,65,64,65,66,132,0,0,0,0,0,0,0,0,0,0,0,0,0,0,0,0,0,0,0,0,0,48,49,0,0,0,0
  </data>
 </layer>
 <layer id="3" name="upper" width="76" height="40">
  <data encoding="csv">
0,0,0,0,0,0,0,71,0,0,0,0,70,0,0,0,0,0,0,0,0,0,0,0,0,0,0,0,0,0,0,0,0,0,0,0,0,0,0,0,0,0,0,0,0,0,0,0,0,0,0,0,0,0,0,0,0,0,0,75,68,67,68,67,68,69,74,0,0,0,0,0,0,0,0,0,
0,0,0,0,0,0,0,75,0,0,0,0,74,0,0,0,0,0,0,0,0,0,0,0,0,0,0,0,0,0,0,0,0,0,0,0,0,0,0,0,0,0,0,0,0,0,0,0,0,0,0,0,0,0,0,0,0,0,0,71,65,64,65,64,65,66,70,0,0,0,0,0,0,0,0,0,
0,0,0,0,0,0,0,71,0,0,0,0,70,0,0,0,0,0,0,0,0,0,0,0,0,0,0,0,0,0,0,0,0,0,0,0,0,0,0,0,0,0,0,0,0,0,0,0,0,0,0,0,0,0,0,0,0,0,0,75,68,67,68,67,68,69,74,0,0,0,0,0,0,0,0,0,
0,0,0,0,0,0,0,75,0,0,0,0,74,0,0,0,0,0,0,0,0,0,0,0,0,0,0,0,0,0,0,0,0,0,0,0,0,0,0,0,0,0,0,0,0,0,0,0,0,0,0,0,0,0,0,0,0,0,0,71,65,64,65,64,65,66,70,0,0,0,0,0,0,0,0,0,
0,0,0,0,0,0,0,71,0,0,0,0,70,0,0,100,101,102,0,0,0,0,0,0,0,0,0,0,0,0,0,0,0,0,0,0,0,0,0,0,0,100,101,102,0,0,0,0,0,0,0,0,0,0,0,100,101,102,0,75,68,67,68,67,68,69,74,0,0,0,0,0,0,0,0,0,
0,0,0,0,0,0,0,75,0,0,0,0,74,0,107,108,109,110,111,0,0,0,0,0,0,0,0,0,0,0,0,0,0,0,0,0,0,0,0,0,107,108,109,110,111,0,0,0,0,0,0,0,0,0,107,108,109,110,111,71,65,64,65,64,65,66,70,0,0,0,0,0,0,0,0,0,
0,0,0,0,0,0,0,71,0,0,0,0,70,0,0,112,113,114,0,0,0,0,0,0,0,0,0,0,0,0,0,0,0,0,0,0,0,0,0,0,0,112,113,114,0,0,0,0,0,0,0,0,0,0,0,112,113,114,0,75,68,67,68,67,68,69,74,0,0,0,0,0,0,0,0,0,
0,0,0,0,0,0,0,75,0,0,0,0,74,0,116,117,118,119,115,0,0,0,0,0,0,0,0,0,0,0,0,0,0,0,0,0,0,0,0,0,116,117,118,119,115,0,0,0,0,0,0,0,0,0,116,117,118,119,115,71,65,64,65,64,65,66,70,0,0,0,0,0,0,0,0,0,
0,0,0,0,0,0,0,71,0,0,0,0,70,0,103,104,105,106,137,0,0,0,0,0,0,0,0,0,0,0,0,0,0,0,0,0,0,0,0,0,103,104,105,106,137,0,0,0,0,0,0,0,0,0,103,104,105,106,140,75,68,67,68,67,68,69,74,0,0,0,0,0,0,0,0,0,
0,0,0,0,0,0,0,75,0,0,0,0,74,0,127,123,124,125,138,0,0,0,0,0,0,0,0,0,0,0,0,0,0,0,0,0,0,0,0,0,127,123,124,125,138,0,0,0,0,0,0,0,0,0,127,123,124,125,141,71,65,64,65,64,65,66,70,0,0,0,0,0,0,0,0,0,
0,0,0,0,0,0,0,71,0,0,0,0,70,0,0,126,142,142,139,0,0,0,0,0,0,0,0,0,0,0,0,0,0,0,0,0,0,0,0,0,0,126,142,142,139,0,0,0,0,0,0,0,0,0,0,126,142,142,143,75,68,67,68,67,68,69,74,0,0,0,0,0,0,0,0,0,
0,0,0,0,0,0,0,75,0,0,0,0,74,0,0,0,0,0,0,0,0,0,0,0,0,0,0,0,0,0,0,0,0,0,0,0,0,0,0,0,0,0,0,0,0,0,0,0,0,0,0,0,0,0,0,0,0,0,0,71,65,64,65,64,65,66,70,0,0,0,0,0,0,0,0,0,
0,0,0,0,0,0,0,0,0,71,0,0,70,0,0,0,0,0,0,0,0,0,0,0,0,0,0,0,0,0,0,0,0,0,0,0,0,0,0,0,0,0,0,0,0,0,0,0,0,0,0,0,0,0,0,0,0,0,13,75,68,67,68,67,68,69,74,0,90,0,0,0,0,0,0,0,
0,0,0,0,0,0,0,0,0,75,0,0,74,0,0,0,0,0,0,0,0,0,0,0,0,0,0,0,0,0,0,0,0,0,0,0,0,0,0,0,0,0,0,0,0,0,0,0,0,0,0,0,0,0,0,0,0,0,19,71,65,64,65,64,65,66,70,0,91,0,0,0,0,0,0,0,
0,0,0,0,78,79,79,79,80,71,0,0,70,0,0,0,0,0,0,0,0,0,0,0,0,0,0,0,0,0,0,0,0,0,0,0,0,0,0,0,0,0,0,0,0,0,0,0,0,0,0,0,0,0,0,0,0,0,0,75,68,67,68,67,68,69,74,0,90,0,0,0,0,0,0,0,
0,0,0,0,0,0,0,0,0,75,0,0,74,0,0,0,0,0,0,0,0,0,0,0,0,0,0,0,0,0,0,0,0,0,0,0,0,0,0,0,0,0,0,0,0,0,0,0,0,0,0,0,0,0,0,0,0,0,0,71,65,64,65,64,65,66,70,0,91,0,0,0,0,0,0,0,
0,0,0,0,0,94,95,96,0,0,0,0,0,0,0,0,0,0,0,0,0,0,0,0,0,0,0,0,0,0,0,0,0,0,0,0,0,0,0,0,0,0,0,0,0,0,0,0,0,0,0,0,0,0,0,0,0,0,0,75,160,161,162,163,164,69,74,0,0,0,0,0,0,0,0,0,
0,0,0,0,0,97,98,99,0,0,0,0,0,0,0,0,0,0,0,0,0,0,0,0,0,0,0,0,0,0,0,0,0,0,0,0,0,0,0,0,0,0,0,0,0,0,0,0,0,0,0,0,0,0,0,0,0,0,0,0,165,166,167,168,169,73,0,0,0,0,0,0,0,0,0,0,
0,0,0,0,0,0,0,0,0,0,0,0,0,0,0,0,0,0,0,0,0,0,0,0,0,0,0,0,0,0,0,0,0,0,0,0,0,0,0,0,0,0,0,0,0,0,0,0,0,0,0,0,0,0,0,0,0,0,0,170,171,172,173,174,175,131,0,0,0,0,0,0,0,0,0,0,
0,0,0,0,0,0,0,0,0,0,0,0,0,0,0,0,0,0,0,0,0,0,0,0,0,0,0,0,0,0,0,0,0,0,0,0,0,0,0,0,0,0,0,0,0,0,0,0,0,0,0,0,0,0,0,0,0,0,0,176,177,178,179,180,181,0,0,0,0,0,0,0,0,93,0,0,
0,0,0,0,0,0,0,0,0,0,0,0,0,0,0,0,0,0,0,0,0,0,0,0,0,0,0,0,0,0,0,0,0,0,0,0,0,0,0,0,0,0,0,0,0,0,0,0,0,0,0,0,0,0,0,0,0,0,0,182,183,184,185,186,187,0,0,0,0,0,0,0,0,0,0,0,
0,0,0,0,0,0,0,0,0,0,0,0,0,0,0,0,0,0,0,0,0,0,0,0,0,0,0,0,0,0,0,0,0,0,0,0,0,0,0,0,0,0,0,0,0,0,0,0,0,0,0,0,0,0,0,0,0,0,0,188,189,190,191,192,193,0,0,0,0,0,0,0,0,0,0,0,
0,0,0,0,0,0,0,0,0,0,0,0,0,0,0,0,0,0,0,0,0,0,0,0,0,0,0,0,0,0,0,0,0,0,0,0,0,0,0,0,0,0,0,0,0,0,0,0,0,0,0,0,0,0,0,0,0,0,0,71,76,77,76,77,76,77,70,0,0,0,0,0,0,0,0,0,
0,0,0,0,0,0,0,0,0,0,0,0,70,0,0,0,0,0,0,0,0,0,0,0,0,0,0,0,0,0,0,0,0,0,0,0,0,0,0,0,0,0,0,0,0,0,0,0,0,0,0,0,0,0,0,0,0,0,0,75,68,67,68,67,68,69,74,0,0,0,0,0,0,0,0,0,
0,0,0,0,0,0,0,0,0,0,0,0,74,0,0,0,0,0,0,0,0,0,0,0,0,0,0,0,0,0,0,0,0,0,0,0,0,0,0,0,0,0,0,0,0,0,0,0,0,0,0,0,0,0,0,0,0,0,0,71,65,64,65,64,65,66,70,0,0,0,0,0,0,0,0,0,
0,0,0,0,0,0,0,0,0,0,0,0,0,0,70,0,0,0,0,0,0,0,0,0,0,0,0,0,0,0,0,0,0,0,0,0,0,0,0,0,0,0,0,0,0,0,0,0,0,0,0,0,0,0,0,0,0,0,0,75,68,67,68,67,68,69,74,0,0,0,0,0,0,0,0,0,
0,0,0,0,0,0,0,0,0,0,0,0,0,0,74,0,0,0,0,0,0,0,0,0,0,0,0,0,0,0,0,0,0,0,0,0,0,0,0,0,0,0,0,0,0,0,0,0,0,0,0,0,0,0,0,0,0,0,0,71,65,64,65,64,65,66,70,0,0,0,0,0,0,0,0,0,
0,0,0,0,0,0,0,0,0,0,0,0,0,0,70,0,0,0,0,0,0,0,0,0,0,0,0,0,0,0,0,0,0,0,0,0,0,0,0,0,0,0,0,0,0,0,0,0,0,0,0,0,0,0,0,0,0,0,0,75,68,67,68,67,68,69,74,0,0,0,0,0,0,0,0,0,
0,0,0,0,0,0,0,0,0,0,0,0,0,0,74,0,0,0,0,0,0,0,0,0,0,0,0,0,0,0,0,0,0,0,0,0,0,0,0,0,0,0,0,0,0,0,0,0,0,0,0,0,0,0,0,0,0,0,0,71,65,64,65,64,65,66,70,0,0,0,0,0,0,0,0,0,
0,0,0,0,0,0,0,0,0,0,0,0,0,0,70,0,0,0,0,0,0,0,0,0,0,0,0,0,0,0,0,0,0,0,0,0,0,0,0,0,0,0,0,0,0,0,0,0,0,0,0,0,0,0,0,0,0,0,0,75,68,67,68,67,68,69,74,0,0,0,0,0,0,0,0,0,
0,0,0,0,0,0,0,0,0,0,0,0,0,0,74,0,0,0,0,0,0,0,0,0,0,0,0,0,0,0,0,0,0,0,0,0,0,0,0,0,0,0,0,0,0,0,0,0,0,0,0,0,0,0,0,0,0,0,0,71,65,64,65,64,65,66,70,0,0,0,0,0,0,0,0,0,
0,0,0,0,0,0,0,0,0,0,0,0,0,0,76,77,76,77,76,77,76,77,76,77,76,77,76,77,76,77,76,77,76,77,76,77,76,77,76,77,76,77,76,77,76,77,76,77,70,0,0,0,0,0,0,0,0,0,0,75,68,67,68,67,68,69,74,0,0,0,0,0,0,0,0,0,
0,0,0,0,0,0,0,0,0,0,0,0,0,0,0,0,0,0,0,0,0,0,0,0,0,0,0,0,0,0,0,0,0,0,0,0,0,0,0,0,0,0,0,0,0,0,0,0,74,0,0,0,0,71,0,0,0,0,0,0,65,64,65,64,65,66,70,0,0,0,0,0,0,0,0,0,
0,0,0,0,0,0,0,0,0,0,0,0,0,0,0,0,0,0,0,0,0,0,0,0,0,0,0,0,0,0,0,0,0,0,0,0,0,0,0,0,0,0,0,0,0,0,0,0,70,0,0,0,0,75,0,0,0,0,0,0,68,67,68,67,68,69,74,0,90,0,0,0,0,0,0,0,
0,0,0,0,0,0,0,0,0,0,0,0,0,0,0,0,0,0,0,0,0,0,0,0,0,0,0,0,0,0,0,0,0,0,0,0,0,0,0,0,0,0,0,0,0,0,0,0,74,0,0,0,0,71,0,0,0,0,0,0,65,64,65,64,65,66,70,0,91,0,0,0,0,0,0,0,
0,0,0,0,0,0,0,0,0,0,0,0,0,0,0,0,0,0,0,0,0,0,0,0,0,0,0,0,0,0,0,0,0,0,0,0,0,0,0,0,0,0,0,0,0,0,0,0,70,0,0,0,0,75,0,0,0,0,0,0,68,67,68,67,68,69,74,0,0,0,0,0,0,0,0,0,
0,0,0,0,0,0,0,0,0,0,0,0,0,0,0,0,0,0,0,0,0,0,0,0,0,0,0,0,0,0,0,0,0,0,0,0,0,0,0,0,0,0,0,0,0,0,0,0,74,0,0,0,0,71,0,0,0,0,0,0,65,64,65,64,65,66,70,0,0,0,0,0,0,0,0,0,
0,0,0,0,0,0,0,0,0,0,0,0,0,0,0,0,0,0,0,0,0,0,0,0,0,0,0,0,0,0,0,0,0,0,0,0,0,0,0,0,0,0,0,0,0,0,0,0,70,0,0,0,0,75,0,0,0,0,0,0,68,67,68,67,68,69,74,0,0,0,0,0,0,0,0,0,
0,0,0,0,0,0,0,0,0,0,0,0,0,0,0,0,0,0,0,0,0,0,0,0,0,0,0,0,0,0,0,0,0,0,0,0,0,0,0,0,0,0,0,0,0,0,0,0,74,0,0,0,0,71,0,0,0,0,0,0,65,64,65,64,65,66,70,0,0,0,0,0,0,0,0,0,
0,0,0,0,0,0,0,0,0,0,0,0,0,0,0,0,0,0,0,0,0,0,0,0,0,0,0,0,0,0,0,0,0,0,0,0,0,0,0,0,0,0,0,0,0,0,0,0,70,0,0,0,0,75,68,67,68,67,68,67,68,67,68,67,68,69,74,0,0,0,0,0,0,0,0,0
  </data>
 </layer>
 <objectgroup id="4" name="events"/>
</map>
