<?xml version="1.0" encoding="UTF-8"?>
<map version="1.10" tiledversion="1.10.2" orientation="orthogonal" renderorder="right-down" compressionlevel="0" width="26" height="67" tilewidth="32" tileheight="32" infinite="0" nextlayerid="4" nextobjectid="1">
 <tileset firstgid="1" source="route-14.tsx"/>
 <layer id="1" name="lower" width="26" height="67">
  <data encoding="csv">
3,3,3,3,3,3,3,3,3,3,3,3,3,3,3,3,3,3,3,3,3,3,3,3,3,3,
3,3,3,3,3,3,3,3,3,3,3,3,3,3,3,3,3,3,3,3,3,3,3,5,3,3,
3,3,3,3,3,3,3,3,3,3,3,3,3,3,3,3,3,3,3,3,3,3,3,3,3,3,
3,3,3,3,3,3,3,3,3,3,3,3,3,3,3,3,3,3,3,3,3,3,3,5,3,3,
3,3,3,3,3,3,3,3,3,3,3,3,3,3,3,3,3,3,3,3,3,3,3,5,3,3,
3,3,3,3,3,3,3,3,3,3,3,3,3,3,3,3,3,3,3,3,3,3,3,5,3,3,
3,3,3,3,3,3,3,3,3,3,3,3,3,3,3,3,3,3,3,3,3,3,3,5,3,3,
3,3,3,3,3,3,3,2,3,3,3,3,3,3,3,3,3,3,3,3,3,3,3,3,3,3,
3,3,3,3,3,3,3,4,6,6,6,6,6,6,6,6,6,6,6,6,6,6,6,6,6,6,
3,3,3,3,3,3,3,2,6,6,6,6,6,6,6,6,6,6,6,6,6,6,6,6,6,6,
3,3,3,3,3,3,3,5,6,6,6,6,6,6,6,6,6,6,6,6,6,6,6,6,6,6,
3,3,3,3,3,3,3,2,6,6,6,6,6,6,6,6,6,6,6,6,6,6,6,6,6,6,
3,3,3,3,3,3,3,5,6,6,6,6,6,6,6,6,6,6,6,6,6,6,6,6,6,6,
3,3,3,3,3,3,3,2,6,6,6,6,6,6,6,6,6,6,6,6,6,6,6,6,6,6,
3,3,3,3,3,3,3,5,6,6,6,6,6,6,2,2,2,2,2,6,6,6,6,6,6,6,
3,3,3,3,3,3,3,2,6,2,6,6,6,2,20,21,22,2,3,2,3,6,6,6,2,6,
3,3,3,3,3,3,3,5,6,6,6,6,6,4,23,24,25,2,5,5,5,5,5,5,6,6,
3,3,3,3,3,3,3,2,6,6,6,6,3,2,23,24,25,4,3,3,3,3,3,5,3,3,
3,3,3,3,3,3,3,4,6,6,6,6,2,1,23,24,25,4,3,3,3,3,3,5,9,10,
3,3,3,3,3,3,3,2,3,3,3,3,3,2,23,24,25,4,3,3,3,3,3,5,14,77,
3,3,3,3,3,3,3,2,3,3,3,3,3,5,23,24,25,4,3,3,3,3,3,5,14,74,
3,3,3,3,3,3,3,2,6,6,6,6,3,3,23,24,25,4,3,3,3,3,3,5,14,74,
3,3,3,3,3,3,3,2,6,6,6,6,3,3,23,24,25,4,3,3,3,3,3,5,14,74,
3,3,8,7,8,7,3,2,6,6,3,6,3,3,23,24,25,4,3,3,3,3,3,5,14,74,
3,3,7,8,7,8,3,2,6,6,6,6,3,3,23,24,25,4,3,3,3,3,3,3,14,74,
3,3,8,7,8,7,3,2,6,6,6,6,3,3,23,24,25,4,9,10,10,10,10,11,14,74,
3,3,7,8,7,8,3,2,6,6,6,6,3,3,23,24,25,4,14,77,75,75,78,13,12,74,
3,3,8,7,8,7,3,2,3,2,3,1,3,3,23,24,25,4,14,74,70,70,72,75,75,71,
3,3,7,8,7,8,3,2,2,2,2,2,3,3,23,24,25,4,14,74,70,70,70,70,70,70,
3,3,8,7,8,7,3,2,3,20,21,22,3,3,23,24,25,4,14,74,70,70,70,70,70,70,
3,3,7,8,7,8,3,4,4,23,24,25,3,3,23,24,25,4,14,79,76,76,76,73,70,70,
3,3,30,31,31,31,32,3,3,23,24,25,3,3,23,24,25,4,16,17,17,17,15,74,70,70,
3,3,33,34,34,34,35,3,4,23,24,25,3,3,23,24,25,4,4,3,4,3,14,74,70,70,
3,3,30,31,31,31,32,4,3,23,24,25,3,3,23,24,25,2,5,5,5,4,14,74,70,70,
3,3,33,34,34,34,35,3,5,23,24,25,3,3,23,24,25,2,3,2,3,4,14,74,70,70,
3,3,30,31,31,31,32,3,4,23,24,25,3,3,23,24,25,4,6,6,6,3,14,74,70,70,
3,3,33,34,34,34,35,3,5,23,24,25,3,3,23,24,25,2,6,6,6,4,14,74,70,70,
3,3,30,31,31,31,32,4,3,23,24,25,4,5,23,24,25,4,6,6,6,4,14,74,70,70,
3,3,33,34,34,34,35,3,4,23,24,25,5,2,23,24,25,3,6,6,6,3,14,74,70,70,
3,3,3,3,3,3,3,4,5,23,24,25,3,3,23,24,25,4,6,6,6,4,14,74,70,70,
4,3,20,21,21,21,21,21,21,26,24,25,3,3,23,24,25,3,6,6,6,3,14,74,70,70,
3,4,23,24,24,24,24,24,24,24,24,25,3,3,23,24,25,4,6,6,6,4,14,74,70,70,
3,4,27,28,28,28,28,28,28,28,28,29,3,3,23,24,25,3,6,6,6,3,14,74,70,70,
4,3,3,3,3,3,3,4,4,3,4,4,3,3,23,24,25,4,6,6,6,4,14,74,70,70,
3,3,4,3,4,3,3,4,3,4,4,3,3,3,23,24,25,2,6,6,6,4,14,74,70,70,
4,3,3,4,4,3,4,3,4,3,3,4,3,3,23,24,25,3,6,6,6,3,14,74,70,70,
3,4,4,3,3,4,3,3,3,4,3,4,3,4,23,24,25,2,6,6,6,4,14,74,70,70,
21,21,21,21,21,21,21,21,21,21,21,21,21,21,26,24,25,4,6,6,6,3,14,74,70,70,
24,24,24,24,24,24,24,24,24,24,24,24,24,24,24,24,25,3,2,2,1,3,14,74,70,70,
28,28,28,28,28,28,28,28,28,28,28,28,28,28,28,28,29,2,5,4,4,4,14,74,70,70,
3,3,3,3,2,3,3,3,3,3,3,3,2,3,3,3,3,3,3,2,1,4,14,74,70,70,
3,2,3,3,2,3,2,3,2,3,3,2,3,3,2,3,3,3,2,3,2,3,14,74,70,70,
3,3,3,3,3,3,3,3,3,3,3,3,3,3,3,3,3,3,3,3,3,2,14,74,70,70,
0,0,0,0,0,0,0,0,0,0,0,0,0,0,0,0,0,0,0,3,3,3,14,74,70,70,
0,0,0,0,0,0,0,0,0,0,0,0,0,0,0,0,0,0,0,3,3,3,14,74,70,70,
0,0,0,0,0,0,0,0,0,0,0,0,0,0,0,0,0,0,0,0,0,0,14,74,70,70,
0,0,0,0,0,0,0,0,0,0,0,0,0,0,0,0,0,0,0,0,0,0,14,74,70,70,
0,0,0,0,0,0,0,0,0,0,0,0,0,0,0,0,0,0,0,0,0,0,14,74,70,70,
0,0,0,0,0,0,0,0,0,0,0,0,0,0,0,0,0,0,0,0,0,0,14,74,70,70,
0,0,0,0,0,0,0,0,0,0,0,0,0,0,0,0,0,0,0,0,0,0,14,74,70,70,
0,0,0,0,0,0,0,0,0,0,0,0,0,0,0,0,0,0,0,0,0,0,14,74,70,70,
0,0,0,0,0,0,0,0,0,0,0,0,0,0,0,0,0,0,0,0,0,0,14,74,70,70,
0,0,0,0,0,0,0,0,0,0,0,0,0,0,0,0,0,0,0,0,0,0,14,74,70,70,
0,0,0,0,0,0,0,0,0,0,0,0,0,0,0,0,0,0,0,0,0,0,14,74,70,70,
0,0,0,0,0,0,0,0,0,0,0,0,0,0,0,0,0,0,0,0,0,0,14,74,70,70,
0,0,0,0,0,0,0,0,0,0,0,0,0,0,0,0,0,0,0,0,0,0,14,74,70,70,
0,0,0,0,0,0,0,0,0,0,0,0,0,0,0,0,0,0,0,0,0,0,14,74,70,70
  </data>
 </layer>
 <layer id="2" name="middle" width="26" height="67">
  <data encoding="csv">
39,40,39,40,39,40,39,40,39,40,39,40,39,40,39,40,39,40,39,40,39,40,39,40,39,40,
42,43,42,43,42,43,42,43,42,43,42,43,42,43,42,43,42,43,42,43,42,43,42,43,42,43,
39,40,39,40,39,40,39,40,39,40,39,40,39,40,39,40,39,40,39,40,39,40,39,40,39,40,
42,43,42,43,42,43,42,43,42,43,42,43,42,43,42,43,42,43,42,43,42,43,42,43,42,43,
39,40,39,40,39,40,39,40,39,40,39,40,39,40,39,40,39,40,39,40,39,40,39,40,39,40,
42,43,42,43,42,43,42,43,42,43,42,43,42,43,42,43,42,43,42,43,42,43,42,43,42,43,
39,40,39,40,39,40,39,41,48,47,48,47,48,47,48,47,48,47,48,47,48,47,48,47,48,49,
42,43,42,43,42,43,42,44,69,69,69,69,69,69,69,69,69,69,69,69,69,69,69,69,69,69,
39,40,39,40,39,40,39,41,0,0,0,0,0,0,0,0,0,0,0,0,0,0,0,0,0,0,
42,43,42,43,42,43,42,44,0,0,0,0,0,0,0,0,0,0,0,0,0,0,0,0,0,0,
39,40,39,40,39,40,39,41,0,0,0,0,0,0,0,0,0,0,0,0,0,0,0,0,0,0,
42,43,42,43,42,43,42,44,0,0,0,0,0,0,0,0,0,0,0,0,0,0,0,0,0,0,
39,40,39,40,39,40,39,41,0,0,0,0,0,0,0,0,0,0,0,0,0,0,0,0,0,0,
42,43,42,43,42,43,42,44,0,0,0,0,0,0,0,0,0,0,0,0,0,0,0,0,0,0,
39,40,39,40,39,40,39,41,0,0,0,0,0,0,0,0,0,62,0,0,0,0,0,0,0,0,
42,43,42,43,42,43,42,44,0,0,0,0,0,0,0,0,0,0,0,0,0,0,0,0,0,0,
39,40,39,40,39,40,39,41,0,0,0,0,0,0,0,0,0,65,69,69,69,69,69,69,0,0,
42,43,42,43,42,43,42,44,0,0,0,0,0,0,0,0,0,66,42,43,42,43,42,44,54,55,
39,40,39,40,39,40,39,40,52,53,52,53,52,53,0,0,0,66,39,40,39,40,39,41,0,0,
42,43,42,43,42,43,42,43,42,43,42,43,42,44,0,0,0,66,42,43,42,43,42,44,0,0,
39,40,39,40,39,40,39,41,48,49,48,49,39,41,0,0,0,66,39,40,39,40,39,41,0,0,
42,43,42,43,42,43,42,44,0,0,0,0,42,44,0,0,0,66,42,43,42,43,42,44,0,0,
48,49,48,49,48,49,39,41,0,0,0,0,39,41,0,0,0,66,39,40,39,40,39,41,0,0,
0,63,0,0,0,0,42,44,0,0,0,0,42,44,0,0,0,66,42,43,42,43,42,44,0,0,
42,44,0,0,0,0,39,41,0,0,0,0,39,41,0,0,0,66,48,49,48,49,48,49,0,0,
39,41,0,0,0,0,42,44,0,0,0,0,42,44,0,0,0,66,0,0,0,0,0,0,0,0,
42,44,0,0,0,0,39,41,0,0,0,0,39,41,0,0,0,66,0,0,0,0,0,0,0,0,
39,41,0,0,0,0,42,44,0,0,0,0,42,44,0,0,0,66,0,0,0,0,0,0,0,0,
42,44,0,0,0,0,39,41,0,56,59,57,39,41,0,0,0,66,0,0,0,0,0,0,0,0,
39,41,0,0,0,0,42,44,0,0,0,0,42,44,0,0,0,66,0,0,0,0,0,0,0,0,
42,44,0,0,0,0,48,49,0,0,0,0,39,41,0,0,0,66,0,0,0,0,0,0,0,0,
39,41,0,0,0,0,0,0,0,0,0,0,42,44,0,0,0,66,0,0,0,0,0,0,0,0,
42,44,0,0,0,0,0,66,0,0,0,0,39,41,0,0,0,66,0,0,0,0,0,0,0,0,
39,41,0,0,0,0,0,66,0,0,0,0,42,44,0,0,0,67,69,69,69,64,0,0,0,0,
42,44,0,0,0,0,0,66,0,0,0,0,39,41,0,0,0,0,0,0,0,66,0,0,0,0,
39,41,0,0,0,0,0,66,0,0,0,0,42,44,0,0,0,0,0,0,0,66,0,0,0,0,
42,44,0,0,0,0,0,66,0,0,0,0,39,41,0,0,0,0,0,0,0,66,0,0,0,0,
48,49,0,0,0,0,0,66,0,0,0,0,42,44,0,0,0,0,0,0,0,66,0,0,0,0,
0,0,0,0,0,0,0,66,0,0,0,0,48,49,0,0,0,0,0,0,0,66,0,0,0,0,
37,0,69,69,69,69,69,68,0,0,0,0,0,0,0,0,0,0,0,0,0,66,0,0,0,0,
0,0,0,0,0,0,0,0,0,0,0,0,52,53,0,0,0,0,0,0,0,66,0,0,0,0,
0,0,0,0,0,0,0,0,0,0,0,0,42,44,0,0,0,0,0,0,0,66,0,0,0,0,
0,0,0,0,0,0,0,0,0,0,0,0,39,41,0,0,0,0,0,0,0,66,0,0,0,0,
0,58,69,69,69,69,69,69,0,0,0,0,42,44,0,0,0,0,0,0,0,66,0,0,0,0,
59,60,0,0,0,0,0,0,0,0,0,0,39,41,0,0,0,0,0,0,0,66,0,0,0,0,
0,0,0,0,0,0,0,0,0,0,0,0,42,44,0,0,0,0,0,0,0,66,0,0,0,0,
0,0,0,0,0,0,0,0,0,0,0,0,48,49,0,0,0,0,0,0,0,66,0,0,0,0,
0,0,0,0,0,0,0,0,0,0,0,0,0,0,0,0,0,0,0,0,0,66,0,0,0,0,
0,0,0,0,0,0,0,0,0,0,0,0,0,0,0,0,0,0,0,0,0,66,0,0,0,0,
0,0,0,0,0,0,0,0,0,0,0,0,0,0,0,0,0,0,0,0,0,66,0,0,0,0,
69,69,69,69,69,69,69,69,69,69,69,69,69,69,69,69,69,69,69,69,69,68,0,0,0,0,
52,53,52,53,52,53,52,53,52,53,52,53,52,53,52,53,52,0,52,53,0,61,0,0,0,0,
42,43,42,43,42,43,42,43,42,43,42,43,42,43,42,43,42,43,42,44,61,0,0,0,0,0,
39,40,39,40,39,40,39,40,39,40,39,40,39,40,39,40,39,40,39,40,52,53,0,0,0,0,
42,43,42,43,42,43,42,43,42,43,42,43,42,43,42,43,42,43,42,43,42,44,45,0,0,0,
39,40,39,40,39,40,39,40,39,40,39,40,39,40,39,40,39,40,39,40,39,41,0,0,0,0,
42,43,42,43,42,43,42,43,42,43,42,43,42,43,42,43,42,43,42,43,42,44,0,0,0,0,
39,40,39,40,39,40,39,40,39,40,39,40,39,40,39,40,39,40,39,40,39,41,0,0,0,0,
42,43,42,43,42,43,42,43,42,43,42,43,42,43,42,43,42,43,42,43,42,44,0,0,0,0,
39,40,39,40,39,40,39,40,39,40,39,40,39,40,39,40,39,40,39,40,39,41,69,0,0,0,
42,43,42,43,42,43,42,43,42,43,42,43,42,43,42,43,42,43,42,43,42,44,0,0,0,0,
39,40,39,40,39,40,39,40,39,40,39,40,39,40,39,40,39,40,39,40,39,41,0,0,0,0,
42,43,42,43,42,43,42,43,42,43,42,43,42,43,42,43,42,43,42,43,42,44,0,0,0,0,
39,40,39,40,39,40,39,40,39,40,39,40,39,40,39,40,39,40,39,40,39,41,0,0,0,0,
42,43,42,43,42,43,42,43,42,43,42,43,42,43,42,43,42,43,42,43,42,44,0,0,0,0,
39,40,39,40,39,40,39,40,39,40,39,40,39,40,39,40,39,40,39,40,39,41,0,0,0,0,
42,43,42,43,42,43,42,43,42,43,42,43,42,43,42,43,42,43,42,43,42,44,0,0,0,0
  </data>
 </layer>
 <layer id="3" name="upper" width="26" height="67">
  <data encoding="csv">
0,0,0,0,0,0,0,0,0,0,0,0,0,0,0,0,0,0,0,0,0,0,0,0,0,0,
0,0,0,0,0,0,0,0,0,0,0,0,0,0,0,0,0,0,0,0,0,0,0,0,0,0,
0,0,0,0,0,0,0,0,0,0,0,0,0,0,0,0,0,0,0,0,0,0,0,0,0,0,
0,0,0,0,0,0,0,0,0,0,0,0,0,0,0,0,0,0,0,0,0,0,0,0,0,0,
0,0,0,0,0,0,0,0,0,0,0,0,0,0,0,0,0,0,0,0,0,0,0,0,0,0,
0,0,0,0,0,0,0,0,0,0,0,0,0,0,0,0,0,0,0,0,0,0,0,0,0,0,
0,0,0,0,0,0,0,0,45,0,0,0,0,0,0,0,0,0,0,0,0,0,0,0,0,0,
0,0,0,0,0,0,0,0,50,0,0,0,0,0,0,0,0,0,0,0,0,0,0,0,0,0,
0,0,0,0,0,0,0,0,45,0,0,0,0,0,0,0,0,0,0,0,0,0,0,0,0,0,
0,0,0,0,0,0,0,0,50,0,0,0,0,0,0,0,0,0,0,0,0,0,0,0,0,0,
0,0,0,0,0,0,0,0,45,0,0,0,0,0,0,0,0,0,0,0,0,0,0,0,0,0,
0,0,0,0,0,0,0,0,50,0,0,0,0,0,0,0,0,0,0,0,0,0,0,0,0,0,
0,0,0,0,0,0,0,0,45,0,0,0,0,0,0,0,0,0,0,0,0,0,0,0,0,0,
0,0,0,0,0,0,0,0,50,0,0,0,0,0,0,0,0,0,0,0,0,0,0,0,0,0,
0,0,0,0,0,0,0,0,45,0,0,0,0,0,0,0,0,0,0,0,0,0,0,0,0,0,
0,0,0,0,0,0,0,0,50,0,0,0,0,0,0,0,0,0,0,0,0,0,0,0,0,0,
0,0,0,0,0,0,0,0,45,0,0,0,0,0,0,0,0,46,52,53,52,53,52,53,45,0,
0,0,0,0,0,0,0,0,50,0,0,0,0,0,0,0,0,51,0,0,0,46,0,0,50,0,
0,0,0,0,0,0,0,0,0,0,0,0,0,0,45,0,0,46,0,0,0,0,0,0,45,0,
0,0,0,0,0,0,0,0,0,0,0,0,0,0,50,0,0,51,0,0,0,0,0,0,50,0,
0,0,0,0,0,0,0,0,45,0,0,46,0,0,45,0,0,46,0,0,0,0,0,0,45,0,
0,0,0,0,0,0,0,0,50,0,0,51,0,0,50,0,0,51,0,0,0,0,0,0,50,0,
0,0,0,0,0,46,0,0,45,0,18,46,0,0,45,0,0,46,0,0,0,0,0,0,45,0,
52,53,45,0,0,51,0,0,50,0,19,51,0,0,50,0,0,51,0,0,0,0,0,0,50,0,
0,0,50,0,0,46,0,0,45,0,0,46,0,0,45,0,0,0,0,0,0,0,0,0,0,0,
0,0,45,0,0,51,0,0,50,0,0,51,0,0,50,0,0,0,0,0,0,0,0,0,0,0,
0,0,50,0,0,46,0,0,45,0,0,46,0,0,45,0,0,0,0,0,0,0,0,0,0,0,
0,0,45,0,0,51,0,0,50,0,0,51,0,0,50,0,0,0,0,0,0,0,0,0,0,0,
0,0,50,0,0,46,0,0,45,0,0,46,0,0,45,0,0,0,0,0,0,0,0,0,0,0,
0,0,45,0,0,51,0,0,50,0,0,51,0,0,50,0,0,0,0,0,0,0,0,0,0,0,
0,0,50,0,0,0,0,0,0,0,0,46,0,0,45,0,0,0,0,0,0,0,0,0,0,0,
0,0,45,0,0,0,0,64,0,0,0,51,0,0,50,0,0,0,0,0,0,0,0,0,0,0,
0,0,50,0,0,0,0,0,0,0,0,46,0,0,45,0,0,0,0,0,0,0,0,0,0,0,
0,0,45,0,0,0,0,0,0,0,0,51,0,0,50,0,0,0,0,0,0,0,0,0,0,0,
0,0,50,0,0,0,0,0,0,0,0,46,0,0,45,0,0,0,0,0,0,0,0,0,0,0,
0,0,45,0,0,0,0,0,0,0,0,51,0,0,50,0,0,0,0,0,0,0,0,0,0,0,
0,0,50,0,0,0,0,0,0,0,0,46,0,0,45,0,0,0,0,0,0,0,0,0,0,0,
0,0,0,0,0,0,0,0,0,0,0,51,0,0,50,0,0,0,0,0,0,0,0,0,0,0,
0,36,0,0,0,0,0,0,0,0,0,0,0,0,0,0,0,0,0,0,0,0,0,0,0,0,
0,38,0,0,0,0,0,0,0,0,0,0,0,0,0,0,0,0,0,0,0,0,0,0,0,0,
0,0,0,0,0,0,0,0,0,0,0,46,0,0,45,0,0,0,0,0,0,0,0,0,0,0,
0,0,0,0,0,0,0,0,0,0,0,51,0,0,50,0,0,0,0,0,0,0,0,0,0,0,
0,0,0,0,0,0,0,0,0,0,0,46,0,0,45,0,0,0,0,0,0,0,0,0,0,0,
0,0,0,0,0,0,0,0,0,0,0,51,0,0,50,0,0,0,0,0,0,0,0,0,0,0,
0,0,0,0,0,0,0,0,0,0,0,46,0,0,45,0,0,0,0,0,0,0,0,0,0,0,
0,0,0,0,0,0,0,0,0,0,0,51,0,0,50,0,0,0,0,0,0,0,0,0,0,0,
0,0,0,0,0,0,0,0,0,0,0,0,0,0,0,0,0,0,0,0,0,0,0,0,0,0,
0,0,0,0,0,0,0,0,0,0,0,0,0,0,0,0,0,0,0,0,0,0,0,0,0,0,
0,0,0,0,0,0,0,0,0,0,0,0,0,0,0,0,0,0,0,0,0,0,0,0,0,0,
0,0,0,0,0,0,0,0,0,0,0,0,0,0,0,0,0,0,0,0,0,0,0,0,0,0,
0,0,0,0,0,0,0,0,0,0,0,0,0,0,0,0,0,0,0,0,0,0,0,0,0,0,
0,0,0,0,0,0,0,0,0,0,0,0,0,0,0,0,0,53,0,0,45,0,0,0,0,0,
0,0,0,0,0,0,0,0,0,0,0,0,0,0,0,0,0,0,0,0,50,0,0,0,0,0,
0,0,0,0,0,0,0,0,0,0,0,0,0,0,0,0,0,0,0,0,0,0,45,0,0,0,
0,0,0,0,0,0,0,0,0,0,0,0,0,0,0,0,0,0,0,0,0,0,50,0,0,0,
0,0,0,0,0,0,0,0,0,0,0,0,0,0,0,0,0,0,0,0,0,0,45,0,0,0,
0,0,0,0,0,0,0,0,0,0,0,0,0,0,0,0,0,0,0,0,0,0,50,0,0,0,
0,0,0,0,0,0,0,0,0,0,0,0,0,0,0,0,0,0,0,0,0,0,45,0,0,0,
0,0,0,0,0,0,0,0,0,0,0,0,0,0,0,0,0,0,0,0,0,0,50,0,0,0,
0,0,0,0,0,0,0,0,0,0,0,0,0,0,0,0,0,0,0,0,0,0,45,0,0,0,
0,0,0,0,0,0,0,0,0,0,0,0,0,0,0,0,0,0,0,0,0,0,50,0,0,0,
0,0,0,0,0,0,0,0,0,0,0,0,0,0,0,0,0,0,0,0,0,0,45,0,0,0,
0,0,0,0,0,0,0,0,0,0,0,0,0,0,0,0,0,0,0,0,0,0,50,0,0,0,
0,0,0,0,0,0,0,0,0,0,0,0,0,0,0,0,0,0,0,0,0,0,45,0,0,0,
0,0,0,0,0,0,0,0,0,0,0,0,0,0,0,0,0,0,0,0,0,0,50,0,0,0,
0,0,0,0,0,0,0,0,0,0,0,0,0,0,0,0,0,0,0,0,0,0,45,0,0,0,
0,0,0,0,0,0,0,0,0,0,0,0,0,0,0,0,0,0,0,0,0,0,0,0,0,0
  </data>
 </layer>
 <objectgroup id="4" name="events"/>
</map>
