<?xml version="1.0" encoding="UTF-8"?>
<map version="1.10" tiledversion="1.10.2" orientation="orthogonal" renderorder="right-down" compressionlevel="0" width="42" height="160" tilewidth="32" tileheight="32" infinite="0" nextlayerid="9" nextobjectid="1">
 <tileset firstgid="1" source="route-23.tsx"/>
 <layer id="1" name="lower" width="42" height="160">
  <data encoding="csv">
4,4,4,4,4,4,4,4,4,4,4,4,4,4,4,4,4,4,4,4,32,33,34,4,4,4,4,4,4,4,4,4,4,4,4,4,4,4,4,4,4,4,
4,4,4,4,4,4,4,4,4,4,4,4,4,4,4,4,3,4,4,4,9,10,11,4,4,4,3,4,4,4,4,4,4,4,4,4,4,4,4,4,4,4,
4,4,4,4,4,4,4,4,4,4,4,4,4,4,4,3,4,4,4,4,9,10,11,4,4,4,4,4,3,4,4,4,4,4,4,4,4,4,4,4,4,4,
0,38,0,38,0,38,0,38,0,38,0,38,0,38,0,3,4,6,6,4,9,10,11,4,4,6,4,4,3,38,0,38,0,38,0,38,0,38,0,38,0,38,
0,41,0,41,0,41,0,41,0,41,0,41,0,41,0,3,6,6,4,4,12,13,14,4,6,6,6,4,3,41,0,41,0,41,0,41,0,41,0,41,0,41,
0,38,0,38,0,38,0,38,0,38,0,38,0,46,0,0,6,6,6,6,4,4,4,4,6,6,6,6,0,46,0,46,0,38,0,38,0,38,0,38,0,38,
0,41,0,41,0,41,0,41,0,41,0,0,50,51,50,51,6,6,6,6,6,4,4,6,6,6,6,6,50,51,50,51,40,41,0,41,0,41,0,41,0,41,
0,38,0,38,0,38,0,38,0,38,0,0,6,6,6,6,6,6,6,6,6,6,6,6,4,4,6,6,6,6,6,6,37,38,0,38,0,38,0,38,0,38,
0,41,0,41,0,41,0,41,0,41,0,0,6,6,6,6,6,6,4,6,6,6,6,6,6,6,6,4,6,6,6,6,40,41,0,41,0,41,0,41,0,41,
0,38,0,38,0,38,0,38,0,38,0,0,6,6,6,6,6,6,6,6,6,6,6,6,6,6,6,6,4,6,6,6,37,38,0,38,0,38,0,38,0,38,
0,41,0,41,0,41,0,41,0,41,0,0,6,6,6,6,6,6,6,6,6,6,6,6,6,6,6,6,6,6,6,6,40,41,0,41,0,41,0,41,0,41,
0,38,0,38,0,38,0,38,0,38,0,0,6,4,6,6,6,6,6,6,6,6,6,4,6,6,6,6,6,6,6,6,37,38,0,38,0,38,0,38,0,38,
0,41,0,41,0,41,0,41,0,41,0,0,6,6,6,6,6,6,6,6,6,6,6,6,6,6,4,6,6,6,6,6,40,41,0,41,0,41,0,41,0,41,
0,38,0,38,0,38,0,38,0,38,0,0,6,6,6,4,4,6,4,4,6,6,6,6,6,6,6,6,6,6,6,6,37,38,0,38,0,38,0,38,0,38,
0,41,0,41,0,41,0,41,0,41,0,0,6,6,6,6,6,6,4,6,6,6,6,6,6,6,6,6,6,6,6,6,40,41,0,41,0,41,0,41,0,41,
0,38,0,38,0,38,0,38,0,38,0,0,6,6,6,6,6,4,4,6,6,6,6,6,6,4,6,6,6,6,6,6,37,38,0,38,0,38,0,38,0,38,
0,41,0,41,0,41,0,41,0,41,0,0,6,6,4,6,4,4,6,6,6,6,6,6,6,6,6,6,6,6,6,6,40,41,0,41,0,41,0,41,0,41,
0,38,0,38,0,38,0,38,0,38,0,0,6,6,6,4,4,6,6,6,6,6,4,6,6,6,6,6,6,6,6,6,37,38,0,38,0,38,0,38,0,38,
0,41,0,41,0,41,0,41,0,41,0,0,6,6,6,4,6,6,6,6,6,6,6,6,6,6,6,6,6,6,6,6,40,41,0,41,0,41,0,41,0,41,
0,38,0,38,0,38,0,38,0,38,0,0,6,6,4,4,6,4,6,6,6,6,6,6,6,6,6,6,6,4,6,6,37,38,0,38,0,38,0,38,0,38,
0,41,0,41,0,41,0,41,0,41,0,0,6,4,4,6,6,6,6,6,6,6,6,6,6,4,4,6,6,6,6,6,40,41,0,41,0,41,0,41,0,41,
0,38,0,38,0,38,0,38,0,38,0,0,6,4,4,6,4,6,6,6,6,6,4,6,6,6,6,6,6,6,6,6,37,38,0,38,0,38,0,38,0,38,
0,41,0,41,0,41,0,41,0,41,0,0,6,4,6,6,6,6,6,6,6,6,6,6,6,6,6,6,6,6,6,6,40,41,0,41,0,41,0,41,0,41,
0,38,0,38,0,38,0,38,0,38,0,0,4,4,6,6,6,6,6,6,6,6,6,6,6,6,6,6,6,6,6,6,37,38,0,38,0,38,0,38,0,38,
0,41,0,41,0,41,0,41,0,41,0,0,4,6,4,6,6,6,6,6,6,6,6,6,6,6,6,6,6,6,6,6,40,41,0,41,0,41,0,41,0,41,
0,38,0,38,0,38,0,38,0,38,0,0,4,4,4,4,4,4,4,4,4,4,4,4,4,4,4,4,4,6,6,6,37,38,0,38,0,38,0,38,0,38,
0,41,0,41,0,41,0,41,0,41,0,0,4,4,4,73,4,4,4,4,4,4,4,4,4,4,4,4,4,6,6,6,40,41,0,41,0,41,0,41,0,41,
0,38,0,38,0,38,0,38,0,38,0,0,4,4,4,4,4,4,4,4,4,4,4,4,4,4,4,4,4,6,6,6,37,38,0,38,0,38,0,38,0,38,
0,41,0,41,0,41,0,41,0,41,0,0,25,25,25,25,25,25,25,25,4,4,4,4,4,4,4,4,4,6,6,6,40,41,0,41,0,41,0,41,0,41,
0,38,0,38,0,38,0,38,0,38,0,0,25,17,17,17,17,17,25,25,4,4,4,4,4,4,4,4,4,6,6,6,37,38,0,38,0,38,0,38,0,38,
0,41,0,41,0,41,0,41,0,41,0,0,25,25,17,17,17,17,17,25,4,4,4,4,4,4,4,4,4,4,6,6,40,41,0,41,0,41,0,41,0,41,
0,38,0,38,0,38,0,38,0,38,0,0,25,25,17,17,17,17,25,25,4,4,4,4,4,4,4,4,4,4,4,6,37,38,0,38,0,38,0,38,0,38,
0,41,0,41,0,41,0,41,0,41,0,0,17,17,17,17,17,17,17,25,4,4,4,4,4,4,4,4,4,4,4,6,40,41,0,41,0,41,0,41,0,41,
0,38,0,38,0,38,0,38,0,38,0,0,25,17,17,17,17,17,17,25,4,4,4,4,4,4,4,4,4,4,4,6,37,38,0,38,0,38,0,38,0,38,
0,41,0,41,0,41,0,41,0,41,0,0,25,17,17,17,17,17,17,25,4,4,4,4,4,4,4,6,6,6,6,6,40,41,0,41,0,41,0,41,0,41,
0,38,0,38,0,38,0,38,0,38,0,0,25,17,17,17,17,25,25,25,4,4,4,4,4,4,4,6,6,6,6,6,37,38,0,38,0,38,0,38,0,38,
0,41,0,41,0,41,0,41,0,41,0,0,25,17,17,17,17,17,25,25,4,4,4,4,4,4,4,4,4,4,4,4,40,41,0,41,0,41,0,41,0,41,
0,38,0,38,0,38,0,38,0,38,0,0,17,17,17,17,17,17,17,25,4,4,4,4,4,4,73,4,4,4,4,4,37,38,0,38,0,38,0,38,0,38,
0,41,0,41,0,41,0,41,0,41,0,0,17,25,17,17,17,25,25,25,4,4,4,4,4,4,4,4,4,4,4,4,40,41,0,41,0,41,0,41,0,41,
0,38,0,38,0,38,0,38,0,38,0,0,17,17,17,17,17,17,25,25,4,4,4,4,4,4,4,4,4,4,4,4,37,38,0,38,0,38,0,38,0,38,
0,41,0,41,0,41,0,41,0,41,0,0,25,17,17,17,17,17,17,25,4,4,4,4,4,4,4,20,20,20,20,4,40,41,0,41,0,41,0,41,0,41,
0,38,0,38,0,38,0,38,0,38,0,0,25,17,17,17,17,17,17,25,25,25,25,25,25,25,25,25,25,25,25,25,37,38,0,38,0,38,0,38,0,38,
0,41,0,41,0,41,0,41,0,41,0,41,17,17,17,17,17,17,17,17,25,17,17,17,17,17,73,17,17,25,25,25,40,41,0,41,0,41,0,41,0,41,
0,38,0,38,0,38,0,38,0,38,0,38,25,25,17,17,17,17,17,17,17,25,25,17,17,17,17,17,25,25,17,17,37,38,0,38,0,38,0,38,0,38,
0,41,0,41,0,41,0,41,0,41,0,41,25,17,17,17,17,17,17,17,17,25,25,17,17,17,17,17,17,17,17,17,40,41,0,41,0,41,0,41,0,41,
0,38,0,38,0,38,0,38,0,38,0,38,17,17,17,17,25,25,17,17,17,17,25,17,17,17,17,17,17,17,17,25,37,38,0,38,0,38,0,38,0,38,
0,41,0,41,0,41,0,41,0,41,0,41,17,17,17,17,25,25,17,17,17,17,25,25,25,17,17,17,17,17,17,17,40,41,0,41,0,41,0,41,0,41,
0,38,0,38,0,38,0,38,0,38,0,38,17,17,25,25,17,17,25,17,17,17,17,17,17,17,17,17,17,17,17,17,37,38,0,38,0,38,0,38,0,38,
0,41,0,41,0,41,0,41,0,41,0,41,25,25,17,17,17,17,17,17,17,17,17,17,17,17,17,17,17,17,17,17,40,41,0,41,0,41,0,41,0,41,
0,38,0,38,0,38,0,38,0,38,0,38,25,25,17,17,17,17,25,25,17,17,17,17,17,17,17,17,17,17,17,17,37,38,0,38,0,38,0,38,0,38,
0,41,0,41,0,41,0,41,0,41,0,41,17,17,17,17,17,17,17,17,25,25,17,17,17,17,17,17,17,17,17,17,40,41,0,41,0,41,0,41,0,41,
0,38,0,38,0,38,0,38,0,38,0,38,17,17,17,17,17,17,17,17,17,17,25,25,17,17,17,17,17,17,17,17,37,38,0,38,0,38,0,38,0,38,
0,41,0,41,0,41,0,41,0,41,0,41,17,17,17,25,25,25,25,25,25,25,17,25,17,17,17,17,17,17,17,17,40,41,0,41,0,41,0,41,0,41,
0,38,0,38,0,38,0,38,0,38,0,38,17,25,25,25,25,25,25,25,25,25,17,17,25,25,17,17,17,17,17,17,37,38,0,38,0,38,0,38,0,38,
0,41,0,41,0,41,0,41,0,41,0,41,17,17,17,17,17,17,17,17,25,25,25,17,25,17,17,17,17,17,17,17,40,41,0,41,0,41,0,41,0,41,
0,38,0,38,0,38,0,38,0,38,0,38,17,17,17,17,17,17,17,17,17,25,25,25,25,25,25,25,25,25,25,17,37,38,0,38,0,38,0,38,0,38,
0,41,0,41,0,41,0,41,0,41,0,41,17,17,17,17,17,17,17,17,17,25,25,17,17,17,17,17,17,17,17,17,40,41,0,41,0,41,0,41,0,41,
0,38,0,38,0,38,0,38,0,38,0,38,17,17,17,17,17,17,17,17,17,17,17,17,17,17,17,17,17,17,17,17,37,38,0,38,0,38,0,38,0,38,
0,41,0,41,0,41,0,41,0,41,0,41,17,17,17,17,17,17,17,17,17,17,17,17,17,17,17,17,17,17,17,17,40,41,0,41,0,41,0,41,0,41,
0,38,0,38,0,38,0,38,0,38,0,0,17,17,17,17,17,17,17,17,17,17,17,17,17,17,17,17,17,17,17,17,37,38,0,38,0,38,0,38,0,38,
0,41,0,41,0,41,0,41,0,41,0,0,17,17,17,17,17,17,17,17,17,17,17,17,17,17,17,17,17,17,17,17,40,41,0,41,0,41,0,41,0,41,
0,38,0,38,0,38,0,38,0,38,0,0,17,17,17,17,17,17,17,17,17,17,17,17,17,17,17,17,17,17,17,17,37,38,0,38,0,38,0,38,0,38,
0,41,0,41,0,41,0,41,0,41,0,0,17,17,17,17,17,17,17,25,25,17,17,17,17,17,17,17,17,17,17,17,40,41,0,41,0,41,0,41,0,41,
0,38,0,38,0,38,0,38,0,38,0,0,25,25,17,17,17,17,17,17,17,17,17,17,17,17,17,17,17,17,17,17,37,38,0,38,0,38,0,38,0,38,
0,41,0,41,0,41,0,41,0,41,0,0,25,25,17,17,25,25,17,17,25,25,17,17,25,25,25,25,25,17,17,17,40,41,0,41,0,41,0,41,0,41,
0,38,0,38,0,38,0,38,0,38,0,0,17,17,17,17,17,17,17,17,17,17,25,25,17,17,17,17,17,17,17,17,37,38,0,38,0,38,0,38,0,38,
0,41,0,41,0,41,0,41,0,41,0,0,17,17,17,17,17,17,17,17,17,17,17,17,17,17,17,17,17,17,17,17,40,41,0,41,0,41,0,41,0,41,
0,38,0,38,0,38,0,38,0,38,0,0,17,17,17,25,25,25,25,25,17,17,17,17,17,17,17,17,17,17,17,17,37,38,0,38,0,38,0,38,0,38,
0,41,0,41,0,41,0,41,0,41,0,0,17,17,17,17,17,17,17,17,17,17,17,17,17,17,17,17,17,17,17,17,40,41,0,41,0,41,0,41,0,41,
0,38,0,38,0,38,0,38,0,38,0,0,17,17,17,17,17,17,17,17,17,17,17,17,17,17,17,17,17,17,17,17,37,38,0,38,0,38,0,38,0,38,
0,41,0,41,0,41,0,41,0,41,0,0,17,17,17,17,17,17,17,17,17,17,17,17,17,17,17,17,17,17,17,17,40,41,0,41,0,41,0,41,0,41,
0,38,0,38,0,38,0,38,0,38,0,0,17,17,17,17,17,17,17,17,17,17,17,17,17,17,17,17,25,25,17,17,37,38,0,38,0,38,0,38,0,38,
0,41,0,41,0,41,0,41,0,41,0,0,17,17,17,17,17,17,17,17,17,17,17,25,25,25,17,17,17,17,17,17,40,41,0,41,0,41,0,41,0,41,
0,38,0,38,0,38,0,38,0,38,0,0,17,17,17,17,17,17,17,17,17,25,25,25,25,25,17,17,17,17,25,25,37,38,0,38,0,38,0,38,0,38,
0,41,0,41,0,41,0,41,0,41,0,0,17,17,17,17,17,17,17,17,17,25,25,25,25,17,17,17,17,17,25,25,40,41,0,41,0,41,0,41,0,41,
0,38,0,38,0,38,0,38,0,38,0,0,17,17,17,17,17,17,17,17,17,17,25,25,25,17,17,17,17,17,17,17,37,38,0,38,0,38,0,38,0,38,
0,41,0,41,0,41,0,41,0,41,0,0,17,17,17,17,17,17,17,17,17,17,17,17,17,17,17,17,17,17,17,17,40,41,0,41,0,41,0,41,0,41,
0,38,0,38,0,38,0,38,0,38,0,0,17,17,17,17,17,17,17,17,17,17,17,25,25,25,25,25,25,25,25,25,37,38,0,38,0,38,0,38,0,38,
0,41,0,41,0,41,0,41,0,41,0,0,25,25,25,25,25,25,25,25,17,17,17,25,73,73,73,73,73,73,73,25,40,41,0,41,0,41,0,41,0,41,
0,38,0,38,0,38,0,38,0,38,0,0,4,73,73,73,73,73,73,25,17,17,17,25,73,73,73,73,73,73,73,4,37,38,0,38,0,38,0,38,0,38,
0,41,0,41,0,41,0,41,0,41,0,0,4,4,4,4,4,4,4,25,17,17,17,25,4,4,4,4,4,4,4,4,40,41,0,41,0,41,0,41,0,41,
0,38,0,38,0,38,0,38,0,38,0,0,4,4,4,4,4,4,4,25,17,17,17,25,4,4,4,4,4,4,4,4,37,38,0,38,0,38,0,38,0,38,
0,41,0,41,0,41,0,41,0,41,0,0,4,4,4,4,4,4,4,25,17,17,17,25,4,4,4,4,4,4,4,4,40,41,0,41,0,41,0,41,0,41,
0,38,0,38,0,38,0,38,0,38,0,0,4,4,4,4,4,4,4,25,17,17,17,25,4,4,4,4,4,4,4,4,37,38,0,38,0,38,0,38,0,38,
0,41,0,41,0,41,0,41,0,41,0,0,4,4,4,4,25,25,25,25,17,17,17,25,4,4,4,4,4,4,4,4,40,41,0,41,0,41,0,41,0,41,
0,38,0,38,0,38,0,38,0,38,0,0,4,4,4,4,25,17,17,17,17,17,17,25,4,4,4,4,4,4,4,4,37,38,0,38,0,38,0,38,0,38,
0,41,0,41,0,41,0,41,0,41,0,0,4,4,4,4,25,17,17,17,17,17,17,25,4,4,4,4,4,4,4,4,40,41,0,41,0,41,0,41,0,41,
0,38,0,38,0,38,0,38,0,38,0,0,4,4,4,4,25,17,17,17,17,17,17,25,4,4,4,4,4,4,4,4,37,38,0,38,0,38,0,38,0,38,
0,41,0,41,0,41,0,41,0,41,0,0,4,4,4,4,25,17,17,17,25,25,25,4,4,4,4,4,4,4,4,4,40,41,0,41,0,41,0,41,0,41,
0,38,0,38,0,38,0,38,0,38,0,0,4,4,4,4,25,17,17,17,25,25,4,4,4,4,4,4,4,4,4,4,37,38,0,38,0,38,0,38,0,38,
0,41,0,41,0,41,0,41,0,41,0,0,4,4,4,4,25,17,17,25,25,25,4,4,4,4,4,4,4,4,4,4,40,41,0,41,0,41,0,41,0,41,
0,38,0,38,0,38,0,38,0,38,0,0,4,4,4,4,25,17,25,25,25,25,4,4,4,4,4,4,4,4,4,4,37,38,0,38,0,38,0,38,0,38,
0,41,0,41,0,41,0,41,0,41,0,0,4,4,4,4,25,17,25,25,25,25,4,4,4,4,4,4,4,4,4,4,40,41,0,41,0,41,0,41,0,41,
0,38,0,38,0,38,0,38,0,38,0,0,4,4,4,4,25,17,25,25,25,25,4,4,4,4,4,4,4,4,4,4,37,38,0,38,0,38,0,38,0,38,
0,41,0,41,0,41,0,41,0,41,0,0,4,4,4,3,25,17,25,17,25,25,3,3,3,3,4,4,4,4,4,4,40,41,0,41,0,41,0,41,0,41,
0,38,0,38,0,38,0,38,0,38,0,0,4,4,4,3,25,17,17,17,25,25,3,3,3,3,4,4,4,4,4,4,37,38,0,38,0,38,0,38,0,38,
0,41,0,41,0,41,0,41,0,41,0,0,4,4,4,3,25,17,17,17,25,25,3,3,3,3,4,4,4,4,4,4,40,41,0,41,0,41,0,41,0,41,
0,38,0,38,0,38,0,38,0,38,0,0,4,4,4,3,25,17,17,17,25,25,3,3,3,3,4,4,4,4,4,4,37,38,0,38,0,38,0,38,0,38,
0,41,0,41,0,41,0,41,0,41,0,0,4,4,4,3,25,17,17,17,25,25,25,3,3,3,4,4,4,4,4,4,40,41,0,41,0,41,0,41,0,41,
0,38,0,38,0,38,0,38,0,38,0,0,4,4,4,3,25,17,17,17,25,25,25,3,3,3,4,4,4,4,4,4,37,38,0,38,0,38,0,38,0,38,
0,41,0,41,0,41,0,41,0,41,0,0,4,4,4,3,25,17,17,17,25,25,25,25,25,25,4,4,4,4,4,4,40,41,0,41,0,41,0,41,0,41,
0,38,0,38,0,38,0,38,0,38,0,0,4,4,4,3,25,17,17,17,17,17,17,17,17,25,4,4,4,4,4,4,37,38,0,38,0,38,0,38,0,38,
0,41,0,41,0,41,0,41,0,41,0,0,4,4,4,3,25,17,17,17,17,17,17,17,17,25,4,4,4,4,4,4,40,41,0,41,0,41,0,41,0,41,
0,38,0,38,0,38,0,38,0,38,0,0,4,4,4,3,25,17,17,17,17,17,17,17,17,25,4,4,4,4,4,4,37,38,0,38,0,38,0,38,0,38,
0,41,0,41,0,41,0,41,0,41,0,0,4,4,4,3,25,25,25,25,25,25,17,17,17,25,4,4,4,4,4,4,40,41,0,41,0,41,0,41,0,41,
0,38,0,38,0,38,0,38,0,38,0,0,4,4,4,3,3,3,3,3,25,25,17,17,25,25,3,3,4,4,4,4,37,38,0,38,0,38,0,38,0,38,
0,41,0,41,0,41,0,41,0,41,0,0,4,4,73,73,73,73,73,73,25,25,17,25,25,25,3,3,4,4,4,4,40,41,0,41,0,41,0,41,0,41,
0,38,0,38,0,38,0,38,0,38,0,0,4,4,73,73,73,73,73,73,73,25,17,25,25,25,3,3,4,4,4,4,37,38,0,38,0,38,0,38,0,38,
0,41,0,41,0,41,0,41,0,41,0,0,4,4,73,73,73,73,73,73,73,25,17,25,25,25,3,3,4,4,4,4,40,41,0,41,0,41,0,41,0,41,
0,38,0,38,0,38,0,38,0,38,0,0,4,4,73,73,73,73,73,73,73,25,17,17,25,25,3,3,4,4,4,4,37,38,0,38,0,38,0,38,0,38,
0,41,0,41,0,41,0,41,0,41,0,0,4,4,73,73,73,73,73,73,73,25,17,17,25,25,3,3,4,4,4,4,40,41,0,41,0,41,0,41,0,41,
0,38,0,38,0,38,0,38,0,38,0,0,4,4,73,73,73,73,73,73,73,25,17,17,17,25,3,3,4,4,4,4,37,38,0,38,0,38,0,38,0,38,
0,41,0,41,0,41,0,41,0,41,0,0,4,4,73,73,73,73,73,73,73,25,17,17,17,25,3,3,4,4,4,4,40,41,0,41,0,41,0,41,0,41,
0,38,0,38,0,38,0,38,0,38,0,0,4,4,73,73,73,73,73,73,73,25,17,17,17,25,3,3,4,4,4,4,37,38,0,38,0,38,0,38,0,38,
0,41,0,41,0,41,0,41,0,41,0,0,4,4,73,73,73,73,73,73,73,25,17,17,17,25,3,3,4,4,4,4,40,41,0,41,0,41,0,41,0,41,
0,38,0,38,0,38,0,38,0,38,0,0,4,4,73,73,73,73,73,73,73,25,17,17,17,25,3,3,4,4,4,4,37,38,0,38,0,38,0,38,0,38,
0,41,0,41,0,41,0,41,0,41,0,0,4,4,73,73,73,73,73,73,73,25,17,17,17,25,3,3,4,4,4,4,40,41,0,41,0,41,0,41,0,41,
0,38,0,38,0,38,0,38,0,38,0,0,4,4,73,73,73,73,73,73,25,25,17,17,17,25,3,3,4,4,4,4,37,38,0,38,0,38,0,38,0,38,
0,41,0,41,0,41,0,41,0,41,0,0,3,3,73,73,73,73,73,73,3,25,17,17,17,25,3,3,3,3,3,3,40,41,0,41,0,41,0,41,0,41,
0,38,0,38,0,38,0,38,0,38,0,0,3,3,73,73,73,73,73,73,3,25,17,17,17,25,3,3,3,3,3,3,37,38,0,38,0,38,0,38,0,38,
0,41,0,41,0,41,0,41,0,41,0,0,3,3,73,73,73,73,73,73,3,25,17,17,17,25,3,3,3,3,3,3,40,41,0,41,0,41,0,41,0,41,
0,38,0,38,0,38,0,38,0,38,0,0,3,3,3,3,3,3,3,3,3,25,17,17,17,25,3,3,3,3,3,3,37,38,0,38,0,38,0,38,0,38,
0,41,0,41,0,41,0,41,0,41,0,0,3,25,25,25,25,25,25,25,25,25,17,17,17,25,25,25,25,25,3,3,40,41,0,41,0,41,0,41,0,41,
0,38,0,38,0,38,0,38,0,38,0,0,3,3,3,25,17,17,17,17,17,17,17,17,17,17,17,17,17,17,3,3,37,38,0,38,0,38,0,38,0,38,
0,41,0,41,0,41,0,41,0,41,0,0,1,3,3,25,17,17,17,17,17,17,17,17,17,17,17,17,17,17,3,1,40,41,0,41,0,41,0,41,0,41,
0,38,0,38,0,38,0,38,0,38,0,0,1,3,3,25,17,17,17,17,17,17,17,17,17,17,17,17,17,17,3,1,37,38,0,38,0,38,0,38,0,38,
0,41,0,41,0,41,0,41,0,41,0,0,4,3,3,25,25,25,25,17,17,17,25,25,25,25,25,25,25,25,3,2,40,41,0,41,0,41,0,41,0,41,
0,38,0,38,0,38,0,38,0,38,0,0,2,3,3,25,25,25,25,17,17,17,25,25,3,3,3,3,3,3,3,3,37,38,0,38,0,38,0,38,0,38,
0,41,0,41,0,41,0,41,0,41,0,0,4,3,3,3,25,25,25,17,4,17,25,25,3,3,3,3,3,3,3,3,40,41,0,41,0,41,0,41,0,41,
0,38,0,38,0,38,0,38,0,38,0,0,3,3,3,3,25,25,25,17,17,17,25,25,3,3,3,3,3,3,3,3,37,38,0,38,0,38,0,38,0,38,
0,41,0,41,0,41,0,41,0,41,0,0,3,3,3,3,25,25,25,17,17,4,25,25,3,3,3,3,3,3,3,3,40,41,0,41,0,41,0,41,0,41,
0,38,0,38,0,38,0,38,0,38,0,0,3,3,3,3,25,25,25,4,17,17,25,25,5,3,4,5,3,4,5,3,37,38,0,38,0,38,0,38,0,38,
0,41,0,41,0,41,0,41,0,41,0,0,3,3,3,3,3,17,17,17,17,17,25,25,2,2,2,2,2,2,2,2,40,41,0,41,0,41,0,41,0,41,
0,38,0,38,0,38,0,38,0,38,0,0,3,3,3,3,3,4,4,17,4,4,25,25,4,2,2,2,2,2,2,2,37,38,0,38,0,38,0,38,0,38,
0,41,0,41,0,41,0,41,0,41,0,0,3,3,3,3,3,4,4,4,17,17,25,25,2,2,2,2,2,2,2,2,40,41,0,41,0,41,0,41,0,41,
0,38,0,38,0,38,0,38,0,38,0,0,3,3,3,3,3,4,4,4,25,25,25,25,2,2,2,2,2,2,2,2,37,38,0,38,0,38,0,38,0,38,
0,41,0,41,0,41,0,41,0,41,0,0,3,3,3,3,19,20,21,3,3,3,3,3,3,3,3,3,3,3,3,3,40,41,0,41,0,41,0,41,0,41,
0,38,0,38,0,38,0,38,0,38,0,0,3,3,3,3,24,25,26,3,3,3,3,3,3,3,3,3,3,3,3,3,37,38,0,38,0,38,0,38,0,38,
0,41,0,41,0,41,0,41,0,41,0,0,3,3,3,3,24,25,26,3,3,3,3,3,3,3,3,3,3,3,73,3,40,41,0,41,0,41,0,41,0,41,
0,38,0,38,0,38,0,38,0,38,0,0,3,3,3,3,24,25,26,3,3,3,3,3,3,3,3,3,3,3,3,3,37,38,0,38,0,38,0,38,0,38,
0,41,0,41,0,41,0,41,0,41,0,0,3,3,3,3,24,25,26,3,4,5,3,4,5,3,4,5,3,4,5,3,40,41,0,41,0,41,0,41,0,41,
0,38,0,38,0,38,0,38,0,38,0,0,75,5,2,2,24,25,27,20,20,20,20,20,20,20,20,20,20,21,4,5,37,38,0,38,0,38,0,38,0,38,
0,41,0,41,0,41,0,41,0,41,0,41,5,5,5,7,24,25,25,25,25,25,25,25,25,25,25,25,25,26,5,4,0,41,0,41,0,41,0,41,0,41,
0,38,0,38,45,46,45,46,45,46,45,46,45,0,4,5,29,30,30,30,30,30,30,23,25,22,30,30,30,31,37,38,0,38,0,38,0,38,0,38,0,38,
3,3,3,3,3,3,3,5,5,5,5,5,5,5,5,3,3,3,2,2,3,2,2,24,25,26,2,3,2,2,40,41,0,41,0,41,0,41,0,41,0,41,
3,3,3,3,3,3,3,3,3,3,3,3,3,3,3,3,3,3,3,3,3,3,3,24,25,26,3,3,3,3,37,38,0,38,0,38,0,38,0,38,0,38,
3,3,3,3,3,3,3,3,3,3,3,3,3,3,3,3,3,3,3,3,3,3,3,24,25,26,3,3,3,3,40,41,0,41,0,41,0,41,0,41,0,41,
3,3,3,3,3,3,3,3,3,3,3,3,3,3,3,3,3,3,3,3,3,3,3,24,25,26,3,3,3,3,37,38,0,38,0,38,0,38,0,38,0,38,
3,3,3,3,3,3,3,3,3,3,3,3,3,3,3,3,3,3,3,3,3,3,3,24,25,26,3,3,3,3,40,41,0,41,0,41,0,41,0,41,0,41,
3,3,3,3,3,3,3,3,3,3,3,3,3,10,11,3,3,5,4,3,5,4,3,24,25,26,3,3,2,3,37,38,0,38,0,38,0,38,0,38,0,38,
8,8,8,8,8,8,8,8,8,8,10,10,10,10,11,2,3,19,20,20,20,20,20,28,25,26,3,2,2,2,40,41,0,41,0,41,0,41,0,41,0,41,
10,10,10,10,10,10,10,10,10,10,10,10,10,10,11,3,2,24,25,25,25,25,25,25,25,26,2,2,2,6,45,46,0,38,0,38,0,38,0,38,0,38,
13,13,13,13,13,13,13,13,13,13,10,3,3,3,3,3,2,24,25,22,30,30,30,30,30,31,4,2,2,2,3,3,40,41,0,41,0,41,0,41,0,41,
3,3,3,3,3,3,3,3,3,3,3,3,3,3,3,3,3,29,30,31,3,3,3,3,3,3,3,3,3,3,3,4,37,38,0,38,0,38,0,38,0,38,
3,3,3,3,3,3,3,3,3,3,3,3,3,3,3,3,3,3,3,3,3,3,3,3,3,3,3,3,3,3,3,3,40,41,0,41,0,41,0,41,0,41,
3,3,3,3,3,3,3,3,3,3,3,3,3,3,3,3,3,3,3,3,3,3,3,3,3,3,3,3,3,3,3,3,37,38,0,38,0,38,0,38,0,38,
3,3,3,3,3,3,3,3,3,3,3,3,3,3,3,2,3,3,3,3,3,3,3,3,3,3,3,3,3,3,3,3,40,41,0,41,0,41,0,41,0,41,
3,3,3,3,3,3,3,3,3,3,3,3,3,3,3,3,3,3,3,3,3,3,3,3,3,3,3,3,3,3,3,3,45,46,45,46,45,46,45,0,0,38,
3,3,3,3,3,3,3,3,3,3,3,3,3,3,3,3,3,3,3,3,3,3,3,3,3,3,3,3,3,3,3,3,5,5,5,3,3,3,3,3,3,3,
3,3,3,3,3,3,3,3,3,3,3,3,3,3,3,18,18,18,18,18,18,18,18,18,3,3,3,3,3,3,3,3,3,3,3,3,3,3,3,3,3,3
  </data>
 </layer>
 <layer id="2" name="middle" width="42" height="160">
  <data encoding="csv">
73,73,73,73,73,73,73,73,73,73,73,73,73,73,73,73,80,76,76,76,0,0,0,76,76,76,81,73,73,73,73,73,73,73,73,73,73,73,73,73,73,73,
73,73,73,73,73,73,73,73,73,73,73,73,73,73,80,76,77,0,0,83,0,0,0,0,0,0,75,76,81,73,73,73,73,73,73,73,73,73,73,73,73,73,
76,76,76,76,76,76,76,76,76,76,76,76,76,76,77,0,0,15,15,0,0,0,0,0,0,15,0,0,75,76,76,76,76,76,76,76,76,76,76,76,76,76,
0,0,0,0,0,0,0,0,0,0,0,0,0,0,0,0,15,15,0,0,0,0,0,0,15,15,15,0,37,0,0,0,0,0,0,0,0,0,0,0,0,0,
0,0,0,0,0,0,0,0,0,0,0,0,0,0,0,0,15,15,15,15,0,0,0,0,15,15,15,15,40,0,0,0,0,0,0,0,0,0,0,0,0,0,
0,0,0,0,0,0,0,0,0,0,0,0,0,0,0,0,15,0,0,0,15,0,0,15,15,15,15,15,0,0,0,0,0,0,0,0,0,0,0,0,0,0,
0,0,0,0,0,0,0,0,0,0,0,0,15,15,15,15,15,15,15,15,15,15,15,15,60,61,15,15,15,15,15,15,0,0,0,0,0,0,0,0,0,0,
0,0,0,0,0,0,0,0,0,0,0,0,15,15,15,15,15,15,0,15,15,15,15,15,62,63,15,0,15,15,15,15,0,0,0,0,0,0,0,0,0,0,
0,0,0,0,0,0,0,0,0,0,0,0,15,15,15,15,15,15,82,15,15,15,15,15,15,15,15,82,0,15,15,15,0,0,0,0,0,0,0,0,0,0,
0,0,0,0,0,0,0,0,0,0,0,0,15,15,15,15,15,15,15,15,15,15,15,15,15,15,15,15,82,15,15,15,0,0,0,0,0,0,0,0,0,0,
0,0,0,0,0,0,0,0,0,0,0,0,15,0,15,15,15,15,15,15,15,15,15,0,15,15,15,15,15,15,15,15,0,0,0,0,0,0,0,0,0,0,
0,0,0,0,0,0,0,0,0,0,0,0,15,82,15,15,15,15,15,15,15,15,15,82,15,15,0,15,15,15,15,15,0,0,0,0,0,0,0,0,0,0,
0,0,0,0,0,0,0,0,0,0,0,0,15,15,15,60,61,15,0,0,15,15,15,15,15,15,82,15,15,15,15,15,0,0,0,0,0,0,0,0,0,0,
0,0,0,0,0,0,0,0,0,0,0,0,15,15,15,62,63,15,0,82,15,15,15,15,15,15,15,15,15,15,15,15,0,0,0,0,0,0,0,0,0,0,
0,0,0,0,0,0,0,0,0,0,0,0,15,15,15,15,15,0,0,15,15,15,15,15,15,0,15,15,15,15,15,15,0,0,0,0,0,0,0,0,0,0,
0,0,0,0,0,0,0,0,0,0,0,0,15,15,0,15,0,0,15,15,15,15,15,15,15,82,15,15,15,15,15,15,0,0,0,0,0,0,0,0,0,0,
0,0,0,0,0,0,0,0,0,0,0,0,15,15,82,0,0,15,15,15,15,15,0,15,15,15,15,15,15,15,15,15,0,0,0,0,0,0,0,0,0,0,
0,0,0,0,0,0,0,0,0,0,0,0,15,15,15,0,15,15,15,15,15,15,82,15,15,15,15,15,15,15,15,15,0,0,0,0,0,0,0,0,0,0,
0,0,0,0,0,0,0,0,0,0,0,0,15,15,0,0,15,0,15,15,15,15,15,15,15,15,15,15,15,0,15,15,0,0,0,0,0,0,0,0,0,0,
0,0,0,0,0,0,0,0,0,0,0,0,15,0,0,15,15,82,15,15,15,15,15,15,15,60,61,15,15,82,15,15,0,0,0,0,0,0,0,0,0,0,
0,0,0,0,0,0,0,0,0,0,0,0,15,60,61,15,0,15,15,15,15,15,0,15,15,62,63,15,15,15,15,15,0,0,0,0,0,0,0,0,0,0,
0,0,0,0,0,0,0,0,0,0,0,0,15,62,63,15,82,15,15,15,15,15,82,15,15,15,15,15,15,15,15,15,0,0,0,0,0,0,0,0,0,0,
0,0,0,0,0,0,0,0,0,0,0,0,0,0,15,15,15,15,15,15,15,15,15,15,15,15,15,15,15,15,15,15,0,0,0,0,0,0,0,0,0,0,
0,0,0,0,0,0,0,0,0,0,0,0,0,15,0,15,15,15,15,15,15,15,15,15,15,15,15,15,15,15,15,15,0,0,0,0,0,0,0,0,0,0,
0,0,0,0,0,0,0,0,0,0,0,0,0,0,0,0,0,0,0,0,0,0,0,0,0,0,0,0,0,15,15,15,0,0,0,0,0,0,0,0,0,0,
0,0,0,0,0,0,0,0,0,0,0,0,0,0,64,65,65,65,65,65,65,65,65,65,65,65,65,65,66,15,15,15,0,0,0,0,0,0,0,0,0,0,
0,0,0,0,0,0,0,0,0,0,0,0,64,65,71,64,68,68,68,68,68,68,68,68,68,68,68,69,74,15,15,15,0,0,0,0,0,0,0,0,0,0,
0,0,0,0,0,0,0,0,0,0,0,0,72,67,68,71,73,73,73,73,73,73,73,73,73,73,73,74,74,15,15,15,0,0,0,0,0,0,0,0,0,0,
0,0,0,0,0,0,0,0,0,0,0,0,72,72,73,73,73,73,73,73,73,73,73,73,73,73,73,74,74,15,15,15,0,0,0,0,0,0,0,0,0,0,
0,0,0,0,0,0,0,0,0,0,0,0,72,72,73,73,73,73,73,73,73,73,73,73,73,73,73,74,74,0,15,15,0,0,0,0,0,0,0,0,0,0,
0,0,0,0,0,0,0,0,0,0,0,0,72,72,73,73,73,73,73,73,73,73,73,73,73,73,73,70,70,66,0,15,0,0,0,0,0,0,0,0,0,0,
0,0,0,0,0,0,0,0,0,0,0,0,72,72,73,73,73,73,73,73,73,73,73,73,73,73,73,73,73,74,66,15,0,0,0,0,0,0,0,0,0,0,
0,0,0,0,0,0,0,0,0,0,0,0,72,78,76,76,76,76,76,76,81,73,73,73,73,80,76,76,76,79,74,15,0,0,0,0,0,0,0,0,0,0,
0,0,0,0,0,0,0,0,0,0,0,0,75,76,76,76,76,76,76,81,72,73,73,73,73,74,80,76,76,76,77,15,0,0,0,0,0,0,0,0,0,0,
0,0,0,0,0,0,0,0,0,0,0,0,0,0,0,0,0,0,0,72,72,73,73,73,73,74,74,15,15,15,15,15,0,0,0,0,0,0,0,0,0,0,
0,0,0,0,0,0,0,0,0,0,0,0,82,0,0,0,0,0,0,72,72,73,73,73,73,74,74,0,0,0,0,0,0,0,0,0,0,0,0,0,0,0,
0,0,0,0,0,0,0,0,0,0,0,0,15,0,0,0,0,0,0,72,72,73,73,73,73,74,70,66,0,64,65,66,0,0,0,0,0,0,0,0,0,0,
0,0,0,0,0,0,0,0,0,0,0,0,15,0,0,0,0,60,61,72,72,73,73,73,73,70,66,74,0,72,73,74,0,0,0,0,0,0,0,0,0,0,
0,0,0,0,0,0,0,0,0,0,0,0,15,82,0,0,0,62,63,72,72,73,73,73,73,73,74,74,0,72,73,74,0,0,0,0,0,0,0,0,0,0,
0,0,0,0,0,0,0,0,0,0,0,0,0,0,0,0,0,0,82,72,72,73,73,73,73,73,74,74,0,72,73,74,0,0,0,0,0,0,0,0,0,0,
0,0,0,0,0,0,0,0,0,0,0,0,82,0,0,0,0,0,0,72,78,81,73,73,73,73,74,74,0,72,73,74,0,0,0,0,0,0,0,0,0,0,
0,0,0,0,0,0,0,0,0,0,0,0,15,15,0,0,0,0,82,72,73,72,73,73,73,73,74,74,0,72,73,74,0,0,0,0,0,0,0,0,0,0,
0,0,0,0,0,0,0,0,0,0,0,0,60,61,0,0,0,0,82,72,73,78,76,76,76,76,77,74,0,72,73,74,0,0,0,0,0,0,0,0,0,0,
0,0,0,0,0,0,0,0,0,0,0,0,62,63,0,0,0,0,0,72,73,73,73,73,73,73,73,74,0,72,73,74,0,0,0,0,0,0,0,0,0,0,
0,0,0,0,0,0,0,0,0,0,0,0,15,0,0,0,0,0,0,75,76,76,76,76,76,76,76,77,0,75,76,77,0,0,0,0,0,0,0,0,0,0,
0,0,0,0,0,0,0,0,0,0,0,0,15,15,15,15,60,61,0,0,0,0,82,60,61,0,0,0,0,0,0,15,0,0,0,0,0,0,0,0,0,0,
0,0,0,0,0,0,0,0,0,0,0,0,0,0,60,61,62,63,0,0,0,0,82,62,63,0,0,0,0,0,0,15,0,0,0,0,0,0,0,0,0,0,
0,0,0,0,0,0,0,0,0,0,0,0,0,0,62,63,0,0,82,15,0,0,0,0,0,0,0,0,0,0,0,15,0,0,0,0,0,0,0,0,0,0,
0,0,0,0,0,0,0,0,0,0,0,0,82,82,0,0,0,0,60,61,15,15,0,0,0,0,0,0,0,0,0,15,0,0,0,0,0,0,0,0,0,0,
0,0,0,0,0,0,0,0,0,0,0,0,15,0,0,0,0,0,62,63,60,61,0,0,0,0,0,0,0,0,0,15,0,0,0,0,0,0,0,0,0,0,
0,0,0,0,0,0,0,0,0,0,0,0,15,0,0,0,0,0,0,0,62,63,0,0,0,0,0,0,0,0,0,15,0,0,0,0,0,0,0,0,0,0,
0,0,0,0,0,0,0,0,0,0,0,0,15,0,0,0,0,0,0,0,0,0,82,82,0,0,0,0,0,0,0,15,0,0,0,0,0,0,0,0,0,0,
0,0,0,0,0,0,0,0,0,0,0,0,15,0,0,64,65,65,65,66,0,0,0,82,60,61,0,0,0,0,0,15,0,0,0,0,0,0,0,0,0,0,
0,0,0,0,0,0,0,0,0,0,0,0,15,64,65,71,73,73,73,74,0,0,0,0,62,63,0,0,0,0,0,15,0,0,0,0,0,0,0,0,0,0,
0,0,0,0,0,0,0,0,0,0,0,0,15,72,73,73,73,73,73,74,0,0,0,0,82,0,0,0,0,0,0,15,0,0,0,0,0,0,0,0,0,0,
0,0,0,0,0,0,0,0,0,0,0,0,15,72,73,73,73,73,73,74,0,0,0,72,65,65,65,65,65,65,66,15,0,0,0,0,0,0,0,0,0,0,
0,0,0,0,0,0,0,0,0,0,0,0,15,72,73,73,73,73,73,74,0,0,0,72,73,73,73,73,73,73,74,15,0,0,0,0,0,0,0,0,0,0,
0,0,0,0,0,0,0,0,0,0,0,0,15,72,73,73,73,73,73,74,0,0,0,75,76,81,73,73,73,73,74,15,0,0,0,0,0,0,0,0,0,0,
0,0,0,0,0,0,0,0,0,0,0,0,15,72,73,73,73,73,73,74,0,0,0,0,0,72,73,73,73,73,74,15,0,0,0,0,0,0,0,0,0,0,
0,0,0,0,0,0,0,0,0,0,0,0,15,75,81,73,73,73,73,74,0,0,0,0,0,75,76,76,76,76,77,15,0,0,0,0,0,0,0,0,0,0,
0,0,0,0,0,0,0,0,0,0,0,0,15,0,75,81,73,73,73,74,0,0,0,0,0,0,0,0,0,0,0,15,0,0,0,0,0,0,0,0,0,0,
0,0,0,0,0,0,0,0,0,0,0,0,15,0,0,75,76,76,76,77,0,0,0,0,0,0,0,0,0,0,0,15,0,0,0,0,0,0,0,0,0,0,
0,0,0,0,0,0,0,0,0,0,0,0,60,61,0,0,0,0,0,82,82,0,0,0,0,0,0,0,0,0,0,15,0,0,0,0,0,0,0,0,0,0,
0,0,0,0,0,0,0,0,0,0,0,0,62,63,0,0,60,61,0,0,60,61,0,0,0,0,0,0,0,0,0,15,0,0,0,0,0,0,0,0,0,0,
0,0,0,0,0,0,0,0,0,0,0,0,15,0,0,0,62,63,0,0,62,63,60,61,64,65,65,65,66,0,0,15,0,0,0,0,0,0,0,0,0,0,
0,0,0,0,0,0,0,0,0,0,0,0,15,0,0,0,0,0,0,0,0,0,62,63,72,73,73,73,74,0,0,15,0,0,0,0,0,0,0,0,0,0,
0,0,0,0,0,0,0,0,0,0,0,0,15,0,0,0,0,0,0,0,0,0,0,0,72,73,73,73,74,0,0,15,0,0,0,0,0,0,0,0,0,0,
0,0,0,0,0,0,0,0,0,0,0,0,15,0,0,64,65,65,65,66,0,0,0,0,72,73,73,73,74,0,0,15,0,0,0,0,0,0,0,0,0,0,
0,0,0,0,0,0,0,0,0,0,0,0,15,0,0,72,73,73,73,74,0,0,0,0,72,73,73,73,74,0,0,15,0,0,0,0,0,0,0,0,0,0,
0,0,0,0,0,0,0,0,0,0,0,0,15,64,65,71,73,73,73,74,0,0,0,0,75,76,76,76,77,0,0,15,0,0,0,0,0,0,0,0,0,0,
0,0,0,0,0,0,0,0,0,0,0,0,15,72,73,73,73,73,73,74,0,0,0,0,0,0,0,0,60,61,0,15,0,0,0,0,0,0,0,0,0,0,
0,0,0,0,0,0,0,0,0,0,0,0,15,72,73,73,73,73,73,74,0,0,0,0,0,0,0,0,62,63,0,15,0,0,0,0,0,0,0,0,0,0,
0,0,0,0,0,0,0,0,0,0,0,0,15,72,73,73,73,80,76,77,0,0,0,0,0,0,0,0,0,0,60,61,0,0,0,0,0,0,0,0,0,0,
0,0,0,0,0,0,0,0,0,0,0,0,15,72,73,73,73,74,0,0,0,0,0,0,0,0,0,0,0,0,62,63,0,0,0,0,0,0,0,0,0,0,
0,0,0,0,0,0,0,0,0,0,0,0,15,75,76,76,76,77,0,0,0,0,0,0,0,0,0,0,0,0,0,15,0,0,0,0,0,0,0,0,0,0,
0,0,0,0,0,0,0,0,0,0,0,0,15,0,0,0,0,0,0,0,0,0,0,0,0,0,0,0,0,0,0,15,0,0,0,0,0,0,0,0,0,0,
0,0,0,0,0,0,0,0,0,0,0,0,15,0,0,0,0,0,0,0,0,0,0,0,0,0,0,0,0,0,0,0,0,0,0,0,0,0,0,0,0,0,
0,0,0,0,0,0,0,0,0,0,0,0,0,0,0,0,0,0,0,0,0,0,0,64,65,65,65,65,65,65,65,66,0,0,0,0,0,0,0,0,0,0,
0,0,0,0,0,0,0,0,0,0,0,0,64,65,65,65,65,65,65,66,0,0,0,72,67,65,65,65,65,65,69,74,0,0,0,0,0,0,0,0,0,0,
0,0,0,0,0,0,0,0,0,0,0,0,72,67,65,65,65,65,69,74,0,0,0,72,72,67,65,65,65,69,74,74,0,0,0,0,0,0,0,0,0,0,
0,0,0,0,0,0,0,0,0,0,0,0,72,72,73,73,73,73,74,74,0,0,0,72,72,72,73,73,73,74,74,74,0,0,0,0,0,0,0,0,0,0,
0,0,0,0,0,0,0,0,0,0,0,0,72,72,73,73,73,73,74,74,0,0,0,72,72,72,73,73,73,74,74,74,0,0,0,0,0,0,0,0,0,0,
0,0,0,0,0,0,0,0,0,0,0,0,72,72,73,73,73,73,74,74,0,0,0,72,72,72,73,73,73,74,74,74,0,0,0,0,0,0,0,0,0,0,
0,0,0,0,0,0,0,0,0,0,0,0,72,72,73,80,76,76,79,74,0,0,0,72,72,72,73,73,73,74,74,74,0,0,0,0,0,0,0,0,0,0,
0,0,0,0,0,0,0,0,0,0,0,0,72,72,73,74,80,76,76,77,0,0,0,72,72,72,73,73,73,74,74,74,0,0,0,0,0,0,0,0,0,0,
0,0,0,0,0,0,0,0,0,0,0,0,72,72,73,74,74,0,0,0,0,0,0,72,72,72,73,73,73,74,74,74,0,0,0,0,0,0,0,0,0,0,
0,0,0,0,0,0,0,0,0,0,0,0,72,72,73,74,74,0,0,0,0,0,0,72,72,72,73,73,73,74,74,74,0,0,0,0,0,0,0,0,0,0,
0,0,0,0,0,0,0,0,0,0,0,0,72,72,73,74,74,0,0,0,0,0,0,72,72,72,73,73,73,74,74,74,0,0,0,0,0,0,0,0,0,0,
0,0,0,0,0,0,0,0,0,0,0,0,72,72,73,74,74,0,0,0,64,65,65,71,72,72,73,73,73,74,74,74,0,0,0,0,0,0,0,0,0,0,
0,0,0,0,0,0,0,0,0,0,0,0,72,72,73,74,74,0,0,0,72,67,73,73,71,72,73,73,73,74,74,74,0,0,0,0,0,0,0,0,0,0,
0,0,0,0,0,0,0,0,0,0,0,0,72,72,73,74,74,0,0,0,72,72,67,73,73,71,73,73,73,74,74,74,0,0,0,0,0,0,0,0,0,0,
0,0,0,0,0,0,0,0,0,0,0,0,72,72,73,74,74,0,0,0,72,72,72,73,73,73,73,73,73,74,74,74,0,0,0,0,0,0,0,0,0,0,
0,0,0,0,0,0,0,0,0,0,0,0,72,72,73,74,74,0,0,0,72,72,72,73,73,73,73,73,73,74,74,74,0,0,0,0,0,0,0,0,0,0,
0,0,0,0,0,0,0,0,0,0,0,0,72,72,73,74,74,0,0,0,72,72,72,73,73,73,73,73,73,74,74,74,0,0,0,0,0,0,0,0,0,0,
0,0,0,0,0,0,0,0,0,0,0,0,72,72,73,74,74,0,0,0,72,72,72,73,73,73,73,73,73,74,74,74,0,0,0,0,0,0,0,0,0,0,
0,0,0,0,0,0,0,0,0,0,0,0,72,72,73,74,74,0,0,0,72,72,72,73,73,73,73,73,73,74,74,74,0,0,0,0,0,0,0,0,0,0,
0,0,0,0,0,0,0,0,0,0,0,0,72,72,73,74,74,0,0,0,72,72,72,73,73,73,73,73,73,74,74,74,0,0,0,0,0,0,0,0,0,0,
0,0,0,0,0,0,0,0,0,0,0,0,72,72,73,74,74,0,0,0,72,72,72,73,73,73,73,73,73,74,74,74,0,0,0,0,0,0,0,0,0,0,
0,0,0,0,0,0,0,0,0,0,0,0,72,72,73,74,74,0,0,0,72,72,78,76,76,76,76,81,73,74,74,74,0,0,0,0,0,0,0,0,0,0,
0,0,0,0,0,0,0,0,0,0,0,0,72,72,73,74,74,0,0,0,72,78,76,76,76,76,81,72,73,74,74,74,0,0,0,0,0,0,0,0,0,0,
0,0,0,0,0,0,0,0,0,0,0,0,72,72,73,74,74,0,0,0,75,76,76,76,76,81,72,72,73,74,74,74,0,0,0,0,0,0,0,0,0,0,
0,0,0,0,0,0,0,0,0,0,0,0,72,72,73,74,74,0,0,0,0,0,0,0,0,72,72,72,73,74,74,74,0,0,0,0,0,0,0,0,0,0,
0,0,0,0,0,0,0,0,0,0,0,0,72,72,73,74,74,0,0,0,0,0,0,0,0,72,72,72,73,74,74,74,0,0,0,0,0,0,0,0,0,0,
0,0,0,0,0,0,0,0,0,0,0,0,72,72,73,74,74,0,0,0,0,0,0,0,0,72,72,72,73,74,74,74,0,0,0,0,0,0,0,0,0,0,
0,0,0,0,0,0,0,0,0,0,0,0,72,78,76,79,70,65,65,65,65,66,0,0,0,72,72,72,73,74,74,74,0,0,0,0,0,0,0,0,0,0,
0,0,0,0,0,0,0,0,0,0,0,0,72,73,73,73,73,73,73,73,73,74,0,0,0,72,72,72,73,74,74,74,0,0,0,0,0,0,0,0,0,0,
0,0,0,0,0,0,0,0,0,0,0,0,72,73,64,65,65,65,66,73,73,74,0,0,0,72,72,72,73,74,74,74,0,0,0,0,0,0,0,0,0,0,
0,0,0,0,0,0,0,0,0,0,0,0,72,73,72,73,73,73,70,66,73,74,0,0,0,72,72,72,73,74,74,74,0,0,0,0,0,0,0,0,0,0,
0,0,0,0,0,0,0,0,0,0,0,0,72,73,72,73,73,73,73,70,66,74,0,0,0,72,72,72,73,74,74,74,0,0,0,0,0,0,0,0,0,0,
0,0,0,0,0,0,0,0,0,0,0,0,72,73,72,73,73,73,73,73,74,74,0,0,0,72,72,72,73,74,74,74,0,0,0,0,0,0,0,0,0,0,
0,0,0,0,0,0,0,0,0,0,0,0,72,73,72,73,73,73,73,73,74,74,0,0,0,72,72,72,73,74,74,74,0,0,0,0,0,0,0,0,0,0,
0,0,0,0,0,0,0,0,0,0,0,0,72,73,72,73,73,73,73,73,74,74,0,0,0,72,72,72,73,74,74,74,0,0,0,0,0,0,0,0,0,0,
0,0,0,0,0,0,0,0,0,0,0,0,72,73,72,73,73,73,73,73,74,74,0,0,0,72,72,72,73,74,74,74,0,0,0,0,0,0,0,0,0,0,
0,0,0,0,0,0,0,0,0,0,0,0,72,73,72,73,73,73,73,73,74,74,0,0,0,72,72,72,73,74,74,74,0,0,0,0,0,0,0,0,0,0,
0,0,0,0,0,0,0,0,0,0,0,0,72,73,72,73,73,73,73,73,74,74,0,0,0,72,72,72,73,74,74,74,0,0,0,0,0,0,0,0,0,0,
0,0,0,0,0,0,0,0,0,0,0,0,72,73,72,73,73,73,73,80,77,74,0,0,0,72,72,72,73,74,74,74,0,0,0,0,0,0,0,0,0,0,
0,0,0,0,0,0,0,0,0,0,0,0,72,73,72,73,73,73,73,74,73,74,0,0,0,72,72,72,73,74,74,74,0,0,0,0,0,0,0,0,0,0,
0,0,0,0,0,0,0,0,0,0,0,0,72,73,75,81,73,73,73,74,73,74,0,0,0,72,72,72,73,74,74,74,0,0,0,0,0,0,0,0,0,0,
0,0,0,0,0,0,0,0,0,0,0,0,72,73,73,75,81,73,73,74,73,74,0,0,0,72,72,72,73,74,74,74,0,0,0,0,0,0,0,0,0,0,
0,0,0,0,0,0,0,0,0,0,0,0,72,73,73,73,72,73,73,74,73,74,0,0,0,72,72,78,81,74,74,74,0,0,0,0,0,0,0,0,0,0,
0,0,0,0,0,0,0,0,0,0,0,0,72,73,73,73,75,76,76,77,73,74,0,0,0,72,72,73,78,79,74,74,0,0,0,0,0,0,0,0,0,0,
0,0,0,0,0,0,0,0,0,0,0,0,72,73,73,73,73,73,73,73,73,74,0,0,0,72,78,76,76,76,79,74,0,0,0,0,0,0,0,0,0,0,
0,0,0,0,0,0,0,0,0,0,0,0,72,73,73,80,76,76,76,76,76,77,0,0,0,75,76,76,76,81,73,74,0,0,0,0,0,0,0,0,0,0,
0,0,0,0,0,0,0,0,0,0,0,0,72,73,73,74,0,0,0,0,0,0,0,0,0,0,0,0,0,72,73,74,0,0,0,0,0,0,0,0,0,0,
0,0,0,0,0,0,0,0,0,0,0,0,72,73,73,74,0,0,0,0,0,0,0,0,0,0,0,0,0,72,73,74,0,0,0,0,0,0,0,0,0,0,
0,0,0,0,0,0,0,0,0,0,0,0,72,73,73,74,0,0,0,0,0,0,0,0,0,0,0,0,0,72,73,74,0,0,0,0,0,0,0,0,0,0,
0,0,0,0,0,0,0,0,0,0,0,0,72,73,73,70,65,65,66,0,0,0,64,65,65,65,65,65,65,71,73,74,0,0,0,0,0,0,0,0,0,0,
0,0,0,0,0,0,0,0,0,0,0,0,72,67,68,69,73,73,74,0,0,0,72,67,68,68,68,68,68,68,69,74,0,0,0,0,0,0,0,0,0,0,
0,0,0,0,0,0,0,0,0,0,0,0,72,72,73,74,73,73,74,0,0,0,72,72,73,73,73,73,73,73,74,74,0,0,0,0,0,0,0,0,0,0,
0,0,0,0,0,0,0,0,0,0,0,0,72,72,73,74,73,73,74,0,0,0,72,72,73,73,73,73,73,73,74,74,0,0,0,0,0,0,0,0,0,0,
0,0,0,0,0,0,0,0,0,0,0,0,72,72,73,74,73,73,74,0,0,0,72,72,73,73,73,73,73,73,74,74,0,0,0,0,0,0,0,0,0,0,
0,0,0,0,0,0,0,0,0,0,0,0,72,72,73,74,80,76,77,15,0,0,72,72,73,73,73,73,73,73,74,74,0,0,0,0,0,0,0,0,0,0,
0,0,0,0,0,0,0,0,0,0,0,0,72,72,73,74,74,0,0,0,0,0,72,72,73,73,73,73,73,73,74,74,0,0,0,0,0,0,0,0,0,0,
0,0,0,0,0,0,0,0,0,0,0,0,72,78,76,79,74,0,0,0,0,0,72,72,73,73,73,73,73,73,74,74,0,0,0,0,0,0,0,0,0,0,
0,0,0,0,0,0,0,0,0,0,0,0,72,73,73,73,74,0,0,0,0,0,72,72,73,73,73,73,73,73,74,74,0,0,0,0,0,0,0,0,0,0,
0,0,0,0,0,0,0,0,0,0,0,0,72,73,73,80,77,0,0,64,65,65,71,72,73,73,73,73,73,73,74,74,0,0,0,0,0,0,0,0,0,0,
0,0,0,0,0,0,0,0,0,0,0,0,72,73,73,74,0,0,0,72,67,68,68,71,73,73,73,73,73,73,74,74,0,0,0,0,0,0,0,0,0,0,
0,0,0,0,0,0,0,0,0,0,0,0,72,73,73,74,0,0,0,72,72,73,73,73,73,73,73,73,73,73,74,74,0,0,0,0,0,0,0,0,0,0,
0,0,0,0,0,0,0,0,0,0,0,0,72,73,73,74,0,0,0,72,72,73,80,76,76,76,76,76,76,76,77,74,0,0,0,0,0,0,0,0,0,0,
0,0,0,0,0,0,0,0,0,0,0,0,72,73,73,74,0,0,0,72,78,76,79,73,73,73,73,73,73,73,73,74,0,0,0,0,0,0,0,0,0,0,
0,0,0,0,0,0,0,0,0,0,0,0,72,73,73,74,0,0,0,75,76,76,76,76,76,76,76,76,76,76,76,77,0,0,0,0,0,0,0,0,0,0,
0,0,0,0,0,0,0,0,0,0,0,0,0,76,76,77,0,0,0,0,0,0,0,0,0,0,0,0,0,0,0,0,0,0,0,0,0,0,0,0,0,0,
0,0,0,0,0,0,0,0,0,0,0,0,0,0,0,0,0,0,0,0,0,0,0,0,0,0,0,0,0,0,0,0,0,0,0,0,0,0,0,0,0,0,
0,0,0,0,0,0,0,0,0,0,0,0,0,0,0,0,0,0,0,0,0,0,0,0,0,0,0,0,0,0,0,0,0,0,0,0,0,0,0,0,0,0,
65,65,65,65,65,65,65,65,65,65,65,65,65,65,65,65,65,66,0,0,0,0,0,0,0,0,64,65,65,66,0,0,0,0,0,0,0,0,0,0,0,0,
68,68,68,68,68,68,68,68,68,68,68,68,68,68,68,69,73,70,65,65,65,65,66,0,0,0,72,73,73,74,0,0,0,0,0,0,0,0,0,0,0,0,
73,73,73,73,73,73,73,73,73,73,73,73,73,73,73,70,68,68,68,68,68,69,74,0,0,0,72,73,73,74,0,0,0,0,0,0,0,0,0,0,0,0,
73,73,73,73,73,73,73,73,68,68,68,68,68,68,68,68,68,68,73,73,73,74,74,0,0,0,72,73,73,74,0,0,0,0,0,0,0,0,0,0,0,0,
76,76,76,76,76,76,76,76,76,76,76,76,76,76,76,76,76,76,76,76,76,79,74,0,0,0,72,73,73,74,0,0,0,0,0,0,0,0,0,0,0,0,
76,76,76,76,76,76,76,76,76,76,76,76,76,76,76,76,76,76,76,76,76,76,77,0,0,0,75,76,76,77,0,0,0,0,0,0,0,0,0,0,0,0,
0,0,0,0,0,0,0,0,0,102,103,104,105,106,107,0,0,0,0,0,0,0,0,0,0,0,16,16,16,15,0,0,0,0,0,0,0,0,0,0,0,0,
0,0,0,0,0,0,0,0,0,108,109,110,111,112,113,0,0,0,0,0,0,0,0,0,0,0,16,16,16,15,0,0,0,0,0,0,0,0,0,0,0,0,
0,0,0,0,0,0,0,0,0,114,115,116,117,118,119,0,0,0,0,0,0,0,0,0,0,0,16,16,16,16,52,53,0,0,0,0,0,0,0,0,0,0,
65,65,65,65,65,65,65,65,65,65,65,65,65,65,65,66,0,0,0,0,16,16,16,64,65,65,65,65,65,65,65,66,0,0,0,0,0,0,0,0,0,0,
73,73,73,73,73,73,73,73,73,73,73,73,73,73,73,74,16,16,16,16,16,16,16,72,67,68,68,68,68,68,69,74,0,0,0,0,0,0,0,0,0,0,
73,73,73,73,73,73,73,73,73,73,73,73,73,73,73,74,16,16,16,16,16,16,16,72,72,73,73,73,73,73,74,74,0,0,0,0,0,0,0,0,0,0,
73,73,73,73,73,73,73,73,73,73,73,73,73,73,73,74,16,16,16,16,16,16,16,72,72,73,73,73,73,73,74,74,0,0,0,0,0,0,0,0,0,0,
73,73,73,73,65,65,65,65,65,65,65,65,65,65,66,74,16,16,16,16,16,16,16,72,72,73,73,73,73,73,74,74,0,0,0,0,0,0,0,0,0,0,
73,73,73,73,65,73,73,73,73,73,73,73,80,76,77,74,16,16,16,16,16,16,16,72,72,73,73,73,73,73,70,70,65,65,65,65,65,65,65,65,65,65,
73,73,73,73,68,65,65,65,65,65,65,65,74,80,76,77,16,16,16,16,16,16,16,72,72,73,73,73,73,73,73,73,73,73,73,73,73,73,73,73,73,73
  </data>
 </layer>
 <layer id="3" name="upper" width="42" height="160">
  <data encoding="csv">
0,0,0,0,0,0,0,0,0,0,0,0,0,0,0,0,0,0,0,0,0,0,0,0,0,0,0,0,0,0,0,0,0,0,0,0,0,0,0,0,0,0,
0,0,0,0,0,0,0,0,0,0,0,0,0,0,0,0,0,0,0,0,0,0,0,0,0,0,0,0,0,0,0,0,0,0,0,0,0,0,0,0,0,0,
0,0,0,0,0,0,0,0,0,0,0,0,0,0,0,0,0,0,0,0,0,0,0,0,0,0,0,0,0,0,0,0,0,0,0,0,0,0,0,0,0,0,
0,0,0,0,0,0,0,0,0,0,0,0,0,0,0,0,0,0,0,0,0,0,0,0,0,0,0,0,0,0,0,0,0,0,0,0,0,0,0,0,0,0,
0,0,0,0,0,0,0,0,0,0,0,0,0,0,0,0,0,0,0,0,0,0,0,0,0,0,0,0,0,0,0,0,0,0,0,0,0,0,0,0,0,0,
0,0,0,0,0,0,0,0,0,0,0,0,0,0,0,0,0,15,15,15,0,0,0,0,0,0,0,0,0,0,0,0,0,0,0,0,0,0,0,0,0,0,
0,0,0,0,0,0,0,0,0,0,0,0,0,0,0,0,0,0,0,0,0,0,0,0,0,0,0,0,0,0,0,0,0,0,0,0,0,0,0,0,0,0,
0,0,0,0,0,0,0,0,0,0,0,0,0,0,0,0,0,0,0,0,0,0,0,0,15,15,0,0,0,0,0,0,0,0,0,0,0,0,0,0,0,0,
0,0,0,0,0,0,0,0,0,0,0,0,0,0,0,0,0,0,15,0,0,0,0,0,0,0,0,15,0,0,0,0,0,0,0,0,0,0,0,0,0,0,
0,0,0,0,0,0,0,0,0,0,0,0,0,0,0,0,0,0,0,0,0,0,0,0,0,0,0,0,15,0,0,0,0,0,0,0,0,0,0,0,0,0,
0,0,0,0,0,0,0,0,0,0,0,0,0,0,0,0,0,0,0,0,0,0,0,0,0,0,0,0,0,0,0,0,0,0,0,0,0,0,0,0,0,0,
0,0,0,0,0,0,0,0,0,0,0,0,0,15,0,0,0,0,0,0,0,0,0,15,0,0,0,0,0,0,0,0,0,0,0,0,0,0,0,0,0,0,
0,0,0,0,0,0,0,0,0,0,0,0,0,0,0,0,0,0,0,0,0,0,0,0,0,0,15,0,0,0,0,0,0,0,0,0,0,0,0,0,0,0,
0,0,0,0,0,0,0,0,0,0,0,0,0,0,0,15,15,0,0,15,0,0,0,0,0,0,0,0,0,0,0,0,0,0,0,0,0,0,0,0,0,0,
0,0,0,0,0,0,0,0,0,0,0,0,0,0,0,0,0,0,0,0,0,0,0,0,0,0,0,0,0,0,0,0,0,0,0,0,0,0,0,0,0,0,
0,0,0,0,0,0,0,0,0,0,0,0,0,0,0,0,0,0,0,0,0,0,0,0,0,15,0,0,0,0,0,0,0,0,0,0,0,0,0,0,0,0,
0,0,0,0,0,0,0,0,0,0,0,0,0,0,15,0,0,0,0,0,0,0,0,0,0,0,0,0,0,0,0,0,0,0,0,0,0,0,0,0,0,0,
0,0,0,0,0,0,0,0,0,0,0,0,0,0,0,0,0,0,0,0,0,0,15,0,0,0,0,0,0,0,0,0,0,0,0,0,0,0,0,0,0,0,
0,0,0,0,0,0,0,0,0,0,0,0,0,0,0,0,0,0,0,0,0,0,0,0,0,0,0,0,0,0,0,0,0,0,0,0,0,0,0,0,0,0,
0,0,0,0,0,0,0,0,0,0,0,0,0,0,0,0,0,15,0,0,0,0,0,0,0,0,0,0,0,15,0,0,0,0,0,0,0,0,0,0,0,0,
0,0,0,0,0,0,0,0,0,0,0,0,0,0,0,0,0,0,0,0,0,0,0,0,0,15,15,0,0,0,0,0,0,0,0,0,0,0,0,0,0,0,
0,0,0,0,0,0,0,0,0,0,0,0,0,0,15,0,15,0,0,0,0,0,15,0,0,0,0,0,0,0,0,0,0,0,0,0,0,0,0,0,0,0,
0,0,0,0,0,0,0,0,0,0,0,0,0,0,0,0,0,0,0,0,0,0,0,0,0,0,0,0,0,0,0,0,0,0,0,0,0,0,0,0,0,0,
0,0,0,0,0,0,0,0,0,0,0,0,0,0,0,0,0,0,0,0,0,0,0,0,0,0,0,0,0,0,0,0,0,0,0,0,0,0,0,0,0,0,
0,0,0,0,0,0,0,0,0,0,0,0,0,0,0,0,0,0,0,0,0,0,0,0,0,0,0,0,0,0,0,0,0,0,0,0,0,0,0,0,0,0,
0,0,0,0,0,0,0,0,0,0,0,0,0,0,0,0,0,0,0,0,0,0,0,0,0,0,0,0,0,0,0,0,0,0,0,0,0,0,0,0,0,0,
0,0,0,0,0,0,0,0,0,0,0,0,0,0,0,0,0,0,0,0,0,0,0,0,0,0,0,0,0,0,0,0,0,0,0,0,0,0,0,0,0,0,
0,0,0,0,0,0,0,0,0,0,0,0,0,0,0,0,0,0,0,0,0,0,0,0,0,0,0,0,0,0,0,0,0,0,0,0,0,0,0,0,0,0,
0,0,0,0,0,0,0,0,0,0,0,0,0,0,0,0,0,0,0,0,0,0,0,0,0,0,0,0,0,0,0,0,0,0,0,0,0,0,0,0,0,0,
0,0,0,0,0,0,0,0,0,0,0,0,0,0,0,0,0,0,0,0,0,0,0,0,0,0,0,0,0,0,0,0,0,0,0,0,0,0,0,0,0,0,
0,0,0,0,0,0,0,0,0,0,0,0,0,0,0,0,0,0,0,0,0,0,0,0,0,0,0,0,0,0,0,0,0,0,0,0,0,0,0,0,0,0,
0,0,0,0,0,0,0,0,0,0,0,0,0,0,0,0,0,0,0,0,0,0,0,0,0,0,0,0,0,0,0,0,0,0,0,0,0,0,0,0,0,0,
0,0,0,0,0,0,0,0,0,0,0,0,0,0,0,0,0,0,0,0,0,0,0,0,0,0,0,0,0,0,0,0,0,0,0,0,0,0,0,0,0,0,
0,0,0,0,0,0,0,0,0,0,0,0,0,15,15,15,15,15,15,0,0,0,0,0,0,0,0,15,15,15,15,0,0,0,0,0,0,0,0,0,0,0,
0,0,0,0,0,0,0,0,0,0,0,0,0,15,15,15,15,0,0,0,0,0,0,0,0,0,0,0,0,0,0,0,0,0,0,0,0,0,0,0,0,0,
0,0,0,0,0,0,0,0,0,0,0,0,0,15,15,15,15,15,0,0,0,0,0,0,0,0,0,0,0,0,0,0,0,0,0,0,0,0,0,0,0,0,
0,0,0,0,0,0,0,0,0,0,0,0,0,15,15,15,15,15,15,0,0,0,0,0,0,0,0,0,0,0,0,0,0,0,0,0,0,0,0,0,0,0,
0,0,0,0,0,0,0,0,0,0,0,0,0,0,15,15,15,0,0,0,0,0,0,0,0,0,0,0,0,0,0,0,0,0,0,0,0,0,0,0,0,0,
0,0,0,0,0,0,0,0,0,0,0,0,0,15,15,15,15,15,0,0,0,0,0,0,0,0,0,0,0,0,0,0,0,0,0,0,0,0,0,0,0,0,
0,0,0,0,0,0,0,0,0,0,0,0,0,15,15,15,15,15,15,0,0,0,0,0,0,0,0,0,0,0,0,0,0,0,0,0,0,0,0,0,0,0,
0,0,0,0,0,0,0,0,0,0,0,0,0,15,15,15,15,15,15,0,0,0,0,0,0,0,0,0,0,0,0,0,0,0,0,0,0,0,0,0,0,0,
0,0,0,0,0,0,0,0,0,0,0,0,0,0,15,15,15,15,15,0,0,0,0,0,0,0,0,0,15,0,0,0,0,0,0,0,0,0,0,0,0,0,
0,0,0,0,0,0,0,0,0,0,0,0,0,0,15,15,15,15,15,0,0,0,0,0,0,0,0,0,0,0,0,0,0,0,0,0,0,0,0,0,0,0,
0,0,0,0,0,0,0,0,0,0,0,0,0,15,15,15,15,15,15,0,0,0,0,0,0,0,0,0,15,0,0,0,0,0,0,0,0,0,0,0,0,0,
0,0,0,0,0,0,0,0,0,0,0,0,0,15,15,15,0,0,15,15,15,15,0,15,15,15,15,15,15,15,15,0,0,0,0,0,0,0,0,0,0,0,
0,0,0,0,0,0,0,0,0,0,0,0,0,0,0,0,0,0,15,15,15,15,0,0,0,15,15,15,15,15,15,0,0,0,0,0,0,0,0,0,0,0,
0,0,0,0,0,0,0,0,0,0,0,0,15,15,0,0,15,15,0,15,15,15,15,15,15,15,15,15,15,15,15,0,0,0,0,0,0,0,0,0,0,0,
0,0,0,0,0,0,0,0,0,0,0,0,0,0,15,15,15,15,15,0,15,15,15,15,15,15,15,15,15,15,15,0,0,0,0,0,0,0,0,0,0,0,
0,0,0,0,0,0,0,0,0,0,0,0,0,0,15,15,15,15,0,0,0,0,15,15,15,15,15,15,15,15,15,0,0,0,0,0,0,0,0,0,0,0,
0,0,0,0,0,0,0,0,0,0,0,0,0,15,15,15,15,15,15,15,0,0,15,15,15,15,15,15,15,15,15,0,0,0,0,0,0,0,0,0,0,0,
0,0,0,0,0,0,0,0,0,0,0,0,0,15,15,15,15,15,15,15,15,15,0,0,15,15,15,15,15,15,15,0,0,0,0,0,0,0,0,0,0,0,
0,0,0,0,0,0,0,0,0,0,0,0,0,15,15,0,0,0,0,0,0,0,15,0,15,15,15,15,15,15,15,0,0,0,0,0,0,0,0,0,0,0,
0,0,0,0,0,0,0,0,0,0,0,0,0,0,0,0,0,0,0,0,0,0,15,15,0,0,15,15,15,15,15,0,0,0,0,0,0,0,0,0,0,0,
0,0,0,0,0,0,0,0,0,0,0,0,0,0,0,0,0,0,0,0,0,0,0,15,0,15,15,15,15,15,15,0,0,0,0,0,0,0,0,0,0,0,
0,0,0,0,0,0,0,0,0,0,0,0,0,0,0,0,0,0,0,0,15,0,0,0,0,0,0,0,0,0,0,0,0,0,0,0,0,0,0,0,0,0,
0,0,0,0,0,0,0,0,0,0,0,0,0,0,0,0,0,0,0,0,15,0,0,0,0,0,0,0,0,0,0,0,0,0,0,0,0,0,0,0,0,0,
0,0,0,0,0,0,0,0,0,0,0,0,0,0,0,0,0,0,0,0,15,15,15,0,0,0,0,0,0,0,0,0,0,0,0,0,0,0,0,0,0,0,
0,0,0,0,0,0,0,0,0,0,0,0,0,0,0,0,0,0,0,0,15,15,15,15,15,0,0,0,0,0,0,0,0,0,0,0,0,0,0,0,0,0,
0,0,0,0,0,0,0,0,0,0,0,0,0,0,0,0,0,0,0,0,15,15,15,15,15,0,0,0,0,0,0,0,0,0,0,0,0,0,0,0,0,0,
0,0,0,0,0,0,0,0,0,0,0,0,0,15,0,0,0,0,0,0,15,15,15,15,15,15,15,15,15,15,15,0,0,0,0,0,0,0,0,0,0,0,
0,0,0,0,0,0,0,0,0,0,0,0,0,15,15,0,0,0,0,0,15,15,15,15,15,15,15,15,15,15,15,0,0,0,0,0,0,0,0,0,0,0,
0,0,0,0,0,0,0,0,0,0,0,0,0,15,15,15,15,15,15,0,0,15,15,15,15,15,15,15,15,15,15,0,0,0,0,0,0,0,0,0,0,0,
0,0,0,0,0,0,0,0,0,0,0,0,0,0,15,15,15,15,15,15,15,15,15,15,15,15,15,15,15,15,15,0,0,0,0,0,0,0,0,0,0,0,
0,0,0,0,0,0,0,0,0,0,0,0,0,0,15,15,0,0,15,15,0,0,15,15,15,0,0,0,0,15,15,0,0,0,0,0,0,0,0,0,0,0,
0,0,0,0,0,0,0,0,0,0,0,0,0,15,15,15,15,15,15,15,15,15,0,0,0,0,0,0,0,15,15,0,0,0,0,0,0,0,0,0,0,0,
0,0,0,0,0,0,0,0,0,0,0,0,0,15,15,15,15,15,15,15,15,15,15,15,0,0,0,0,0,15,15,0,0,0,0,0,0,0,0,0,0,0,
0,0,0,0,0,0,0,0,0,0,0,0,0,15,15,0,0,0,0,0,15,15,15,15,0,0,0,0,0,15,15,0,0,0,0,0,0,0,0,0,0,0,
0,0,0,0,0,0,0,0,0,0,0,0,0,15,15,0,0,0,0,0,15,15,15,15,0,0,0,0,0,15,15,0,0,0,0,0,0,0,0,0,0,0,
0,0,0,0,0,0,0,0,0,0,0,0,0,15,15,0,0,0,0,0,15,15,15,15,0,0,0,0,0,15,15,0,0,0,0,0,0,0,0,0,0,0,
0,0,0,0,0,0,0,0,0,0,0,0,0,0,0,0,0,0,0,0,15,15,15,15,15,15,15,15,15,15,15,0,0,0,0,0,0,0,0,0,0,0,
0,0,0,0,0,0,0,0,0,0,0,0,0,0,0,0,0,0,0,0,15,15,15,15,15,15,15,15,0,0,15,0,0,0,0,0,0,0,0,0,0,0,
0,0,0,0,0,0,0,0,0,0,0,0,0,0,0,0,0,0,0,0,15,15,15,0,0,0,15,15,15,15,15,0,0,0,0,0,0,0,0,0,0,0,
0,0,0,0,0,0,0,0,0,0,0,0,0,0,0,0,0,0,15,15,15,0,0,0,0,0,15,15,15,15,0,0,0,0,0,0,0,0,0,0,0,0,
0,0,0,0,0,0,0,0,0,0,0,0,0,0,0,0,0,0,15,15,15,0,0,0,0,15,15,15,15,15,0,0,0,0,0,0,0,0,0,0,0,0,
0,0,0,0,0,0,0,0,0,0,0,0,0,15,15,15,15,15,15,15,15,15,0,0,0,15,15,15,15,15,15,0,0,0,0,0,0,0,0,0,0,0,
0,0,0,0,0,0,0,0,0,0,0,0,0,15,15,15,15,15,15,15,15,15,15,15,15,15,15,15,15,15,15,0,0,0,0,0,0,0,0,0,0,0,
0,0,0,0,0,0,0,0,0,0,0,0,0,15,15,15,15,15,15,15,15,15,15,0,0,0,0,0,0,0,0,0,0,0,0,0,0,0,0,0,0,0,
0,0,0,0,0,0,0,0,0,0,0,0,0,0,0,0,0,0,0,0,15,15,15,0,0,0,0,0,0,0,0,0,0,0,0,0,0,0,0,0,0,0,
0,0,0,0,0,0,0,0,0,0,0,0,0,0,0,0,0,0,0,0,15,15,15,0,0,0,0,0,0,0,0,0,0,0,0,0,0,0,0,0,0,0,
0,0,0,0,0,0,0,0,0,0,0,0,0,0,0,0,0,0,0,0,15,15,15,0,0,0,0,0,0,0,0,0,0,0,0,0,0,0,0,0,0,0,
0,0,0,0,0,0,0,0,0,0,0,0,0,0,0,0,60,61,0,0,15,15,15,0,0,0,0,0,0,0,0,0,0,0,0,0,0,0,0,0,0,0,
0,0,0,0,0,0,0,0,0,0,0,0,0,0,0,0,62,63,0,0,15,15,15,0,0,0,0,0,0,0,0,0,0,0,0,0,0,0,0,0,0,0,
0,0,0,0,0,0,0,0,0,0,0,0,0,0,0,0,0,0,0,0,15,15,15,0,0,0,0,0,0,0,0,0,0,0,0,0,0,0,0,0,0,0,
0,0,0,0,0,0,0,0,0,0,0,0,0,0,0,0,0,0,0,0,15,15,15,0,0,0,0,0,0,0,0,0,0,0,0,0,0,0,0,0,0,0,
0,0,0,0,0,0,0,0,0,0,0,0,0,0,0,0,0,15,15,15,15,15,15,0,0,0,0,0,0,0,0,0,0,0,0,0,0,0,0,0,0,0,
0,0,0,0,0,0,0,0,0,0,0,0,0,0,0,0,0,15,15,15,15,15,15,0,0,0,0,0,0,0,0,0,0,0,0,0,0,0,0,0,0,0,
0,0,0,0,0,0,0,0,0,0,0,0,0,0,0,0,0,15,15,15,15,15,15,0,0,0,0,0,0,0,0,0,0,0,0,0,0,0,0,0,0,0,
0,0,0,0,0,0,0,0,0,0,0,0,0,0,0,0,0,15,15,15,0,0,0,0,0,0,0,0,0,0,0,0,0,0,0,0,0,0,0,0,0,0,
0,0,0,0,0,0,0,0,0,0,0,0,0,0,0,0,0,15,15,15,0,0,0,0,0,0,0,0,0,0,0,0,0,0,0,0,0,0,0,0,0,0,
0,0,0,0,0,0,0,0,0,0,0,0,0,0,0,0,0,15,15,0,0,0,0,0,0,0,0,0,0,0,0,0,0,0,0,0,0,0,0,0,0,0,
0,0,0,0,0,0,0,0,0,0,0,0,0,0,0,0,0,15,0,0,0,0,0,0,0,0,0,0,0,0,0,0,0,0,0,0,0,0,0,0,0,0,
0,0,0,0,0,0,0,0,0,0,0,0,0,0,0,0,0,15,0,0,0,0,0,0,0,0,0,0,0,0,0,0,0,0,0,0,0,0,0,0,0,0,
0,0,0,0,0,0,0,0,0,0,0,0,0,0,0,0,0,15,0,0,0,0,0,0,0,0,0,0,0,0,0,0,0,0,0,0,0,0,0,0,0,0,
0,0,0,0,0,0,0,0,0,0,0,0,0,0,0,0,0,15,0,15,0,0,0,60,61,0,0,0,0,0,0,0,0,0,0,0,0,0,0,0,0,0,
0,0,0,0,0,0,0,0,0,0,0,0,0,0,0,0,0,15,15,15,0,0,0,62,63,0,0,0,0,0,0,0,0,0,0,0,0,0,0,0,0,0,
0,0,0,0,0,0,0,0,0,0,0,0,0,0,0,0,0,15,15,15,0,0,0,0,0,0,0,0,0,0,0,0,0,0,0,0,0,0,0,0,0,0,
0,0,0,0,0,0,0,0,0,0,0,0,0,0,0,0,0,15,15,15,0,0,0,0,0,0,0,0,0,0,0,0,0,0,0,0,0,0,0,0,0,0,
0,0,0,0,0,0,0,0,0,0,0,0,0,0,0,0,0,15,15,15,0,0,0,0,0,0,0,0,0,0,0,0,0,0,0,0,0,0,0,0,0,0,
0,0,0,0,0,0,0,0,0,0,0,0,0,0,0,0,0,15,15,15,0,0,0,0,0,0,0,0,0,0,0,0,0,0,0,0,0,0,0,0,0,0,
0,0,0,0,0,0,0,0,0,0,0,0,0,0,0,0,0,15,15,15,0,0,0,0,0,0,0,0,0,0,0,0,0,0,0,0,0,0,0,0,0,0,
0,0,0,0,0,0,0,0,0,0,0,0,0,0,0,0,0,15,15,15,15,15,15,15,15,0,0,0,0,0,0,0,0,0,0,0,0,0,0,0,0,0,
0,0,0,0,0,0,0,0,0,0,0,0,0,0,0,0,0,15,15,15,15,15,15,15,15,0,0,0,0,0,0,0,0,0,0,0,0,0,0,0,0,0,
0,0,0,0,0,0,0,0,0,0,0,0,0,0,0,0,0,15,15,15,15,15,15,15,15,0,0,0,0,0,0,0,0,0,0,0,0,0,0,0,0,0,
0,0,0,0,0,0,0,0,0,0,0,0,0,0,0,0,0,0,0,0,0,0,15,15,15,0,0,0,0,0,0,0,0,0,0,0,0,0,0,0,0,0,
0,0,0,0,0,0,0,0,0,0,0,0,0,0,0,0,0,0,0,0,0,0,15,15,0,0,0,0,0,0,0,0,0,0,0,0,0,0,0,0,0,0,
0,0,0,0,0,0,0,0,0,0,0,0,0,0,0,0,0,0,0,0,0,0,15,0,0,0,0,0,0,0,0,0,0,0,0,0,0,0,0,0,0,0,
0,0,0,0,0,0,0,0,0,0,0,0,0,0,0,0,0,0,0,0,0,0,15,0,0,0,0,0,0,0,0,0,0,0,0,0,0,0,0,0,0,0,
0,0,0,0,0,0,0,0,0,0,0,0,0,0,0,0,0,0,0,0,0,0,15,0,0,0,0,0,0,0,0,0,0,0,0,0,0,0,0,0,0,0,
0,0,0,0,0,0,0,0,0,0,0,0,0,0,0,0,0,0,0,0,0,0,15,15,0,0,0,0,0,0,0,0,0,0,0,0,0,0,0,0,0,0,
0,0,0,0,0,0,0,0,0,0,0,0,0,0,0,0,0,0,0,0,0,0,15,15,0,0,0,0,0,0,0,0,0,0,0,0,0,0,0,0,0,0,
0,0,0,0,0,0,0,0,0,0,0,0,0,0,0,0,0,0,0,0,0,0,15,15,15,0,0,0,0,0,0,0,0,0,0,0,0,0,0,0,0,0,
0,0,0,0,0,0,0,0,0,0,0,0,0,0,0,0,0,0,60,61,0,0,15,15,15,0,0,0,0,0,0,0,0,0,0,0,0,0,0,0,0,0,
0,0,0,0,0,0,0,0,0,0,0,0,0,0,0,0,0,0,62,63,0,0,15,15,15,0,0,0,0,0,0,0,0,0,0,0,0,0,0,0,0,0,
0,0,0,0,0,0,0,0,0,0,0,0,0,0,0,0,0,0,0,0,0,0,15,15,15,0,0,0,0,0,0,0,0,0,0,0,0,0,0,0,0,0,
0,0,0,0,0,0,0,0,0,0,0,0,0,0,0,0,0,0,0,0,0,0,15,15,15,0,0,0,0,0,0,0,0,0,0,0,0,0,0,0,0,0,
0,0,0,0,0,0,0,0,0,0,0,0,0,0,0,0,0,0,0,0,0,0,15,15,15,0,0,0,0,0,0,0,0,0,0,0,0,0,0,0,0,0,
0,0,0,0,0,0,0,0,0,0,0,0,0,0,0,0,0,0,0,0,0,0,15,15,15,0,0,0,0,0,0,0,0,0,0,0,0,0,0,0,0,0,
0,0,0,0,0,0,0,0,0,0,0,0,0,0,0,0,0,0,0,0,0,0,15,15,15,0,0,0,0,0,0,0,0,0,0,0,0,0,0,0,0,0,
0,0,0,0,0,0,0,0,0,0,0,0,0,0,0,0,0,0,0,0,0,0,15,15,15,0,0,0,0,0,0,0,0,0,0,0,0,0,0,0,0,0,
0,0,0,0,0,0,0,0,0,0,0,0,0,0,0,0,0,0,0,0,0,0,15,15,15,0,0,0,0,0,0,0,0,0,0,0,0,0,0,0,0,0,
0,0,0,0,0,0,0,0,0,0,0,0,0,0,0,0,0,0,0,0,0,0,15,15,15,0,0,0,0,0,0,0,0,0,0,0,0,0,0,0,0,0,
0,0,0,0,0,0,0,0,0,0,0,0,0,0,0,0,0,0,0,0,0,0,15,15,15,0,0,0,0,0,0,0,0,0,0,0,0,0,0,0,0,0,
0,0,0,0,0,0,0,0,0,0,0,0,0,0,0,0,15,15,15,15,15,15,15,15,15,15,15,15,15,0,0,0,0,0,0,0,0,0,0,0,0,0,
0,0,0,0,0,0,0,0,0,0,0,0,0,0,0,0,15,15,15,15,15,15,15,15,15,15,15,15,15,0,0,0,0,0,0,0,0,0,0,0,0,0,
0,0,0,0,0,0,0,0,0,0,0,0,0,0,0,0,15,15,15,15,15,15,15,15,15,15,15,15,15,0,0,0,0,0,0,0,0,0,0,0,0,0,
0,0,0,0,0,0,0,0,0,0,0,0,0,0,0,0,0,0,0,15,15,15,0,0,0,0,0,0,0,0,0,0,0,0,0,0,0,0,0,0,0,0,
0,0,0,0,0,0,0,0,0,0,0,0,0,0,0,0,60,61,0,15,15,15,0,0,0,0,0,0,0,0,0,0,0,0,0,0,0,0,0,0,0,0,
0,0,0,0,0,0,0,0,0,0,0,0,0,0,0,0,62,63,0,15,0,15,0,0,0,0,0,0,0,0,0,0,0,0,0,0,0,0,0,0,0,0,
0,0,0,0,0,0,0,0,0,0,0,0,0,0,0,0,0,0,0,15,15,15,0,0,0,0,0,0,0,0,0,0,0,0,0,0,0,0,0,0,0,0,
0,0,0,0,0,0,0,0,0,0,0,0,0,0,0,0,0,0,0,15,15,0,0,0,60,61,0,0,0,0,0,0,0,0,0,0,0,0,0,0,0,0,
0,0,0,0,0,0,0,0,0,0,0,0,0,0,0,0,0,0,0,0,15,15,0,0,62,63,0,0,0,0,0,0,0,0,0,0,0,0,0,0,0,0,
0,0,0,0,0,0,0,0,0,0,0,0,0,0,0,0,0,15,15,0,15,15,0,0,0,0,0,0,0,0,0,0,0,0,0,0,0,0,0,0,0,0,
0,0,0,0,0,0,0,0,0,0,0,0,0,0,0,0,0,0,0,15,0,0,0,0,0,0,0,0,0,0,0,0,0,0,0,0,0,0,0,0,0,0,
0,0,0,0,0,0,0,0,0,0,0,0,0,0,0,0,0,0,0,0,15,15,0,0,0,0,0,0,0,0,0,0,0,0,0,0,0,0,0,0,0,0,
0,0,0,0,0,0,0,0,0,0,0,0,0,0,0,0,0,0,0,0,0,0,0,0,0,0,0,0,0,0,0,0,0,0,0,0,0,0,0,0,0,0,
0,0,0,0,0,0,0,0,0,0,0,0,0,0,0,0,0,0,0,0,0,0,0,0,0,0,0,0,0,0,0,0,0,0,0,0,0,0,0,0,0,0,
0,0,0,0,0,0,0,0,0,0,0,0,0,0,0,0,0,0,0,0,0,0,0,0,0,0,0,0,0,0,0,0,0,0,0,0,0,0,0,0,0,0,
0,0,0,0,0,0,0,0,0,0,0,0,0,0,0,0,0,0,0,0,0,0,0,0,0,0,0,0,0,0,0,0,0,0,0,0,0,0,0,0,0,0,
0,0,0,0,0,0,0,0,0,0,0,0,0,0,0,0,0,0,0,0,0,0,0,0,0,0,0,0,0,0,0,0,0,0,0,0,0,0,0,0,0,0,
0,0,0,0,0,0,0,0,0,0,0,0,0,0,0,0,0,0,0,0,0,0,0,0,0,0,0,0,0,0,0,0,0,0,0,0,0,0,0,0,0,0,
0,0,0,0,0,0,0,0,0,0,0,0,0,0,0,0,0,0,0,0,0,0,0,0,0,0,0,0,0,0,0,0,0,0,0,0,0,0,0,0,0,0,
0,0,0,0,0,0,0,0,0,0,0,0,0,0,0,0,0,0,0,0,0,0,0,0,0,0,0,0,0,0,0,0,0,0,0,0,0,0,0,0,0,0,
0,0,0,0,0,0,0,0,0,0,0,0,0,0,0,0,0,0,0,0,0,0,0,0,0,0,0,0,0,0,0,0,0,0,0,0,0,0,0,0,0,0,
0,0,0,0,0,0,0,0,0,0,0,0,0,0,0,0,0,0,0,0,0,0,0,0,0,0,0,0,0,0,0,0,0,0,0,0,0,0,0,0,0,0,
0,0,0,0,0,0,0,0,0,0,0,0,0,0,0,0,0,0,0,0,0,0,0,0,0,0,0,0,0,0,0,0,0,0,0,0,0,0,0,0,0,0,
0,0,0,0,0,0,0,0,0,0,0,0,0,0,0,0,0,0,0,0,0,0,0,0,0,0,0,0,0,0,0,0,0,0,0,0,0,0,0,0,0,0,
0,0,0,0,0,0,0,0,0,0,0,0,0,0,0,0,0,0,0,0,0,0,0,0,0,0,0,0,0,0,0,0,0,0,0,0,0,0,0,0,0,0,
0,0,0,0,0,0,0,0,0,84,85,86,87,88,89,0,0,0,0,0,0,0,0,0,0,0,0,0,0,0,0,0,0,0,0,0,0,0,0,0,0,0,
0,0,0,0,0,0,0,0,0,90,91,92,93,94,95,0,0,0,0,0,0,0,0,0,0,0,0,0,0,0,0,0,0,0,0,0,0,0,0,0,0,0,
0,0,0,0,0,0,0,0,0,96,97,98,99,100,101,0,0,0,0,0,0,0,0,0,0,0,15,15,15,0,0,0,0,0,0,0,0,0,0,0,0,0,
0,0,0,0,0,0,0,0,0,102,103,104,105,106,107,0,0,0,0,0,0,0,0,0,0,0,15,15,15,0,0,0,0,0,0,0,0,0,0,0,0,0,
0,0,0,0,0,0,0,0,0,108,109,110,111,112,113,0,0,0,0,0,0,0,0,0,0,0,15,15,15,0,0,0,0,0,0,0,0,0,0,0,0,0,
0,0,0,0,0,0,0,0,0,114,115,116,117,118,119,0,0,0,0,0,15,15,15,0,0,0,0,0,0,0,0,0,0,0,0,0,0,0,0,0,0,0,
0,0,0,0,0,0,0,0,0,0,0,0,0,0,0,0,15,15,15,15,15,15,15,0,0,0,0,0,0,0,0,0,0,0,0,0,0,0,0,0,0,0,
0,0,0,0,0,0,0,0,0,0,0,0,0,0,0,0,15,15,15,15,15,15,15,0,0,0,0,0,0,0,0,0,0,0,0,0,0,0,0,0,0,0,
0,0,0,0,0,0,0,0,0,0,0,0,0,0,0,0,15,15,15,15,15,15,15,0,0,0,0,0,0,0,0,0,0,0,0,0,0,0,0,0,0,0,
0,0,0,0,0,0,0,0,0,0,0,0,0,0,0,0,15,15,15,15,15,15,15,0,0,0,0,0,0,0,0,0,0,0,0,0,0,0,0,0,0,0,
0,0,0,0,0,0,0,0,0,0,0,0,0,0,0,0,15,15,15,15,15,15,15,0,0,0,0,0,0,0,0,0,0,0,0,0,0,0,0,0,0,0,
0,0,0,0,0,0,0,0,0,0,0,0,0,0,0,0,15,15,15,15,15,15,15,0,0,0,0,0,0,0,0,0,0,0,0,0,0,0,0,0,0,0,
0,0,0,0,0,0,0,0,0,0,0,0,0,0,0,0,0,0,0,0,0,0,0,0,0,0,0,0,0,0,0,0,0,0,0,0,0,0,0,0,0,0
  </data>
 </layer>
 <objectgroup id="4" name="events"/>
 <group id="8" name="above">
 <layer id="5" name="lower_above+1" width="42" height="160">
  <data encoding="csv">
0,0,0,0,0,0,0,0,0,0,0,0,0,0,0,0,0,0,0,0,0,0,0,0,0,0,0,0,0,0,0,0,0,0,0,0,0,0,0,0,0,0,
0,0,0,0,0,0,0,0,0,0,0,0,0,0,0,0,0,0,0,0,0,0,0,0,0,0,0,0,0,0,0,0,0,0,0,0,0,0,0,0,0,0,
0,0,0,0,0,0,0,0,0,0,0,0,0,0,0,0,0,0,0,0,0,0,0,0,0,0,0,0,0,0,0,0,0,0,0,0,0,0,0,0,0,0,
37,0,37,0,37,0,37,0,37,0,37,0,37,0,37,39,0,0,0,0,0,0,0,0,0,0,0,0,0,0,37,0,37,0,37,0,37,0,37,0,37,0,
40,0,40,0,40,0,40,0,40,0,40,0,40,0,40,42,0,0,0,0,0,0,0,0,0,0,0,0,0,0,40,0,40,0,40,0,40,0,40,0,40,0,
37,0,37,0,37,0,37,0,37,0,37,0,45,0,45,47,0,0,0,0,0,0,0,0,0,0,0,0,45,0,45,0,37,0,37,0,37,0,37,0,37,0,
40,0,40,0,40,0,40,0,40,0,40,42,0,0,0,0,0,0,0,0,0,0,0,0,0,0,0,0,0,0,0,0,0,0,40,0,40,0,40,0,40,0,
37,0,37,0,37,0,37,0,37,0,37,39,0,0,0,0,0,0,0,0,0,0,0,0,0,0,0,0,0,0,0,0,0,0,37,0,37,0,37,0,37,0,
40,0,40,0,40,0,40,0,40,0,40,42,0,0,0,0,0,0,0,0,0,0,0,0,0,0,0,0,0,0,0,0,0,0,40,0,40,0,40,0,40,0,
37,0,37,0,37,0,37,0,37,0,37,39,0,0,0,0,0,0,0,0,0,0,0,0,0,0,0,0,0,0,0,0,0,0,37,0,37,0,37,0,37,0,
40,0,40,0,40,0,40,0,40,0,40,42,0,0,0,0,0,0,0,0,0,0,0,0,0,0,0,0,0,0,0,0,0,0,40,0,40,0,40,0,40,0,
37,0,37,0,37,0,37,0,37,0,37,39,0,0,0,0,0,0,0,0,0,0,0,0,0,0,0,0,0,0,0,0,0,0,37,0,37,0,37,0,37,0,
40,0,40,0,40,0,40,0,40,0,40,42,0,0,0,0,0,0,0,0,0,0,0,0,0,0,0,0,0,0,0,0,0,0,40,0,40,0,40,0,40,0,
37,0,37,0,37,0,37,0,37,0,37,39,0,0,0,0,0,0,0,0,0,0,0,0,0,0,0,0,0,0,0,0,0,0,37,0,37,0,37,0,37,0,
40,0,40,0,40,0,40,0,40,0,40,42,0,0,0,0,0,0,0,0,0,0,0,0,0,0,0,0,0,0,0,0,0,0,40,0,40,0,40,0,40,0,
37,0,37,0,37,0,37,0,37,0,37,39,0,0,0,0,0,0,0,0,0,0,0,0,0,0,0,0,0,0,0,0,0,0,37,0,37,0,37,0,37,0,
40,0,40,0,40,0,40,0,40,0,40,42,0,0,0,0,0,0,0,0,0,0,0,0,0,0,0,0,0,0,0,0,0,0,40,0,40,0,40,0,40,0,
37,0,37,0,37,0,37,0,37,0,37,39,0,0,0,0,0,0,0,0,0,0,0,0,0,0,0,0,0,0,0,0,0,0,37,0,37,0,37,0,37,0,
40,0,40,0,40,0,40,0,40,0,40,42,0,0,0,0,0,0,0,0,0,0,0,0,0,0,0,0,0,0,0,0,0,0,40,0,40,0,40,0,40,0,
37,0,37,0,37,0,37,0,37,0,37,39,0,0,0,0,0,0,0,0,0,0,0,0,0,0,0,0,0,0,0,0,0,0,37,0,37,0,37,0,37,0,
40,0,40,0,40,0,40,0,40,0,40,42,0,0,0,0,0,0,0,0,0,0,0,0,0,0,0,0,0,0,0,0,0,0,40,0,40,0,40,0,40,0,
37,0,37,0,37,0,37,0,37,0,37,39,0,0,0,0,0,0,0,0,0,0,0,0,0,0,0,0,0,0,0,0,0,0,37,0,37,0,37,0,37,0,
40,0,40,0,40,0,40,0,40,0,40,42,0,0,0,0,0,0,0,0,0,0,0,0,0,0,0,0,0,0,0,0,0,0,40,0,40,0,40,0,40,0,
37,0,37,0,37,0,37,0,37,0,37,39,0,0,0,0,0,0,0,0,0,0,0,0,0,0,0,0,0,0,0,0,0,0,37,0,37,0,37,0,37,0,
40,0,40,0,40,0,40,0,40,0,40,42,0,0,0,0,0,0,0,0,0,0,0,0,0,0,0,0,0,0,0,0,0,0,40,0,40,0,40,0,40,0,
37,0,37,0,37,0,37,0,37,0,37,39,0,0,0,0,0,0,0,0,0,0,0,0,0,0,0,0,0,0,0,0,0,0,37,0,37,0,37,0,37,0,
40,0,40,0,40,0,40,0,40,0,40,42,0,0,0,0,0,0,0,0,0,0,0,0,0,0,0,0,0,0,0,0,0,0,40,0,40,0,40,0,40,0,
37,0,37,0,37,0,37,0,37,0,37,39,0,0,0,0,0,0,0,0,0,0,0,0,0,0,0,0,0,0,0,0,0,0,37,0,37,0,37,0,37,0,
40,0,40,0,40,0,40,0,40,0,40,42,0,0,0,0,0,0,0,0,0,0,0,0,0,0,0,0,0,0,0,0,0,0,40,0,40,0,40,0,40,0,
37,0,37,0,37,0,37,0,37,0,37,39,0,0,0,0,0,0,0,0,0,0,0,0,0,0,0,0,0,0,0,0,0,0,37,0,37,0,37,0,37,0,
40,0,40,0,40,0,40,0,40,0,40,42,0,0,0,0,0,0,0,0,0,0,0,0,0,0,0,0,0,0,0,0,0,0,40,0,40,0,40,0,40,0,
37,0,37,0,37,0,37,0,37,0,37,39,0,0,0,0,0,0,0,0,0,0,0,0,0,0,0,0,0,0,0,0,0,0,37,0,37,0,37,0,37,0,
40,0,40,0,40,0,40,0,40,0,40,42,0,0,0,0,0,0,0,0,0,0,0,0,0,0,0,0,0,0,0,0,0,0,40,0,40,0,40,0,40,0,
37,0,37,0,37,0,37,0,37,0,37,39,0,0,0,0,0,0,0,0,0,0,0,0,0,0,0,0,0,0,0,0,0,0,37,0,37,0,37,0,37,0,
40,0,40,0,40,0,40,0,40,0,40,42,0,0,0,0,0,0,0,0,0,0,0,0,0,0,0,0,0,0,0,0,0,0,40,0,40,0,40,0,40,0,
37,0,37,0,37,0,37,0,37,0,37,39,0,0,0,0,0,0,0,0,0,0,0,0,0,0,0,0,0,0,0,0,0,0,37,0,37,0,37,0,37,0,
40,0,40,0,40,0,40,0,40,0,40,42,0,0,0,0,0,0,0,0,0,0,0,0,0,0,0,0,0,0,0,0,0,0,40,0,40,0,40,0,40,0,
37,0,37,0,37,0,37,0,37,0,37,39,0,0,0,0,0,0,0,0,0,0,0,0,0,0,0,0,0,0,0,0,0,0,37,0,37,0,37,0,37,0,
40,0,40,0,40,0,40,0,40,0,40,42,0,0,0,0,0,0,0,0,0,0,0,0,0,0,0,0,0,0,0,0,0,0,40,0,40,0,40,0,40,0,
37,0,37,0,37,0,37,0,37,0,37,39,0,0,0,0,0,0,0,0,0,0,0,0,0,0,0,0,0,0,0,0,0,0,37,0,37,0,37,0,37,0,
40,0,40,0,40,0,40,0,40,0,40,42,0,0,0,0,0,0,0,0,0,0,0,0,0,0,0,0,0,0,0,0,0,0,40,0,40,0,40,0,40,0,
37,0,37,0,37,0,37,0,37,0,37,39,0,0,0,0,0,0,0,0,0,0,0,0,0,0,0,0,0,0,0,0,0,0,37,0,37,0,37,0,37,0,
40,0,40,0,40,0,40,0,40,0,40,0,0,0,0,0,0,0,0,0,0,0,0,0,0,0,0,0,0,0,0,0,0,0,40,0,40,0,40,0,40,0,
37,0,37,0,37,0,37,0,37,0,37,0,0,0,0,0,0,0,0,0,0,0,0,0,0,0,0,0,0,0,0,0,0,0,37,0,37,0,37,0,37,0,
40,0,40,0,40,0,40,0,40,0,40,0,0,0,0,0,0,0,0,0,0,0,0,0,0,0,0,0,0,0,0,0,0,0,40,0,40,0,40,0,40,0,
37,0,37,0,37,0,37,0,37,0,37,0,0,0,0,0,0,0,0,0,0,0,0,0,0,0,0,0,0,0,0,0,0,0,37,0,37,0,37,0,37,0,
40,0,40,0,40,0,40,0,40,0,40,0,0,0,0,0,0,0,0,0,0,0,0,0,0,0,0,0,0,0,0,0,0,0,40,0,40,0,40,0,40,0,
37,0,37,0,37,0,37,0,37,0,37,0,0,0,0,0,0,0,0,0,0,0,0,0,0,0,0,0,0,0,0,0,0,0,37,0,37,0,37,0,37,0,
40,0,40,0,40,0,40,0,40,0,40,0,0,0,0,0,0,0,0,0,0,0,0,0,0,0,0,0,0,0,0,0,0,0,40,0,40,0,40,0,40,0,
37,0,37,0,37,0,37,0,37,0,37,0,0,0,0,0,0,0,0,0,0,0,0,0,0,0,0,0,0,0,0,0,0,0,37,0,37,0,37,0,37,0,
40,0,40,0,40,0,40,0,40,0,40,0,0,0,0,0,0,0,0,0,0,0,0,0,0,0,0,0,0,0,0,0,0,0,40,0,40,0,40,0,40,0,
37,0,37,0,37,0,37,0,37,0,37,0,0,0,0,0,0,0,0,0,0,0,0,0,0,0,0,0,0,0,0,0,0,0,37,0,37,0,37,0,37,0,
40,0,40,0,40,0,40,0,40,0,40,0,0,0,0,0,0,0,0,0,0,0,0,0,0,0,0,0,0,0,0,0,0,0,40,0,40,0,40,0,40,0,
37,0,37,0,37,0,37,0,37,0,37,0,0,0,0,0,0,0,0,0,0,0,0,0,0,0,0,0,0,0,0,0,0,0,37,0,37,0,37,0,37,0,
40,0,40,0,40,0,40,0,40,0,40,0,0,0,0,0,0,0,0,0,0,0,0,0,0,0,0,0,0,0,0,0,0,0,40,0,40,0,40,0,40,0,
37,0,37,0,37,0,37,0,37,0,37,0,0,0,0,0,0,0,0,0,0,0,0,0,0,0,0,0,0,0,0,0,0,0,37,0,37,0,37,0,37,0,
40,0,40,0,40,0,40,0,40,0,40,0,0,0,0,0,0,0,0,0,0,0,0,0,0,0,0,0,0,0,0,0,0,0,40,0,40,0,40,0,40,0,
37,0,37,0,37,0,37,0,37,0,37,0,0,0,0,0,0,0,0,0,0,0,0,0,0,0,0,0,0,0,0,0,0,0,37,0,37,0,37,0,37,0,
40,0,40,0,40,0,40,0,40,0,40,0,0,0,0,0,0,0,0,0,0,0,0,0,0,0,0,0,0,0,0,0,0,0,40,0,40,0,40,0,40,0,
37,0,37,0,37,0,37,0,37,0,37,39,0,0,0,0,0,0,0,0,0,0,0,0,0,0,0,0,0,0,0,0,0,0,37,0,37,0,37,0,37,0,
40,0,40,0,40,0,40,0,40,0,40,42,0,0,0,0,0,0,0,0,0,0,0,0,0,0,0,0,0,0,0,0,0,0,40,0,40,0,40,0,40,0,
37,0,37,0,37,0,37,0,37,0,37,39,0,0,0,0,0,0,0,0,0,0,0,0,0,0,0,0,0,0,0,0,0,0,37,0,37,0,37,0,37,0,
40,0,40,0,40,0,40,0,40,0,40,42,0,0,0,0,0,0,0,0,0,0,0,0,0,0,0,0,0,0,0,0,0,0,40,0,40,0,40,0,40,0,
37,0,37,0,37,0,37,0,37,0,37,39,0,0,0,0,0,0,0,0,0,0,0,0,0,0,0,0,0,0,0,0,0,0,37,0,37,0,37,0,37,0,
40,0,40,0,40,0,40,0,40,0,40,42,0,0,0,0,0,0,0,0,0,0,0,0,0,0,0,0,0,0,0,0,0,0,40,0,40,0,40,0,40,0,
37,0,37,0,37,0,37,0,37,0,37,39,0,0,0,0,0,0,0,0,0,0,0,0,0,0,0,0,0,0,0,0,0,0,37,0,37,0,37,0,37,0,
40,0,40,0,40,0,40,0,40,0,40,42,0,0,0,0,0,0,0,0,0,0,0,0,0,0,0,0,0,0,0,0,0,0,40,0,40,0,40,0,40,0,
37,0,37,0,37,0,37,0,37,0,37,39,0,0,0,0,0,0,0,0,0,0,0,0,0,0,0,0,0,0,0,0,0,0,37,0,37,0,37,0,37,0,
40,0,40,0,40,0,40,0,40,0,40,42,0,0,0,0,0,0,0,0,0,0,0,0,0,0,0,0,0,0,0,0,0,0,40,0,40,0,40,0,40,0,
37,0,37,0,37,0,37,0,37,0,37,39,0,0,0,0,0,0,0,0,0,0,0,0,0,0,0,0,0,0,0,0,0,0,37,0,37,0,37,0,37,0,
40,0,40,0,40,0,40,0,40,0,40,42,0,0,0,0,0,0,0,0,0,0,0,0,0,0,0,0,0,0,0,0,0,0,40,0,40,0,40,0,40,0,
37,0,37,0,37,0,37,0,37,0,37,39,0,0,0,0,0,0,0,0,0,0,0,0,0,0,0,0,0,0,0,0,0,0,37,0,37,0,37,0,37,0,
40,0,40,0,40,0,40,0,40,0,40,42,0,0,0,0,0,0,0,0,0,0,0,0,0,0,0,0,0,0,0,0,0,0,40,0,40,0,40,0,40,0,
37,0,37,0,37,0,37,0,37,0,37,39,0,0,0,0,0,0,0,0,0,0,0,0,0,0,0,0,0,0,0,0,0,0,37,0,37,0,37,0,37,0,
40,0,40,0,40,0,40,0,40,0,40,42,0,0,0,0,0,0,0,0,0,0,0,0,0,0,0,0,0,0,0,0,0,0,40,0,40,0,40,0,40,0,
37,0,37,0,37,0,37,0,37,0,37,39,0,0,0,0,0,0,0,0,0,0,0,0,0,0,0,0,0,0,0,0,0,0,37,0,37,0,37,0,37,0,
40,0,40,0,40,0,40,0,40,0,40,42,0,0,0,0,0,0,0,0,0,0,0,0,0,0,0,0,0,0,0,0,0,0,40,0,40,0,40,0,40,0,
37,0,37,0,37,0,37,0,37,0,37,39,0,0,0,0,0,0,0,0,0,0,0,0,0,0,0,0,0,0,0,0,0,0,37,0,37,0,37,0,37,0,
40,0,40,0,40,0,40,0,40,0,40,42,0,0,0,0,0,0,0,0,0,0,0,0,0,0,0,0,0,0,0,0,0,0,40,0,40,0,40,0,40,0,
37,0,37,0,37,0,37,0,37,0,37,39,0,0,0,0,0,0,0,0,0,0,0,0,0,0,0,0,0,0,0,0,0,0,37,0,37,0,37,0,37,0,
40,0,40,0,40,0,40,0,40,0,40,42,0,0,0,0,0,0,0,0,0,0,0,0,0,0,0,0,0,0,0,0,0,0,40,0,40,0,40,0,40,0,
37,0,37,0,37,0,37,0,37,0,37,39,0,0,0,0,0,0,0,0,0,0,0,0,0,0,0,0,0,0,0,0,0,0,37,0,37,0,37,0,37,0,
40,0,40,0,40,0,40,0,40,0,40,42,0,0,0,0,0,0,0,0,0,0,0,0,0,0,0,0,0,0,0,0,0,0,40,0,40,0,40,0,40,0,
37,0,37,0,37,0,37,0,37,0,37,39,0,0,0,0,0,0,0,0,0,0,0,0,0,0,0,0,0,0,0,0,0,0,37,0,37,0,37,0,37,0,
40,0,40,0,40,0,40,0,40,0,40,42,0,0,0,0,0,0,0,0,0,0,0,0,0,0,0,0,0,0,0,0,0,0,40,0,40,0,40,0,40,0,
37,0,37,0,37,0,37,0,37,0,37,39,0,0,0,0,0,0,0,0,0,0,0,0,0,0,0,0,0,0,0,0,0,0,37,0,37,0,37,0,37,0,
40,0,40,0,40,0,40,0,40,0,40,42,0,0,0,0,0,0,0,0,0,0,0,0,0,0,0,0,0,0,0,0,0,0,40,0,40,0,40,0,40,0,
37,0,37,0,37,0,37,0,37,0,37,39,0,0,0,0,0,0,0,0,0,0,0,0,0,0,0,0,0,0,0,0,0,0,37,0,37,0,37,0,37,0,
40,0,40,0,40,0,40,0,40,0,40,42,0,0,0,0,0,0,0,0,0,0,0,0,0,0,0,0,0,0,0,0,0,0,40,0,40,0,40,0,40,0,
37,0,37,0,37,0,37,0,37,0,37,39,0,0,0,0,0,0,0,0,0,0,0,0,0,0,0,0,0,0,0,0,0,0,37,0,37,0,37,0,37,0,
40,0,40,0,40,0,40,0,40,0,40,42,0,0,0,0,0,0,0,0,0,0,0,0,0,0,0,0,0,0,0,0,0,0,40,0,40,0,40,0,40,0,
37,0,37,0,37,0,37,0,37,0,37,39,0,0,0,0,0,0,0,0,0,0,0,0,0,0,0,0,0,0,0,0,0,0,37,0,37,0,37,0,37,0,
40,0,40,0,40,0,40,0,40,0,40,42,0,0,0,0,0,0,0,0,0,0,0,0,0,0,0,0,0,0,0,0,0,0,40,0,40,0,40,0,40,0,
37,0,37,0,37,0,37,0,37,0,37,39,0,0,0,0,0,0,0,0,0,0,0,0,0,0,0,0,0,0,0,0,0,0,37,0,37,0,37,0,37,0,
40,0,40,0,40,0,40,0,40,0,40,42,0,0,0,0,0,0,0,0,0,0,0,0,0,0,0,0,0,0,0,0,0,0,40,0,40,0,40,0,40,0,
37,0,37,0,37,0,37,0,37,0,37,39,0,0,0,0,0,0,0,0,0,0,0,0,0,0,0,0,0,0,0,0,0,0,37,0,37,0,37,0,37,0,
40,0,40,0,40,0,40,0,40,0,40,42,0,0,0,0,0,0,0,0,0,0,0,0,0,0,0,0,0,0,0,0,0,0,40,0,40,0,40,0,40,0,
37,0,37,0,37,0,37,0,37,0,37,39,0,0,0,0,0,0,0,0,0,0,0,0,0,0,0,0,0,0,0,0,0,0,37,0,37,0,37,0,37,0,
40,0,40,0,40,0,40,0,40,0,40,42,0,0,0,0,0,0,0,0,0,0,0,0,0,0,0,0,0,0,0,0,0,0,40,0,40,0,40,0,40,0,
37,0,37,0,37,0,37,0,37,0,37,39,0,0,0,0,0,0,0,0,0,0,0,0,0,0,0,0,0,0,0,0,0,0,37,0,37,0,37,0,37,0,
40,0,40,0,40,0,40,0,40,0,40,42,0,0,0,0,0,0,0,0,0,0,0,0,0,0,0,0,0,0,0,0,0,0,40,0,40,0,40,0,40,0,
37,0,37,0,37,0,37,0,37,0,37,39,0,0,0,0,0,0,0,0,0,0,0,0,0,0,0,0,0,0,0,0,0,0,37,0,37,0,37,0,37,0,
40,0,40,0,40,0,40,0,40,0,40,42,0,0,0,0,0,0,0,0,0,0,0,0,0,0,0,0,0,0,0,0,0,0,40,0,40,0,40,0,40,0,
37,0,37,0,37,0,37,0,37,0,37,39,0,0,0,0,0,0,0,0,0,0,0,0,0,0,0,0,0,0,0,0,0,0,37,0,37,0,37,0,37,0,
40,0,40,0,40,0,40,0,40,0,40,42,0,0,0,0,0,0,0,0,0,0,0,0,0,0,0,0,0,0,0,0,0,0,40,0,40,0,40,0,40,0,
37,0,37,0,37,0,37,0,37,0,37,39,0,0,0,0,0,0,0,0,0,0,0,0,0,0,0,0,0,0,0,0,0,0,37,0,37,0,37,0,37,0,
40,0,40,0,40,0,40,0,40,0,40,42,0,0,0,0,0,0,0,0,0,0,0,0,0,0,0,0,0,0,0,0,0,0,40,0,40,0,40,0,40,0,
37,0,37,0,37,0,37,0,37,0,37,39,0,0,0,0,0,0,0,0,0,0,0,0,0,0,0,0,0,0,0,0,0,0,37,0,37,0,37,0,37,0,
40,0,40,0,40,0,40,0,40,0,40,42,0,0,0,0,0,0,0,0,0,0,0,0,0,0,0,0,0,0,0,0,0,0,40,0,40,0,40,0,40,0,
37,0,37,0,37,0,37,0,37,0,37,39,0,0,0,0,0,0,0,0,0,0,0,0,0,0,0,0,0,0,0,0,0,0,37,0,37,0,37,0,37,0,
40,0,40,0,40,0,40,0,40,0,40,42,0,0,0,0,0,0,0,0,0,0,0,0,0,0,0,0,0,0,0,0,0,0,40,0,40,0,40,0,40,0,
37,0,37,0,37,0,37,0,37,0,37,39,0,0,0,0,0,0,0,0,0,0,0,0,0,0,0,0,0,0,0,0,0,0,37,0,37,0,37,0,37,0,
40,0,40,0,40,0,40,0,40,0,40,42,0,0,0,0,0,0,0,0,0,0,0,0,0,0,0,0,0,0,0,0,0,0,40,0,40,0,40,0,40,0,
37,0,37,0,37,0,37,0,37,0,37,39,0,0,0,0,0,0,0,0,0,0,0,0,0,0,0,0,0,0,0,0,0,0,37,0,37,0,37,0,37,0,
40,0,40,0,40,0,40,0,40,0,40,42,0,0,0,0,0,0,0,0,0,0,0,0,0,0,0,0,0,0,0,0,0,0,40,0,40,0,40,0,40,0,
37,0,37,0,37,0,37,0,37,0,37,39,0,0,0,0,0,0,0,0,0,0,0,0,0,0,0,0,0,0,0,0,0,0,37,0,37,0,37,0,37,0,
40,0,40,0,40,0,40,0,40,0,40,42,0,0,0,0,0,0,0,0,0,0,0,0,0,0,0,0,0,0,0,0,0,0,40,0,40,0,40,0,40,0,
37,0,37,0,37,0,37,0,37,0,37,39,0,0,0,0,0,0,0,0,0,0,0,0,0,0,0,0,0,0,0,0,0,0,37,0,37,0,37,0,37,0,
40,0,40,0,40,0,40,0,40,0,40,42,0,0,0,0,0,0,0,0,0,0,0,0,0,0,0,0,0,0,0,0,0,0,40,0,40,0,40,0,40,0,
37,0,37,0,37,0,37,0,37,0,37,39,0,0,0,0,0,0,0,0,0,0,0,0,0,0,0,0,0,0,0,0,0,0,37,0,37,0,37,0,37,0,
40,0,40,0,40,0,40,0,40,0,40,42,0,0,0,0,0,0,0,0,0,0,0,0,0,0,0,0,0,0,0,0,0,0,40,0,40,0,40,0,40,0,
37,0,37,0,37,0,37,0,37,0,37,39,0,0,0,0,0,0,0,0,0,0,0,0,0,0,0,0,0,0,0,0,0,0,37,0,37,0,37,0,37,0,
40,0,40,0,40,0,40,0,40,0,40,42,0,0,0,0,0,0,0,0,0,0,0,0,0,0,0,0,0,0,0,0,0,0,40,0,40,0,40,0,40,0,
37,0,37,0,37,0,37,0,37,0,37,39,0,0,0,0,0,0,0,0,0,0,0,0,0,0,0,0,0,0,0,0,0,0,37,0,37,0,37,0,37,0,
40,0,40,0,40,0,40,0,40,0,40,42,0,0,0,0,0,0,0,0,0,0,0,0,0,0,0,0,0,0,0,0,0,0,40,0,40,0,40,0,40,0,
37,0,37,0,37,0,37,0,37,0,37,39,0,0,0,0,0,0,0,0,0,0,0,0,0,0,0,0,0,0,0,0,0,0,37,0,37,0,37,0,37,0,
40,0,40,0,40,0,40,0,40,0,40,42,0,0,0,0,0,0,0,0,0,0,0,0,0,0,0,0,0,0,0,0,0,0,40,0,40,0,40,0,40,0,
37,0,37,0,37,0,37,0,37,0,37,39,0,0,0,0,0,0,0,0,0,0,0,0,0,0,0,0,0,0,0,0,0,0,37,0,37,0,37,0,37,0,
40,0,40,0,40,0,40,0,40,0,40,42,0,0,0,0,0,0,0,0,0,0,0,0,0,0,0,0,0,0,0,0,0,0,40,0,40,0,40,0,40,0,
37,0,37,0,37,0,37,0,37,0,37,39,0,0,0,0,0,0,0,0,0,0,0,0,0,0,0,0,0,0,0,0,0,0,37,0,37,0,37,0,37,0,
40,0,40,0,40,0,40,0,40,0,40,42,0,0,0,0,0,0,0,0,0,0,0,0,0,0,0,0,0,0,0,0,0,0,40,0,40,0,40,0,40,0,
37,0,37,0,37,0,37,0,37,0,37,39,0,0,0,0,0,0,0,0,0,0,0,0,0,0,0,0,0,0,0,0,0,0,37,0,37,0,37,0,37,0,
40,0,40,0,40,0,40,0,40,0,40,42,0,0,0,0,0,0,0,0,0,0,0,0,0,0,0,0,0,0,0,0,0,0,40,0,40,0,40,0,40,0,
37,0,37,0,37,0,37,0,37,0,37,39,0,0,0,0,0,0,0,0,0,0,0,0,0,0,0,0,0,0,0,0,0,0,37,0,37,0,37,0,37,0,
40,0,40,0,40,0,40,0,40,0,40,42,0,0,0,0,0,0,0,0,0,0,0,0,0,0,0,0,0,0,0,0,0,0,40,0,40,0,40,0,40,0,
37,0,37,0,37,0,37,0,37,0,37,39,0,0,0,0,0,0,0,0,0,0,0,0,0,0,0,0,0,0,0,0,0,0,37,0,37,0,37,0,37,0,
40,0,40,0,40,0,40,0,40,0,40,42,0,0,0,0,0,0,0,0,0,0,0,0,0,0,0,0,0,0,0,0,0,0,40,0,40,0,40,0,40,0,
37,0,37,0,37,0,37,0,37,0,37,39,0,0,0,0,0,0,0,0,0,0,0,0,0,0,0,0,0,0,0,0,0,0,37,0,37,0,37,0,37,0,
40,0,40,0,40,0,40,0,40,0,40,42,0,0,0,0,0,0,0,0,0,0,0,0,0,0,0,0,0,0,0,0,0,0,40,0,40,0,40,0,40,0,
37,0,37,0,37,0,37,0,37,0,37,39,0,0,0,0,0,0,0,0,0,0,0,0,0,0,0,0,0,0,0,0,0,0,37,0,37,0,37,0,37,0,
40,0,40,0,40,0,40,0,40,0,40,42,0,0,0,0,0,0,0,0,0,0,0,0,0,0,0,0,0,0,0,0,0,0,40,0,40,0,40,0,40,0,
37,0,37,0,37,0,37,0,37,0,37,39,48,0,0,0,0,0,0,0,0,0,0,0,0,0,0,0,0,0,0,49,0,0,37,0,37,0,37,0,37,0,
40,0,40,0,40,0,40,0,40,0,40,0,58,59,0,0,0,0,0,0,0,0,0,0,0,0,0,0,0,0,58,59,40,0,40,0,40,0,40,0,40,0,
37,0,37,0,0,0,0,0,0,0,0,0,0,47,0,0,0,0,0,0,0,0,0,0,0,0,0,0,0,0,0,0,37,0,37,0,37,0,37,0,37,0,
0,0,0,0,0,0,0,0,0,0,0,0,0,0,0,0,0,0,0,0,0,0,0,0,0,0,0,0,0,0,0,0,40,0,40,0,40,0,40,0,40,0,
0,0,0,0,0,0,0,0,0,0,0,0,0,0,0,0,0,0,0,0,0,0,0,0,0,0,0,0,0,0,0,0,37,0,37,0,37,0,37,0,37,0,
0,0,0,0,0,0,0,0,0,0,0,0,0,0,0,0,0,0,0,0,0,0,0,0,0,0,0,0,0,0,0,0,40,0,40,0,40,0,40,0,40,0,
0,0,0,0,0,0,0,0,0,0,0,0,0,0,0,0,0,0,0,0,0,0,0,0,0,0,0,0,0,0,0,0,37,0,37,0,37,0,37,0,37,0,
0,0,0,0,0,0,0,0,0,0,0,0,0,0,0,0,0,0,0,0,0,0,0,0,0,0,0,0,0,0,0,0,40,0,40,0,40,0,40,0,40,0,
0,0,0,0,0,0,0,0,0,0,0,0,0,0,0,0,0,0,0,0,0,0,0,0,0,0,0,0,0,0,0,0,37,0,37,0,37,0,37,0,37,0,
0,0,0,0,0,0,0,0,0,0,0,0,0,0,0,0,0,0,0,0,0,0,0,0,0,0,0,0,0,0,0,0,40,0,40,0,40,0,40,0,40,0,
0,0,0,0,0,0,0,0,0,0,0,0,0,0,0,0,0,0,0,0,0,0,0,0,0,0,0,0,0,0,0,0,37,0,37,0,37,0,37,0,37,0,
0,0,0,0,0,0,0,0,0,0,0,0,0,0,0,0,0,0,0,0,0,0,0,0,0,0,0,0,0,0,0,0,0,0,40,0,40,0,40,0,40,0,
0,0,0,0,0,0,0,0,0,0,0,0,0,0,0,0,0,0,0,0,0,0,0,0,0,0,0,0,0,0,0,0,0,0,37,0,37,0,37,0,37,0,
0,0,0,0,0,0,0,0,0,0,0,0,0,0,0,0,0,0,0,0,0,0,0,0,0,0,0,0,0,0,0,0,0,0,40,0,40,0,40,0,40,0,
0,0,0,0,0,0,0,0,0,0,0,0,0,0,0,0,0,0,0,0,0,0,0,0,0,0,0,0,0,0,0,0,0,0,37,0,37,0,37,0,37,0,
0,0,0,0,0,0,0,0,0,0,0,0,0,0,0,0,0,0,0,0,0,0,0,0,0,0,0,0,0,0,0,0,0,0,40,0,40,0,40,0,40,0,
0,0,0,0,0,0,0,0,0,0,0,0,0,0,0,0,0,0,0,0,0,0,0,0,0,0,0,0,0,0,0,0,0,0,0,0,0,0,0,47,37,0,
0,0,0,0,0,0,0,0,0,0,0,0,0,0,0,0,0,0,0,0,0,0,0,0,0,0,0,0,0,0,0,0,0,0,0,0,0,0,0,0,0,0,
0,0,0,0,0,0,0,0,0,0,0,0,0,0,0,0,0,0,0,0,0,0,0,0,0,0,0,0,0,0,0,0,0,0,0,0,0,0,0,0,0,0
 </data>
 </layer>
 <layer id="7" name="upper_above" width="42" height="160">
  <data encoding="csv">
0,0,0,0,0,0,0,0,0,0,0,0,0,0,0,0,0,0,0,0,0,0,0,0,0,0,0,0,0,0,0,0,0,0,0,0,0,0,0,0,0,0,
35,36,35,36,35,36,35,36,35,36,35,36,35,36,35,36,0,0,0,0,0,0,0,0,0,0,0,0,35,36,35,36,35,36,35,36,35,36,35,36,35,36,
58,59,58,59,58,59,58,59,58,59,58,59,58,59,58,59,43,0,0,0,0,0,0,0,0,0,0,44,58,59,58,59,58,59,58,59,58,59,58,59,58,59,
0,0,0,0,0,0,0,0,0,0,0,0,0,0,0,0,48,0,0,0,0,0,0,0,0,0,0,49,0,0,0,0,0,0,0,0,0,0,0,0,0,0,
0,0,0,0,0,0,0,0,0,0,0,0,0,0,0,0,43,0,0,0,0,0,0,0,0,0,0,44,0,0,0,0,0,0,0,0,0,0,0,0,0,0,
0,0,0,0,0,0,0,0,0,0,0,0,0,0,0,0,48,0,0,0,0,0,0,0,0,0,0,49,0,0,0,0,0,0,0,0,0,0,0,0,0,0,
0,0,0,0,0,0,0,0,0,0,0,0,43,0,0,0,0,0,0,0,0,0,0,0,0,0,0,0,0,0,0,44,0,0,0,0,0,0,0,0,0,0,
0,0,0,0,0,0,0,0,0,0,0,0,48,0,0,0,0,0,0,0,0,0,0,0,0,0,0,0,0,0,0,49,0,0,0,0,0,0,0,0,0,0,
0,0,0,0,0,0,0,0,0,0,0,0,43,0,0,0,0,0,0,0,0,0,0,0,0,0,0,0,0,0,0,44,0,0,0,0,0,0,0,0,0,0,
0,0,0,0,0,0,0,0,0,0,0,0,48,0,0,0,0,0,0,0,0,0,0,0,0,0,0,0,0,0,0,49,0,0,0,0,0,0,0,0,0,0,
0,0,0,0,0,0,0,0,0,0,0,0,43,0,0,0,0,0,0,0,0,0,0,0,0,0,0,0,0,0,0,44,0,0,0,0,0,0,0,0,0,0,
0,0,0,0,0,0,0,0,0,0,0,0,48,0,0,0,0,0,0,0,0,0,0,0,0,0,0,0,0,0,0,49,0,0,0,0,0,0,0,0,0,0,
0,0,0,0,0,0,0,0,0,0,0,0,43,0,0,0,0,0,0,0,0,0,0,0,0,0,0,0,0,0,0,44,0,0,0,0,0,0,0,0,0,0,
0,0,0,0,0,0,0,0,0,0,0,0,48,0,0,0,0,0,0,0,0,0,0,0,0,0,0,0,0,0,0,49,0,0,0,0,0,0,0,0,0,0,
0,0,0,0,0,0,0,0,0,0,0,0,43,0,0,0,0,0,0,0,0,0,0,0,0,0,0,0,0,0,0,44,0,0,0,0,0,0,0,0,0,0,
0,0,0,0,0,0,0,0,0,0,0,0,48,0,0,0,0,0,0,0,0,0,0,0,0,0,0,0,0,0,0,49,0,0,0,0,0,0,0,0,0,0,
0,0,0,0,0,0,0,0,0,0,0,0,43,0,0,0,0,0,0,0,0,0,0,0,0,0,0,0,0,0,0,44,0,0,0,0,0,0,0,0,0,0,
0,0,0,0,0,0,0,0,0,0,0,0,48,0,0,0,0,0,0,0,0,0,0,0,0,0,0,0,0,0,0,49,0,0,0,0,0,0,0,0,0,0,
0,0,0,0,0,0,0,0,0,0,0,0,43,0,0,0,0,0,0,0,0,0,0,0,0,0,0,0,0,0,0,44,0,0,0,0,0,0,0,0,0,0,
0,0,0,0,0,0,0,0,0,0,0,0,48,0,0,0,0,0,0,0,0,0,0,0,0,0,0,0,0,0,0,49,0,0,0,0,0,0,0,0,0,0,
0,0,0,0,0,0,0,0,0,0,0,0,43,0,0,0,0,0,0,0,0,0,0,0,0,0,0,0,0,0,0,44,0,0,0,0,0,0,0,0,0,0,
0,0,0,0,0,0,0,0,0,0,0,0,48,0,0,0,0,0,0,0,0,0,0,0,0,0,0,0,0,0,0,49,0,0,0,0,0,0,0,0,0,0,
0,0,0,0,0,0,0,0,0,0,0,0,43,0,0,0,0,0,0,0,0,0,0,0,0,0,0,0,0,0,0,44,0,0,0,0,0,0,0,0,0,0,
0,0,0,0,0,0,0,0,0,0,0,0,48,0,0,0,0,0,0,0,0,0,0,0,0,0,0,0,0,0,0,49,0,0,0,0,0,0,0,0,0,0,
0,0,0,0,0,0,0,0,0,0,0,0,43,0,0,0,0,0,0,0,0,0,0,0,0,0,0,0,0,0,0,44,0,0,0,0,0,0,0,0,0,0,
0,0,0,0,0,0,0,0,0,0,0,0,48,0,0,0,0,0,0,0,0,0,0,0,0,0,0,0,0,0,0,49,0,0,0,0,0,0,0,0,0,0,
0,0,0,0,0,0,0,0,0,0,0,0,43,0,0,0,0,0,0,0,0,0,0,0,0,0,0,0,0,0,0,44,0,0,0,0,0,0,0,0,0,0,
0,0,0,0,0,0,0,0,0,0,0,0,48,0,0,0,0,0,0,0,0,0,0,0,0,0,0,0,0,0,0,49,0,0,0,0,0,0,0,0,0,0,
0,0,0,0,0,0,0,0,0,0,0,0,43,0,0,0,0,0,0,0,0,0,0,0,0,0,0,0,0,0,0,44,0,0,0,0,0,0,0,0,0,0,
0,0,0,0,0,0,0,0,0,0,0,0,48,0,0,0,0,0,0,0,0,0,0,0,0,0,0,0,0,0,0,49,0,0,0,0,0,0,0,0,0,0,
0,0,0,0,0,0,0,0,0,0,0,0,43,0,0,0,0,0,0,0,0,0,0,0,0,0,0,0,0,0,0,44,0,0,0,0,0,0,0,0,0,0,
0,0,0,0,0,0,0,0,0,0,0,0,48,0,0,0,0,0,0,0,0,0,0,0,0,0,0,0,0,0,0,49,0,0,0,0,0,0,0,0,0,0,
0,0,0,0,0,0,0,0,0,0,0,0,43,0,0,0,0,0,0,0,0,0,0,0,0,0,0,0,0,0,0,44,0,0,0,0,0,0,0,0,0,0,
0,0,0,0,0,0,0,0,0,0,0,0,48,0,0,0,0,0,0,0,0,0,0,0,0,0,0,0,0,0,0,49,0,0,0,0,0,0,0,0,0,0,
0,0,0,0,0,0,0,0,0,0,0,0,43,0,0,0,0,0,0,0,0,0,0,0,0,0,0,0,0,0,0,44,0,0,0,0,0,0,0,0,0,0,
0,0,0,0,0,0,0,0,0,0,0,0,48,0,0,0,0,0,0,0,0,0,0,0,0,0,0,0,0,0,0,49,0,0,0,0,0,0,0,0,0,0,
0,0,0,0,0,0,0,0,0,0,0,0,43,0,0,0,0,0,0,0,0,0,0,0,0,0,0,0,0,0,0,44,0,0,0,0,0,0,0,0,0,0,
0,0,0,0,0,0,0,0,0,0,0,0,48,0,0,0,0,0,0,0,0,0,0,0,0,0,0,0,0,0,0,49,0,0,0,0,0,0,0,0,0,0,
0,0,0,0,0,0,0,0,0,0,0,0,43,0,0,0,0,0,0,0,0,0,0,0,0,0,0,0,0,0,0,44,0,0,0,0,0,0,0,0,0,0,
0,0,0,0,0,0,0,0,0,0,0,0,48,0,0,0,0,0,0,0,0,0,0,0,0,0,0,0,0,0,0,49,0,0,0,0,0,0,0,0,0,0,
0,0,0,0,0,0,0,0,0,0,0,0,43,0,0,0,0,0,0,0,0,0,0,0,0,0,0,0,0,0,0,44,0,0,0,0,0,0,0,0,0,0,
0,0,0,0,0,0,0,0,0,0,0,0,48,0,0,0,0,0,0,0,0,0,0,0,0,0,0,0,0,0,0,49,0,0,0,0,0,0,0,0,0,0,
0,0,0,0,0,0,0,0,0,0,0,0,43,0,0,0,0,0,0,0,0,0,0,0,0,0,0,0,0,0,0,44,0,0,0,0,0,0,0,0,0,0,
0,0,0,0,0,0,0,0,0,0,0,0,48,0,0,0,0,0,0,0,0,0,0,0,0,0,0,0,0,0,0,49,0,0,0,0,0,0,0,0,0,0,
0,0,0,0,0,0,0,0,0,0,0,0,43,0,0,0,0,0,0,0,0,0,0,0,0,0,0,0,0,0,0,44,0,0,0,0,0,0,0,0,0,0,
0,0,0,0,0,0,0,0,0,0,0,0,48,0,0,0,0,0,0,0,0,0,0,0,0,0,0,0,0,0,0,49,0,0,0,0,0,0,0,0,0,0,
0,0,0,0,0,0,0,0,0,0,0,0,0,0,0,0,0,0,0,0,0,0,0,0,0,0,0,0,0,0,0,44,0,0,0,0,0,0,0,0,0,0,
0,0,0,0,0,0,0,0,0,0,0,0,0,0,0,0,0,0,0,0,0,0,0,0,0,0,0,0,0,0,0,49,0,0,0,0,0,0,0,0,0,0,
0,0,0,0,0,0,0,0,0,0,0,0,43,0,0,0,0,0,0,0,0,0,0,0,0,0,0,0,0,0,0,44,0,0,0,0,0,0,0,0,0,0,
0,0,0,0,0,0,0,0,0,0,0,0,48,0,0,0,0,0,0,0,0,0,0,0,0,0,0,0,0,0,0,49,0,0,0,0,0,0,0,0,0,0,
0,0,0,0,0,0,0,0,0,0,0,0,43,0,0,0,0,0,0,0,0,0,0,0,0,0,0,0,0,0,0,44,0,0,0,0,0,0,0,0,0,0,
0,0,0,0,0,0,0,0,0,0,0,0,48,0,0,0,0,0,0,0,0,0,0,0,0,0,0,0,0,0,0,49,0,0,0,0,0,0,0,0,0,0,
0,0,0,0,0,0,0,0,0,0,0,0,43,0,0,0,0,0,0,0,0,0,0,0,0,0,0,0,0,0,0,44,0,0,0,0,0,0,0,0,0,0,
0,0,0,0,0,0,0,0,0,0,0,0,48,0,0,0,0,0,0,0,0,0,0,0,0,0,0,0,0,0,0,49,0,0,0,0,0,0,0,0,0,0,
0,0,0,0,0,0,0,0,0,0,0,0,43,0,0,0,0,0,0,0,0,0,0,0,0,0,0,0,0,0,0,44,0,0,0,0,0,0,0,0,0,0,
0,0,0,0,0,0,0,0,0,0,0,0,48,0,0,0,0,0,0,0,0,0,0,0,0,0,0,0,0,0,0,49,0,0,0,0,0,0,0,0,0,0,
0,0,0,0,0,0,0,0,0,0,0,0,43,0,0,0,0,0,0,0,0,0,0,0,0,0,0,0,0,0,0,44,0,0,0,0,0,0,0,0,0,0,
0,0,0,0,0,0,0,0,0,0,0,0,48,0,0,0,0,0,0,0,0,0,0,0,0,0,0,0,0,0,0,49,0,0,0,0,0,0,0,0,0,0,
0,0,0,0,0,0,0,0,0,0,0,0,43,0,0,0,0,0,0,0,0,0,0,0,0,0,0,0,0,0,0,44,0,0,0,0,0,0,0,0,0,0,
0,0,0,0,0,0,0,0,0,0,0,0,48,0,0,0,0,0,0,0,0,0,0,0,0,0,0,0,0,0,0,49,0,0,0,0,0,0,0,0,0,0,
0,0,0,0,0,0,0,0,0,0,0,0,43,0,0,0,0,0,0,0,0,0,0,0,0,0,0,0,0,0,0,44,0,0,0,0,0,0,0,0,0,0,
0,0,0,0,0,0,0,0,0,0,0,0,48,0,0,0,0,0,0,0,0,0,0,0,0,0,0,0,0,0,0,49,0,0,0,0,0,0,0,0,0,0,
0,0,0,0,0,0,0,0,0,0,0,0,43,0,0,0,0,0,0,0,0,0,0,0,0,0,0,0,0,0,0,44,0,0,0,0,0,0,0,0,0,0,
0,0,0,0,0,0,0,0,0,0,0,0,48,0,0,0,0,0,0,0,0,0,0,0,0,0,0,0,0,0,0,49,0,0,0,0,0,0,0,0,0,0,
0,0,0,0,0,0,0,0,0,0,0,0,43,0,0,0,0,0,0,0,0,0,0,0,0,0,0,0,0,0,0,44,0,0,0,0,0,0,0,0,0,0,
0,0,0,0,0,0,0,0,0,0,0,0,48,0,0,0,0,0,0,0,0,0,0,0,0,0,0,0,0,0,0,49,0,0,0,0,0,0,0,0,0,0,
0,0,0,0,0,0,0,0,0,0,0,0,43,0,0,0,0,0,0,0,0,0,0,0,0,0,0,0,0,0,0,44,0,0,0,0,0,0,0,0,0,0,
0,0,0,0,0,0,0,0,0,0,0,0,48,0,0,0,0,0,0,0,0,0,0,0,0,0,0,0,0,0,0,49,0,0,0,0,0,0,0,0,0,0,
0,0,0,0,0,0,0,0,0,0,0,0,43,0,0,0,0,0,0,0,0,0,0,0,0,0,0,0,0,0,0,44,0,0,0,0,0,0,0,0,0,0,
0,0,0,0,0,0,0,0,0,0,0,0,48,0,0,0,0,0,0,0,0,0,0,0,0,0,0,0,0,0,0,49,0,0,0,0,0,0,0,0,0,0,
0,0,0,0,0,0,0,0,0,0,0,0,43,0,0,0,0,0,0,0,0,0,0,0,0,0,0,0,0,0,0,44,0,0,0,0,0,0,0,0,0,0,
0,0,0,0,0,0,0,0,0,0,0,0,48,0,0,0,0,0,0,0,0,0,0,0,0,0,0,0,0,0,0,49,0,0,0,0,0,0,0,0,0,0,
0,0,0,0,0,0,0,0,0,0,0,0,43,0,0,0,0,0,0,0,0,0,0,0,0,0,0,0,0,0,0,44,0,0,0,0,0,0,0,0,0,0,
0,0,0,0,0,0,0,0,0,0,0,0,48,0,0,0,0,0,0,0,0,0,0,0,0,0,0,0,0,0,0,49,0,0,0,0,0,0,0,0,0,0,
0,0,0,0,0,0,0,0,0,0,0,0,43,0,0,0,0,0,0,0,0,0,0,0,0,0,0,0,0,0,0,44,0,0,0,0,0,0,0,0,0,0,
0,0,0,0,0,0,0,0,0,0,0,0,48,0,0,0,0,0,0,0,0,0,0,0,0,0,0,0,0,0,0,49,0,0,0,0,0,0,0,0,0,0,
0,0,0,0,0,0,0,0,0,0,0,0,43,0,0,0,0,0,0,0,0,0,0,0,0,0,0,0,0,0,0,44,0,0,0,0,0,0,0,0,0,0,
0,0,0,0,0,0,0,0,0,0,0,0,48,0,0,0,0,0,0,0,0,0,0,0,0,0,0,0,0,0,0,49,0,0,0,0,0,0,0,0,0,0,
0,0,0,0,0,0,0,0,0,0,0,0,43,0,0,0,0,0,0,0,0,0,0,0,0,0,0,0,0,0,0,44,0,0,0,0,0,0,0,0,0,0,
0,0,0,0,0,0,0,0,0,0,0,0,48,0,0,0,0,0,0,0,0,0,0,0,0,0,0,0,0,0,0,49,0,0,0,0,0,0,0,0,0,0,
0,0,0,0,0,0,0,0,0,0,0,0,43,0,0,0,0,0,0,0,0,0,0,0,0,0,0,0,0,0,0,44,0,0,0,0,0,0,0,0,0,0,
0,0,0,0,0,0,0,0,0,0,0,0,48,0,0,0,0,0,0,0,0,0,0,0,0,0,0,0,0,0,0,49,0,0,0,0,0,0,0,0,0,0,
0,0,0,0,0,0,0,0,0,0,0,0,43,0,0,0,0,0,0,0,0,0,0,0,0,0,0,0,0,0,0,44,0,0,0,0,0,0,0,0,0,0,
0,0,0,0,0,0,0,0,0,0,0,0,48,0,0,0,0,0,0,0,0,0,0,0,0,0,0,0,0,0,0,49,0,0,0,0,0,0,0,0,0,0,
0,0,0,0,0,0,0,0,0,0,0,0,43,0,0,0,0,0,0,0,0,0,0,0,0,0,0,0,0,0,0,44,0,0,0,0,0,0,0,0,0,0,
0,0,0,0,0,0,0,0,0,0,0,0,48,0,0,0,0,0,0,0,0,0,0,0,0,0,0,0,0,0,0,49,0,0,0,0,0,0,0,0,0,0,
0,0,0,0,0,0,0,0,0,0,0,0,43,0,0,0,0,0,0,0,0,0,0,0,0,0,0,0,0,0,0,44,0,0,0,0,0,0,0,0,0,0,
0,0,0,0,0,0,0,0,0,0,0,0,48,0,0,0,0,0,0,0,0,0,0,0,0,0,0,0,0,0,0,49,0,0,0,0,0,0,0,0,0,0,
0,0,0,0,0,0,0,0,0,0,0,0,43,0,0,0,0,0,0,0,0,0,0,0,0,0,0,0,0,0,0,44,0,0,0,0,0,0,0,0,0,0,
0,0,0,0,0,0,0,0,0,0,0,0,48,0,0,0,0,0,0,0,0,0,0,0,0,0,0,0,0,0,0,49,0,0,0,0,0,0,0,0,0,0,
0,0,0,0,0,0,0,0,0,0,0,0,43,0,0,0,0,0,0,0,0,0,0,0,0,0,0,0,0,0,0,44,0,0,0,0,0,0,0,0,0,0,
0,0,0,0,0,0,0,0,0,0,0,0,48,0,0,0,0,0,0,0,0,0,0,0,0,0,0,0,0,0,0,49,0,0,0,0,0,0,0,0,0,0,
0,0,0,0,0,0,0,0,0,0,0,0,43,0,0,0,0,0,0,0,0,0,0,0,0,0,0,0,0,0,0,44,0,0,0,0,0,0,0,0,0,0,
0,0,0,0,0,0,0,0,0,0,0,0,48,0,0,0,0,0,0,0,0,0,0,0,0,0,0,0,0,0,0,49,0,0,0,0,0,0,0,0,0,0,
0,0,0,0,0,0,0,0,0,0,0,0,43,0,0,0,0,0,0,0,0,0,0,0,0,0,0,0,0,0,0,44,0,0,0,0,0,0,0,0,0,0,
0,0,0,0,0,0,0,0,0,0,0,0,48,0,0,0,0,0,0,0,0,0,0,0,0,0,0,0,0,0,0,49,0,0,0,0,0,0,0,0,0,0,
0,0,0,0,0,0,0,0,0,0,0,0,43,0,0,0,0,0,0,0,0,0,0,0,0,0,0,0,0,0,0,44,0,0,0,0,0,0,0,0,0,0,
0,0,0,0,0,0,0,0,0,0,0,0,48,0,0,0,0,0,0,0,0,0,0,0,0,0,0,0,0,0,0,49,0,0,0,0,0,0,0,0,0,0,
0,0,0,0,0,0,0,0,0,0,0,0,43,0,0,0,0,0,0,0,0,0,0,0,0,0,0,0,0,0,0,44,0,0,0,0,0,0,0,0,0,0,
0,0,0,0,0,0,0,0,0,0,0,0,48,0,0,0,0,0,0,0,0,0,0,0,0,0,0,0,0,0,0,49,0,0,0,0,0,0,0,0,0,0,
0,0,0,0,0,0,0,0,0,0,0,0,43,0,0,0,0,0,0,0,0,0,0,0,0,0,0,0,0,0,0,44,0,0,0,0,0,0,0,0,0,0,
0,0,0,0,0,0,0,0,0,0,0,0,48,0,0,0,0,0,0,0,0,0,0,0,0,0,0,0,0,0,0,49,0,0,0,0,0,0,0,0,0,0,
0,0,0,0,0,0,0,0,0,0,0,0,43,0,0,0,0,0,0,0,0,0,0,0,0,0,0,0,0,0,0,44,0,0,0,0,0,0,0,0,0,0,
0,0,0,0,0,0,0,0,0,0,0,0,48,0,0,0,0,0,0,0,0,0,0,0,0,0,0,0,0,0,0,49,0,0,0,0,0,0,0,0,0,0,
0,0,0,0,0,0,0,0,0,0,0,0,43,0,0,0,0,0,0,0,0,0,0,0,0,0,0,0,0,0,0,44,0,0,0,0,0,0,0,0,0,0,
0,0,0,0,0,0,0,0,0,0,0,0,48,0,0,0,0,0,0,0,0,0,0,0,0,0,0,0,0,0,0,49,0,0,0,0,0,0,0,0,0,0,
0,0,0,0,0,0,0,0,0,0,0,0,43,0,0,0,0,0,0,0,0,0,0,0,0,0,0,0,0,0,0,44,0,0,0,0,0,0,0,0,0,0,
0,0,0,0,0,0,0,0,0,0,0,0,48,0,0,0,0,0,0,0,0,0,0,0,0,0,0,0,0,0,0,49,0,0,0,0,0,0,0,0,0,0,
0,0,0,0,0,0,0,0,0,0,0,0,43,0,0,0,0,0,0,0,0,0,0,0,0,0,0,0,0,0,0,44,0,0,0,0,0,0,0,0,0,0,
0,0,0,0,0,0,0,0,0,0,0,0,48,0,0,0,0,0,0,0,0,0,0,0,0,0,0,0,0,0,0,49,0,0,0,0,0,0,0,0,0,0,
0,0,0,0,0,0,0,0,0,0,0,0,43,0,0,0,0,0,0,0,0,0,0,0,0,0,0,0,0,0,0,44,0,0,0,0,0,0,0,0,0,0,
0,0,0,0,0,0,0,0,0,0,0,0,48,0,0,0,0,0,0,0,0,0,0,0,0,0,0,0,0,0,0,49,0,0,0,0,0,0,0,0,0,0,
0,0,0,0,0,0,0,0,0,0,0,0,43,0,0,0,0,0,0,0,0,0,0,0,0,0,0,0,0,0,0,44,0,0,0,0,0,0,0,0,0,0,
0,0,0,0,0,0,0,0,0,0,0,0,48,0,0,0,0,0,0,0,0,0,0,0,0,0,0,0,0,0,0,49,0,0,0,0,0,0,0,0,0,0,
0,0,0,0,0,0,0,0,0,0,0,0,43,0,0,0,0,0,0,0,0,0,0,0,0,0,0,0,0,0,0,44,0,0,0,0,0,0,0,0,0,0,
0,0,0,0,0,0,0,0,0,0,0,0,48,0,0,0,0,0,0,0,0,0,0,0,0,0,0,0,0,0,0,49,0,0,0,0,0,0,0,0,0,0,
0,0,0,0,0,0,0,0,0,0,0,0,43,0,0,0,0,0,0,0,0,0,0,0,0,0,0,0,0,0,0,44,0,0,0,0,0,0,0,0,0,0,
0,0,0,0,0,0,0,0,0,0,0,0,48,0,0,0,0,0,0,0,0,0,0,0,0,0,0,0,0,0,0,49,0,0,0,0,0,0,0,0,0,0,
0,0,0,0,0,0,0,0,0,0,0,0,43,0,0,0,0,0,0,0,0,0,0,0,0,0,0,0,0,0,0,44,0,0,0,0,0,0,0,0,0,0,
0,0,0,0,0,0,0,0,0,0,0,0,48,0,0,0,0,0,0,0,0,0,0,0,0,0,0,0,0,0,0,49,0,0,0,0,0,0,0,0,0,0,
0,0,0,0,0,0,0,0,0,0,0,0,43,0,0,0,0,0,0,0,0,0,0,0,0,0,0,0,0,0,0,44,0,0,0,0,0,0,0,0,0,0,
0,0,0,0,0,0,0,0,0,0,0,0,48,0,0,0,0,0,0,0,0,0,0,0,0,0,0,0,0,0,0,49,0,0,0,0,0,0,0,0,0,0,
0,0,0,0,0,0,0,0,0,0,0,0,43,0,0,0,0,0,0,0,0,0,0,0,0,0,0,0,0,0,0,44,0,0,0,0,0,0,0,0,0,0,
0,0,0,0,0,0,0,0,0,0,0,0,48,0,0,0,0,0,0,0,0,0,0,0,0,0,0,0,0,0,0,49,0,0,0,0,0,0,0,0,0,0,
0,0,0,0,0,0,0,0,0,0,0,0,43,0,0,0,0,0,0,0,0,0,0,0,0,0,0,0,0,0,0,44,0,0,0,0,0,0,0,0,0,0,
0,0,0,0,0,0,0,0,0,0,0,0,48,0,0,0,0,0,0,0,0,0,0,0,0,0,0,0,0,0,0,49,0,0,0,0,0,0,0,0,0,0,
0,0,0,0,0,0,0,0,0,0,0,0,43,0,0,0,0,0,0,0,0,0,0,0,0,0,0,0,0,0,0,44,0,0,0,0,0,0,0,0,0,0,
0,0,0,0,0,0,0,0,0,0,0,0,48,0,0,0,0,0,0,0,0,0,0,0,0,0,0,0,0,0,0,49,0,0,0,0,0,0,0,0,0,0,
0,0,0,0,0,0,0,0,0,0,0,0,43,0,0,0,0,0,0,0,0,0,0,0,0,0,0,0,0,0,0,44,0,0,0,0,0,0,0,0,0,0,
0,0,0,0,0,0,0,0,0,0,0,0,48,0,0,0,0,0,0,0,0,0,0,0,0,0,0,0,0,0,0,49,0,0,0,0,0,0,0,0,0,0,
0,0,0,0,0,0,0,0,0,0,0,0,43,0,0,0,0,0,0,0,0,0,0,0,0,0,0,0,0,0,0,44,0,0,0,0,0,0,0,0,0,0,
0,0,0,0,0,0,0,0,0,0,0,0,48,0,0,0,0,0,0,0,0,0,0,0,0,0,0,0,0,0,0,49,0,0,0,0,0,0,0,0,0,0,
0,0,0,0,0,0,0,0,0,0,0,0,43,0,0,0,0,0,0,0,0,0,0,0,0,0,0,0,0,0,0,44,0,0,0,0,0,0,0,0,0,0,
0,0,0,0,0,0,0,0,0,0,0,0,48,0,0,0,0,0,0,0,0,0,0,0,0,0,0,0,0,0,0,49,0,0,0,0,0,0,0,0,0,0,
0,0,0,0,0,0,0,0,0,0,0,0,43,0,0,0,0,0,0,0,0,0,0,0,0,0,0,0,0,0,0,44,0,0,0,0,0,0,0,0,0,0,
0,0,0,0,0,0,0,0,0,0,0,0,48,0,0,0,0,0,0,0,0,0,0,0,0,0,0,0,0,0,0,49,0,0,0,0,0,0,0,0,0,0,
0,0,0,0,0,0,0,0,0,0,0,0,43,0,0,0,0,0,0,0,0,0,0,0,0,0,0,0,0,0,0,44,0,0,0,0,0,0,0,0,0,0,
0,0,0,0,0,0,0,0,0,0,0,0,48,0,0,0,0,0,0,0,0,0,0,0,0,0,0,0,0,0,0,49,0,0,0,0,0,0,0,0,0,0,
0,0,0,0,0,0,0,0,0,0,0,0,43,0,0,0,0,0,0,0,0,0,0,0,0,0,0,0,0,0,0,44,0,0,0,0,0,0,0,0,0,0,
0,0,0,0,0,0,0,0,0,0,0,0,48,0,0,0,0,0,0,0,0,0,0,0,0,0,0,0,0,0,0,49,0,0,0,0,0,0,0,0,0,0,
0,0,0,0,0,0,0,0,0,0,0,0,43,0,0,0,0,0,0,0,0,0,0,0,0,0,0,0,0,0,0,0,0,0,0,0,0,0,0,0,0,0,
0,0,0,0,0,0,0,0,0,0,0,0,35,36,0,0,0,0,0,0,0,0,0,0,0,0,0,0,0,0,35,36,0,0,0,0,0,0,0,0,0,0,
0,0,0,0,0,0,0,0,0,0,0,0,0,0,0,0,0,0,0,0,0,0,0,0,0,0,0,0,0,0,0,0,0,0,0,0,0,0,0,0,0,0,
0,0,0,0,0,0,0,0,0,0,0,0,0,0,0,0,0,0,0,0,0,0,0,0,0,0,0,0,0,49,0,0,0,0,0,0,0,0,0,0,0,0,
0,0,0,0,0,0,0,0,0,0,0,0,0,0,0,0,0,0,0,0,0,0,0,0,0,0,0,0,0,44,0,0,0,0,0,0,0,0,0,0,0,0,
0,0,0,0,0,0,0,0,0,0,0,0,0,0,0,0,0,0,0,0,0,0,0,0,0,0,0,0,0,49,0,0,0,0,0,0,0,0,0,0,0,0,
0,0,0,0,0,0,0,0,0,0,0,0,0,0,0,0,0,0,0,0,0,0,0,0,0,0,0,0,0,44,0,0,0,0,0,0,0,0,0,0,0,0,
0,0,0,0,0,0,0,0,0,0,0,0,0,0,0,0,0,0,0,0,0,0,0,0,0,0,0,0,0,49,0,0,0,0,0,0,0,0,0,0,0,0,
0,0,0,0,0,0,0,0,0,0,0,0,0,0,0,0,0,0,0,0,0,0,0,0,0,0,0,0,0,44,0,0,0,0,0,0,0,0,0,0,0,0,
0,0,0,0,0,0,0,0,0,0,0,0,0,0,0,0,0,0,0,0,0,0,0,0,0,0,0,0,0,49,0,0,0,0,0,0,0,0,0,0,0,0,
0,0,0,0,0,0,0,0,0,0,0,0,0,0,0,0,0,0,0,0,0,0,0,0,0,0,0,0,0,44,0,0,0,0,0,0,0,0,0,0,0,0,
0,0,0,0,0,0,0,0,0,0,0,0,0,0,0,0,0,0,0,0,0,0,0,0,0,0,0,0,0,49,0,0,0,0,0,0,0,0,0,0,0,0,
0,0,0,0,0,0,0,0,0,0,0,0,0,0,0,0,0,0,0,0,0,0,0,0,0,0,0,0,0,0,0,44,0,0,0,0,0,0,0,0,0,0,
0,0,0,0,0,0,0,0,0,0,0,0,0,0,0,0,0,0,0,0,0,0,0,0,0,0,0,0,0,0,0,49,0,0,0,0,0,0,0,0,0,0,
0,0,0,0,0,0,0,0,0,0,0,0,0,0,0,0,0,0,0,0,0,0,0,0,0,0,0,0,0,0,0,44,0,0,0,0,0,0,0,0,0,0,
0,0,0,0,0,0,0,0,0,0,0,0,0,0,0,0,0,0,0,0,0,0,0,0,0,0,0,0,0,0,0,49,0,0,0,0,0,0,0,0,0,0,
0,0,0,0,0,0,0,0,0,0,0,0,0,0,0,0,0,0,0,0,0,0,0,0,0,0,0,0,0,0,0,44,0,0,0,0,0,0,0,0,0,0,
0,0,0,0,0,0,0,0,0,0,0,0,0,0,0,0,0,0,0,0,0,0,0,0,0,0,0,0,0,0,0,49,0,0,0,0,0,0,0,0,0,0,
0,0,0,0,0,0,0,0,0,0,0,0,0,0,0,0,0,0,0,0,0,0,0,0,0,0,0,0,0,0,0,0,0,0,0,0,0,0,0,0,0,0,
0,0,0,0,0,0,0,0,0,0,0,0,0,55,56,57,56,57,55,56,57,56,57,54,0,0,0,0,0,0,0,0,0,0,0,0,0,0,0,0,0,0
  </data>
 </layer>
 </group>
</map>
