<?xml version="1.0" encoding="UTF-8"?>
<map version="1.10" tiledversion="1.10.2" orientation="orthogonal" renderorder="right-down" compressionlevel="0" width="60" height="62" tilewidth="32" tileheight="32" infinite="0" nextlayerid="4" nextobjectid="1">
 <tileset firstgid="1" source="route-33.tsx"/>
 <layer id="1" name="lower" width="60" height="62">
  <data encoding="csv">
0,0,0,0,0,0,0,0,0,0,0,0,0,0,0,0,0,0,0,0,0,0,0,0,0,0,0,0,0,0,0,0,0,0,0,0,0,0,0,0,0,0,0,0,0,0,0,0,0,0,0,0,0,0,0,0,0,0,0,0,
0,0,0,0,0,0,0,0,0,0,0,0,0,0,0,0,0,0,0,0,0,0,0,0,0,0,0,0,0,0,0,0,0,0,0,0,0,0,0,0,0,0,0,0,0,0,0,0,0,0,0,0,0,0,0,0,0,0,0,0,
0,0,0,0,0,0,0,0,0,0,0,0,0,0,0,0,0,0,0,0,0,0,0,0,0,0,0,0,0,0,0,0,0,0,0,0,0,0,0,0,0,0,0,0,0,0,0,0,0,0,0,0,0,0,0,0,0,0,0,0,
0,0,0,0,0,0,0,0,0,0,0,0,0,0,0,0,0,0,0,0,0,0,0,0,0,0,0,0,0,0,0,0,0,0,0,0,0,0,0,0,0,0,0,0,0,0,0,0,0,0,0,0,0,0,0,0,0,0,0,0,
0,0,0,0,0,0,0,0,0,0,0,0,0,0,0,0,0,0,0,0,0,0,0,0,0,0,0,0,4,3,4,3,4,3,4,3,4,3,4,3,4,3,4,3,4,3,4,3,4,3,4,3,4,3,4,3,4,3,3,3,
0,0,0,0,0,0,0,0,0,0,0,0,0,0,0,0,0,0,0,0,0,0,0,0,0,0,0,0,3,4,3,4,3,4,3,4,3,4,3,4,3,4,3,4,3,4,3,4,3,4,3,4,3,4,3,4,3,4,3,3,
0,0,0,0,0,0,0,0,0,0,0,0,0,0,0,0,0,0,0,0,0,0,0,0,0,0,0,0,4,3,4,3,4,3,4,3,4,3,4,3,4,3,4,3,4,3,4,3,4,3,4,3,4,3,4,3,4,3,3,3,
0,0,0,0,0,0,0,0,0,0,0,0,0,0,0,0,0,0,0,0,0,0,0,0,0,0,0,0,3,4,3,4,3,4,3,4,3,4,3,4,3,4,3,4,3,4,3,4,3,4,3,76,3,4,3,4,3,4,3,3,
0,0,0,0,0,0,0,0,0,0,0,0,0,0,0,0,0,0,0,0,0,0,0,0,0,0,0,0,4,3,4,3,4,3,4,3,4,3,4,3,4,3,4,3,4,3,4,3,4,3,4,3,4,3,4,3,4,3,3,3,
0,0,0,0,0,0,0,0,0,0,0,0,0,0,0,0,0,0,0,0,0,0,0,0,0,0,0,0,3,4,3,4,3,4,3,4,3,4,3,4,3,4,3,4,3,4,3,4,3,4,3,3,3,4,3,4,3,4,3,3,
0,0,0,0,0,0,0,0,0,0,0,0,0,0,0,0,0,0,0,0,0,0,0,0,0,0,0,0,4,3,4,3,4,3,4,3,4,3,4,3,4,3,4,3,4,3,4,3,4,3,3,3,4,3,4,3,4,3,3,3,
0,0,0,0,0,0,0,0,0,0,0,0,0,0,0,0,0,0,0,0,0,0,0,0,0,0,0,0,3,4,3,4,3,4,3,4,3,4,3,4,3,4,3,4,3,4,3,4,3,4,3,3,72,69,69,73,3,4,3,3,
0,0,0,0,0,0,0,0,0,0,0,0,0,0,0,0,0,0,0,0,0,0,0,0,0,0,0,0,4,3,4,3,4,3,4,3,4,3,4,3,4,3,17,17,17,17,17,17,17,3,3,3,68,66,71,74,4,3,3,3,
0,0,0,0,0,0,0,0,0,0,0,0,0,0,0,0,0,0,0,0,0,0,0,0,0,0,0,0,3,4,3,4,3,4,3,4,3,4,3,4,3,4,17,17,17,17,17,17,17,4,3,4,68,70,3,4,3,4,3,3,
0,0,0,0,0,0,0,0,0,0,0,0,0,0,0,0,0,0,0,0,0,0,0,0,0,0,0,0,4,3,4,3,4,3,4,3,4,3,4,3,4,3,17,17,17,17,17,17,17,17,17,3,68,70,4,3,4,3,3,3,
4,4,4,4,4,4,4,4,4,17,17,17,17,17,17,17,4,4,4,4,4,4,0,0,0,0,0,0,3,4,3,4,3,4,3,4,3,4,3,4,3,17,17,17,17,17,17,17,17,17,17,4,68,70,3,4,3,4,3,3,
4,4,4,4,4,4,4,4,4,17,17,17,17,17,17,17,4,4,4,4,4,4,0,0,0,0,0,0,4,3,4,3,4,3,4,3,4,3,4,3,4,17,17,17,17,17,17,3,4,3,4,3,68,70,4,3,4,3,4,3,
4,4,4,4,4,4,4,4,4,17,17,17,17,17,17,17,4,4,4,4,4,4,0,0,0,0,0,0,3,4,3,4,3,4,3,4,3,4,3,4,3,17,17,17,17,17,17,4,3,4,3,4,68,65,69,69,69,69,69,69,
4,4,4,4,4,4,4,4,4,17,17,17,17,17,17,17,4,4,4,4,4,4,0,0,0,0,0,0,3,17,17,17,17,17,17,17,17,17,17,17,17,17,17,17,17,17,17,3,72,69,69,69,64,63,63,63,63,63,63,63,
4,4,4,4,4,4,4,4,4,17,17,17,17,17,17,17,4,4,4,4,4,4,0,0,0,0,0,0,3,17,3,4,3,4,3,4,3,4,3,4,3,4,3,4,3,4,3,4,68,63,63,63,63,63,63,63,63,63,63,63,
4,4,4,4,4,4,4,4,4,17,17,17,17,17,17,17,4,4,4,4,4,4,0,0,0,0,0,0,4,3,4,3,4,3,4,3,4,3,4,3,4,3,4,3,4,3,4,3,75,71,67,63,63,63,63,66,71,71,71,71,
4,4,4,4,4,4,4,4,4,17,17,17,17,17,17,17,4,4,4,4,4,4,0,0,0,0,0,0,3,4,3,4,3,4,3,4,3,4,3,4,3,4,3,4,3,4,3,4,3,4,68,63,63,63,63,70,3,4,3,4,
4,4,4,4,4,4,4,4,4,17,17,17,17,17,17,17,4,4,4,4,4,4,0,0,0,0,0,0,4,3,4,3,4,17,17,17,17,17,17,17,17,17,4,3,4,3,4,3,4,3,75,71,71,71,71,74,4,3,4,3,
4,4,4,4,4,4,4,4,4,17,17,17,17,17,17,17,4,4,4,4,4,4,0,0,0,0,0,0,3,4,3,4,3,17,17,17,17,17,17,17,17,17,3,4,3,4,3,4,3,4,3,4,3,4,3,4,3,4,3,4,
4,4,4,4,4,4,4,4,4,17,17,17,17,17,17,17,4,4,4,4,4,4,0,0,0,0,0,0,4,3,4,3,4,17,17,17,17,17,17,17,17,17,4,3,4,3,4,3,4,3,4,3,4,3,4,3,4,3,4,3,
4,4,4,4,4,4,4,4,4,4,4,4,4,4,4,4,4,4,4,4,4,4,0,0,0,0,0,0,3,4,3,4,3,17,17,17,17,17,17,17,17,17,3,4,3,4,3,4,4,4,4,4,4,4,4,4,4,4,4,4,
4,4,4,4,4,4,4,4,4,4,4,4,4,4,4,4,4,4,4,4,4,4,0,0,0,0,0,0,4,3,4,3,4,17,17,17,17,17,17,17,17,17,4,3,4,3,4,4,4,4,4,4,4,4,4,4,4,4,4,4,
4,4,4,4,4,4,4,4,4,4,4,4,4,4,4,4,4,4,4,4,4,4,0,0,0,0,0,0,3,4,3,4,3,17,17,17,17,17,17,17,17,17,3,4,3,4,3,4,4,4,4,4,4,4,4,4,4,4,4,4,
4,4,4,4,4,4,4,4,4,4,4,4,4,4,4,4,4,4,4,4,4,4,0,0,0,0,0,0,0,0,0,0,0,17,17,17,17,17,17,17,17,17,4,0,0,0,0,17,4,4,4,4,4,4,4,4,4,4,4,4,
4,4,4,4,4,4,4,4,4,17,4,4,4,4,4,17,4,4,4,4,4,4,0,0,0,0,0,0,0,0,0,0,0,17,17,17,17,17,17,17,17,17,0,0,0,0,0,0,0,0,0,0,0,0,0,0,0,0,0,0,
4,4,4,4,4,4,4,4,4,4,4,4,4,4,4,4,4,4,4,4,4,4,0,0,0,0,0,0,0,0,0,0,0,17,17,17,17,17,17,17,17,17,0,0,0,0,0,0,0,0,0,0,0,0,0,0,0,0,0,0,
4,4,4,4,4,5,5,4,4,5,4,4,4,5,4,4,4,4,4,4,4,4,0,0,0,0,0,0,0,0,0,0,0,0,0,0,0,0,0,0,0,0,0,0,0,0,0,0,0,0,0,0,0,0,0,0,0,0,0,0,
4,4,4,4,5,4,5,4,5,4,3,4,5,4,4,4,4,4,4,4,4,4,0,0,0,0,0,0,0,0,17,17,17,17,17,17,17,17,17,17,17,17,17,17,17,17,17,0,0,0,0,0,0,0,0,0,0,0,0,0,
4,4,4,4,4,3,4,3,4,3,4,4,4,3,4,4,4,4,4,4,4,4,0,0,0,0,0,0,0,0,0,0,0,0,0,0,17,17,17,17,17,17,17,17,17,17,17,0,0,0,0,0,0,0,0,0,0,0,0,0,
4,4,4,4,72,69,69,69,69,73,4,4,4,4,4,4,4,4,4,4,4,4,0,0,0,0,0,0,0,0,0,0,0,0,0,0,0,0,0,0,0,0,0,0,0,0,0,0,0,0,0,0,0,0,0,0,0,0,0,0,
69,69,69,69,64,63,63,63,63,70,4,5,4,5,1,1,4,4,4,4,4,4,0,0,0,0,0,0,0,0,0,0,0,0,0,0,0,0,0,0,0,0,0,0,0,0,0,0,0,0,0,0,0,0,0,0,0,0,0,0,
63,63,63,63,63,66,71,71,71,74,4,4,5,1,1,1,4,4,4,4,4,4,0,0,0,0,0,0,0,0,17,17,17,17,17,17,17,17,17,17,17,17,17,17,17,17,17,0,0,0,0,0,0,0,0,0,0,0,0,0,
71,71,71,71,71,74,4,4,4,5,1,1,1,1,1,1,4,4,4,18,4,4,0,0,0,0,0,0,0,0,0,0,0,0,0,0,0,0,0,0,0,0,0,0,0,0,0,0,0,0,0,0,0,0,0,0,0,0,0,0,
4,4,4,4,4,5,1,1,1,1,1,1,1,1,1,1,4,4,4,4,4,4,0,0,0,0,0,0,0,0,0,0,0,0,0,0,0,0,0,0,0,0,0,0,0,0,0,0,0,0,0,0,0,0,0,0,0,0,0,0,
0,0,0,0,5,1,1,1,1,1,1,1,5,1,1,1,0,0,0,0,0,0,0,0,0,0,0,0,0,0,0,0,0,0,0,0,0,0,0,0,0,0,0,0,0,0,0,0,0,0,0,0,0,0,0,0,0,0,0,0,
0,0,0,0,1,1,1,1,1,1,1,1,1,1,1,1,0,0,0,0,0,0,0,0,0,0,0,0,0,0,0,0,0,0,0,0,0,0,0,0,0,0,0,0,0,0,0,0,0,0,0,0,0,0,0,0,0,0,0,0,
0,0,0,0,0,0,0,0,0,0,0,0,0,0,0,0,0,0,0,0,0,0,0,0,0,0,0,0,0,0,0,0,0,0,0,0,0,0,0,0,0,0,0,0,0,0,0,0,0,0,0,0,0,0,0,0,0,0,0,0,
0,0,0,0,0,0,0,0,0,0,0,0,0,0,0,0,0,0,0,0,0,0,0,0,0,0,0,0,0,0,0,0,0,0,0,0,0,0,0,0,0,0,0,0,0,0,0,0,0,0,0,0,0,0,0,0,0,0,0,0,
0,0,0,0,0,0,0,0,0,0,0,0,0,0,0,0,0,0,0,0,0,0,0,0,0,0,0,0,0,0,0,0,0,0,0,0,0,0,0,0,0,0,0,0,0,0,0,0,0,0,0,0,0,0,0,0,0,0,0,0,
0,0,0,0,0,0,0,0,0,0,0,0,0,0,0,0,0,0,0,0,0,0,0,0,0,0,0,0,0,0,0,0,0,0,0,0,0,0,0,0,0,0,0,0,0,0,0,0,0,0,0,0,0,0,0,0,0,0,0,0,
0,0,0,0,0,0,0,0,0,0,0,0,0,0,0,0,0,0,0,0,0,0,0,0,0,0,0,0,0,0,0,0,0,0,0,0,0,0,0,0,0,0,0,0,0,0,0,0,0,0,0,0,0,0,0,0,0,0,0,0,
0,0,0,0,0,0,0,0,0,0,0,0,0,0,0,0,0,0,0,0,0,0,0,0,0,0,0,0,0,0,0,0,0,0,0,0,0,0,0,0,0,0,0,0,0,0,0,0,0,0,0,0,0,0,0,0,0,0,0,0,
0,0,0,0,0,0,0,0,0,0,0,0,0,0,0,0,0,0,0,0,0,0,0,0,0,0,0,0,0,0,0,17,17,17,17,17,17,17,17,17,17,17,17,17,17,17,0,0,0,0,0,0,0,0,0,0,0,0,0,0,
0,0,0,0,0,0,0,0,0,0,0,0,0,0,0,0,0,0,0,0,0,0,0,0,0,0,0,0,0,0,0,0,0,0,0,0,0,0,0,0,0,0,0,0,0,0,0,0,0,0,0,0,0,0,0,0,0,0,0,0,
0,0,0,0,0,0,0,0,0,0,0,0,0,0,0,0,0,0,0,0,0,0,0,0,0,0,0,0,0,0,0,0,0,0,0,0,0,0,0,0,0,0,0,0,0,0,0,0,0,0,0,0,0,0,0,0,0,0,0,0,
0,0,0,0,0,0,0,0,0,0,0,0,0,0,0,0,0,0,0,0,0,0,0,0,0,0,0,0,0,0,0,0,0,0,0,0,0,0,0,0,0,0,0,0,0,0,0,0,0,0,0,0,0,0,0,0,0,0,0,0,
0,0,0,0,0,0,0,0,0,0,0,0,0,0,0,0,0,0,0,0,0,0,0,0,0,0,0,0,0,0,0,0,0,0,0,0,0,0,0,0,0,0,0,0,0,0,0,0,0,0,0,0,0,0,0,0,0,0,0,0,
0,0,0,0,0,0,0,0,0,0,0,0,0,0,0,0,0,0,0,0,0,0,0,0,0,0,0,0,0,0,0,0,0,0,0,0,0,0,0,0,0,0,0,0,0,0,0,0,0,0,0,0,0,0,0,0,0,0,0,0,
0,0,0,0,0,0,0,0,0,0,0,0,0,0,0,0,0,0,0,0,0,0,0,0,0,0,0,0,0,0,0,0,0,0,0,0,0,0,0,0,0,0,0,0,0,0,0,0,0,0,0,0,0,0,0,0,0,0,0,0,
0,0,0,0,0,0,0,0,0,0,0,0,0,0,0,0,0,0,0,0,0,0,0,0,0,0,0,0,0,0,0,0,0,0,0,0,0,0,0,0,0,0,0,0,0,0,0,0,0,0,0,0,0,0,0,0,0,0,0,0,
0,0,0,0,0,0,0,0,0,0,0,0,0,0,0,0,0,0,0,0,0,0,0,0,0,0,0,0,0,0,0,0,0,0,0,0,0,0,0,0,0,0,0,0,0,0,0,0,0,0,0,0,0,0,0,0,0,0,0,0,
0,0,0,0,0,0,0,0,0,0,0,0,0,0,0,0,0,0,0,0,0,0,0,0,0,0,0,0,0,0,0,0,0,0,0,0,0,0,0,0,0,0,0,0,0,0,0,0,0,0,0,0,0,0,0,0,0,0,0,0,
0,0,0,0,0,0,0,0,0,0,0,0,0,0,0,0,0,0,0,0,0,0,0,0,0,0,0,0,0,0,0,0,0,0,0,0,0,0,0,0,0,0,0,0,0,0,0,0,0,0,0,0,0,0,0,0,0,0,0,0,
0,0,0,0,0,0,0,0,0,0,0,0,0,0,0,0,0,0,0,0,0,0,0,0,0,0,0,0,0,0,0,0,0,0,0,0,0,0,0,0,0,0,0,0,0,0,0,0,0,0,0,0,0,0,0,0,0,0,0,0,
0,0,0,0,0,0,0,0,0,0,0,0,0,0,0,0,0,0,0,0,0,0,0,0,0,0,0,0,0,0,0,0,0,0,0,0,0,0,0,0,0,0,0,0,0,0,0,0,0,0,0,0,0,0,0,0,0,0,0,0,
0,0,0,0,0,0,0,0,0,0,0,0,0,0,0,0,0,0,0,0,0,0,0,0,0,0,0,0,0,0,0,0,0,0,0,0,0,0,0,0,0,0,0,0,0,0,0,0,0,0,0,0,0,0,0,0,0,0,0,0,
0,0,0,0,0,0,0,0,0,0,0,0,0,0,0,0,0,0,0,0,0,0,0,0,0,0,0,0,0,0,0,0,0,0,0,0,0,0,0,0,0,0,0,0,0,0,0,0,0,0,0,0,0,0,0,0,0,0,0,0
  </data>
 </layer>
 <layer id="2" name="middle" width="60" height="62">
  <data encoding="csv">
17,17,17,17,17,17,17,17,17,16,17,17,17,17,17,18,17,18,31,32,31,32,31,32,31,32,31,32,31,32,31,32,31,32,31,32,31,32,31,32,31,32,31,32,31,32,31,32,31,32,31,32,31,32,31,32,31,32,31,32,
17,17,17,17,17,17,17,17,17,16,17,17,17,17,17,18,17,18,28,29,28,29,28,29,28,29,28,29,28,29,28,29,28,29,28,29,28,29,28,29,28,29,28,29,28,29,28,29,28,29,28,29,28,29,28,29,28,29,28,29,
17,17,17,17,17,17,17,17,17,16,17,17,17,17,17,18,17,18,31,32,31,32,31,32,31,32,31,32,31,32,31,32,31,32,31,32,31,32,31,32,31,32,31,32,31,32,31,32,31,32,31,32,31,32,31,32,31,32,31,32,
17,17,17,17,17,17,17,17,17,16,17,17,17,17,17,18,17,18,28,29,28,29,28,29,28,29,28,29,28,29,28,29,28,29,28,29,28,29,28,29,28,29,28,29,28,29,28,29,28,29,28,29,28,29,28,29,28,29,28,29,
17,17,17,17,17,17,17,17,17,16,17,17,17,17,17,18,17,18,31,32,31,32,31,32,31,32,31,32,31,32,31,32,31,32,31,32,31,32,31,32,31,32,31,32,31,32,31,32,31,32,31,32,31,32,31,32,31,32,31,32,
17,17,17,17,17,17,17,17,17,16,17,17,17,17,17,18,17,18,38,39,38,39,38,39,38,39,38,39,38,39,38,39,38,39,38,39,38,39,38,39,38,39,38,39,38,39,38,39,38,39,38,39,38,39,38,39,38,39,38,39,
17,17,17,17,17,17,17,17,17,16,17,17,17,17,17,18,17,18,45,46,45,46,45,46,45,46,45,46,45,46,45,46,45,46,45,46,45,46,45,46,45,46,45,46,45,46,45,46,45,46,45,46,45,46,45,46,45,46,45,46,
17,17,17,17,17,17,17,17,17,16,17,17,17,17,17,18,17,18,22,22,22,22,22,22,22,22,22,22,22,22,22,22,22,22,22,22,22,22,22,22,22,22,22,22,22,22,22,22,22,22,22,22,22,22,22,22,22,22,22,22,
17,17,17,17,17,17,17,17,17,16,17,17,17,17,17,18,17,18,22,22,22,22,22,22,22,22,22,22,22,22,22,22,22,22,22,22,22,22,22,22,22,22,22,22,22,22,22,22,22,22,22,22,22,22,22,22,22,22,22,22,
17,17,17,17,17,17,17,17,17,16,17,17,17,17,17,18,17,18,28,29,28,29,28,29,28,29,28,29,28,29,28,29,28,29,28,29,28,29,28,29,28,29,38,39,38,39,38,39,38,39,28,29,38,39,38,39,28,29,28,29,
17,17,17,17,17,17,17,17,17,16,17,17,17,17,17,18,17,18,31,32,31,32,31,32,31,32,31,32,31,32,31,32,31,32,31,32,31,32,31,32,31,33,47,48,47,48,47,48,47,48,31,33,47,48,47,48,31,32,31,32,
17,17,17,17,17,17,17,17,17,16,17,17,17,17,17,18,17,18,28,29,28,29,28,29,28,29,28,29,28,29,28,29,28,29,28,29,28,29,28,29,38,40,13,14,14,14,14,14,14,15,38,40,0,0,0,0,28,29,28,29,
17,17,17,17,17,17,17,17,17,16,17,17,17,17,17,18,17,18,31,32,31,32,31,32,31,32,31,32,31,32,31,32,31,32,31,32,31,32,31,33,47,48,16,13,14,14,14,14,15,18,47,48,0,0,0,0,31,32,31,32,
17,17,17,17,17,17,17,17,17,16,17,17,17,17,17,18,17,18,28,29,28,29,28,29,28,29,28,29,28,29,28,29,28,29,28,29,28,29,38,40,13,14,12,16,17,17,17,17,18,11,14,15,0,0,36,37,28,29,28,29,
17,17,17,17,17,17,17,17,17,16,17,17,17,17,17,18,17,18,31,32,31,32,31,32,31,32,31,32,31,32,31,32,31,32,31,32,31,33,47,48,16,17,13,12,17,17,17,17,11,14,15,18,0,0,43,44,31,32,31,32,
17,17,17,17,17,17,17,17,17,16,17,17,17,17,17,18,17,18,28,29,28,29,28,29,28,29,28,29,38,39,38,39,38,39,38,39,38,40,13,14,12,13,12,17,17,17,9,22,22,22,23,18,0,0,38,39,38,39,38,39,
17,17,17,17,17,17,17,17,17,16,17,17,17,17,17,18,17,18,31,32,31,32,31,32,31,32,31,33,47,48,47,48,47,48,47,48,47,48,16,17,17,16,17,17,17,17,18,9,22,0,22,23,0,0,47,48,47,48,47,48,
17,17,17,17,17,17,17,17,17,16,17,17,17,17,17,18,17,18,28,29,28,29,28,29,28,29,28,30,13,14,14,14,14,14,14,14,14,14,12,17,17,16,17,17,17,17,18,18,0,0,0,0,0,0,19,20,0,0,0,0,
17,17,17,17,17,17,17,17,17,16,17,17,17,17,17,18,17,18,31,32,31,32,31,32,31,32,31,33,16,13,14,14,14,14,14,14,14,14,14,14,14,12,17,17,17,17,18,18,6,6,6,8,0,0,24,25,0,0,0,0,
17,17,17,17,17,17,17,17,17,16,17,17,17,17,17,18,17,18,38,39,28,29,28,29,28,29,28,30,16,16,17,17,17,17,17,17,17,17,17,17,17,17,17,17,17,17,18,18,0,0,0,0,0,0,0,0,36,37,36,37,
17,17,17,17,17,17,17,17,17,16,17,17,17,17,17,18,17,18,47,48,31,32,31,32,31,32,31,33,16,16,17,17,17,17,17,17,17,17,17,17,17,17,17,17,17,17,18,18,0,0,0,0,0,0,0,0,43,44,43,44,
17,17,17,17,17,17,17,17,17,16,17,17,17,17,17,18,17,11,14,15,28,29,28,29,28,29,28,30,16,16,17,17,9,22,22,22,22,22,22,22,10,17,17,17,17,17,18,11,14,15,0,0,2,0,0,0,28,29,28,29,
17,17,17,17,17,17,17,17,17,16,17,17,17,17,17,18,17,17,17,18,31,32,31,32,31,32,31,33,16,16,17,17,18,9,22,22,22,22,10,17,16,17,17,17,17,17,18,17,17,18,0,0,0,0,0,0,31,32,31,32,
17,17,17,17,17,17,17,17,17,16,17,17,17,17,17,18,17,17,17,18,28,29,28,29,28,29,28,30,16,16,17,17,18,18,0,0,0,0,21,10,21,22,10,17,17,17,18,17,17,11,14,14,14,14,14,15,28,29,28,29,
22,22,22,22,22,22,22,22,10,16,17,17,17,17,17,18,17,17,17,18,31,32,31,32,31,32,31,33,16,16,17,17,18,18,0,0,0,0,0,21,22,10,16,17,17,17,18,17,17,17,17,17,17,17,17,18,31,32,31,32,
28,29,28,29,28,29,28,30,16,16,17,17,17,17,17,18,17,17,17,18,28,29,28,29,28,29,28,30,16,16,17,17,18,0,0,0,0,0,0,0,0,16,16,17,17,17,18,17,17,17,17,17,17,17,17,18,28,29,28,29,
31,32,31,32,31,32,31,33,16,16,17,17,17,17,17,18,17,17,17,18,31,32,31,32,31,32,31,33,16,16,17,17,18,18,0,0,0,0,0,0,0,16,16,17,17,17,18,17,17,9,22,22,22,22,22,23,31,32,31,32,
28,29,28,29,28,29,28,30,16,16,17,17,17,17,17,18,17,17,17,18,28,29,28,29,28,29,28,30,16,16,17,17,18,18,0,0,0,0,0,0,0,16,16,17,17,17,18,17,17,18,28,29,28,29,28,29,28,29,28,29,
31,32,31,32,31,32,31,33,16,16,17,17,17,17,17,18,17,17,17,18,31,32,31,32,31,32,31,33,16,16,17,17,18,11,14,14,14,14,14,14,14,12,16,17,17,17,11,15,17,18,31,32,31,32,31,32,31,32,31,32,
28,29,28,29,38,39,38,40,16,21,22,22,22,22,22,23,17,17,17,18,28,29,28,29,28,29,28,30,16,16,17,17,11,15,0,0,0,0,0,0,0,17,16,17,17,17,17,18,17,18,28,29,28,29,28,29,28,29,28,29,
31,32,31,33,47,48,47,48,21,22,22,22,0,22,10,17,17,17,17,18,31,32,31,32,31,32,31,33,16,16,17,17,17,11,14,14,14,14,14,14,14,14,12,17,17,17,17,18,17,18,31,32,31,32,31,32,31,32,31,32,
28,29,38,40,0,26,0,0,0,0,0,0,0,0,16,17,17,17,17,18,28,29,28,29,28,29,28,30,16,16,17,17,17,17,17,17,17,17,17,17,17,17,17,17,17,17,17,18,17,18,28,29,28,29,28,29,28,29,28,29,
31,33,47,48,0,27,0,0,0,0,0,2,0,0,16,17,17,17,17,18,31,32,31,32,31,32,31,33,16,16,17,17,17,17,17,17,17,17,17,17,17,17,17,17,17,17,17,18,17,18,31,32,31,32,31,32,31,32,31,32,
38,40,19,20,0,0,0,0,0,0,0,0,0,0,16,17,17,17,17,18,28,29,28,29,28,29,28,30,16,16,17,17,17,17,17,17,13,14,14,14,14,14,14,14,14,14,15,18,17,18,28,29,28,29,28,29,28,29,28,29,
47,48,24,25,0,0,0,0,7,6,6,6,6,8,21,22,10,17,17,18,31,32,31,32,31,32,31,33,16,16,17,17,17,17,17,17,16,17,17,17,17,17,17,17,17,17,18,18,17,18,31,32,31,32,31,32,31,32,31,32,
0,0,0,0,0,0,0,0,0,0,0,0,0,0,0,0,16,17,17,18,28,29,28,29,28,29,28,30,16,16,17,17,17,17,17,17,16,17,17,17,17,17,17,17,17,17,18,18,17,18,28,29,28,29,28,29,28,29,28,29,
0,0,0,0,0,0,0,0,0,0,0,0,0,0,0,0,16,17,17,18,31,32,31,32,31,32,31,33,16,16,13,14,14,14,14,14,12,17,17,17,17,17,17,17,17,17,18,18,17,18,31,32,31,32,31,32,31,32,31,32,
36,37,36,37,0,0,0,0,0,0,0,0,0,0,0,0,16,17,17,37,28,29,28,29,28,29,28,30,16,16,16,17,17,17,17,17,17,17,17,17,17,17,17,17,17,17,18,18,17,18,28,29,28,29,28,29,28,29,28,29,
43,44,43,44,0,0,0,0,0,0,0,0,0,0,0,0,21,22,22,23,31,32,31,32,31,32,31,33,16,16,16,17,17,17,17,17,17,17,17,17,17,17,17,17,17,17,18,18,17,18,31,32,31,32,31,32,31,32,31,32,
28,29,28,30,36,37,36,37,36,37,36,37,36,37,36,37,28,29,28,29,28,29,28,29,28,29,28,30,16,16,16,17,17,17,17,17,17,17,17,17,17,17,17,17,17,17,18,18,17,18,28,29,28,29,28,29,28,29,28,29,
31,32,31,32,43,44,43,44,43,44,43,44,43,44,43,44,31,32,31,32,31,32,31,32,31,32,31,33,16,16,16,17,17,17,17,17,17,17,17,17,17,17,17,17,17,17,18,18,17,18,31,32,31,32,31,32,31,32,31,32,
28,29,28,29,28,29,28,29,28,29,28,29,28,29,28,29,28,29,28,29,28,29,28,29,28,29,28,30,16,16,16,17,17,17,17,17,17,17,17,17,17,17,17,17,17,17,18,18,17,18,28,29,28,29,28,29,28,29,28,29,
31,32,31,32,31,32,31,32,31,32,31,32,31,32,31,32,31,32,31,32,31,32,31,32,31,32,31,33,16,16,16,17,17,17,17,17,17,17,17,17,17,17,17,17,17,17,18,18,17,18,31,32,31,32,31,32,31,32,31,32,
28,29,28,29,28,29,28,29,28,29,28,29,28,29,28,29,28,29,28,29,28,29,28,29,28,29,28,30,16,16,16,17,17,17,17,17,17,17,17,17,17,17,17,17,17,17,18,18,17,18,28,29,28,29,28,29,28,29,28,29,
31,32,31,32,31,32,31,32,31,32,31,32,31,32,31,32,31,32,31,32,31,32,31,32,31,32,31,33,16,16,16,17,17,17,17,17,17,17,17,17,17,17,17,17,17,17,18,18,17,18,31,32,31,32,31,32,31,32,31,32,
28,29,28,29,28,29,28,29,28,29,28,29,28,29,28,29,28,29,28,29,28,29,28,29,28,29,28,30,16,16,16,17,17,17,17,17,17,17,17,17,17,17,17,17,17,17,18,18,17,18,28,29,28,29,28,29,28,29,28,29,
31,32,31,32,31,32,31,32,31,32,31,32,31,32,31,32,31,32,31,32,31,32,31,32,31,32,31,33,16,16,16,17,17,17,17,17,17,17,17,17,17,17,17,17,17,17,18,18,17,18,31,32,31,32,31,32,31,32,31,32,
28,29,28,29,28,29,28,29,28,29,28,29,28,29,28,29,28,29,28,29,28,29,28,29,28,29,28,30,16,16,16,13,14,14,14,14,14,14,14,14,14,14,14,14,14,15,18,18,17,18,28,29,28,29,28,29,28,29,28,29,
31,32,31,32,31,32,31,32,31,32,31,32,31,32,31,32,31,32,31,32,31,32,31,32,31,32,31,33,16,16,16,16,17,17,17,17,17,17,17,17,17,17,17,17,17,18,18,18,17,18,31,32,31,32,31,32,31,32,31,32,
28,29,28,29,28,29,28,29,28,29,28,29,28,29,28,29,28,29,28,29,28,29,28,29,28,29,28,30,16,16,16,16,17,17,17,17,17,17,17,17,17,17,17,17,17,18,18,18,17,18,28,29,28,29,28,29,28,29,28,29,
31,32,31,32,31,32,31,32,31,32,31,32,31,32,31,32,31,32,31,32,31,32,31,32,31,32,31,33,16,16,16,16,17,17,17,17,17,17,17,17,17,17,17,17,17,18,18,18,17,18,31,32,31,32,31,32,31,32,31,32,
28,29,28,29,28,29,28,29,28,29,28,29,28,29,28,29,28,29,28,29,28,29,28,29,28,29,28,30,16,16,16,16,17,17,17,17,17,17,17,17,17,17,17,17,17,18,18,18,17,18,28,29,28,29,28,29,28,29,28,29,
31,32,31,32,31,32,31,32,31,32,31,32,31,32,31,32,31,32,31,32,31,32,31,32,31,32,31,33,16,16,16,16,17,17,17,17,17,17,17,17,17,17,17,17,17,18,18,18,17,18,31,32,31,32,31,32,31,32,31,32,
28,29,28,29,28,29,28,29,28,29,28,29,28,29,28,29,28,29,28,29,28,29,28,29,28,29,28,30,16,16,16,16,17,17,17,17,17,17,17,17,17,17,17,17,17,18,18,18,17,18,28,29,28,29,28,29,28,29,28,29,
31,32,31,32,31,32,31,32,31,32,31,32,31,32,31,32,31,32,31,32,31,32,31,32,31,32,31,33,16,16,16,16,17,17,17,17,17,17,17,17,17,17,17,17,17,18,18,18,17,18,31,32,31,32,31,32,31,32,31,32,
28,29,28,29,28,29,28,29,28,29,28,29,28,29,28,29,28,29,28,29,28,29,28,29,28,29,28,30,16,16,16,16,17,17,17,17,17,17,17,17,17,17,17,17,17,18,18,18,17,18,28,29,28,29,28,29,28,29,28,29,
31,32,31,32,31,32,31,32,31,32,31,32,31,32,31,32,31,32,31,32,31,32,31,32,31,32,31,33,16,16,16,16,17,17,17,17,17,17,17,17,17,17,17,17,17,18,18,18,17,18,31,32,31,32,31,32,31,32,31,32,
28,29,28,29,28,29,28,29,28,29,28,29,28,29,28,29,28,29,28,29,28,29,28,29,28,29,28,30,16,16,16,16,17,17,17,17,17,17,17,17,17,17,17,17,17,18,18,18,17,18,28,29,28,29,28,29,28,29,28,29,
31,32,31,32,31,32,31,32,31,32,31,32,31,32,31,32,31,32,31,32,31,32,31,32,31,32,31,33,16,16,16,16,17,17,17,17,17,17,17,17,17,17,17,17,17,18,18,18,17,18,31,32,31,32,31,32,31,32,31,32,
28,29,28,29,28,29,28,29,28,29,28,29,28,29,28,29,28,29,28,29,28,29,28,29,28,29,28,30,16,16,16,16,17,17,17,17,17,17,17,17,17,17,17,17,17,18,18,18,17,18,28,29,28,29,28,29,28,29,28,29,
31,32,31,32,31,32,31,32,31,32,31,32,31,32,31,32,31,32,31,32,31,32,31,32,31,32,31,33,16,16,16,16,17,17,17,17,17,17,17,17,17,17,17,17,17,18,18,18,17,18,31,32,31,32,31,32,31,32,31,32,
28,29,28,29,28,29,28,29,28,29,28,29,28,29,28,29,28,29,28,29,28,29,28,29,28,29,28,30,16,16,16,16,17,17,17,17,17,17,17,17,17,17,17,17,17,18,18,18,17,18,28,29,28,29,28,29,28,29,28,29
  </data>
 </layer>
 <layer id="3" name="upper" width="60" height="62">
  <data encoding="csv">
0,0,0,0,0,0,0,0,0,0,0,0,0,0,0,0,0,35,0,0,0,0,0,0,0,0,0,0,0,0,0,0,0,0,0,0,0,0,0,0,0,0,0,0,0,0,0,0,0,0,0,0,0,0,0,0,0,0,0,0,
0,0,0,0,0,0,0,0,0,0,0,0,0,0,0,0,0,42,0,0,0,0,0,0,0,0,0,0,0,0,0,0,0,0,0,0,0,0,0,0,0,0,0,0,0,0,0,0,0,0,0,0,0,0,0,0,0,0,0,0,
0,0,0,0,0,0,0,0,0,0,0,0,0,0,0,0,0,35,0,0,0,0,0,0,0,0,0,0,0,0,0,0,0,0,0,0,0,0,0,0,0,0,0,0,0,0,0,0,0,0,0,0,0,0,0,0,0,0,0,0,
0,0,0,0,0,0,0,0,0,0,0,0,0,0,0,0,0,42,0,0,0,0,0,0,0,0,0,0,0,0,0,0,0,0,0,0,0,0,0,0,0,0,0,0,0,0,0,0,0,0,0,0,0,0,0,0,0,0,0,0,
0,0,0,0,0,0,0,0,0,0,0,0,0,0,0,0,0,35,0,0,0,0,0,0,0,0,0,0,0,0,0,0,0,0,0,0,0,0,0,0,0,0,0,0,0,0,0,0,0,0,0,0,0,0,0,0,0,0,0,0,
0,0,0,0,0,0,0,0,0,0,0,0,0,0,0,0,0,42,0,0,0,0,0,0,0,0,0,0,0,0,0,0,0,0,0,0,0,0,0,0,0,0,0,0,0,0,0,0,0,0,0,0,0,0,0,0,0,0,0,0,
0,0,0,0,0,0,0,0,0,0,0,0,0,0,0,0,0,0,0,0,0,0,0,0,0,0,0,0,0,0,0,0,0,0,0,0,0,0,0,0,0,0,0,0,0,0,0,0,0,0,0,0,0,0,0,0,0,0,0,0,
0,0,0,0,0,0,0,0,0,0,0,0,0,0,0,0,0,0,36,37,36,37,36,37,36,37,36,37,36,37,36,37,36,37,36,37,36,37,36,37,36,37,36,37,36,37,36,37,36,37,36,37,36,37,36,37,36,37,36,37,
0,0,0,0,0,0,0,0,0,0,0,0,0,0,0,0,0,35,43,44,43,44,43,44,43,44,43,44,43,44,43,44,43,44,43,44,43,44,43,44,43,44,43,44,43,44,43,44,43,44,43,44,43,44,43,44,43,44,43,44,
0,0,0,0,0,0,0,0,0,0,0,0,0,0,0,0,0,42,0,0,0,0,0,0,0,0,0,0,0,0,0,0,0,0,0,0,0,0,0,0,0,0,0,0,0,0,0,0,0,0,0,0,0,0,0,0,0,0,0,0,
0,0,0,0,0,0,0,0,0,0,0,0,0,0,0,0,0,35,0,0,0,0,0,0,0,0,0,0,0,0,0,0,0,0,0,0,0,0,0,0,0,0,34,0,0,0,0,0,0,35,0,0,34,0,0,35,0,0,0,0,
0,0,0,0,0,0,0,0,0,0,0,0,0,0,0,0,0,42,0,0,0,0,0,0,0,0,0,0,0,0,0,0,0,0,0,0,0,0,0,0,0,0,41,0,0,0,0,0,0,42,0,0,41,0,0,42,0,0,0,0,
0,0,0,0,0,0,0,0,0,0,0,0,0,0,0,0,0,35,0,0,0,0,0,0,0,0,0,0,0,0,0,0,0,0,0,0,0,0,0,0,34,0,0,0,0,0,0,0,0,0,0,0,0,0,0,35,0,0,0,0,
0,0,0,0,0,0,0,0,0,0,0,0,0,0,0,0,0,42,0,0,0,0,0,0,0,0,0,0,0,0,0,0,0,0,0,0,0,0,0,0,41,0,0,0,0,0,0,0,0,0,0,0,0,0,0,42,0,0,0,0,
0,0,0,0,0,0,0,0,0,0,0,0,0,0,0,0,0,35,0,0,0,0,0,0,0,0,0,0,0,0,0,0,0,0,0,0,0,0,34,0,0,0,0,0,0,0,0,0,0,0,0,0,0,35,0,0,0,0,0,0,
0,0,0,0,0,0,0,0,0,0,0,0,0,0,0,0,0,42,0,0,0,0,0,0,0,0,0,0,0,0,0,0,0,0,0,0,0,0,41,0,0,0,0,0,0,0,0,0,55,56,57,0,0,42,0,0,0,0,0,0,
0,0,0,0,0,0,0,0,0,0,0,0,0,0,0,0,0,35,0,0,0,0,0,0,0,0,0,0,34,0,0,0,0,0,0,0,0,0,0,0,0,0,0,0,0,0,0,0,58,59,60,0,0,0,0,0,0,0,0,0,
0,0,0,0,0,0,0,0,0,0,0,0,0,0,0,0,0,42,0,0,0,0,0,0,0,0,0,0,41,0,0,0,0,0,0,0,0,0,0,0,0,0,0,0,0,0,0,0,0,0,0,0,0,0,0,0,0,0,0,0,
0,0,0,0,0,0,0,0,0,0,0,0,0,0,0,0,0,35,0,0,0,0,0,0,0,0,0,0,34,0,0,0,0,0,0,0,0,0,0,0,0,0,0,0,0,0,0,0,0,0,0,0,0,0,0,0,0,0,0,0,
0,0,0,0,0,0,0,0,0,0,0,0,0,0,0,0,0,42,0,0,0,0,0,0,0,0,0,0,41,0,0,0,0,0,0,0,0,0,0,0,0,0,0,0,0,0,0,0,0,0,0,0,0,0,0,0,0,0,0,0,
0,0,0,0,0,0,0,0,0,0,0,0,0,0,0,0,0,0,0,35,0,0,0,0,0,0,0,0,34,0,0,0,0,0,0,0,0,0,0,0,0,0,0,0,0,0,0,0,0,0,0,0,0,0,0,35,0,0,0,0,
0,0,0,0,0,0,0,0,0,0,0,0,0,0,0,0,0,0,0,42,0,0,0,0,0,0,0,0,41,0,0,0,0,0,0,0,0,62,0,0,0,0,0,0,0,0,0,0,0,0,0,0,0,0,0,42,0,0,0,0,
0,0,0,0,0,0,0,0,0,0,0,0,0,0,0,0,0,0,0,35,0,0,0,0,0,0,0,0,34,0,0,0,0,0,19,20,0,62,0,0,0,0,0,0,0,0,0,0,0,0,0,0,0,0,0,35,0,0,0,0,
36,37,36,37,36,37,36,37,0,0,0,0,0,0,0,0,0,0,0,42,0,0,0,0,0,0,0,0,41,0,0,0,0,0,24,25,0,0,0,0,0,0,0,0,0,0,0,0,0,0,0,0,0,0,0,42,0,0,0,0,
43,44,43,44,43,44,43,44,34,0,0,0,0,0,0,0,0,0,0,35,0,0,0,0,0,0,0,0,34,0,0,0,49,50,0,0,0,0,0,0,0,0,0,0,0,0,0,0,0,0,0,0,0,0,0,35,0,0,0,0,
0,0,0,0,0,0,0,0,41,0,0,0,0,0,0,0,0,0,0,42,0,0,0,0,0,0,0,0,41,0,0,0,51,52,0,0,0,0,0,0,0,0,0,0,0,0,0,0,0,0,36,37,36,37,36,42,0,0,0,0,
0,0,0,0,0,0,0,0,34,0,0,0,0,0,0,0,0,0,0,35,0,0,0,0,0,0,0,0,34,0,0,0,53,54,0,0,61,0,0,19,20,0,0,0,0,0,0,0,0,35,43,44,43,44,43,44,0,0,0,0,
0,0,0,0,0,0,0,0,41,0,0,0,0,0,0,0,0,0,0,42,0,0,0,0,0,0,0,0,41,0,0,0,0,0,61,0,0,0,0,24,25,0,0,0,0,0,0,0,0,42,0,0,0,0,0,0,0,0,0,0,
0,0,0,0,0,0,0,0,34,0,0,0,0,0,0,0,0,0,0,35,0,0,0,0,0,0,0,0,34,0,0,0,0,0,0,0,0,0,0,0,0,0,0,0,0,0,0,0,0,35,0,0,0,0,0,0,0,0,0,0,
0,0,0,0,0,0,0,0,41,0,0,55,56,57,0,0,0,0,0,42,0,0,0,0,0,0,0,0,41,0,0,0,0,0,0,0,0,0,0,0,0,0,0,0,0,0,0,0,0,42,0,0,0,0,0,0,0,0,0,0,
0,0,0,0,34,0,0,0,0,0,0,58,59,60,0,0,0,0,0,35,0,0,0,0,0,0,0,0,34,0,0,0,0,0,0,0,0,0,0,0,0,0,0,0,0,0,0,0,0,35,0,0,0,0,0,0,0,0,0,0,
0,0,0,0,41,0,0,0,0,0,0,0,0,0,0,0,19,20,0,42,0,0,0,0,0,0,0,0,41,0,0,0,0,0,0,0,0,0,0,0,0,0,0,0,0,0,0,0,0,42,0,0,0,0,0,0,0,0,0,0,
0,0,34,0,0,0,0,0,0,0,0,0,0,0,0,0,24,25,0,35,0,0,0,0,0,0,0,0,34,0,0,0,0,0,0,0,0,0,0,0,0,0,0,0,0,0,0,0,0,35,0,0,0,0,0,0,0,0,0,0,
0,0,41,0,0,0,0,0,0,0,0,0,0,0,0,0,0,0,0,42,0,0,0,0,0,0,0,0,41,0,0,0,0,0,0,0,0,0,0,0,0,0,0,0,0,0,0,0,0,42,0,0,0,0,0,0,0,0,0,0,
0,0,0,0,0,0,0,0,0,0,0,0,0,0,0,0,0,0,0,35,0,0,0,0,0,0,0,0,34,0,0,0,0,0,0,0,0,0,0,0,0,0,0,0,0,0,0,0,0,35,0,0,0,0,0,0,0,0,0,0,
0,0,0,0,0,0,0,0,0,0,0,0,0,0,0,0,0,0,0,42,0,0,0,0,0,0,0,0,41,0,0,0,0,0,0,0,0,0,0,0,0,0,0,0,0,0,0,0,0,42,0,0,0,0,0,0,0,0,0,0,
0,0,0,0,0,0,0,0,0,0,0,0,0,0,0,0,0,0,0,35,0,0,0,0,0,0,0,0,34,0,0,0,0,0,0,0,0,0,0,0,0,0,0,0,0,0,0,0,0,35,0,0,0,0,0,0,0,0,0,0,
0,0,0,0,0,0,0,0,0,0,0,0,0,0,0,0,36,37,36,42,0,0,0,0,0,0,0,0,41,0,0,0,0,0,0,0,0,0,0,0,0,0,0,0,0,0,0,0,0,42,0,0,0,0,0,0,0,0,0,0,
0,0,0,0,34,0,0,0,0,0,0,0,0,0,0,35,43,44,43,44,0,0,0,0,0,0,0,0,34,0,0,0,0,0,0,0,0,0,0,0,0,0,0,0,0,0,0,0,0,35,0,0,0,0,0,0,0,0,0,0,
0,0,0,0,41,0,0,0,0,0,0,0,0,0,0,42,0,0,0,0,0,0,0,0,0,0,0,0,41,0,0,0,0,0,0,0,0,0,0,0,0,0,0,0,0,0,0,0,0,42,0,0,0,0,0,0,0,0,0,0,
0,0,0,0,0,0,0,0,0,0,0,0,0,0,0,0,0,0,0,0,0,0,0,0,0,0,0,0,34,0,0,0,0,0,0,0,0,0,0,0,0,0,0,0,0,0,0,0,0,35,0,0,0,0,0,0,0,0,0,0,
0,0,0,0,0,0,0,0,0,0,0,0,0,0,0,0,0,0,0,0,0,0,0,0,0,0,0,0,41,0,0,0,0,0,0,0,0,0,0,0,0,0,0,0,0,0,0,0,0,42,0,0,0,0,0,0,0,0,0,0,
0,0,0,0,0,0,0,0,0,0,0,0,0,0,0,0,0,0,0,0,0,0,0,0,0,0,0,0,34,0,0,0,0,0,0,0,0,0,0,0,0,0,0,0,0,0,0,0,0,35,0,0,0,0,0,0,0,0,0,0,
0,0,0,0,0,0,0,0,0,0,0,0,0,0,0,0,0,0,0,0,0,0,0,0,0,0,0,0,41,0,0,0,0,0,0,0,0,0,0,0,0,0,0,0,0,0,0,0,0,42,0,0,0,0,0,0,0,0,0,0,
0,0,0,0,0,0,0,0,0,0,0,0,0,0,0,0,0,0,0,0,0,0,0,0,0,0,0,0,34,0,0,0,0,0,0,0,0,0,0,0,0,0,0,0,0,0,0,0,0,35,0,0,0,0,0,0,0,0,0,0,
0,0,0,0,0,0,0,0,0,0,0,0,0,0,0,0,0,0,0,0,0,0,0,0,0,0,0,0,41,0,0,0,0,0,0,0,0,0,0,0,0,0,0,0,0,0,0,0,0,42,0,0,0,0,0,0,0,0,0,0,
0,0,0,0,0,0,0,0,0,0,0,0,0,0,0,0,0,0,0,0,0,0,0,0,0,0,0,0,34,0,0,0,0,0,0,0,0,0,0,0,0,0,0,0,0,0,0,0,0,35,0,0,0,0,0,0,0,0,0,0,
0,0,0,0,0,0,0,0,0,0,0,0,0,0,0,0,0,0,0,0,0,0,0,0,0,0,0,0,41,0,0,0,0,0,0,0,0,0,0,0,0,0,0,0,0,0,0,0,0,42,0,0,0,0,0,0,0,0,0,0,
0,0,0,0,0,0,0,0,0,0,0,0,0,0,0,0,0,0,0,0,0,0,0,0,0,0,0,0,34,0,0,0,0,0,0,0,0,0,0,0,0,0,0,0,0,0,0,0,0,35,0,0,0,0,0,0,0,0,0,0,
0,0,0,0,0,0,0,0,0,0,0,0,0,0,0,0,0,0,0,0,0,0,0,0,0,0,0,0,41,0,0,0,0,0,0,0,0,0,0,0,0,0,0,0,0,0,0,0,0,42,0,0,0,0,0,0,0,0,0,0,
0,0,0,0,0,0,0,0,0,0,0,0,0,0,0,0,0,0,0,0,0,0,0,0,0,0,0,0,34,0,0,0,0,0,0,0,0,0,0,0,0,0,0,0,0,0,0,0,0,35,0,0,0,0,0,0,0,0,0,0,
0,0,0,0,0,0,0,0,0,0,0,0,0,0,0,0,0,0,0,0,0,0,0,0,0,0,0,0,41,0,0,0,0,0,0,0,0,0,0,0,0,0,0,0,0,0,0,0,0,42,0,0,0,0,0,0,0,0,0,0,
0,0,0,0,0,0,0,0,0,0,0,0,0,0,0,0,0,0,0,0,0,0,0,0,0,0,0,0,34,0,0,0,0,0,0,0,0,0,0,0,0,0,0,0,0,0,0,0,0,35,0,0,0,0,0,0,0,0,0,0,
0,0,0,0,0,0,0,0,0,0,0,0,0,0,0,0,0,0,0,0,0,0,0,0,0,0,0,0,41,0,0,0,0,0,0,0,0,0,0,0,0,0,0,0,0,0,0,0,0,42,0,0,0,0,0,0,0,0,0,0,
0,0,0,0,0,0,0,0,0,0,0,0,0,0,0,0,0,0,0,0,0,0,0,0,0,0,0,0,34,0,0,0,0,0,0,0,0,0,0,0,0,0,0,0,0,0,0,0,0,35,0,0,0,0,0,0,0,0,0,0,
0,0,0,0,0,0,0,0,0,0,0,0,0,0,0,0,0,0,0,0,0,0,0,0,0,0,0,0,41,0,0,0,0,0,0,0,0,0,0,0,0,0,0,0,0,0,0,0,0,42,0,0,0,0,0,0,0,0,0,0,
0,0,0,0,0,0,0,0,0,0,0,0,0,0,0,0,0,0,0,0,0,0,0,0,0,0,0,0,34,0,0,0,0,0,0,0,0,0,0,0,0,0,0,0,0,0,0,0,0,35,0,0,0,0,0,0,0,0,0,0,
0,0,0,0,0,0,0,0,0,0,0,0,0,0,0,0,0,0,0,0,0,0,0,0,0,0,0,0,41,0,0,0,0,0,0,0,0,0,0,0,0,0,0,0,0,0,0,0,0,42,0,0,0,0,0,0,0,0,0,0,
0,0,0,0,0,0,0,0,0,0,0,0,0,0,0,0,0,0,0,0,0,0,0,0,0,0,0,0,34,0,0,0,0,0,0,0,0,0,0,0,0,0,0,0,0,0,0,0,0,35,0,0,0,0,0,0,0,0,0,0,
0,0,0,0,0,0,0,0,0,0,0,0,0,0,0,0,0,0,0,0,0,0,0,0,0,0,0,0,41,0,0,0,0,0,0,0,0,0,0,0,0,0,0,0,0,0,0,0,0,42,0,0,0,0,0,0,0,0,0,0,
0,0,0,0,0,0,0,0,0,0,0,0,0,0,0,0,0,0,0,0,0,0,0,0,0,0,0,0,34,0,0,0,0,0,0,0,0,0,0,0,0,0,0,0,0,0,0,0,0,35,0,0,0,0,0,0,0,0,0,0,
0,0,0,0,0,0,0,0,0,0,0,0,0,0,0,0,0,0,0,0,0,0,0,0,0,0,0,0,41,0,0,0,0,0,0,0,0,0,0,0,0,0,0,0,0,0,0,0,0,42,0,0,0,0,0,0,0,0,0,0
  </data>
 </layer>
 <objectgroup id="4" name="events"/>
</map>
