<?xml version="1.0" encoding="UTF-8"?>
<map version="1.10" tiledversion="1.10.2" orientation="orthogonal" renderorder="right-down" compressionlevel="0" width="76" height="62" tilewidth="32" tileheight="32" infinite="0" nextlayerid="8" nextobjectid="1">
 <tileset firstgid="1" source="saffron-city.tsx"/>
 <layer id="1" name="lower" width="76" height="62">
  <data encoding="csv">
0,0,0,0,0,0,0,0,0,3,2,2,2,2,2,2,2,2,2,2,2,2,2,2,2,2,2,2,2,2,2,2,2,2,2,2,3,13,14,14,15,3,3,2,2,2,2,2,2,2,2,2,2,2,2,2,2,2,2,2,2,2,2,2,2,2,2,0,0,0,0,0,0,0,0,0,
0,0,0,0,0,0,0,0,0,3,2,2,2,2,2,2,2,2,2,2,2,2,2,2,2,2,2,2,2,2,2,2,2,2,2,2,3,13,14,14,15,3,3,2,2,2,2,2,2,2,2,2,2,2,2,2,2,2,2,2,2,2,2,2,2,2,2,0,0,0,0,0,0,0,0,0,
0,0,0,0,0,0,0,0,0,3,2,2,2,2,2,2,2,2,2,2,2,2,2,2,2,2,2,2,2,2,2,2,2,2,2,2,3,13,14,14,15,3,3,2,2,2,2,2,2,2,2,2,2,2,2,2,2,2,2,2,2,2,2,2,2,2,2,0,0,0,0,0,0,0,0,0,
0,0,0,0,0,0,0,0,0,3,2,2,2,2,2,2,2,2,2,2,2,2,2,2,2,2,2,2,2,2,3,3,3,3,3,3,3,13,14,14,15,3,3,3,3,3,3,3,3,3,3,2,2,2,2,2,2,2,2,2,2,2,2,2,2,2,2,0,0,0,0,0,0,0,0,0,
0,0,0,0,0,0,0,0,0,3,2,2,2,2,2,2,2,2,2,2,2,2,2,2,2,2,2,2,2,2,3,7,3,9,3,2,2,13,14,14,15,3,3,2,7,2,9,4,4,3,3,2,2,2,2,2,2,2,2,2,2,2,2,2,2,2,2,0,0,0,0,0,0,0,0,0,
0,0,0,0,8,9,8,9,8,9,8,9,8,9,8,9,8,9,8,9,8,9,8,9,8,9,8,9,8,9,8,9,8,9,8,9,2,13,14,14,15,3,8,9,8,9,8,9,8,9,8,9,8,9,8,9,8,9,8,9,8,9,8,9,8,9,8,0,0,0,0,0,0,0,0,0,
0,0,0,0,9,8,9,8,9,8,9,8,9,8,9,8,9,8,9,8,9,8,9,8,9,8,9,8,9,8,9,8,9,8,9,8,3,13,14,14,15,3,9,8,9,8,9,8,9,8,9,8,9,8,9,8,9,8,9,8,9,8,9,8,9,8,9,0,0,0,0,0,0,0,0,0,
0,0,0,0,8,9,8,9,8,9,8,9,8,9,8,9,8,9,8,9,8,9,8,9,8,9,8,9,8,8,5,5,5,5,5,5,3,13,14,14,15,3,5,5,5,5,5,5,5,9,8,9,8,9,8,9,8,9,8,9,8,9,8,9,8,9,8,3,3,3,0,0,0,0,0,0,
0,0,0,0,9,8,9,8,9,8,9,8,9,8,9,8,9,8,9,5,5,5,5,5,5,5,5,5,5,5,5,5,5,5,5,5,3,13,14,14,15,3,5,5,5,5,5,5,5,5,5,5,5,5,5,5,5,5,9,8,9,8,9,8,9,8,9,3,3,3,0,0,0,0,0,0,
0,0,0,0,8,9,8,9,8,9,8,9,8,9,8,9,8,9,21,22,22,22,22,22,22,22,22,22,22,22,22,22,22,22,22,22,22,22,22,22,22,22,22,22,22,22,22,22,22,22,22,22,22,22,22,22,22,23,8,9,8,9,8,9,8,9,8,3,3,3,0,0,0,0,0,0,
0,0,0,0,4,7,4,7,4,4,7,4,7,4,4,7,4,7,27,24,25,25,25,25,25,25,25,25,25,25,25,25,25,25,25,25,25,25,25,25,25,25,25,25,25,25,25,25,25,25,25,25,25,25,25,25,26,29,4,7,4,7,4,4,7,4,7,4,3,3,0,0,0,0,0,0,
0,0,0,0,7,2,3,2,3,7,2,3,2,3,7,2,3,2,27,24,31,31,31,31,31,31,31,31,31,31,31,31,31,31,31,31,32,3,3,3,3,30,31,31,31,31,31,31,31,31,31,31,31,31,31,31,26,29,7,2,3,2,3,7,2,3,2,3,3,3,0,0,0,0,0,0,
0,0,0,0,4,7,4,7,4,4,7,4,7,4,4,7,4,7,27,30,31,31,31,31,31,31,31,31,31,31,31,31,31,31,31,31,32,30,31,31,32,30,31,31,31,31,31,31,31,31,31,31,31,31,31,31,32,29,4,7,4,7,4,4,7,4,7,4,3,3,0,0,0,0,0,0,
0,0,0,0,3,2,3,2,7,3,2,3,2,7,3,2,3,2,27,30,31,31,31,31,31,31,31,31,31,31,31,31,31,31,31,31,32,30,31,31,32,30,31,31,31,31,31,31,31,31,31,31,31,31,31,31,32,29,3,2,3,2,7,3,2,3,2,7,3,3,0,0,0,0,0,0,
1,1,1,1,4,7,4,7,4,4,7,4,7,4,4,7,4,7,27,30,31,31,31,31,31,31,31,31,31,31,31,31,31,31,31,31,32,30,31,31,32,30,31,31,31,31,31,31,31,31,31,31,31,31,31,31,32,29,4,7,4,7,4,4,7,4,7,4,3,3,0,0,0,0,0,0,
1,1,1,1,7,2,3,2,3,7,2,3,2,3,7,2,3,2,27,30,31,31,31,31,31,31,31,31,31,31,31,31,31,31,31,31,32,36,37,37,38,30,31,31,31,31,31,31,31,31,31,31,31,31,31,31,32,29,7,2,3,2,3,7,2,3,2,3,3,3,0,0,0,0,0,0,
1,1,1,1,4,7,4,7,4,4,7,4,7,4,4,7,4,7,27,36,37,37,37,37,37,37,37,37,37,37,37,37,37,37,37,37,38,28,28,28,28,30,31,31,31,31,31,31,31,31,31,31,31,31,31,31,32,29,4,7,4,7,4,4,7,4,7,4,3,3,0,0,0,0,0,0,
1,1,1,1,3,2,3,2,7,3,2,3,2,7,3,2,3,2,27,28,24,25,25,25,25,25,25,25,25,25,25,25,25,25,26,28,28,28,28,28,28,30,31,31,31,31,31,31,31,31,31,31,31,31,31,31,32,29,3,2,3,2,7,3,2,3,2,7,3,3,0,0,0,0,0,0,
1,1,1,1,4,7,4,7,4,4,7,4,7,4,4,7,4,7,27,28,30,31,31,31,31,31,31,31,31,31,31,31,31,31,32,28,28,28,28,28,28,30,31,31,31,31,31,31,31,31,31,31,31,31,31,31,32,29,4,7,4,7,4,4,7,4,7,4,3,3,0,0,0,0,0,0,
1,1,1,1,7,2,3,2,3,7,2,3,2,3,7,2,3,2,27,28,30,31,31,31,31,31,31,31,31,31,31,31,31,31,32,28,28,28,28,28,28,30,31,31,31,31,31,31,31,31,31,31,31,31,31,31,32,29,7,2,3,2,3,7,2,3,2,3,3,3,0,0,0,0,0,0,
1,1,1,1,4,7,4,7,4,4,7,4,7,4,4,7,4,7,27,28,30,31,31,31,31,31,31,31,31,31,31,31,31,31,32,28,28,28,28,28,28,36,37,37,37,37,37,37,37,37,37,37,37,37,37,37,38,29,4,7,4,7,4,4,7,4,7,4,3,3,0,0,0,0,0,0,
1,1,1,1,3,2,3,2,7,3,2,3,2,7,3,2,3,2,27,28,36,37,37,37,37,38,28,36,37,37,37,37,37,37,38,28,28,28,28,28,28,28,28,28,28,28,28,28,28,28,28,28,28,28,28,28,28,29,3,2,3,2,7,3,2,3,2,7,3,3,0,0,0,0,0,0,
1,1,1,1,4,7,4,7,4,4,7,4,7,4,4,7,4,7,27,28,28,28,28,28,28,28,28,28,28,28,28,28,28,28,28,28,28,28,28,28,28,28,28,28,28,28,28,28,28,28,28,28,28,28,28,28,28,29,4,7,4,7,4,4,7,4,7,4,3,3,0,0,0,0,0,0,
1,1,1,1,7,2,3,2,3,7,2,3,2,3,7,2,3,2,27,28,28,28,28,28,28,28,28,28,28,28,28,28,28,28,28,28,28,28,28,28,28,28,28,28,28,28,28,28,28,28,28,28,28,28,28,28,28,29,7,2,3,2,3,7,2,3,2,3,3,3,0,0,0,0,0,0,
1,1,1,1,3,3,3,3,3,3,4,7,4,7,4,7,4,7,27,28,24,25,25,25,25,25,25,25,25,25,25,25,25,25,25,25,25,25,25,25,25,25,25,25,25,25,25,25,25,25,25,25,25,25,25,26,28,29,4,7,4,7,4,4,7,4,7,4,3,3,0,0,0,0,0,0,
1,1,1,1,4,4,4,4,4,3,7,2,3,2,3,2,3,2,27,28,30,31,31,31,31,31,31,31,31,31,31,31,31,31,31,31,31,31,31,31,31,31,31,31,31,31,31,31,31,31,31,31,31,31,31,32,28,29,3,2,3,2,7,3,2,3,2,7,3,3,0,0,0,0,0,0,
1,6,6,6,6,6,6,6,6,4,4,7,4,7,4,3,4,7,27,28,30,31,31,31,31,31,31,31,31,31,31,31,31,31,31,31,31,31,31,31,31,31,31,31,31,31,31,31,31,31,31,31,31,31,31,32,28,29,4,7,4,7,4,4,7,4,7,4,3,3,0,0,0,0,0,0,
1,6,6,6,6,6,6,6,6,4,3,2,3,2,7,3,7,2,27,28,30,31,31,31,31,31,31,31,31,31,31,31,31,31,31,31,31,31,31,31,31,31,31,31,31,31,31,31,31,31,31,31,31,31,31,32,28,29,7,2,3,2,3,7,2,3,2,3,3,3,5,5,5,5,0,0,
1,6,6,6,6,6,6,6,1,4,4,7,4,7,3,3,4,7,27,28,36,37,37,37,37,37,37,37,37,37,37,37,37,37,37,37,37,37,37,37,37,37,37,37,37,37,37,37,37,37,38,28,36,37,37,38,28,29,4,7,4,7,4,4,7,4,7,4,3,3,4,5,5,5,5,5,
1,6,6,6,6,6,6,6,2,4,7,2,7,2,7,3,7,2,27,28,28,28,28,28,28,28,28,28,28,28,28,28,28,28,28,28,28,28,28,28,28,28,28,28,28,28,28,28,28,28,28,28,28,28,28,28,28,29,4,4,4,4,4,4,2,3,3,3,3,3,5,4,4,4,4,4,
1,4,1,4,2,1,4,3,3,3,3,3,5,5,5,5,5,5,27,28,28,28,28,28,28,28,28,28,28,28,28,28,28,28,28,28,28,28,28,28,28,28,28,28,28,28,28,28,28,28,28,28,28,28,28,28,28,29,5,5,5,5,5,5,5,5,5,5,5,5,5,5,5,5,5,5,
1,2,4,1,4,4,2,3,3,3,3,3,3,4,5,4,5,3,27,28,28,28,28,28,28,28,28,28,28,28,28,28,28,28,28,28,28,28,28,28,28,28,28,28,28,28,28,28,28,28,28,28,28,28,28,28,28,29,3,1,1,1,2,3,3,3,3,3,3,3,3,3,3,3,3,3,
1,2,3,2,4,10,11,11,11,11,11,11,11,11,11,11,11,12,27,28,28,24,25,25,25,25,25,25,25,25,25,25,25,25,25,25,25,25,25,25,25,25,25,25,25,25,25,25,25,25,25,25,25,25,26,28,28,29,10,11,11,11,11,11,11,11,11,11,11,11,11,11,11,11,11,11,
1,5,4,5,4,13,14,14,14,14,14,14,14,14,14,14,14,15,27,28,28,30,31,31,31,31,31,31,31,31,31,31,31,31,31,31,31,31,31,31,31,31,31,31,31,31,31,31,31,31,31,31,31,31,32,28,28,29,13,14,14,14,14,14,14,14,14,14,14,14,14,14,14,14,14,14,
1,3,2,3,4,16,17,17,17,17,17,17,17,17,17,17,17,18,27,28,28,30,31,31,31,31,31,31,31,31,31,31,31,31,31,31,31,31,31,31,31,31,31,31,31,31,31,31,31,31,31,31,31,31,32,28,28,29,16,17,17,17,17,17,17,17,17,17,17,17,17,17,17,17,17,17,
1,1,2,2,4,2,2,2,4,5,5,5,5,5,5,5,5,5,27,28,28,30,31,31,31,31,31,31,31,31,31,31,31,31,31,31,31,31,31,31,31,31,31,31,31,31,31,31,31,31,31,31,31,31,32,28,28,29,5,5,5,5,5,5,5,5,5,5,5,5,5,5,5,5,5,5,
1,4,5,4,4,7,4,7,4,4,7,4,7,4,4,7,4,7,27,28,28,30,31,31,31,31,31,31,31,31,31,31,31,31,31,31,31,31,31,31,31,31,31,31,31,31,31,31,31,31,31,31,31,31,32,28,28,29,4,7,4,7,4,4,7,4,2,3,3,3,5,5,5,5,0,0,
1,1,4,1,7,2,3,2,3,7,2,3,2,3,7,2,3,2,27,28,28,36,37,37,37,37,37,37,37,37,37,37,37,37,20,31,31,31,31,31,31,19,37,37,37,37,37,37,37,37,37,37,37,37,38,28,28,29,7,2,3,2,3,7,2,3,3,3,3,3,0,0,0,0,0,0,
1,4,5,4,4,7,4,7,4,4,7,4,7,4,4,7,4,7,27,28,28,28,28,28,28,28,28,28,28,28,28,28,28,28,36,20,31,31,31,31,19,38,28,28,28,28,28,28,28,28,28,28,28,28,28,28,28,29,4,7,4,7,4,4,7,4,3,3,3,3,0,0,0,0,0,0,
1,1,4,1,3,2,3,2,7,3,2,3,2,7,3,2,3,2,27,28,28,28,28,28,28,28,28,28,28,28,28,28,28,28,28,36,37,37,37,37,38,28,28,28,28,28,28,28,28,28,28,28,28,28,28,28,28,29,3,2,3,2,7,3,2,3,3,3,3,3,0,0,0,0,0,0,
1,1,1,1,4,7,4,7,4,4,7,4,7,4,4,7,4,7,27,28,28,28,28,28,28,28,28,28,28,28,28,28,28,28,28,28,28,28,28,28,28,28,28,28,28,28,28,28,28,28,28,28,28,28,28,28,28,29,4,7,4,7,4,4,7,4,3,3,3,3,0,0,0,0,0,0,
1,1,1,1,7,2,3,2,3,7,2,3,2,3,7,2,3,2,27,28,24,25,25,25,25,25,25,25,25,25,25,25,25,25,25,25,25,25,25,25,25,25,25,25,25,25,25,25,25,25,25,25,25,25,25,26,28,29,7,2,3,2,3,7,2,3,3,3,3,3,0,0,0,0,0,0,
4,0,0,0,4,7,4,7,4,4,7,4,7,4,4,7,4,7,27,28,30,31,31,31,31,31,31,31,31,31,31,31,31,31,31,31,31,31,31,31,31,31,31,31,31,31,31,31,31,31,31,31,31,31,31,32,28,29,4,7,4,7,4,4,7,4,3,3,3,3,0,0,0,0,0,0,
4,0,0,0,3,2,3,2,7,3,2,3,2,7,3,2,3,2,27,28,30,31,31,31,31,31,31,31,31,31,31,31,31,31,31,31,31,31,31,31,31,31,31,31,31,31,31,31,31,31,31,31,31,31,31,32,28,29,3,2,3,2,7,3,2,3,3,3,3,3,0,0,0,0,0,0,
4,7,4,7,4,7,4,7,4,4,7,4,7,4,4,7,4,7,27,28,30,31,31,31,31,31,31,31,31,31,31,31,31,31,31,31,31,31,31,31,31,31,31,31,31,31,31,31,31,31,31,31,31,31,31,32,28,29,4,7,4,7,4,4,7,4,3,3,3,3,0,0,0,0,0,0,
4,7,4,7,4,7,4,7,4,4,7,4,7,4,4,7,4,7,27,28,36,37,37,37,37,37,37,38,28,36,37,37,37,37,37,37,37,37,37,37,37,37,37,37,37,37,38,28,36,37,37,37,37,37,37,38,28,29,7,2,3,2,3,7,2,3,3,3,3,3,0,0,0,0,0,0,
4,7,4,7,4,7,3,2,3,7,2,3,2,3,7,2,3,2,27,28,28,28,28,28,28,28,28,28,28,28,28,28,28,28,28,28,28,28,28,28,28,28,28,28,28,28,28,28,28,28,28,28,28,28,28,28,28,29,4,7,4,7,4,4,7,4,3,3,3,3,0,0,0,0,0,0,
4,7,4,7,4,7,4,7,4,4,7,4,7,4,4,7,4,7,27,28,28,28,28,28,28,28,28,28,28,28,28,28,28,28,28,28,28,28,28,28,28,28,28,28,28,28,28,28,28,28,28,28,28,28,28,28,28,29,3,2,3,2,7,3,2,3,3,3,3,3,0,0,0,0,0,0,
4,7,4,7,4,7,3,2,7,3,2,3,2,7,3,2,3,2,27,24,25,25,25,25,25,25,25,25,25,25,25,25,25,25,25,25,26,28,28,28,28,28,24,25,25,25,25,25,25,25,25,25,25,25,25,25,26,29,4,7,4,7,4,4,7,4,3,3,3,3,0,0,0,0,0,0,
4,7,4,7,4,7,4,7,4,4,7,4,7,4,4,7,4,7,27,30,31,31,31,31,31,31,31,31,31,31,31,31,31,31,31,31,32,28,28,28,28,28,30,28,28,28,28,28,28,28,28,28,28,28,28,28,32,29,4,7,4,7,4,4,7,4,3,3,3,3,0,0,0,0,0,0,
4,7,4,7,4,7,3,2,3,7,2,3,2,3,7,2,3,2,27,30,31,31,31,31,31,31,31,31,31,31,31,31,31,31,31,31,32,28,28,28,28,28,30,28,28,28,28,28,28,28,28,28,28,28,28,28,32,29,7,2,3,2,3,7,2,3,3,3,3,3,0,0,0,0,0,0,
4,7,4,7,4,7,4,7,4,4,7,4,7,4,4,7,4,7,27,30,31,31,31,31,31,31,31,31,31,31,31,31,31,31,31,31,32,24,25,25,26,28,30,28,28,28,28,28,28,28,28,28,28,28,28,28,32,29,4,7,4,7,4,4,7,4,3,3,3,3,0,0,0,0,0,0,
4,7,4,7,4,7,3,2,7,3,2,3,2,7,3,2,3,2,27,30,31,31,31,31,31,31,31,31,31,31,31,31,31,31,31,31,32,30,31,31,32,28,30,28,28,28,28,28,28,28,28,28,28,28,28,28,32,29,3,2,3,2,7,3,2,3,3,3,3,3,0,0,0,0,0,0,
4,7,4,7,4,7,4,7,4,4,7,4,7,4,4,7,4,7,27,30,31,31,31,31,31,31,31,31,31,31,31,31,31,31,31,31,32,30,31,31,32,28,30,28,28,28,28,28,28,28,28,28,28,28,28,28,32,29,4,7,4,7,4,4,7,4,3,3,3,3,0,0,0,0,0,0,
4,7,4,7,4,7,4,7,4,4,7,4,7,4,4,7,4,7,27,30,31,31,31,31,31,31,31,31,31,31,31,31,31,31,31,31,32,30,31,31,32,28,30,28,28,28,28,28,28,28,28,28,28,28,28,28,32,29,7,2,3,2,3,7,2,3,3,3,3,3,0,0,0,0,0,0,
4,7,4,7,4,7,3,2,3,7,2,3,2,3,7,2,3,2,27,30,31,31,31,31,31,31,31,31,31,31,31,31,31,31,31,31,32,30,31,31,32,28,30,28,28,28,28,28,28,28,28,28,28,28,28,28,32,29,4,7,4,7,4,4,7,4,3,3,3,3,0,0,0,0,0,0,
4,7,4,7,4,7,4,7,4,4,7,4,7,4,4,7,4,7,27,30,31,31,31,31,31,31,31,31,31,31,31,31,31,31,31,31,32,30,31,31,32,28,30,28,28,28,28,28,28,28,28,28,28,28,28,28,32,29,3,2,3,2,7,3,2,3,3,3,3,3,0,0,0,0,0,0,
4,7,4,7,4,7,3,2,7,3,2,3,2,7,3,2,3,2,27,30,31,31,31,31,31,31,31,31,31,31,31,31,31,31,31,31,32,30,31,31,32,28,30,28,28,28,28,28,28,28,28,28,28,28,28,28,32,29,4,7,4,7,4,4,7,4,3,3,3,3,0,0,0,0,0,0,
4,7,4,7,4,7,4,7,4,4,7,4,7,4,4,7,4,7,27,31,31,31,31,31,31,31,31,31,31,31,31,31,31,31,31,31,32,30,31,31,32,28,30,28,28,28,28,28,28,28,28,28,28,28,28,28,32,29,7,2,3,2,3,7,2,3,3,3,3,3,0,0,0,0,0,0,
4,7,4,7,4,7,3,2,3,7,2,3,2,3,7,2,3,2,27,37,37,37,37,37,37,37,37,37,37,37,37,37,37,37,37,37,29,34,34,34,34,27,36,37,37,37,37,37,37,37,37,37,37,37,37,37,38,29,3,3,3,3,3,3,3,3,3,3,3,3,0,0,0,0,0,0,
4,7,4,7,4,7,1,1,1,1,1,1,1,1,1,1,1,1,33,34,34,34,34,34,34,34,34,34,34,34,34,34,34,34,34,34,35,13,14,14,15,33,34,34,34,34,34,34,34,34,34,34,34,34,34,34,34,35,1,1,1,1,1,1,1,1,3,3,3,3,0,0,0,0,0,0,
4,7,4,7,4,7,1,1,1,1,1,1,1,1,1,1,1,1,1,1,1,1,1,1,1,1,1,1,1,1,1,1,1,1,1,1,1,13,14,14,15,1,1,1,1,1,1,1,1,1,1,1,1,1,1,1,1,1,1,1,1,1,1,1,1,1,2,2,2,2,2,2,2,2,2,2
  </data>
 </layer>
 <layer id="2" name="middle" width="76" height="62">
  <data encoding="csv">
42,41,42,41,42,41,42,41,42,0,0,0,0,0,0,0,0,0,0,0,0,0,0,0,0,0,0,0,0,0,173,0,0,0,0,0,0,0,0,0,0,0,0,0,0,0,0,173,0,0,0,0,0,0,0,0,0,0,0,0,0,0,0,0,0,0,128,129,129,129,129,129,129,129,129,129,
45,44,45,44,45,44,45,44,45,0,0,0,0,0,0,0,0,0,0,0,0,0,0,0,0,0,0,0,0,0,173,0,0,0,0,0,0,0,0,0,0,0,0,0,0,0,0,173,0,0,0,0,0,0,0,0,0,0,0,0,0,0,0,0,0,0,128,129,129,129,129,129,129,129,129,129,
42,41,42,41,42,41,42,41,42,0,0,0,0,0,0,0,0,0,0,0,0,0,0,0,0,0,0,0,0,0,173,0,0,0,0,0,0,0,0,0,0,0,0,0,0,0,0,173,0,0,0,0,0,0,0,0,0,0,0,0,0,0,0,0,0,0,128,129,129,129,129,129,129,129,129,129,
45,44,45,44,45,44,45,44,45,0,0,0,0,0,0,0,0,0,0,0,0,0,0,0,0,0,0,0,0,0,173,0,0,0,0,0,0,0,0,0,0,0,0,0,0,0,0,173,0,0,0,0,0,0,0,0,0,0,0,0,0,0,0,0,0,0,128,129,129,129,129,129,129,129,129,129,
42,41,42,41,42,41,42,41,42,0,0,0,0,0,0,0,0,0,0,0,0,0,0,0,0,0,0,0,0,0,173,0,0,0,0,0,0,0,0,0,0,0,0,0,0,0,0,173,0,0,0,0,0,0,0,0,0,0,0,0,0,0,0,0,0,0,128,129,129,129,129,129,129,129,129,129,
45,44,45,44,45,44,45,44,45,0,0,0,0,0,0,0,0,0,0,0,0,0,0,0,0,0,0,0,0,0,173,0,0,0,0,0,174,174,0,0,174,174,0,0,0,0,0,173,0,0,0,0,0,0,0,0,0,0,0,0,0,0,0,0,0,0,128,129,129,129,129,129,129,129,129,129,
42,41,42,41,42,41,42,41,42,0,0,0,0,0,0,0,0,0,0,0,0,0,0,0,0,0,0,0,0,0,173,175,175,175,175,175,173,247,271,271,248,173,175,175,175,175,175,173,0,0,0,0,0,0,0,0,0,0,0,0,0,0,0,0,0,0,128,129,129,129,129,129,129,129,129,129,
45,44,45,44,45,44,45,44,45,0,0,0,0,0,0,0,0,0,0,216,217,217,217,217,218,219,216,217,217,218,219,174,174,174,174,174,174,250,279,279,251,174,174,174,174,174,174,174,219,216,217,217,217,217,217,218,219,0,0,0,0,0,0,0,0,0,128,129,129,129,129,129,129,129,129,129,
42,41,42,41,42,41,42,41,42,0,0,0,0,0,0,0,0,0,0,220,221,221,221,221,222,223,220,221,221,222,223,220,221,221,222,223,252,253,287,287,254,280,220,221,221,221,221,222,223,220,221,221,221,221,221,222,223,0,0,0,0,0,0,0,0,0,128,129,129,129,129,129,129,129,129,129,
45,44,45,44,45,44,45,44,45,0,0,0,0,0,0,0,0,0,0,228,229,229,229,229,230,231,228,229,229,230,231,228,229,229,230,231,255,256,295,295,257,288,228,229,229,229,229,230,231,228,229,229,229,229,229,230,231,0,0,0,0,0,0,0,0,0,128,129,129,129,129,129,129,129,129,129,
42,41,42,41,42,41,42,41,42,0,0,0,0,0,0,0,0,0,174,235,236,236,236,236,237,238,235,236,236,237,238,235,236,236,237,238,258,259,303,303,260,296,235,236,236,236,236,237,238,235,236,236,236,236,236,237,238,174,0,0,0,0,0,0,0,0,128,129,129,129,129,129,129,129,129,129,
45,44,45,44,45,44,45,44,45,0,0,0,0,0,0,0,0,0,173,228,229,229,229,229,230,231,228,229,229,230,231,228,229,229,230,231,261,262,311,311,263,304,228,229,229,229,229,230,231,228,229,229,229,229,229,230,231,173,0,0,0,0,0,0,0,0,128,129,129,129,129,129,129,129,129,129,
42,41,42,41,42,41,42,41,42,0,0,0,0,0,0,0,0,0,173,235,236,236,236,236,237,238,235,236,236,237,238,235,236,236,237,238,182,183,183,183,183,183,235,236,236,236,236,237,238,235,236,236,236,236,236,237,238,173,0,0,0,0,0,0,0,0,128,129,129,129,129,129,129,129,129,129,
45,44,45,44,45,44,45,44,45,0,0,0,0,0,0,0,0,0,173,239,240,240,241,240,241,242,239,240,240,241,242,239,240,240,241,242,173,0,0,0,0,173,239,240,240,240,240,241,242,239,240,240,240,240,240,241,242,173,0,0,0,0,0,0,0,0,128,129,129,129,129,129,129,129,129,129,
42,41,42,41,42,41,42,41,42,0,0,0,0,0,0,0,0,0,173,235,236,236,237,238,235,236,236,237,238,235,236,236,236,236,237,238,173,0,0,0,0,173,235,236,236,237,238,235,236,236,237,238,235,236,236,237,238,173,0,0,0,0,0,0,0,0,128,129,129,129,129,129,129,129,129,129,
45,44,45,44,45,44,45,44,45,0,0,0,0,0,0,0,0,0,173,239,240,240,241,242,239,240,240,241,242,239,240,240,240,240,241,242,174,0,0,0,0,174,239,240,240,241,242,239,240,240,241,242,239,240,240,241,242,173,0,0,0,0,0,0,0,0,128,129,129,129,129,129,129,129,129,129,
42,41,42,41,42,41,42,41,42,0,0,0,0,0,0,0,0,0,173,182,183,183,183,183,182,183,183,183,183,182,183,183,183,183,183,183,0,0,0,0,0,0,0,60,61,62,63,64,0,0,0,0,0,0,0,0,0,173,0,0,0,0,0,0,0,0,128,129,129,129,129,129,129,129,129,129,
45,44,45,44,45,44,45,44,45,0,0,0,0,0,0,0,0,0,173,0,0,216,217,218,219,0,0,0,0,0,0,0,0,0,0,0,0,0,0,0,0,0,0,65,66,67,68,69,0,0,0,0,0,0,0,0,0,173,0,0,0,0,0,0,0,0,128,129,129,129,129,129,129,129,129,129,
42,41,42,41,42,41,42,41,42,0,0,0,0,0,0,0,0,0,173,141,0,220,221,222,223,192,193,194,195,188,189,190,191,0,0,0,0,0,0,0,0,0,0,70,71,72,73,74,0,0,0,0,0,0,0,0,0,173,0,0,0,0,0,0,0,0,128,129,129,129,129,129,129,129,129,129,
45,44,45,44,45,44,45,44,45,0,0,0,0,0,0,0,0,0,173,0,0,228,229,230,231,224,225,226,227,196,197,198,199,141,0,0,0,0,0,0,0,0,0,75,76,0,77,78,0,0,0,0,0,0,0,0,0,173,0,0,0,0,0,0,0,0,128,129,129,129,129,129,129,129,129,129,
42,41,42,41,42,41,42,41,42,0,0,0,0,0,0,0,0,0,173,141,0,239,240,241,242,232,0,233,234,204,205,206,207,0,174,174,174,0,0,0,0,174,174,174,0,0,0,174,174,174,174,0,0,0,174,174,174,173,0,0,0,0,0,0,0,0,128,129,129,129,129,129,129,129,129,129,
45,44,45,44,45,44,45,44,45,0,0,0,0,0,0,0,0,0,173,140,0,182,183,183,183,182,183,183,183,182,183,183,183,0,0,0,0,0,0,0,0,0,0,0,0,0,0,0,0,0,0,0,0,0,0,0,0,173,0,0,0,0,0,0,0,0,128,129,129,129,129,129,129,129,129,129,
42,41,42,41,42,41,42,41,42,0,0,0,0,0,0,0,0,0,173,140,0,0,0,0,0,0,0,0,0,0,0,0,0,0,0,0,0,0,0,0,0,0,0,0,0,0,0,0,0,0,0,0,0,0,0,0,141,173,0,0,0,0,0,0,0,0,128,129,129,129,129,129,129,129,129,129,
45,44,45,44,45,44,45,44,45,0,0,0,0,0,0,0,0,0,173,0,0,0,216,217,218,219,0,0,0,0,0,0,0,0,216,217,218,219,0,0,0,0,216,217,218,219,0,0,0,0,0,0,0,0,0,0,0,173,0,0,0,0,0,0,0,0,128,129,129,129,129,129,129,129,129,129,
50,49,50,49,50,49,50,49,50,51,0,0,0,0,0,0,0,0,173,141,0,0,220,221,222,223,0,0,0,0,0,0,0,0,220,221,222,223,0,0,0,0,220,221,222,223,216,217,218,219,0,0,0,0,0,0,141,173,0,0,0,0,0,0,0,0,128,129,129,129,129,129,129,129,129,129,
176,176,176,176,176,176,176,176,176,174,0,0,0,0,0,0,0,0,173,0,0,0,228,229,230,231,188,189,190,191,192,193,194,195,228,229,230,231,188,189,190,191,228,229,230,231,220,221,222,223,192,193,194,195,0,0,140,173,0,0,0,0,0,0,0,0,128,129,129,129,129,129,129,129,129,129,
0,0,0,0,0,0,0,0,0,173,0,0,0,0,0,0,0,0,173,141,0,0,235,236,237,238,196,197,198,199,200,201,202,203,235,236,237,238,196,197,198,199,235,236,237,238,228,229,230,231,224,225,226,227,0,0,140,173,0,0,0,0,0,0,0,0,128,129,129,129,129,129,129,129,129,129,
0,0,0,0,0,0,0,0,0,173,0,0,0,0,0,0,0,0,173,0,0,0,239,240,241,242,204,205,206,207,208,209,210,211,239,240,241,242,204,205,206,207,239,240,241,242,239,240,241,242,232,0,233,234,0,0,0,173,0,0,0,0,0,0,0,0,128,129,129,134,132,132,132,132,132,132,
0,0,0,0,0,0,0,0,0,173,0,0,0,0,0,0,0,0,173,0,0,0,182,183,183,183,182,183,183,183,182,183,183,183,182,183,183,183,182,183,183,183,182,183,183,183,182,183,183,183,182,183,183,183,0,0,141,173,0,0,0,0,0,0,0,0,128,129,129,130,0,0,0,0,0,0,
0,0,0,0,0,0,0,0,0,173,0,0,0,0,0,0,0,0,173,0,0,0,0,0,0,0,0,0,0,0,0,0,141,173,0,144,145,146,146,147,148,0,173,141,0,0,0,0,0,0,0,0,0,0,0,0,0,173,0,0,0,0,0,0,0,0,131,132,132,133,0,0,0,0,0,0,
0,0,0,0,0,0,0,0,0,174,174,174,174,174,174,174,174,174,174,0,0,0,0,0,0,0,0,0,0,0,0,0,0,173,0,149,150,151,151,152,153,0,173,0,0,0,0,0,0,0,0,0,0,0,0,0,0,174,174,174,174,174,174,174,174,174,174,174,174,174,174,174,0,0,0,0,
0,0,0,0,0,0,0,0,0,0,0,0,0,0,143,143,0,142,0,138,0,0,0,0,0,0,0,0,0,0,216,217,0,173,0,149,150,151,151,152,153,0,0,0,0,0,0,0,0,0,0,0,0,0,0,0,138,0,142,0,143,143,0,0,0,0,0,0,0,0,0,0,0,0,0,0,
0,0,0,0,0,0,0,0,0,0,0,0,0,0,0,0,0,0,0,0,0,0,216,217,218,219,0,0,0,0,220,221,222,223,0,149,150,151,151,152,153,0,216,217,218,219,0,0,0,0,0,0,0,0,0,0,0,0,0,0,0,0,0,0,0,0,0,0,0,0,0,0,0,0,0,0,
0,0,0,0,0,0,0,0,0,0,0,0,0,0,0,0,0,0,0,0,0,0,220,221,222,223,0,0,0,0,228,229,230,231,0,149,150,151,151,152,153,0,220,221,222,223,0,0,0,0,0,0,0,0,0,0,0,0,0,0,0,0,0,0,0,0,0,0,0,0,0,0,0,0,0,0,
0,0,0,0,0,0,0,0,0,0,0,0,0,0,0,0,0,0,0,0,0,0,228,229,230,231,188,189,190,191,235,236,237,238,0,149,150,151,151,152,153,0,228,229,230,231,188,189,190,191,188,189,190,191,0,0,0,0,0,0,0,0,0,0,0,0,0,0,0,0,0,0,0,0,0,0,
0,0,0,0,0,0,0,312,313,315,315,316,317,174,174,174,174,174,174,0,0,0,235,236,237,238,196,197,198,199,235,236,237,238,0,149,150,151,151,152,153,0,235,236,237,238,196,197,198,199,196,197,198,199,0,0,0,174,174,174,174,174,174,312,313,314,315,316,317,174,174,174,174,174,174,174,
0,0,0,0,0,0,0,0,0,173,0,0,0,0,0,0,0,0,173,138,0,0,239,240,241,242,204,205,206,207,239,240,241,242,0,154,155,156,156,157,158,0,239,240,241,242,204,205,206,207,204,205,206,207,0,0,138,173,0,0,0,0,0,0,0,0,126,127,127,127,127,127,127,127,127,127,
0,0,0,0,0,0,0,0,0,173,0,0,0,0,0,0,0,0,173,0,0,0,182,183,183,183,182,183,183,183,182,183,183,183,0,159,160,0,0,161,162,0,182,183,183,183,182,183,183,183,182,183,183,183,0,0,0,173,0,0,0,0,0,0,0,0,128,129,129,129,129,129,129,129,129,129,
0,0,0,0,0,0,0,0,0,173,0,0,0,0,0,0,0,0,173,0,0,0,0,0,0,0,0,0,0,0,0,0,0,0,0,0,0,0,0,0,0,0,0,0,0,0,0,0,0,0,0,0,0,0,0,0,0,173,0,0,0,0,0,0,0,0,128,129,129,129,129,129,129,129,129,129,
0,0,0,0,0,0,0,0,0,173,0,0,0,0,0,0,0,0,173,141,0,0,0,0,0,0,0,0,0,0,0,0,0,0,0,0,0,0,0,0,0,0,0,0,0,0,0,0,0,0,0,0,0,0,0,0,141,173,0,0,0,0,0,0,0,0,128,129,129,129,129,129,129,129,129,129,
0,0,0,0,0,0,0,0,0,174,0,0,0,0,0,0,0,0,173,140,0,0,216,217,218,219,0,0,0,0,0,0,217,218,219,0,0,0,0,0,0,0,0,0,0,0,0,0,0,0,216,217,218,219,0,0,0,173,0,0,0,0,0,0,0,0,128,129,129,129,129,129,129,129,129,129,
45,44,45,44,45,0,45,0,45,0,0,0,0,0,0,0,0,0,173,140,0,0,220,221,222,223,107,108,109,110,56,0,221,222,223,0,0,0,0,0,0,0,216,217,218,219,0,0,0,0,220,221,222,223,0,0,141,173,0,0,0,0,0,0,0,0,128,129,129,129,129,129,129,129,129,129,
42,0,42,0,42,0,42,0,42,0,0,0,0,0,0,0,0,0,173,0,0,0,228,229,230,231,112,113,114,115,57,0,229,230,231,0,0,0,188,189,190,191,220,221,222,223,192,193,194,195,228,229,230,231,0,0,0,173,0,0,0,0,0,0,0,0,128,129,129,129,129,129,129,129,129,129,
45,0,45,0,45,0,45,0,45,0,0,0,0,0,0,0,0,0,173,141,0,0,235,236,237,238,117,118,119,120,58,179,236,237,238,0,0,0,196,197,198,199,228,229,230,231,224,225,226,227,235,236,237,238,0,0,141,173,0,0,0,0,0,0,0,0,128,129,129,129,129,129,129,129,129,129,
42,0,42,0,42,0,42,0,42,0,0,0,0,0,0,0,0,0,173,0,0,138,239,240,241,242,122,123,0,124,59,180,240,241,242,0,0,0,204,205,206,207,239,240,241,242,232,0,233,234,239,240,241,242,138,0,140,173,0,0,0,0,0,0,0,0,128,129,129,129,129,129,129,129,129,129,
45,0,45,0,45,0,45,0,45,0,0,0,0,0,0,0,0,0,173,141,0,0,182,183,183,183,182,183,183,183,183,181,183,183,183,0,0,0,182,183,183,183,182,183,183,183,182,183,183,183,182,183,183,183,0,0,140,173,0,0,0,0,0,0,0,0,128,129,129,129,129,129,129,129,129,129,
42,0,42,0,42,0,42,0,42,0,0,0,0,0,0,0,0,0,173,0,0,0,0,0,0,0,0,0,0,0,0,0,0,0,0,0,0,0,0,0,0,0,0,0,0,0,0,0,0,0,0,0,0,0,0,0,0,173,0,0,0,0,0,0,0,0,128,129,129,129,129,129,129,129,129,129,
45,0,45,0,45,0,45,0,45,0,0,0,0,0,0,0,0,0,173,141,0,0,0,188,189,190,191,188,189,190,191,188,189,190,191,0,0,0,0,0,0,0,0,188,189,190,191,188,189,190,191,188,189,190,191,0,141,173,0,0,0,0,0,0,0,0,128,129,129,129,129,129,129,129,129,129,
42,0,42,0,42,0,42,0,42,0,0,0,0,0,0,0,0,0,173,0,0,0,0,196,197,198,199,196,197,198,199,196,197,198,199,0,0,0,0,0,0,0,0,196,197,198,199,196,197,198,199,196,197,198,199,0,0,173,0,0,0,0,0,0,0,0,128,129,129,129,129,129,129,129,129,129,
45,0,45,0,45,0,45,0,45,0,0,0,0,0,0,0,0,0,173,138,0,0,0,204,205,206,207,204,205,206,207,204,205,206,207,0,0,0,0,0,0,0,0,204,205,206,207,204,205,206,207,204,205,206,207,0,141,173,0,0,0,0,0,0,0,0,128,129,129,129,129,129,129,129,129,129,
42,0,42,0,42,0,42,0,42,0,0,0,0,0,0,0,0,0,173,174,174,174,174,174,174,174,174,174,174,174,174,174,174,174,174,174,0,0,0,0,0,0,174,174,174,174,174,174,174,174,174,174,174,174,174,174,174,173,0,0,0,0,0,0,0,0,128,129,129,129,129,129,129,129,129,129,
45,0,45,0,45,0,45,0,45,0,0,0,0,0,0,0,0,0,173,0,0,0,0,0,0,0,0,0,0,0,0,0,0,0,0,0,0,0,0,0,0,0,0,0,0,0,0,0,0,0,0,0,0,0,0,0,0,173,0,0,0,0,0,0,0,0,128,129,129,129,129,129,129,129,129,129,
42,0,42,0,42,0,42,0,42,0,0,0,0,0,0,0,0,0,173,0,0,0,0,0,0,0,0,0,0,0,0,0,0,0,0,0,174,0,0,0,0,174,0,0,0,0,0,0,0,0,0,0,0,0,0,0,0,173,0,0,0,0,0,0,0,0,128,129,129,129,129,129,129,129,129,129,
45,0,45,0,45,0,45,0,45,0,0,0,0,0,0,0,0,0,173,235,236,237,237,238,235,236,237,238,235,236,237,238,235,236,237,238,173,0,0,0,0,173,235,236,237,237,238,235,236,237,237,238,235,236,237,237,238,173,0,0,0,0,0,0,0,0,128,129,129,129,129,129,129,129,129,129,
42,0,42,0,42,0,42,0,42,0,0,0,0,0,0,0,0,0,173,239,240,240,240,242,239,240,241,242,239,240,241,242,239,240,241,242,173,247,271,271,248,173,239,240,240,240,242,239,240,240,240,242,239,240,240,240,242,173,0,0,0,0,0,0,0,0,128,129,129,129,129,129,129,129,129,129,
45,0,45,0,45,0,45,0,45,0,0,0,0,0,0,0,0,0,173,0,0,0,0,0,0,0,0,0,0,0,0,0,0,0,0,0,173,250,279,279,251,173,0,0,0,0,0,0,0,0,0,0,0,0,0,0,0,173,0,0,0,0,0,0,0,0,128,129,129,129,129,129,129,129,129,129,
42,0,42,0,42,0,42,0,42,0,0,0,0,0,0,0,0,0,173,0,0,0,0,0,0,0,0,0,0,0,0,0,0,0,0,0,173,253,287,287,254,173,0,0,0,0,0,0,0,0,0,0,0,0,0,0,0,173,0,0,0,0,0,0,0,0,128,129,129,129,129,129,129,129,129,129,
45,0,45,0,45,0,45,0,45,0,0,0,0,0,0,0,0,0,173,173,0,0,0,0,0,0,0,0,0,0,0,0,0,0,0,0,173,256,295,295,257,173,0,0,0,0,0,0,0,0,0,0,0,0,0,0,0,173,0,0,0,0,0,0,0,0,128,129,129,129,129,129,129,129,129,129,
42,0,42,0,42,0,42,0,42,0,0,0,0,0,0,0,0,0,173,0,0,0,0,0,0,0,0,0,0,0,0,0,0,0,0,0,173,259,303,303,260,173,0,0,0,0,0,0,0,0,0,0,0,0,0,0,0,173,0,0,0,0,0,0,0,0,128,129,129,129,129,129,129,129,129,129,
45,0,45,0,45,0,45,0,45,0,0,0,0,0,0,0,0,0,173,0,0,0,0,0,0,0,0,0,0,0,0,0,0,0,0,0,173,262,311,311,263,173,0,0,0,0,0,0,0,0,0,0,0,0,0,0,0,173,0,0,0,0,0,0,0,0,128,129,129,129,129,129,129,129,129,129,
42,0,42,0,42,0,42,0,42,0,174,174,174,174,174,174,174,174,174,174,174,174,174,174,174,174,174,174,174,174,174,174,174,174,174,174,174,243,244,244,245,174,174,174,174,174,174,174,174,174,174,174,174,174,174,174,174,174,174,174,174,174,176,176,176,176,128,129,129,129,129,129,129,129,129,129,
45,0,45,0,45,0,45,0,45,0,0,0,0,0,0,0,0,0,0,0,0,0,0,0,0,0,0,0,0,0,0,0,0,0,0,0,0,0,0,0,0,0,0,0,0,0,0,0,0,0,0,0,0,0,0,0,0,0,0,0,0,0,0,0,0,0,0,0,0,0,0,0,0,0,0,0
  </data>
 </layer>
 <layer id="3" name="upper" width="76" height="62">
  <data encoding="csv">
0,0,0,0,0,0,0,0,0,0,0,0,0,0,0,0,0,0,0,0,0,0,0,0,0,0,0,0,0,0,0,0,0,0,0,0,0,0,0,0,0,0,0,0,0,0,0,0,0,0,0,0,0,0,0,0,0,0,0,0,0,0,0,0,0,0,0,0,0,0,0,0,0,0,0,0,
0,0,0,0,0,0,0,0,0,0,0,0,0,0,0,0,0,0,0,0,0,0,0,0,0,0,0,0,0,0,0,0,0,0,0,0,0,0,0,0,0,0,0,0,0,0,0,0,0,0,0,0,0,0,0,0,0,0,0,0,0,0,0,0,0,0,0,0,0,0,0,0,0,0,0,0,
0,0,0,0,0,0,0,0,0,0,0,0,0,0,0,0,0,0,0,0,0,0,0,0,0,0,0,0,0,0,0,0,0,0,0,0,0,0,0,0,0,0,0,0,0,0,0,0,0,0,0,0,0,0,0,0,0,0,0,0,0,0,0,0,0,0,0,0,0,0,0,0,0,0,0,0,
0,0,0,0,0,0,0,0,0,0,0,0,0,0,0,0,0,0,0,0,0,0,0,0,0,0,0,0,0,0,0,0,0,0,0,0,0,0,0,0,0,0,0,0,0,0,0,0,0,0,0,0,0,0,0,0,0,0,0,0,0,0,0,0,0,0,0,0,0,0,0,0,0,0,0,0,
0,0,0,0,0,0,0,0,0,0,0,0,0,0,0,0,0,0,0,0,0,0,0,0,0,0,0,0,0,0,0,0,0,0,0,0,0,0,0,0,0,0,0,0,0,0,0,0,0,0,0,0,0,0,0,0,0,0,0,0,0,0,0,0,0,0,0,0,0,0,0,0,0,0,0,0,
0,0,0,0,0,0,0,0,0,0,0,0,0,0,0,0,0,0,0,0,0,0,0,0,0,0,0,0,0,0,0,0,0,0,0,0,0,0,0,0,0,0,0,0,0,0,0,0,0,0,0,0,0,0,0,0,0,0,0,0,0,0,0,0,0,0,0,0,0,0,0,0,0,0,0,0,
0,0,0,0,0,0,0,0,0,0,0,0,0,0,0,0,0,0,0,0,0,0,0,0,0,0,0,0,0,0,0,0,0,0,0,0,246,0,0,0,0,264,0,0,0,0,0,0,0,0,0,0,0,0,0,0,0,0,0,0,0,0,0,0,0,0,0,0,0,0,0,0,0,0,0,0,
0,0,0,0,0,0,0,0,0,0,0,0,0,0,0,0,0,0,0,0,0,0,0,0,0,0,0,0,0,0,0,216,217,217,218,219,249,0,0,0,0,272,216,217,217,217,217,218,0,0,0,0,0,0,0,0,0,0,0,0,0,0,0,0,0,0,0,0,0,0,0,0,0,0,0,0,
0,0,0,0,0,0,0,0,0,0,0,0,0,0,0,0,0,0,0,0,0,0,0,0,0,0,0,0,0,0,0,0,0,0,0,0,0,0,0,0,0,0,0,0,0,0,0,0,0,0,0,0,0,0,0,0,0,0,0,0,0,0,0,0,0,0,0,0,0,0,0,0,0,0,0,0,
0,0,0,0,0,0,0,0,0,0,0,0,0,0,0,0,0,0,0,0,0,0,0,0,0,0,0,0,0,0,0,0,0,0,0,0,0,0,0,0,0,0,0,0,0,0,0,0,0,0,0,0,0,0,0,0,0,0,0,0,0,0,0,0,0,0,0,0,0,0,0,0,0,0,0,0,
0,0,0,0,0,0,0,0,0,0,0,0,0,0,0,0,0,0,0,0,0,0,0,0,0,0,0,0,0,0,0,0,0,0,0,0,0,0,0,0,0,0,0,0,0,0,0,0,0,0,0,0,0,0,0,0,0,0,0,0,0,0,0,0,0,0,0,0,0,0,0,0,0,0,0,0,
0,0,0,0,0,0,0,0,0,0,0,0,0,0,0,0,0,0,0,216,217,217,218,219,216,217,217,218,219,216,217,217,217,217,218,219,0,0,0,0,0,0,216,217,217,218,219,216,217,217,218,219,216,217,217,218,219,0,0,0,0,0,0,0,0,0,0,0,0,0,0,0,0,0,0,0,
0,0,0,0,0,0,0,0,0,0,0,0,0,0,0,0,0,0,0,220,221,221,222,223,220,221,221,222,223,220,221,221,221,221,222,223,174,243,244,244,245,174,220,221,221,222,223,220,221,221,222,223,220,221,221,222,223,0,0,0,0,0,0,0,0,0,0,0,0,0,0,0,0,0,0,0,
0,0,0,0,0,0,0,0,0,0,0,0,0,0,0,0,0,0,0,228,229,229,230,231,228,229,229,230,231,228,229,229,229,229,230,231,0,0,0,0,0,0,228,229,229,230,231,228,229,229,230,231,228,229,229,230,231,0,0,0,0,0,0,0,0,0,0,0,0,0,0,0,0,0,0,0,
0,0,0,0,0,0,0,0,0,0,0,0,0,0,0,0,0,0,0,0,236,236,237,238,235,236,236,237,238,235,236,236,236,236,237,238,0,0,0,0,0,0,0,0,0,0,0,0,0,0,0,0,0,0,0,0,0,0,0,0,0,0,0,0,0,0,0,0,0,0,0,0,0,0,0,0,
0,0,0,0,0,0,0,0,0,0,0,0,0,0,0,0,0,0,0,0,0,0,0,0,0,0,0,0,0,0,0,0,0,0,0,0,0,0,0,0,0,0,0,0,0,0,0,0,0,79,80,81,82,83,84,106,0,0,0,0,0,0,0,0,0,0,0,0,0,0,0,0,0,0,0,0,
0,0,0,0,0,0,0,0,0,0,0,0,0,0,0,0,0,0,0,138,0,0,0,0,0,0,0,0,0,0,0,0,0,0,0,0,138,0,0,0,0,138,0,0,0,0,0,0,0,85,86,87,88,89,90,111,0,0,0,0,0,0,0,0,0,0,0,0,0,0,0,0,0,0,0,0,
0,0,0,0,0,0,0,0,0,0,0,0,0,0,0,0,0,0,0,0,0,0,0,0,0,0,0,0,0,0,0,0,0,0,0,0,0,0,0,0,0,0,0,0,0,0,0,0,0,91,92,93,94,95,92,116,0,0,0,0,0,0,0,0,0,0,0,0,0,0,0,0,0,0,0,0,
0,0,0,0,0,0,0,0,0,0,0,0,0,0,0,0,0,0,0,0,0,0,0,0,0,0,0,0,0,0,0,0,0,0,0,0,0,0,0,0,0,0,0,0,0,0,0,0,0,96,97,98,99,100,101,121,0,0,0,0,0,0,0,0,0,0,0,0,0,0,0,0,0,0,0,0,
0,0,0,0,0,0,0,0,0,0,0,0,0,0,0,0,0,0,0,0,0,0,0,0,0,0,0,0,0,0,0,0,0,0,0,0,0,0,0,0,0,0,0,0,0,0,0,0,0,102,103,104,0,105,103,125,0,0,0,0,0,0,0,0,0,0,0,0,0,0,0,0,0,0,0,0,
0,0,0,0,0,0,0,0,0,0,0,0,0,0,0,0,0,0,0,0,0,0,0,0,0,0,0,0,0,0,0,0,0,0,0,0,0,0,0,0,0,0,0,0,0,0,0,0,0,0,0,0,0,0,0,0,0,0,0,0,0,0,0,0,0,0,0,0,0,0,0,0,0,0,0,0,
0,0,0,0,0,0,0,0,0,0,0,0,0,0,0,0,0,0,0,0,0,0,0,0,0,0,0,0,0,0,0,0,0,0,0,0,0,0,0,0,0,0,0,0,0,0,0,0,0,0,0,0,0,0,0,0,0,0,0,0,0,0,0,0,0,0,0,0,0,0,0,0,0,0,0,0,
0,0,0,0,0,0,0,0,0,0,0,0,0,0,0,0,0,0,0,0,0,0,0,0,0,0,0,0,0,0,0,0,0,0,0,0,0,0,0,0,0,0,0,0,0,0,0,0,0,0,0,0,0,0,0,0,0,0,0,0,0,0,0,0,0,0,0,0,0,0,0,0,0,0,0,0,
0,0,0,0,0,0,0,0,0,0,0,0,0,0,0,0,0,0,0,0,0,0,0,0,0,0,0,0,0,0,0,0,0,0,0,0,0,0,0,0,0,0,0,0,0,0,0,0,0,0,0,0,0,0,0,0,0,0,0,0,0,0,0,0,0,0,0,0,0,0,0,0,0,0,0,0,
0,0,0,0,0,0,0,0,0,0,0,0,0,0,0,0,0,0,0,0,0,0,0,0,0,0,0,0,0,0,0,0,0,0,0,0,0,0,0,0,0,0,0,0,0,0,0,0,0,0,0,0,0,0,0,0,0,0,0,0,0,0,0,0,0,0,0,0,0,0,0,0,0,0,0,0,
0,0,0,0,0,0,0,0,0,0,0,0,0,0,0,0,0,0,0,0,0,0,0,0,0,0,0,0,0,0,0,0,0,0,0,0,0,0,0,0,0,0,0,0,0,0,0,0,0,0,0,0,0,0,0,0,0,0,0,0,0,0,0,0,0,0,0,0,0,0,0,0,0,0,0,0,
0,0,0,0,0,0,0,0,0,0,0,0,0,0,0,0,0,0,0,0,0,0,0,0,0,0,0,0,0,0,0,0,0,0,0,0,0,0,0,0,0,0,0,0,0,0,0,0,0,0,0,0,0,0,0,0,0,0,0,0,0,0,0,0,0,0,0,0,0,0,0,0,0,0,0,0,
0,0,0,0,0,0,0,0,0,0,0,0,0,0,0,0,0,0,0,0,0,0,0,0,0,0,0,0,0,0,0,0,0,0,0,165,166,167,167,168,163,0,0,0,0,0,0,0,0,0,0,0,0,0,0,0,0,0,0,0,0,0,0,0,0,0,0,0,0,0,0,0,0,0,0,0,
0,0,0,0,0,0,0,0,0,0,0,0,0,0,0,0,0,0,0,0,0,0,0,0,0,0,0,0,0,0,0,0,0,174,174,169,170,171,171,172,164,174,174,0,0,0,0,0,0,0,0,0,0,0,0,0,0,0,0,0,0,0,0,0,0,0,0,0,0,0,40,40,178,0,0,0,
0,0,0,0,0,0,0,265,266,267,268,269,270,0,0,0,0,0,0,0,0,0,0,0,0,0,0,0,0,0,0,0,0,0,0,0,0,0,0,0,0,0,0,0,0,0,0,0,0,0,0,0,0,0,0,0,0,0,0,0,0,0,0,265,266,267,268,269,270,0,0,0,0,0,0,0,
0,0,0,0,0,0,0,273,274,275,276,277,278,0,0,0,0,0,0,0,0,0,0,0,0,0,0,0,0,0,0,0,0,0,0,0,0,0,0,0,0,0,0,0,0,0,0,0,0,0,0,0,0,0,0,0,0,0,0,0,0,0,0,273,274,275,276,277,278,0,0,0,0,0,0,0,
0,0,0,0,0,0,0,281,282,283,284,285,286,0,0,0,0,0,0,0,0,0,0,0,0,0,0,0,0,0,0,0,218,219,0,0,0,0,0,0,0,0,0,0,0,0,0,0,0,0,0,0,0,0,0,0,0,0,0,0,0,0,0,281,282,283,284,285,286,0,0,0,0,0,0,0,
0,0,0,0,0,0,0,289,290,291,292,293,294,0,0,0,0,0,0,0,0,0,0,0,0,0,0,0,0,0,0,0,0,0,0,0,0,0,0,0,0,0,0,0,0,0,0,0,0,0,0,0,0,0,0,0,0,0,0,0,0,0,0,289,290,291,292,293,294,0,0,0,0,0,0,0,
0,0,0,0,0,0,0,297,298,299,300,301,302,0,0,0,0,0,0,0,0,0,0,0,0,0,0,0,0,0,0,0,0,0,0,0,0,0,0,0,0,0,0,0,0,0,0,0,0,0,0,0,0,0,0,0,0,0,0,0,0,0,0,297,298,299,300,301,302,0,0,0,0,0,0,0,
0,0,0,0,0,0,0,305,306,307,308,309,310,0,0,0,0,0,0,0,0,0,0,0,0,0,0,0,0,0,0,0,0,0,0,0,0,0,0,0,0,0,0,0,0,0,0,0,0,0,0,0,0,0,0,0,0,0,0,0,0,0,0,305,306,307,308,309,310,0,0,0,0,0,0,0,
0,135,135,135,135,135,135,135,135,174,174,174,174,0,0,0,0,0,0,0,0,0,0,0,0,0,0,0,0,0,0,0,0,0,0,0,0,0,0,0,0,0,0,0,0,0,0,0,0,0,0,0,0,0,0,0,0,0,0,0,0,0,0,174,174,174,174,174,174,0,0,0,0,0,0,0,
0,0,0,0,0,0,0,0,0,0,0,0,0,0,0,0,0,0,0,0,0,0,0,0,0,0,0,0,0,0,0,0,0,0,138,0,0,0,0,0,0,138,0,0,0,0,0,0,0,0,0,0,0,0,0,0,0,0,0,0,0,0,0,0,0,0,0,0,0,0,0,0,0,0,0,0,
0,0,0,0,0,0,0,0,0,0,0,0,0,0,0,0,0,0,0,0,0,0,0,174,174,174,174,174,174,174,174,174,174,174,0,0,0,0,0,0,0,0,174,174,174,174,174,174,174,174,174,174,174,0,0,0,0,0,0,0,0,0,0,0,0,0,0,0,0,0,0,0,0,0,0,0,
0,0,0,0,0,0,0,0,0,0,0,0,0,0,0,0,0,0,0,0,0,0,0,0,0,0,0,0,0,0,0,0,0,0,0,0,0,0,0,0,0,0,0,0,0,0,0,0,0,0,0,0,0,0,0,0,0,0,0,0,0,0,0,0,0,0,0,0,0,0,0,0,0,0,0,0,
0,0,0,0,0,0,0,0,0,0,0,0,0,0,0,0,0,0,0,0,0,0,0,0,0,0,0,0,0,0,0,0,0,0,0,0,0,0,0,0,0,0,0,0,0,0,0,0,0,0,0,0,0,0,0,0,0,0,0,0,0,0,0,0,0,0,0,0,0,0,0,0,0,0,0,0,
0,0,0,0,0,0,0,0,0,0,0,0,0,0,0,0,0,0,0,0,0,0,0,0,0,0,0,0,0,0,0,216,0,0,0,0,0,0,0,0,0,0,0,0,0,0,0,0,0,0,0,0,0,0,0,0,0,0,0,0,0,0,0,0,0,0,0,0,0,0,0,0,0,0,0,0,
0,0,0,0,0,0,0,0,0,0,0,0,0,0,0,0,0,0,0,0,0,0,0,0,0,0,0,0,0,0,0,220,0,0,0,0,0,0,0,0,0,0,0,0,0,0,0,0,0,0,0,0,0,0,0,0,0,0,0,0,0,0,0,0,0,0,0,0,0,0,0,0,0,0,0,0,
0,0,0,0,0,0,0,0,0,0,0,0,0,0,0,0,0,0,0,0,0,0,0,0,0,0,0,0,0,0,0,228,0,0,0,0,0,0,0,0,0,0,0,0,0,0,0,0,0,0,0,0,0,0,0,0,0,0,0,0,0,0,0,0,0,0,0,0,0,0,0,0,0,0,0,0,
0,0,0,0,0,0,0,0,0,0,0,0,0,0,0,0,0,0,0,0,0,0,0,0,0,0,0,0,0,0,0,235,0,0,0,0,0,0,0,0,0,0,0,0,0,0,0,0,0,0,0,0,0,0,0,0,0,0,0,0,0,0,0,0,0,0,0,0,0,0,0,0,0,0,0,0,
0,0,0,0,0,0,0,0,0,0,0,0,0,0,0,0,0,0,0,0,0,0,0,0,0,0,0,0,0,0,0,239,0,0,0,0,0,138,0,0,0,0,0,0,0,0,0,0,0,0,0,0,0,0,0,0,0,0,0,0,0,0,0,0,0,0,0,0,0,0,0,0,0,0,0,0,
0,0,0,0,0,0,0,0,0,0,0,0,0,0,0,0,0,0,0,0,0,0,0,0,0,0,0,0,0,0,0,183,0,0,0,0,0,0,0,0,0,0,0,0,0,0,0,0,0,0,0,0,0,0,0,0,0,0,0,0,0,0,0,0,0,0,0,0,0,0,0,0,0,0,0,0,
0,0,0,0,0,0,0,0,0,0,0,0,0,0,0,0,0,0,0,0,0,0,0,0,0,0,0,0,0,0,0,0,0,0,0,0,0,0,0,0,0,0,0,0,0,0,0,0,0,0,0,0,0,0,0,0,0,0,0,0,0,0,0,0,0,0,0,0,0,0,0,0,0,0,0,0,
0,0,0,0,0,0,0,0,0,0,0,0,0,0,0,0,0,0,0,0,0,0,0,0,0,0,0,0,0,0,0,0,0,0,0,0,0,0,0,0,0,0,0,0,0,0,0,0,0,0,0,0,0,0,0,0,0,0,0,0,0,0,0,0,0,0,0,0,0,0,0,0,0,0,0,0,
0,0,0,0,0,0,0,0,0,0,0,0,0,0,0,0,0,0,0,0,0,0,0,0,0,0,0,0,0,0,0,0,0,0,0,0,0,0,0,0,0,0,0,0,0,0,0,0,0,0,0,0,0,0,0,0,0,0,0,0,0,0,0,0,0,0,0,0,0,0,0,0,0,0,0,0,
0,0,0,0,0,0,0,0,0,0,0,0,0,0,0,0,0,0,0,0,0,0,0,0,0,0,0,0,0,0,0,0,0,0,0,0,0,0,0,0,0,0,0,0,0,0,0,0,0,0,0,0,0,0,0,0,0,0,0,0,0,0,0,0,0,0,0,0,0,0,0,0,0,0,0,0,
0,0,0,0,0,0,0,0,0,0,0,0,0,0,0,0,0,0,0,216,217,217,218,219,216,217,218,219,216,217,218,219,216,217,218,219,0,0,0,0,0,0,216,217,217,218,219,216,217,217,218,219,216,217,217,218,219,0,0,0,0,0,0,0,0,0,0,0,0,0,0,0,0,0,0,0,
0,0,0,0,0,0,0,0,0,0,0,0,0,0,0,0,0,0,0,220,221,221,222,223,220,221,222,223,220,221,222,223,220,221,222,223,138,0,0,0,0,138,220,221,221,222,223,220,221,221,222,223,220,221,221,222,223,0,0,0,0,0,0,0,0,0,0,0,0,0,0,0,0,0,0,0,
0,0,0,0,0,0,0,0,0,0,0,0,0,0,0,0,0,0,0,228,229,229,230,231,228,229,230,231,228,229,230,231,228,229,230,231,0,0,0,0,0,0,228,229,229,230,231,228,229,229,230,231,228,229,229,230,231,0,0,0,0,0,0,0,0,0,0,0,0,0,0,0,0,0,0,0,
0,0,0,0,0,0,0,0,0,0,0,0,0,0,0,0,0,0,0,0,0,0,0,0,0,0,0,0,0,0,0,0,0,0,0,0,0,0,0,0,0,0,0,0,0,0,0,0,0,0,0,0,0,0,0,0,0,0,0,0,0,0,0,0,0,0,0,0,0,0,0,0,0,0,0,0,
0,0,0,0,0,0,0,0,0,0,0,0,0,0,0,0,0,0,0,216,217,218,219,216,217,218,219,216,217,217,218,219,216,217,218,219,246,0,0,0,0,264,216,217,218,219,216,217,217,218,219,216,217,217,217,218,219,0,0,0,0,0,0,0,0,0,0,0,0,0,0,0,0,0,0,0,
0,0,0,0,0,0,0,0,0,0,0,0,0,0,0,0,0,0,0,220,221,222,223,220,221,222,223,220,221,221,222,223,220,221,222,223,249,0,0,0,0,272,220,221,222,223,220,221,221,222,223,220,221,221,221,222,223,0,0,0,0,0,0,0,0,0,0,0,0,0,0,0,0,0,0,0,
0,0,0,0,0,0,0,0,0,0,0,0,0,0,0,0,0,0,0,228,229,230,231,228,229,230,231,228,229,229,230,231,228,229,230,231,252,0,0,0,0,280,228,229,230,231,228,229,229,230,231,228,229,229,229,230,231,0,0,0,0,0,0,0,0,0,0,0,0,0,0,0,0,0,0,0,
0,0,0,0,0,0,0,0,0,0,0,0,0,0,0,0,0,0,0,235,236,237,238,235,236,237,238,235,236,236,237,238,235,236,237,238,255,0,0,0,0,288,235,236,237,238,235,236,236,237,238,235,236,236,236,237,238,0,0,0,0,0,0,0,0,0,0,0,0,0,0,0,0,0,0,0,
0,0,0,0,0,0,0,0,0,0,0,0,0,0,0,0,0,0,0,239,240,241,242,239,240,241,242,239,240,240,241,242,239,240,241,242,258,0,0,0,0,296,239,240,241,242,239,240,240,241,242,239,240,240,240,241,242,0,0,0,0,0,0,0,0,0,0,0,0,0,0,0,0,0,0,0,
0,0,0,0,0,0,0,0,0,0,0,0,0,0,0,0,0,0,0,0,0,0,0,0,0,0,0,0,0,0,0,0,0,0,0,0,261,0,0,0,0,304,0,0,0,0,0,0,0,0,0,0,0,0,0,0,0,0,0,0,0,0,0,0,0,0,0,0,0,0,0,0,0,0,0,0,
0,0,0,0,0,0,0,0,0,0,0,0,0,0,0,0,0,0,0,0,0,0,0,0,0,0,0,0,0,0,0,0,0,0,0,0,0,0,0,0,0,0,0,0,0,0,0,0,0,0,0,0,0,0,0,0,0,0,0,0,0,0,0,0,0,0,0,0,0,0,0,0,0,0,0,0,
0,0,0,0,0,0,45,44,45,44,45,44,45,44,45,44,45,44,45,44,45,44,45,44,45,44,45,44,45,44,45,0,45,44,45,0,0,0,0,0,0,0,45,44,45,44,45,44,45,44,45,44,45,44,45,44,45,44,45,44,45,44,45,44,45,44,0,0,0,0,0,0,0,0,0,0
  </data>
 </layer>
 <objectgroup id="4" name="events"/>
 <group id="7" name="above">
 <layer id="5" name="middle_above" width="76" height="62">
  <data encoding="csv">
0,0,0,0,0,0,0,0,0,43,0,0,0,0,0,0,0,0,0,0,0,0,0,0,0,0,0,0,0,0,0,0,0,0,0,0,0,0,0,0,0,0,0,0,0,0,0,0,0,0,0,0,0,0,0,0,0,0,0,0,0,0,0,0,0,0,0,0,0,0,0,0,0,0,0,0,
0,0,0,0,0,0,0,0,0,46,0,0,0,0,0,0,0,0,0,0,0,0,0,0,0,0,0,0,0,0,0,0,0,0,0,0,0,0,0,0,0,0,0,0,0,0,0,0,0,0,0,0,0,0,0,0,0,0,0,0,0,0,0,0,0,0,0,0,0,0,0,0,0,0,0,0,
0,0,0,0,0,0,0,0,0,43,0,0,0,0,0,0,0,0,0,0,0,0,0,0,0,0,0,0,0,0,0,0,0,0,0,0,0,0,0,0,0,0,0,0,0,0,0,0,0,0,0,0,0,0,0,0,0,0,0,0,0,0,0,0,0,0,0,0,0,0,0,0,0,0,0,0,
0,0,0,0,0,0,0,0,0,46,0,0,0,0,0,0,0,0,0,0,0,0,0,0,0,0,0,0,0,0,0,0,0,0,0,0,0,0,0,0,0,0,0,0,0,0,0,0,0,0,0,0,0,0,0,0,0,0,0,0,0,0,0,0,0,0,0,0,0,0,0,0,0,0,0,0,
0,0,0,0,0,0,0,0,0,43,0,0,0,0,0,0,0,0,0,0,0,0,0,0,0,0,0,0,0,0,0,0,0,0,0,0,0,0,0,0,0,0,0,0,0,0,0,0,0,0,0,0,0,0,0,0,0,0,0,0,0,0,0,0,0,0,0,0,0,0,0,0,0,0,0,0,
0,0,0,0,0,0,0,0,0,46,0,0,0,0,0,0,0,0,0,0,0,0,0,0,0,0,0,0,0,0,0,0,0,0,0,0,0,0,0,0,0,0,0,0,0,0,0,0,0,0,0,0,0,0,0,0,0,0,0,0,0,0,0,0,0,0,0,0,0,0,0,0,0,0,0,0,
0,0,0,0,0,0,0,0,0,43,0,0,0,0,0,0,0,0,0,212,213,213,213,213,214,215,212,213,213,214,0,0,0,0,0,0,0,0,0,0,0,0,0,0,0,0,0,0,215,212,213,213,213,213,213,214,215,0,0,0,0,0,0,0,0,0,0,0,0,0,0,0,0,0,0,0,
0,0,0,0,0,0,0,0,0,46,0,0,0,0,0,0,0,0,0,0,0,0,0,0,0,0,0,0,0,0,0,0,0,0,0,0,0,0,0,0,0,0,0,0,0,0,0,0,0,0,0,0,0,0,0,0,0,0,0,0,0,0,0,0,0,0,0,0,0,0,0,0,0,0,0,0,
0,0,0,0,0,0,0,0,0,43,0,0,0,0,0,0,0,0,0,0,0,0,0,0,0,0,0,0,0,0,0,0,0,0,0,0,0,0,0,0,0,0,0,0,0,0,0,0,0,0,0,0,0,0,0,0,0,0,0,0,0,0,0,0,0,0,0,0,0,0,0,0,0,0,0,0,
0,0,0,0,0,0,0,0,0,46,0,0,0,0,0,0,0,0,0,0,0,0,0,0,0,0,0,0,0,0,0,0,0,0,0,0,0,0,0,0,0,0,0,0,0,0,0,0,0,0,0,0,0,0,0,0,0,0,0,0,0,0,0,0,0,0,0,0,0,0,0,0,0,0,0,0,
0,0,0,0,0,0,0,0,0,43,0,0,0,0,0,0,0,0,0,0,0,0,0,0,0,0,0,0,0,0,0,0,0,0,0,0,0,0,0,0,0,0,0,0,0,0,0,0,0,0,0,0,0,0,0,0,0,0,0,0,0,0,0,0,0,0,0,0,0,0,0,0,0,0,0,0,
0,0,0,0,0,0,0,0,0,46,0,0,0,0,0,0,0,0,0,0,0,0,0,0,0,0,0,0,0,0,0,0,0,0,0,0,0,0,0,0,0,0,0,0,0,0,0,0,0,0,0,0,0,0,0,0,0,0,0,0,0,0,0,0,0,0,0,0,0,0,0,0,0,0,0,0,
0,0,0,0,0,0,0,0,0,43,0,0,0,0,0,0,0,0,0,0,0,0,0,0,0,0,0,0,0,0,0,0,0,0,0,0,0,0,0,0,0,0,0,0,0,0,0,0,0,0,0,0,0,0,0,0,0,0,0,0,0,0,0,0,0,0,0,0,0,0,0,0,0,0,0,0,
0,0,0,0,0,0,0,0,0,46,0,0,0,0,0,0,0,0,0,0,0,0,0,0,0,0,0,0,0,0,0,0,0,0,0,0,0,0,0,0,0,0,0,0,0,0,0,0,0,0,0,0,0,0,0,0,0,0,0,0,0,0,0,0,0,0,0,0,0,0,0,0,0,0,0,0,
0,0,0,0,0,0,0,0,0,43,0,0,0,0,0,0,0,0,0,0,0,0,0,0,0,0,0,0,0,0,0,0,0,0,0,0,0,0,0,0,0,0,0,0,0,0,0,0,0,0,0,0,0,0,0,0,0,0,0,0,0,0,0,0,0,0,0,0,0,0,0,0,0,0,0,0,
0,0,0,0,0,0,0,0,0,46,0,0,0,0,0,0,0,0,0,0,0,0,0,0,0,0,0,0,0,0,0,0,0,0,0,0,0,0,0,0,0,0,0,0,0,0,0,0,0,0,0,0,0,0,0,0,0,0,0,0,0,0,0,0,0,0,0,0,0,0,0,0,0,0,0,0,
0,0,0,0,0,0,0,0,0,43,0,0,0,0,0,0,0,0,0,0,0,0,0,0,0,0,0,0,0,0,0,0,0,0,0,0,0,0,0,0,0,0,0,0,0,0,0,0,0,0,0,0,0,0,0,0,0,0,0,0,0,0,0,0,0,0,0,0,0,0,0,0,0,0,0,0,
0,0,0,0,0,0,0,0,0,46,0,0,0,0,0,0,0,0,0,139,0,0,0,0,0,184,185,186,187,184,185,186,187,0,0,0,0,0,0,0,0,0,0,0,0,0,0,0,0,0,0,0,0,0,0,0,0,0,0,0,0,0,0,0,0,0,0,0,0,0,0,0,0,0,0,0,
0,0,0,0,0,0,0,0,0,43,0,0,0,0,0,0,0,0,0,0,0,0,0,0,0,0,0,0,0,0,0,0,0,139,0,0,0,0,0,0,0,0,0,0,0,0,0,0,0,0,0,0,0,0,0,0,0,0,0,0,0,0,0,0,0,0,0,0,0,0,0,0,0,0,0,0,
0,0,0,0,0,0,0,0,0,46,0,0,0,0,0,0,0,0,0,139,0,0,0,0,0,0,0,0,0,0,0,0,0,0,0,0,0,0,0,0,0,0,0,0,0,0,0,0,0,0,0,0,0,0,0,0,0,0,0,0,0,0,0,0,0,0,0,0,0,0,0,0,0,0,0,0,
0,0,0,0,0,0,0,0,0,43,0,0,0,0,0,0,0,0,0,0,0,0,0,0,0,0,0,0,0,0,0,0,0,0,0,0,0,0,0,0,0,0,0,0,0,0,0,0,0,0,0,0,0,0,0,0,0,0,0,0,0,0,0,0,0,0,0,0,0,0,0,0,0,0,0,0,
0,0,0,0,0,0,0,0,0,46,0,0,0,0,0,0,0,0,0,0,0,0,0,0,0,0,0,0,0,0,0,0,0,0,0,0,0,0,0,0,0,0,0,0,0,0,0,0,0,0,0,0,0,0,0,0,139,0,0,0,0,0,0,0,0,0,0,0,0,0,0,0,0,0,0,0,
0,0,0,0,0,0,0,0,0,43,0,0,0,0,0,0,0,0,0,0,0,0,212,213,214,215,0,0,0,0,0,0,0,0,212,213,214,215,0,0,0,0,212,213,214,215,0,0,0,0,0,0,0,0,0,0,0,0,0,0,0,0,0,0,0,0,0,0,0,0,0,0,0,0,0,0,
0,0,0,0,0,0,0,0,0,46,0,0,0,0,0,0,0,0,0,139,0,0,0,0,0,0,0,0,0,0,0,0,0,0,0,0,0,0,0,0,0,0,0,0,0,0,212,213,214,215,0,0,0,0,0,0,139,0,0,0,0,0,0,0,0,0,0,0,0,0,0,0,0,0,0,0,
0,0,0,0,0,0,0,0,0,0,0,0,0,0,0,0,0,0,0,0,0,0,0,0,0,0,184,185,186,187,184,185,186,187,0,0,0,0,184,185,186,187,0,0,0,0,0,0,0,0,184,185,186,187,0,0,0,0,0,0,0,0,0,0,0,0,0,0,0,0,0,0,0,0,0,0,
0,0,0,0,0,0,0,0,0,0,0,0,0,0,0,0,0,0,0,139,0,0,0,0,0,0,0,0,0,0,0,0,0,0,0,0,0,0,0,0,0,0,0,0,0,0,0,0,0,0,0,0,0,0,0,0,0,0,0,0,0,0,0,0,0,0,0,0,0,0,0,0,0,0,0,0,
0,0,0,0,0,0,0,0,0,0,0,0,0,0,0,0,0,0,0,0,0,0,0,0,0,0,0,0,0,0,0,0,0,0,0,0,0,0,0,0,0,0,0,0,0,0,0,0,0,0,0,0,0,0,0,0,0,0,0,0,0,0,0,0,0,0,0,0,0,0,0,0,0,0,0,0,
0,0,0,0,0,0,0,0,0,0,0,0,0,0,0,0,0,0,0,0,0,0,0,0,0,0,0,0,0,0,0,0,0,0,0,0,0,0,0,0,0,0,0,0,0,0,0,0,0,0,0,0,0,0,0,0,139,0,0,0,0,0,0,0,0,0,0,0,0,0,0,0,0,0,0,0,
0,0,0,0,0,0,0,0,0,0,0,0,0,0,0,0,0,0,0,0,0,0,0,0,0,0,0,0,0,0,0,0,0,0,0,0,0,0,0,0,0,0,0,0,0,0,0,0,0,0,0,0,0,0,0,0,0,0,0,0,0,0,0,0,0,0,0,0,0,0,0,0,0,0,0,0,
0,0,0,0,0,0,0,0,0,0,0,0,0,0,0,0,0,0,0,136,0,0,0,0,0,0,0,0,0,0,0,0,0,0,0,0,0,0,0,0,0,0,0,0,0,0,0,0,0,0,0,0,0,0,0,0,136,0,0,0,0,0,0,0,0,0,0,0,0,0,0,0,0,0,0,0,
0,0,0,0,0,0,0,0,0,0,0,0,0,0,0,0,0,0,0,137,0,0,0,0,0,0,0,0,0,0,212,213,0,0,0,0,0,0,0,0,0,0,0,0,0,0,0,0,0,0,0,0,0,0,0,0,137,0,0,0,0,0,0,0,0,0,0,0,0,0,0,0,0,0,0,0,
0,0,0,0,0,0,0,0,0,0,0,0,0,0,0,0,0,0,0,0,0,0,212,213,214,215,0,0,0,0,0,0,0,0,0,0,0,0,0,0,0,0,212,213,214,215,0,0,0,0,0,0,0,0,0,0,0,0,0,0,0,0,0,0,0,0,0,0,0,0,0,0,0,0,0,0,
0,0,0,0,0,0,0,0,0,0,0,0,0,0,0,0,0,0,0,0,0,0,0,0,0,0,0,0,0,0,0,0,0,0,0,0,0,0,0,0,0,0,0,0,0,0,0,0,0,0,0,0,0,0,0,0,0,0,0,0,0,0,0,0,0,0,0,0,0,0,0,0,0,0,0,0,
0,0,0,0,0,0,0,0,0,0,0,0,0,0,0,0,0,0,0,0,0,0,0,0,0,0,184,185,186,187,0,0,0,0,0,0,0,0,0,0,0,0,0,0,0,0,184,185,186,187,184,185,186,187,0,0,0,0,0,0,0,0,0,0,0,0,0,0,0,0,0,0,0,0,0,0,
0,0,0,0,0,0,0,0,0,0,0,0,0,0,0,0,0,0,0,136,0,0,0,0,0,0,0,0,0,0,0,0,0,0,0,0,0,0,0,0,0,0,0,0,0,0,0,0,0,0,0,0,0,0,0,0,136,0,0,0,0,0,0,0,0,0,0,0,0,0,0,0,0,0,0,0,
0,0,0,0,0,0,0,0,0,0,0,0,0,0,0,0,0,0,0,137,0,0,0,0,0,0,0,0,0,0,0,0,0,0,0,0,0,0,0,0,0,0,0,0,0,0,0,0,0,0,0,0,0,0,0,0,137,0,0,0,0,0,0,0,0,0,0,0,0,0,0,0,0,0,0,0,
0,0,0,0,0,0,0,0,0,0,0,0,0,0,0,0,0,0,0,0,0,0,0,0,0,0,0,0,0,0,0,0,0,0,0,0,0,0,0,0,0,0,0,0,0,0,0,0,0,0,0,0,0,0,0,0,0,0,0,0,0,0,0,0,0,0,0,0,0,0,0,0,0,0,0,0,
0,0,0,0,0,0,0,0,0,0,0,0,0,0,0,0,0,0,0,0,0,0,0,0,0,0,0,0,0,0,0,0,0,0,0,0,0,0,0,0,0,0,0,0,0,0,0,0,0,0,0,0,0,0,0,0,0,0,0,0,0,0,0,0,0,0,0,0,0,0,0,0,0,0,0,0,
0,0,0,0,0,0,0,0,0,0,0,0,0,0,0,0,0,0,0,139,0,0,0,0,0,0,0,0,0,0,0,0,0,0,0,0,0,0,0,0,0,0,0,0,0,0,0,0,0,0,0,0,0,0,0,0,139,0,0,0,0,0,0,0,0,0,0,0,0,0,0,0,0,0,0,0,
0,0,0,0,0,0,0,0,0,0,0,0,0,0,0,0,0,0,0,0,0,0,212,213,214,215,0,0,0,0,0,212,213,214,215,0,0,0,0,0,0,0,0,0,0,0,0,0,0,0,212,213,214,215,0,0,0,0,0,0,0,0,0,0,0,0,0,0,0,0,0,0,0,0,0,0,
54,55,54,55,0,0,0,0,0,0,0,0,0,0,0,0,0,0,0,0,0,0,0,0,0,0,0,0,0,0,0,0,0,0,0,0,0,0,0,0,0,0,212,213,214,215,0,0,0,0,0,0,0,0,0,0,139,0,0,0,0,0,0,0,0,0,0,0,0,0,0,0,0,0,0,0,
0,0,0,0,0,46,0,46,0,46,0,0,0,0,0,0,0,0,0,0,0,0,0,0,0,0,0,0,0,0,0,0,0,0,0,0,0,0,184,185,186,187,0,0,0,0,184,185,186,187,0,0,0,0,0,0,0,0,0,0,0,0,0,0,0,0,0,0,0,0,0,0,0,0,0,0,
0,43,0,43,0,43,0,43,0,43,0,0,0,0,0,0,0,0,0,139,0,136,0,0,0,0,0,0,0,0,0,0,0,0,0,0,0,0,0,0,0,0,0,0,0,0,0,0,0,0,0,0,0,0,136,0,139,0,0,0,0,0,0,0,0,0,0,0,0,0,0,0,0,0,0,0,
0,46,0,46,0,46,0,46,0,46,0,0,0,0,0,0,0,0,0,0,0,137,0,0,0,0,0,0,0,0,0,0,0,0,0,0,0,0,0,0,0,0,0,0,0,0,0,0,0,0,0,0,0,0,137,0,0,0,0,0,0,0,0,0,0,0,0,0,0,0,0,0,0,0,0,0,
0,43,0,43,0,43,0,43,0,43,0,0,0,0,0,0,0,0,0,139,0,0,0,0,0,0,0,0,0,0,0,0,0,0,0,0,0,0,0,0,0,0,0,0,0,0,0,0,0,0,0,0,0,0,0,0,0,0,0,0,0,0,0,0,0,0,0,0,0,0,0,0,0,0,0,0,
0,46,0,46,0,46,0,46,0,46,0,0,0,0,0,0,0,0,0,0,0,0,0,0,0,0,0,0,0,0,0,0,0,0,0,0,0,0,0,0,0,0,0,0,0,0,0,0,0,0,0,0,0,0,0,0,0,0,0,0,0,0,0,0,0,0,0,0,0,0,0,0,0,0,0,0,
0,43,0,43,0,43,0,43,0,43,0,0,0,0,0,0,0,0,0,139,0,0,0,184,185,186,187,184,185,186,187,184,185,186,187,0,0,0,0,0,0,0,0,184,185,186,187,184,185,186,187,184,185,186,187,0,139,0,0,0,0,0,0,0,0,0,0,0,0,0,0,0,0,0,0,0,
0,46,0,46,0,46,0,46,0,46,0,0,0,0,0,0,0,0,0,0,0,0,0,0,0,0,0,0,0,0,0,0,0,0,0,0,0,0,0,0,0,0,0,0,0,0,0,0,0,0,0,0,0,0,0,0,0,0,0,0,0,0,0,0,0,0,0,0,0,0,0,0,0,0,0,0,
0,43,0,43,0,43,0,43,0,43,0,0,0,0,0,0,0,0,0,0,0,0,0,0,0,0,0,0,0,0,0,0,0,0,0,0,0,0,0,0,0,0,0,0,0,0,0,0,0,0,0,0,0,0,0,0,139,0,0,0,0,0,0,0,0,0,0,0,0,0,0,0,0,0,0,0,
0,46,0,46,0,46,0,46,0,46,0,0,0,0,0,0,0,0,0,0,0,0,0,0,0,0,0,0,0,0,0,0,0,0,0,0,0,0,0,0,0,0,0,0,0,0,0,0,0,0,0,0,0,0,0,0,0,0,0,0,0,0,0,0,0,0,0,0,0,0,0,0,0,0,0,0,
0,43,0,43,0,43,0,43,0,43,0,0,0,0,0,0,0,0,0,0,0,0,0,0,0,0,0,0,0,0,0,0,0,0,0,0,0,0,0,0,0,0,0,0,0,0,0,0,0,0,0,0,0,0,0,0,0,0,0,0,0,0,0,0,0,0,0,0,0,0,0,0,0,0,0,0,
0,46,0,46,0,46,0,46,0,46,0,0,0,0,0,0,0,0,0,0,0,0,0,0,0,0,0,0,0,0,0,0,0,0,0,0,0,0,0,0,0,0,0,0,0,0,0,0,0,0,0,0,0,0,0,0,0,0,0,0,0,0,0,0,0,0,0,0,0,0,0,0,0,0,0,0,
0,43,0,43,0,43,0,43,0,43,0,0,0,0,0,0,0,0,0,0,0,0,0,0,0,0,0,0,0,0,0,0,0,0,0,0,0,0,0,0,0,0,0,0,0,0,0,0,0,0,0,0,0,0,0,0,0,0,0,0,0,0,0,0,0,0,0,0,0,0,0,0,0,0,0,0,
0,46,0,46,0,46,0,46,0,46,0,0,0,0,0,0,0,0,0,0,0,0,0,0,0,0,0,0,0,0,0,0,0,0,0,0,0,0,0,0,0,0,0,0,0,0,0,0,0,0,0,0,0,0,0,0,0,0,0,0,0,0,0,0,0,0,0,0,0,0,0,0,0,0,0,0,
0,43,0,43,0,43,0,43,0,43,0,0,0,0,0,0,0,0,0,0,0,0,0,0,0,0,0,0,0,0,0,0,0,0,0,0,0,0,0,0,0,0,0,0,0,0,0,0,0,0,0,0,0,0,0,0,0,0,0,0,0,0,0,0,0,0,0,0,0,0,0,0,0,0,0,0,
0,46,0,46,0,46,0,46,0,46,0,0,0,0,0,0,0,0,0,0,0,0,0,0,0,0,0,0,0,0,0,0,0,0,0,0,0,0,0,0,0,0,0,0,0,0,0,0,0,0,0,0,0,0,0,0,0,0,0,0,0,0,0,0,0,0,0,0,0,0,0,0,0,0,0,0,
0,43,0,43,0,43,0,43,0,43,0,0,0,0,0,0,0,0,0,0,0,0,0,0,0,0,0,0,0,0,0,0,0,0,0,0,0,0,0,0,0,0,0,0,0,0,0,0,0,0,0,0,0,0,0,0,0,0,0,0,0,0,0,0,0,0,0,0,0,0,0,0,0,0,0,0,
0,46,0,46,0,46,0,46,0,46,0,0,0,0,0,0,0,0,0,0,0,0,0,0,0,0,0,0,0,0,0,0,0,0,0,0,0,0,0,0,0,0,0,0,0,0,0,0,0,0,0,0,0,0,0,0,0,0,0,0,0,0,0,0,0,0,0,0,0,0,0,0,0,0,0,0,
0,43,0,43,0,43,0,43,0,43,0,0,0,0,0,0,0,0,0,0,0,0,0,0,0,0,0,0,0,0,0,0,0,0,0,0,0,0,0,0,0,0,0,0,0,0,0,0,0,0,0,0,0,0,0,0,0,0,0,0,0,0,0,0,0,0,0,0,0,0,0,0,0,0,0,0,
0,46,0,46,0,46,0,46,0,46,0,0,0,0,0,0,0,0,0,0,0,0,0,0,0,0,0,0,0,0,0,0,0,0,0,0,0,0,0,0,0,0,0,0,0,0,0,0,0,0,0,0,0,0,0,0,0,0,0,0,0,0,0,0,0,0,0,0,0,0,0,0,0,0,0,0,
0,43,0,43,0,43,0,43,0,43,0,0,0,0,0,0,0,0,0,0,0,0,0,0,0,0,0,0,0,0,0,0,0,0,0,0,0,0,0,0,0,0,0,0,0,0,0,0,0,0,0,0,0,0,0,0,0,0,0,0,0,0,0,0,0,0,0,0,0,0,0,0,0,0,0,0,
0,46,0,46,0,46,0,46,0,46,0,0,0,0,0,0,0,0,0,0,0,0,0,0,0,0,0,0,0,0,0,0,0,0,0,0,0,0,0,0,0,0,0,0,0,0,0,0,0,0,0,0,0,0,0,0,0,0,0,0,0,0,0,0,0,0,0,0,0,0,0,0,0,0,0,0
  </data>
 </layer>
 <layer id="6" name="upper_above" width="76" height="62">
  <data encoding="csv">
0,0,0,0,0,0,0,0,0,0,0,0,0,0,0,0,0,0,0,0,0,0,0,0,0,0,0,0,0,0,0,0,0,0,0,0,0,0,0,0,0,0,0,0,0,0,0,0,0,0,0,0,0,0,0,0,0,0,0,0,0,0,0,0,0,0,0,0,0,0,0,0,0,0,0,0,
0,0,0,0,0,0,0,0,0,0,0,0,0,0,0,0,0,0,0,0,0,0,0,0,0,0,0,0,0,0,0,0,0,0,0,0,0,0,0,0,0,0,0,0,0,0,0,0,0,0,0,0,0,0,0,0,0,0,0,0,0,0,0,0,0,0,0,0,0,0,0,0,0,0,0,0,
0,0,0,0,0,0,0,0,0,0,0,0,0,0,0,0,0,0,0,0,0,0,0,0,0,0,0,0,0,0,0,0,0,0,0,0,0,0,0,0,0,0,0,0,0,0,0,0,0,0,0,0,0,0,0,0,0,0,0,0,0,0,0,0,0,0,0,0,0,0,0,0,0,0,0,0,
0,0,0,0,0,0,0,0,0,0,0,0,0,0,0,0,0,0,0,0,0,0,0,0,0,0,0,0,0,0,0,0,0,0,0,0,0,0,0,0,0,0,0,0,0,0,0,0,0,0,0,0,0,0,0,0,0,0,0,0,0,0,0,0,0,0,0,0,0,0,0,0,0,0,0,0,
0,0,0,0,0,0,0,0,0,0,0,0,0,0,0,0,0,0,0,0,0,0,0,0,0,0,0,0,0,0,0,0,0,0,0,0,0,0,0,0,0,0,0,0,0,0,0,0,0,0,0,0,0,0,0,0,0,0,0,0,0,0,0,0,0,0,0,0,0,0,0,0,0,0,0,0,
0,0,0,0,0,0,0,0,0,0,0,0,0,0,0,0,0,0,0,0,0,0,0,0,0,0,0,0,0,0,0,0,0,0,0,0,0,0,0,0,0,0,0,0,0,0,0,0,0,0,0,0,0,0,0,0,0,0,0,0,0,0,0,0,0,0,0,0,0,0,0,0,0,0,0,0,
0,0,0,0,0,0,0,0,0,0,47,0,0,0,0,0,0,0,0,0,0,0,0,0,0,0,0,0,0,0,215,212,213,213,214,215,0,0,0,0,0,0,212,213,213,213,213,214,0,0,0,0,0,0,0,0,0,0,0,0,0,0,0,0,0,0,0,0,0,0,0,0,0,0,0,0,
0,0,0,0,0,0,0,0,0,0,52,0,0,0,0,0,0,0,0,0,0,0,0,0,0,0,0,0,0,0,0,0,0,0,0,0,0,0,0,0,0,0,0,0,0,0,0,0,0,0,0,0,0,0,0,0,0,0,0,0,0,0,0,0,0,0,0,0,0,0,0,0,0,0,0,0,
0,0,0,0,0,0,0,0,0,0,47,0,0,0,0,0,0,0,0,0,0,0,0,0,0,0,0,0,0,0,0,0,0,0,0,0,0,0,0,0,0,0,0,0,0,0,0,0,0,0,0,0,0,0,0,0,0,0,0,0,0,0,0,0,0,0,0,0,0,0,0,0,0,0,0,0,
0,0,0,0,0,0,0,0,0,0,52,0,0,0,0,0,0,0,0,0,0,0,0,0,0,0,0,0,0,0,0,0,0,0,0,0,0,0,0,0,0,0,0,0,0,0,0,0,0,0,0,0,0,0,0,0,0,0,0,0,0,0,0,0,0,0,0,0,0,0,0,0,0,0,0,0,
0,0,0,0,0,0,0,0,0,0,47,0,0,0,0,0,0,0,0,212,213,213,214,215,212,213,213,214,215,212,213,213,213,213,214,215,0,0,0,0,0,0,212,213,213,214,215,212,213,213,214,215,212,213,213,214,215,0,0,0,0,0,0,0,0,0,0,0,0,0,0,0,0,0,0,0,
0,0,0,0,0,0,0,0,0,0,52,0,0,0,0,0,0,0,0,0,0,0,0,0,0,0,0,0,0,0,0,0,0,0,0,0,0,0,0,0,0,0,0,0,0,0,0,0,0,0,0,0,0,0,0,0,0,0,0,0,0,0,0,0,0,0,0,0,0,0,0,0,0,0,0,0,
0,0,0,0,0,0,0,0,0,0,47,0,0,0,0,0,0,0,0,0,0,0,0,0,0,0,0,0,0,0,0,0,0,0,0,0,0,0,0,0,0,0,0,0,0,0,0,0,0,0,0,0,0,0,0,0,0,0,0,0,0,0,0,0,0,0,0,0,0,0,0,0,0,0,0,0,
0,0,0,0,0,0,0,0,0,0,52,0,0,0,0,0,0,0,0,0,0,0,0,0,0,0,0,0,0,0,0,0,0,0,0,0,0,0,0,0,0,0,0,0,0,0,0,0,0,0,0,0,0,0,0,0,0,0,0,0,0,0,0,0,0,0,0,0,0,0,0,0,0,0,0,0,
0,0,0,0,0,0,0,0,0,0,47,0,0,0,0,0,0,0,0,136,0,0,0,0,0,0,0,0,0,0,0,0,0,0,0,0,136,0,0,0,0,136,0,0,0,0,0,0,0,0,0,0,0,0,0,0,0,0,0,0,0,0,0,0,0,0,0,0,0,0,0,0,0,0,0,0,
0,0,0,0,0,0,0,0,0,0,52,0,0,0,0,0,0,0,0,137,0,0,0,0,0,0,0,0,0,0,0,0,0,0,0,0,137,0,0,0,0,137,0,0,0,0,0,0,0,0,0,0,0,0,0,0,0,0,0,0,0,0,0,0,0,0,0,0,0,0,0,0,0,0,0,0,
0,0,0,0,0,0,0,0,0,0,47,0,0,0,0,0,0,0,0,0,0,212,213,214,215,0,0,0,0,0,0,0,0,0,0,0,0,0,0,0,0,0,0,0,0,0,0,0,0,0,0,0,0,0,0,0,0,0,0,0,0,0,0,0,0,0,0,0,0,0,0,0,0,0,0,0,
0,0,0,0,0,0,0,0,0,0,52,0,0,0,0,0,0,0,0,0,0,0,0,0,0,0,0,0,0,0,0,0,0,0,0,0,0,0,0,0,0,0,0,0,0,0,0,0,0,0,0,0,0,0,0,0,0,0,0,0,0,0,0,0,0,0,0,0,0,0,0,0,0,0,0,0,
0,0,0,0,0,0,0,0,0,0,47,0,0,0,0,0,0,0,0,0,0,0,0,0,0,0,0,0,0,0,0,0,0,0,0,0,0,0,0,0,0,0,0,0,0,0,0,0,0,0,0,0,0,0,0,0,0,0,0,0,0,0,0,0,0,0,0,0,0,0,0,0,0,0,0,0,
0,0,0,0,0,0,0,0,0,0,52,0,0,0,0,0,0,0,0,0,0,0,0,0,0,0,0,0,0,0,0,0,0,0,0,0,0,0,0,0,0,0,0,0,0,0,0,0,0,0,0,0,0,0,0,0,0,0,0,0,0,0,0,0,0,0,0,0,0,0,0,0,0,0,0,0,
0,0,0,0,0,0,0,0,0,0,47,0,0,0,0,0,0,0,0,0,0,0,0,0,0,0,0,0,0,0,0,0,0,0,0,0,0,0,0,0,0,0,0,0,0,0,0,0,0,0,0,0,0,0,0,0,0,0,0,0,0,0,0,0,0,0,0,0,0,0,0,0,0,0,0,0,
0,0,0,0,0,0,0,0,0,0,52,0,0,0,0,0,0,0,0,0,0,0,0,0,0,0,0,0,0,0,0,0,0,0,0,0,0,0,0,0,0,0,0,0,0,0,0,0,0,0,0,0,0,0,0,0,0,0,0,0,0,0,0,0,0,0,0,0,0,0,0,0,0,0,0,0,
0,0,0,0,0,0,0,0,0,0,47,0,0,0,0,0,0,0,0,0,0,0,0,0,0,0,0,0,0,0,0,0,0,0,0,0,0,0,0,0,0,0,0,0,0,0,0,0,0,0,0,0,0,0,0,0,0,0,0,0,0,0,0,0,0,0,0,0,0,0,0,0,0,0,0,0,
0,0,0,0,0,0,0,0,0,0,52,0,0,0,0,0,0,0,0,0,0,0,0,0,0,0,0,0,0,0,0,0,0,0,0,0,0,0,0,0,0,0,0,0,0,0,0,0,0,0,0,0,0,0,0,0,0,0,0,0,0,0,0,0,0,0,0,0,0,0,0,0,0,0,0,0,
0,0,0,0,0,0,0,0,0,0,0,0,0,0,0,0,0,0,0,0,0,0,0,0,0,0,0,0,0,0,0,0,0,0,0,0,0,0,0,0,0,0,0,0,0,0,0,0,0,0,0,0,0,0,0,0,0,0,0,0,0,0,0,0,0,0,0,0,0,0,0,0,0,0,0,0,
0,0,0,0,0,0,0,0,0,0,0,0,0,0,0,0,0,0,0,0,0,0,0,0,0,0,0,0,0,0,0,0,0,0,0,0,0,0,0,0,0,0,0,0,0,0,0,0,0,0,0,0,0,0,0,0,0,0,0,0,0,0,0,0,0,0,0,0,0,0,0,0,0,0,0,0,
0,0,0,0,0,0,0,0,0,0,0,0,0,0,0,0,0,0,0,0,0,0,0,0,0,0,0,0,0,0,0,0,0,0,0,0,0,0,0,0,0,0,0,0,0,0,0,0,0,0,0,0,0,0,0,0,0,0,0,0,0,0,0,0,0,0,0,0,0,0,0,0,0,0,0,0,
0,0,0,0,0,0,0,0,0,0,0,0,0,0,0,0,0,0,0,0,0,0,0,0,0,0,0,0,0,0,0,0,0,0,0,0,0,0,0,0,0,0,0,0,0,0,0,0,0,0,0,0,0,0,0,0,0,0,0,0,0,0,0,0,0,0,0,0,0,0,39,39,177,0,0,0,
0,0,0,0,0,0,0,0,0,0,0,0,0,0,0,0,0,0,0,0,0,0,0,0,0,0,0,0,0,0,0,0,139,0,0,0,0,0,0,0,0,0,0,139,0,0,0,0,0,0,0,0,0,0,0,0,0,0,0,0,0,0,0,0,0,0,0,0,0,0,0,0,0,0,0,0,
0,0,0,0,0,0,0,0,0,0,0,0,0,0,0,0,0,0,0,0,0,0,0,0,0,0,0,0,0,0,0,0,0,0,0,0,0,0,0,0,0,0,0,0,0,0,0,0,0,0,0,0,0,0,0,0,0,0,0,0,0,0,0,0,0,0,0,0,0,0,0,0,0,0,0,0,
0,0,0,0,0,0,0,0,0,0,0,0,0,0,0,0,0,0,0,0,0,0,0,0,0,0,0,0,0,0,0,0,214,215,0,0,0,0,0,0,0,0,0,0,0,0,0,0,0,0,0,0,0,0,0,0,0,0,0,0,0,0,0,0,0,0,0,0,0,0,0,0,0,0,0,0,
0,0,0,0,0,0,0,0,0,0,0,0,0,0,0,0,0,0,0,0,0,0,0,0,0,0,0,0,0,0,0,0,0,0,0,0,0,0,0,0,0,0,0,0,0,0,0,0,0,0,0,0,0,0,0,0,0,0,0,0,0,0,0,0,0,0,0,0,0,0,0,0,0,0,0,0,
0,0,0,0,0,0,0,0,0,0,0,0,0,0,0,0,0,0,0,0,0,0,0,0,0,0,0,0,0,0,0,0,0,0,0,0,0,0,0,0,0,0,0,0,0,0,0,0,0,0,0,0,0,0,0,0,0,0,0,0,0,0,0,0,0,0,0,0,0,0,0,0,0,0,0,0,
0,0,0,0,0,0,0,0,0,0,0,0,0,0,0,0,0,0,0,0,0,0,0,0,0,0,0,0,0,0,0,0,0,0,0,0,0,0,0,0,0,0,0,0,0,0,0,0,0,0,0,0,0,0,0,0,0,0,0,0,0,0,0,0,0,0,0,0,0,0,0,0,0,0,0,0,
0,0,0,0,0,0,0,0,0,0,0,0,0,0,0,0,0,0,0,0,0,0,0,0,0,0,0,0,0,0,0,0,0,0,136,0,0,0,0,0,0,136,0,0,0,0,0,0,0,0,0,0,0,0,0,0,0,0,0,0,0,0,0,0,0,0,0,0,0,0,0,0,0,0,0,0,
0,0,0,0,0,0,0,0,0,0,0,0,0,0,0,0,0,0,0,0,0,0,0,0,0,0,0,0,0,0,0,0,0,0,137,0,0,0,0,0,0,137,0,0,0,0,0,0,0,0,0,0,0,0,0,0,0,0,0,0,0,0,0,0,0,0,0,0,0,0,0,0,0,0,0,0,
0,0,0,0,0,0,0,0,0,0,0,0,0,0,0,0,0,0,0,0,0,0,0,0,0,0,0,0,0,0,0,0,0,0,0,0,0,0,0,0,0,0,0,0,0,0,0,0,0,0,0,0,0,0,0,0,0,0,0,0,0,0,0,0,0,0,0,0,0,0,0,0,0,0,0,0,
0,0,0,0,0,0,0,0,0,0,0,0,0,0,0,0,0,0,0,0,0,0,0,0,0,0,0,0,0,0,0,0,0,0,0,0,0,0,0,0,0,0,0,0,0,0,0,0,0,0,0,0,0,0,0,0,0,0,0,0,0,0,0,0,0,0,0,0,0,0,0,0,0,0,0,0,
0,0,0,0,0,0,0,0,0,0,0,0,0,0,0,0,0,0,0,0,0,0,0,0,0,0,0,0,0,0,0,0,0,0,0,0,0,0,0,0,0,0,0,0,0,0,0,0,0,0,0,0,0,0,0,0,0,0,0,0,0,0,0,0,0,0,0,0,0,0,0,0,0,0,0,0,
0,0,0,0,0,0,0,0,0,0,0,0,0,0,0,0,0,0,0,0,0,0,0,0,0,0,0,0,0,0,0,0,0,0,0,0,0,0,0,0,0,0,0,0,0,0,0,0,0,0,0,0,0,0,0,0,0,0,0,0,0,0,0,0,0,0,0,0,0,0,0,0,0,0,0,0,
0,0,0,0,54,55,54,55,54,55,47,0,0,0,0,0,0,0,0,0,0,0,0,0,0,0,0,0,0,0,0,0,0,0,0,0,0,0,0,0,0,0,0,0,0,0,0,0,0,0,0,0,0,0,0,0,0,0,0,0,0,0,0,0,0,0,0,0,0,0,0,0,0,0,0,0,
0,0,0,0,0,0,0,0,0,0,52,0,0,0,0,0,0,0,0,0,0,0,0,0,0,0,0,0,0,0,0,0,0,0,0,0,0,0,0,0,0,0,0,0,0,0,0,0,0,0,0,0,0,0,0,0,0,0,0,0,0,0,0,0,0,0,0,0,0,0,0,0,0,0,0,0,
0,0,0,0,0,0,0,0,0,0,47,0,0,0,0,0,0,0,0,0,0,0,0,0,0,0,0,0,0,0,0,0,0,0,0,0,0,136,0,0,0,0,0,0,0,0,0,0,0,0,0,0,0,0,0,0,0,0,0,0,0,0,0,0,0,0,0,0,0,0,0,0,0,0,0,0,
0,0,0,0,0,0,0,0,0,0,52,0,0,0,0,0,0,0,0,0,0,0,0,0,0,0,0,0,0,0,0,0,0,0,0,0,0,137,0,0,0,0,0,0,0,0,0,0,0,0,0,0,0,0,0,0,0,0,0,0,0,0,0,0,0,0,0,0,0,0,0,0,0,0,0,0,
0,0,0,0,0,0,0,0,0,0,47,0,0,0,0,0,0,0,0,0,0,0,0,0,0,0,0,0,0,0,0,0,0,0,0,0,0,0,0,0,0,0,0,0,0,0,0,0,0,0,0,0,0,0,0,0,0,0,0,0,0,0,0,0,0,0,0,0,0,0,0,0,0,0,0,0,
0,0,0,0,0,0,0,0,0,0,52,0,0,0,0,0,0,0,0,0,0,0,0,0,0,0,0,0,0,0,0,0,0,0,0,0,0,0,0,0,0,0,0,0,0,0,0,0,0,0,0,0,0,0,0,0,0,0,0,0,0,0,0,0,0,0,0,0,0,0,0,0,0,0,0,0,
0,0,0,0,0,0,0,0,0,0,47,0,0,0,0,0,0,0,0,0,0,0,0,0,0,0,0,0,0,0,0,0,0,0,0,0,0,0,0,0,0,0,0,0,0,0,0,0,0,0,0,0,0,0,0,0,0,0,0,0,0,0,0,0,0,0,0,0,0,0,0,0,0,0,0,0,
0,0,0,0,0,0,0,0,0,0,52,0,0,0,0,0,0,0,0,136,0,0,0,0,0,0,0,0,0,0,0,0,0,0,0,0,0,0,0,0,0,0,0,0,0,0,0,0,0,0,0,0,0,0,0,0,0,0,0,0,0,0,0,0,0,0,0,0,0,0,0,0,0,0,0,0,
0,0,0,0,0,0,0,0,0,0,47,0,0,0,0,0,0,0,0,137,0,0,0,0,0,0,0,0,0,0,0,0,0,0,0,0,0,0,0,0,0,0,0,0,0,0,0,0,0,0,0,0,0,0,0,0,0,0,0,0,0,0,0,0,0,0,0,0,0,0,0,0,0,0,0,0,
0,0,0,0,0,0,0,0,0,0,52,0,0,0,0,0,0,0,0,212,213,213,214,215,212,213,214,215,212,213,214,215,212,213,214,215,136,0,0,0,0,136,212,213,213,214,215,212,213,213,214,215,212,213,213,214,215,0,0,0,0,0,0,0,0,0,0,0,0,0,0,0,0,0,0,0,
0,0,0,0,0,0,0,0,0,0,47,0,0,0,0,0,0,0,0,0,0,0,0,0,0,0,0,0,0,0,0,0,0,0,0,0,137,0,0,0,0,137,0,0,0,0,0,0,0,0,0,0,0,0,0,0,0,0,0,0,0,0,0,0,0,0,0,0,0,0,0,0,0,0,0,0,
0,0,0,0,0,0,0,0,0,0,52,0,0,0,0,0,0,0,0,0,0,0,0,0,0,0,0,0,0,0,0,0,0,0,0,0,0,0,0,0,0,0,0,0,0,0,0,0,0,0,0,0,0,0,0,0,0,0,0,0,0,0,0,0,0,0,0,0,0,0,0,0,0,0,0,0,
0,0,0,0,0,0,0,0,0,0,47,0,0,0,0,0,0,0,0,0,0,0,0,0,0,0,0,0,0,0,0,0,0,0,0,0,0,0,0,0,0,0,0,0,0,0,0,0,0,0,0,0,0,0,0,0,0,0,0,0,0,0,0,0,0,0,0,0,0,0,0,0,0,0,0,0,
0,0,0,0,0,0,0,0,0,0,52,0,0,0,0,0,0,0,0,212,213,214,215,212,213,214,215,212,213,213,214,215,212,213,214,215,0,0,0,0,0,0,212,213,214,215,212,213,213,214,215,212,213,213,213,214,215,0,0,0,0,0,0,0,0,0,0,0,0,0,0,0,0,0,0,0,
0,0,0,0,0,0,0,0,0,0,47,0,0,0,0,0,0,0,0,0,0,0,0,0,0,0,0,0,0,0,0,0,0,0,0,0,0,0,0,0,0,0,0,0,0,0,0,0,0,0,0,0,0,0,0,0,0,0,0,0,0,0,0,0,0,0,0,0,0,0,0,0,0,0,0,0,
0,0,0,0,0,0,0,0,0,0,52,0,0,0,0,0,0,0,0,0,0,0,0,0,0,0,0,0,0,0,0,0,0,0,0,0,0,0,0,0,0,0,0,0,0,0,0,0,0,0,0,0,0,0,0,0,0,0,0,0,0,0,0,0,0,0,0,0,0,0,0,0,0,0,0,0,
0,0,0,0,0,0,0,0,0,0,47,0,0,0,0,0,0,0,0,0,0,0,0,0,0,0,0,0,0,0,0,0,0,0,0,0,0,0,0,0,0,0,0,0,0,0,0,0,0,0,0,0,0,0,0,0,0,0,0,0,0,0,0,0,0,0,0,0,0,0,0,0,0,0,0,0,
0,0,0,0,0,0,0,0,0,0,52,0,0,0,0,0,0,0,0,0,0,0,0,0,0,0,0,0,0,0,0,0,0,0,0,0,0,0,0,0,0,0,0,0,0,0,0,0,0,0,0,0,0,0,0,0,0,0,0,0,0,0,0,0,0,0,0,0,0,0,0,0,0,0,0,0,
0,0,0,0,0,0,0,0,0,0,47,0,0,0,0,0,0,0,0,0,0,0,0,0,0,0,0,0,0,0,0,0,0,0,0,0,0,0,0,0,0,0,0,0,0,0,0,0,0,0,0,0,0,0,0,0,0,0,0,0,0,0,0,0,0,0,0,0,0,0,0,0,0,0,0,0,
0,0,0,0,0,0,0,0,0,0,52,0,0,0,0,0,0,0,0,0,0,0,0,0,0,0,0,0,0,0,0,0,0,0,0,0,0,0,0,0,0,0,0,0,0,0,0,0,0,0,0,0,0,0,0,0,0,0,0,0,0,0,0,0,0,0,0,0,0,0,0,0,0,0,0,0,
0,0,0,0,0,0,54,55,54,55,54,55,54,55,54,55,54,55,54,55,54,55,54,55,54,55,54,55,54,55,54,55,54,55,54,55,47,0,0,0,0,48,54,55,54,55,54,55,54,55,54,55,54,55,54,55,54,55,54,55,54,55,54,55,54,55,0,0,0,0,0,0,0,0,0,0,
0,0,0,0,0,0,0,0,0,0,0,0,0,0,0,0,0,0,0,0,0,0,0,0,0,0,0,0,0,0,0,46,0,0,0,46,52,0,0,0,0,53,0,0,0,0,0,0,0,0,0,0,0,0,0,0,0,0,0,0,0,0,0,0,0,0,0,0,0,0,0,0,0,0,0,0
  </data>
 </layer>
 </group>
</map>
