<?xml version="1.0" encoding="UTF-8"?>
<map version="1.10" tiledversion="1.10.2" orientation="orthogonal" renderorder="right-down" compressionlevel="0" width="48" height="32" tilewidth="32" tileheight="32" infinite="0" nextlayerid="8" nextobjectid="1">
 <tileset firstgid="1" source="seafoam-islands-b3f.tsx"/>
 <layer id="1" name="lower" width="48" height="32">
  <data encoding="csv">
26,27,26,27,26,27,26,27,26,27,26,27,26,27,26,27,26,27,26,27,26,27,26,27,26,27,26,27,26,27,26,27,26,27,26,27,26,27,26,27,26,27,26,27,26,27,26,27,
24,25,24,25,24,25,24,25,24,25,24,25,24,25,24,25,24,25,24,25,24,25,24,25,24,25,24,25,24,25,24,25,24,25,24,25,24,25,24,25,24,25,24,25,24,25,24,25,
26,27,26,27,26,27,26,27,26,27,26,27,26,27,26,27,26,27,26,27,26,27,26,27,26,27,26,27,26,27,26,27,26,27,26,27,26,27,26,27,26,27,26,27,26,27,26,27,
24,25,24,25,24,25,24,25,24,25,24,25,24,25,24,25,24,25,24,25,24,25,24,25,24,25,24,25,24,25,24,25,24,25,24,25,24,25,24,25,24,25,24,25,24,25,24,25,
26,27,26,27,26,27,26,27,26,27,26,27,26,27,26,27,26,27,26,27,26,27,26,27,26,27,26,27,26,27,26,27,26,27,26,27,26,27,26,27,26,27,26,27,26,27,26,27,
24,25,24,25,24,25,24,25,24,25,24,25,24,25,24,25,24,25,24,25,24,25,39,39,39,39,39,25,24,25,24,25,24,25,24,25,24,25,24,25,24,25,24,25,24,25,24,25,
26,27,26,27,26,27,26,27,26,27,26,27,26,27,26,27,26,27,26,27,26,27,26,74,71,75,26,27,26,27,26,34,34,34,34,34,34,34,34,27,26,27,26,27,26,27,26,27,
24,25,24,25,24,25,24,25,24,34,34,34,34,34,34,34,34,34,24,25,24,25,24,70,65,72,24,25,24,25,24,34,34,34,34,34,34,34,34,25,24,25,24,25,24,25,24,25,
26,27,26,27,26,27,26,27,26,34,34,34,34,34,34,34,34,34,26,27,74,71,71,66,65,67,71,71,71,75,26,34,34,34,34,34,34,34,34,27,26,27,26,27,26,27,26,27,
24,25,24,25,24,25,24,25,24,34,34,34,34,34,34,34,34,34,24,25,77,73,73,73,73,73,73,69,65,72,24,34,34,34,34,34,34,34,34,25,24,25,24,25,24,25,24,25,
26,27,26,27,26,27,26,27,26,34,34,34,34,34,34,34,34,34,26,27,26,27,26,27,26,27,26,77,69,72,26,27,26,27,26,27,26,27,26,27,26,27,26,27,26,27,26,27,
24,25,24,25,24,25,24,25,24,34,34,34,34,34,24,25,24,25,24,25,34,34,34,34,34,34,34,25,70,72,24,25,24,25,24,25,24,25,24,25,24,25,24,25,24,25,24,25,
26,27,26,27,26,27,26,27,26,34,34,34,34,34,26,27,26,27,26,27,34,34,34,34,34,34,34,27,70,72,26,34,34,34,34,34,34,34,34,27,26,27,26,27,26,27,26,27,
24,25,24,25,24,25,24,25,24,34,34,34,34,34,24,25,24,25,24,25,34,34,34,25,24,25,24,25,70,72,24,34,34,34,34,34,34,34,34,25,24,25,24,25,24,25,24,25,
26,27,26,27,26,27,26,27,26,34,34,34,34,34,26,27,26,27,26,27,34,34,34,27,74,71,71,71,66,72,26,27,26,27,26,34,34,34,34,27,26,27,26,27,26,27,26,27,
24,25,24,25,24,25,24,25,24,34,34,34,34,34,34,34,34,34,34,34,34,34,34,25,70,65,65,65,65,67,71,71,71,75,24,34,34,34,34,25,24,25,24,25,24,25,24,25,
26,27,26,27,26,27,26,27,26,34,34,34,34,34,34,34,26,27,26,27,34,34,34,27,77,73,73,73,73,69,65,65,68,76,26,34,34,34,34,27,26,27,26,27,26,27,26,27,
24,25,24,25,24,25,24,25,24,34,34,34,34,34,34,34,24,25,24,25,34,34,34,25,24,25,24,25,24,77,69,68,76,26,26,34,34,34,34,25,24,25,24,25,24,25,24,25,
26,27,26,27,26,27,26,27,26,27,26,27,26,27,26,27,26,27,26,27,34,34,34,34,34,34,34,34,34,27,70,72,26,34,34,34,34,34,34,27,26,27,26,27,26,27,26,27,
24,25,24,25,24,25,24,25,24,25,24,25,24,25,24,25,24,25,24,25,34,34,34,34,34,34,34,34,34,25,70,72,24,34,34,34,34,34,34,25,24,25,24,25,24,25,24,25,
26,27,26,27,26,27,26,27,26,27,26,27,26,27,26,27,26,27,26,27,26,27,26,27,26,27,26,27,26,27,70,72,26,27,26,27,26,27,26,27,26,27,26,27,26,27,26,27,
24,25,24,25,24,25,24,25,24,25,24,25,24,25,24,25,24,25,24,25,24,25,24,25,24,25,24,25,24,25,70,72,24,25,24,25,24,25,24,25,24,25,24,25,24,25,24,25,
26,27,26,27,26,27,26,27,26,27,26,27,26,27,26,27,26,27,26,27,26,27,26,27,26,27,26,27,26,27,70,72,26,27,26,27,26,27,26,27,26,27,26,27,26,27,26,27,
24,25,24,25,24,25,24,25,24,25,24,25,24,25,24,25,24,25,24,25,24,25,24,25,24,25,24,25,24,25,70,72,24,25,24,25,24,25,24,25,24,25,24,25,24,25,24,25,
26,27,26,27,26,27,26,27,26,27,26,27,26,27,26,27,26,27,26,27,26,27,26,27,26,27,26,27,26,27,70,72,26,27,26,27,26,27,26,27,26,27,26,27,26,27,26,27,
24,25,24,25,24,25,24,25,24,25,24,25,24,25,24,25,24,25,24,25,24,25,24,25,24,25,24,25,24,25,70,72,24,25,24,25,24,25,24,25,24,25,24,25,24,25,24,25,
26,27,26,27,26,27,26,27,26,27,26,27,26,27,26,27,26,27,26,27,26,27,26,27,26,27,26,27,26,34,77,76,34,27,26,27,26,27,26,27,26,27,26,27,26,27,26,27,
24,25,24,25,24,25,24,25,24,25,24,25,24,25,24,25,24,25,24,25,24,25,24,25,24,25,24,25,24,25,24,25,24,25,24,25,24,25,24,25,24,25,24,25,24,25,24,25,
26,27,26,27,26,27,26,27,26,27,26,27,26,27,26,27,26,27,26,27,26,27,26,27,26,27,26,27,26,27,26,27,26,27,26,27,26,27,26,27,26,27,26,27,26,27,26,27,
24,25,24,25,24,25,24,25,24,25,24,25,24,25,24,25,24,25,24,25,24,25,24,25,24,25,24,25,24,25,24,25,24,25,24,25,24,25,24,25,24,25,24,25,24,25,24,25,
26,27,26,27,26,27,26,27,26,27,26,27,26,27,26,27,26,27,26,27,26,27,26,27,26,27,26,27,26,27,26,27,26,27,26,27,26,27,26,27,26,27,26,27,26,27,26,27,
24,25,24,25,24,25,24,25,24,25,24,25,24,25,24,25,24,25,24,25,24,25,24,25,24,25,24,25,24,25,24,25,24,25,24,25,24,25,24,25,24,25,24,25,24,25,24,25
  </data>
 </layer>
 <layer id="2" name="middle" width="48" height="32">
  <data encoding="csv">
34,34,34,34,34,34,34,34,34,34,34,34,34,34,34,34,34,34,34,34,34,34,34,34,34,34,34,34,34,34,34,34,34,34,34,34,34,34,34,34,34,34,34,34,34,34,34,34,
34,34,34,34,34,34,34,34,34,34,34,34,34,34,34,34,34,34,34,34,34,34,34,34,34,34,34,34,34,34,34,34,34,34,34,34,34,34,34,34,34,34,34,34,34,34,34,34,
34,34,34,34,34,34,34,34,34,34,34,34,34,34,34,34,34,34,34,34,34,34,34,34,34,34,34,34,34,34,34,34,34,34,34,34,34,34,34,34,34,34,34,34,34,34,34,34,
34,34,34,34,34,34,34,34,34,34,34,34,34,34,34,34,34,34,34,34,34,34,34,34,34,34,34,34,34,34,34,34,34,34,34,34,34,34,34,34,34,34,34,34,34,34,34,34,
34,34,34,34,34,34,34,34,34,34,34,34,34,34,34,34,34,34,34,34,34,34,34,34,34,34,34,34,34,34,34,34,34,34,34,34,34,34,34,34,34,34,34,34,34,34,34,34,
34,34,34,34,34,34,34,43,39,39,39,39,39,39,39,39,39,39,39,39,39,39,39,39,39,39,39,39,39,39,39,39,39,39,39,39,39,39,39,39,44,34,34,34,34,34,34,34,
34,34,34,34,34,34,34,35,28,29,29,29,29,29,29,29,29,29,30,0,0,0,0,1,1,1,0,0,0,0,28,0,0,0,0,0,0,0,0,30,33,34,34,34,34,34,34,34,
34,34,34,34,34,34,43,40,33,52,53,53,53,53,53,53,54,0,35,49,50,41,42,0,0,0,41,42,49,50,33,0,52,53,53,53,53,54,0,35,33,34,34,34,34,34,34,34,
34,34,34,34,34,34,35,2,33,57,58,58,58,58,58,58,59,0,35,4,0,0,0,0,0,0,0,0,0,0,33,0,62,63,63,63,63,64,0,35,33,34,34,34,34,34,34,34,
34,34,34,34,34,34,35,45,33,57,58,58,55,63,63,63,64,0,35,45,0,0,0,0,0,0,0,0,0,0,33,0,0,0,0,0,0,0,0,35,38,44,34,34,34,34,34,34,
34,34,34,34,34,34,35,45,33,57,58,58,59,0,0,0,0,0,35,28,29,29,29,29,29,29,29,0,0,0,38,39,39,39,39,39,39,39,39,40,51,33,34,34,34,34,34,34,
34,34,34,34,34,34,35,2,33,57,58,58,59,0,43,19,20,39,40,33,52,53,53,53,53,53,54,35,0,0,28,29,29,29,29,29,29,29,29,30,51,33,34,34,34,34,34,34,
34,34,34,34,34,34,35,4,33,57,58,58,59,0,35,0,0,0,0,33,57,58,55,63,63,63,64,35,0,0,33,0,52,53,53,53,53,54,0,35,45,33,34,34,34,34,34,34,
34,34,34,34,34,34,35,45,33,57,58,58,59,0,35,0,0,0,0,33,57,58,59,43,39,19,20,40,0,0,33,0,62,63,63,63,56,59,0,35,45,33,34,34,34,34,34,34,
34,34,34,34,34,34,35,4,33,57,58,58,59,0,31,29,29,29,29,32,57,58,59,35,0,0,0,0,0,0,38,39,19,20,44,0,57,59,0,35,2,33,34,34,34,34,34,34,
34,34,34,34,34,34,35,45,33,57,58,58,60,53,54,0,0,0,0,0,57,58,59,35,0,0,0,0,0,0,0,0,0,0,33,0,57,59,0,35,45,33,34,34,34,34,34,34,
34,34,34,34,34,34,35,45,33,62,63,63,63,63,64,0,43,39,39,44,57,58,59,35,0,0,0,0,0,0,0,0,0,0,33,0,57,59,0,35,45,33,34,34,34,34,34,34,
34,34,34,34,34,34,35,45,33,0,0,0,0,0,0,0,35,0,0,33,57,58,59,31,29,29,29,29,29,0,0,0,0,29,32,0,57,59,0,35,45,33,34,34,34,34,34,34,
34,34,34,34,34,34,35,2,38,39,39,39,39,39,39,39,40,0,0,33,57,58,60,53,53,53,53,53,54,35,0,0,33,0,52,53,61,59,0,35,2,33,34,34,34,34,34,34,
34,34,34,34,34,34,35,45,0,0,0,0,0,0,0,0,3,0,0,33,62,63,63,63,63,63,63,63,64,35,0,0,33,0,62,63,63,64,0,35,3,33,34,34,34,34,34,34,
34,34,34,34,34,34,31,30,0,0,0,0,0,0,0,0,0,0,0,38,39,39,39,39,39,19,20,39,39,40,0,0,38,39,39,39,39,39,39,40,45,33,34,34,34,34,34,34,
34,34,34,34,34,34,34,35,0,0,0,0,0,0,0,0,0,0,45,0,0,0,0,0,0,0,0,28,29,30,0,0,28,29,30,0,0,0,0,0,51,33,34,34,34,34,34,34,
34,34,34,34,34,34,34,35,0,0,0,0,4,0,0,0,0,0,0,0,0,0,0,0,0,0,0,33,34,35,0,0,33,34,35,0,0,0,0,0,2,33,34,34,34,34,34,34,
34,34,34,34,34,34,34,31,30,2,45,45,2,45,45,4,45,45,45,45,2,28,29,29,29,29,29,32,34,35,0,0,33,34,34,29,29,29,29,29,29,32,34,34,34,34,34,34,
34,34,34,34,34,34,34,34,31,29,29,30,2,45,4,45,28,29,29,29,29,32,34,34,34,34,34,34,34,35,0,0,33,34,34,34,34,34,34,34,34,34,34,34,34,34,34,34,
34,34,34,34,34,34,34,34,34,34,34,31,29,29,29,29,32,34,34,34,34,34,34,34,34,34,34,34,34,35,0,0,33,34,34,34,34,34,34,34,34,34,34,34,34,34,34,34,
34,34,34,34,34,34,34,34,34,34,34,34,34,34,34,34,34,34,34,34,34,34,34,34,34,34,34,34,34,35,0,0,33,34,34,34,34,34,34,34,34,34,34,34,34,34,34,34,
34,34,34,34,34,34,34,34,34,34,34,34,34,34,34,34,34,34,34,34,34,34,34,34,34,34,34,34,34,34,34,34,34,34,34,34,34,34,34,34,34,34,34,34,34,34,34,34,
34,34,34,34,34,34,34,34,34,34,34,34,34,34,34,34,34,34,34,34,34,34,34,34,34,34,34,34,34,34,34,34,34,34,34,34,34,34,34,34,34,34,34,34,34,34,34,34,
34,34,34,34,34,34,34,34,34,34,34,34,34,34,34,34,34,34,34,34,34,34,34,34,34,34,34,34,34,34,34,34,34,34,34,34,34,34,34,34,34,34,34,34,34,34,34,34,
34,34,34,34,34,34,34,34,34,34,34,34,34,34,34,34,34,34,34,34,34,34,34,34,34,34,34,34,34,34,34,34,34,34,34,34,34,34,34,34,34,34,34,34,34,34,34,34,
34,34,34,34,34,34,34,34,34,34,34,34,34,34,34,34,34,34,34,34,34,34,34,34,34,34,34,34,34,34,34,34,34,34,34,34,34,34,34,34,34,34,34,34,34,34,34,34
  </data>
 </layer>
 <layer id="3" name="upper" width="48" height="32">
  <data encoding="csv">
0,0,0,0,0,0,0,0,0,0,0,0,0,0,0,0,0,0,0,0,0,0,0,78,78,78,0,0,0,0,0,0,0,0,0,0,0,0,0,0,0,0,0,0,0,0,0,0,
0,0,0,0,0,0,0,0,0,0,0,0,0,0,0,0,0,0,0,0,0,0,0,79,79,79,0,0,0,0,0,0,0,0,0,0,0,0,0,0,0,0,0,0,0,0,0,0,
0,0,0,0,0,0,0,0,0,0,0,0,0,0,0,0,0,0,0,0,0,0,0,78,78,78,0,0,0,0,0,0,0,0,0,0,0,0,0,0,0,0,0,0,0,0,0,0,
0,0,0,0,0,0,0,43,39,39,39,39,39,39,39,39,39,39,39,39,39,39,39,79,79,79,39,39,39,44,0,0,0,45,0,0,0,0,0,0,0,0,0,0,0,0,0,0,
0,0,0,0,0,0,43,40,0,0,0,0,0,0,0,0,0,0,0,0,0,0,0,78,78,78,0,0,0,38,39,39,39,39,39,39,39,39,39,39,39,44,45,0,0,0,0,0,
0,0,0,0,0,51,35,0,0,0,0,0,0,0,0,0,0,0,0,0,0,0,0,79,79,79,0,0,0,0,0,0,0,0,0,0,0,0,0,0,0,33,0,0,0,0,0,0,
0,0,0,0,0,43,40,0,0,0,0,0,0,0,0,0,0,0,0,0,0,0,0,80,80,80,0,0,0,0,0,0,0,0,0,0,0,0,0,0,0,38,44,0,0,0,0,0,
0,0,0,0,0,35,0,0,0,0,0,0,0,0,0,0,0,0,0,0,0,0,0,0,0,0,0,0,0,0,0,0,0,0,0,21,22,23,0,0,0,0,33,0,0,0,0,0,
0,0,0,0,0,35,0,0,0,0,0,0,0,0,0,0,0,0,0,0,0,0,0,0,0,0,0,0,0,0,0,0,0,10,11,12,0,0,0,0,0,46,33,0,0,0,0,0,
0,0,0,0,0,35,0,0,0,0,0,0,0,0,0,0,0,0,0,0,0,0,0,0,0,0,0,0,0,0,0,0,0,0,0,0,0,0,0,0,0,0,33,0,0,0,0,0,
0,0,0,0,0,35,0,0,0,0,0,0,0,0,0,0,0,0,0,0,0,0,0,0,0,0,0,30,0,0,0,0,0,0,0,0,0,0,0,0,0,0,33,0,0,0,0,0,
0,0,0,0,0,35,0,0,0,0,0,0,0,0,0,0,0,0,0,0,0,0,0,0,0,0,0,0,0,0,0,0,0,0,0,0,0,0,0,0,0,0,33,0,0,0,0,0,
0,0,0,0,0,35,0,0,0,0,0,0,0,0,0,0,10,11,12,0,0,0,0,0,0,0,0,0,0,0,0,0,0,0,0,0,0,0,0,0,0,0,33,0,0,0,0,0,
0,0,0,0,0,35,0,0,0,0,0,0,0,0,0,0,0,0,0,0,0,0,0,0,0,0,0,0,0,0,0,0,0,0,0,0,0,0,0,0,0,0,33,0,0,0,0,0,
0,0,0,0,0,35,0,0,0,0,0,0,0,0,0,0,0,0,0,0,0,0,0,0,0,0,0,0,0,0,0,0,0,0,0,0,0,0,0,0,0,0,33,0,0,0,0,0,
0,0,0,0,0,35,0,0,0,0,51,0,0,0,0,0,0,0,0,0,0,0,0,0,0,0,0,0,0,0,0,0,0,0,0,0,0,0,0,0,0,0,33,0,0,0,0,0,
0,0,0,0,0,35,0,0,0,0,51,45,0,0,0,0,0,0,0,0,0,0,0,0,0,0,0,0,0,0,0,0,0,0,0,0,0,0,0,0,0,0,33,0,0,0,0,0,
0,0,0,0,0,35,0,0,0,0,0,0,21,22,23,0,0,0,0,0,0,0,0,0,0,0,0,0,0,30,0,0,28,0,0,0,0,0,0,0,0,0,33,0,0,0,0,0,
0,0,0,0,0,35,0,0,0,0,0,0,0,0,0,0,0,0,0,0,0,0,0,0,0,0,0,0,0,0,0,0,0,0,0,0,0,0,0,0,0,0,33,0,0,0,0,0,
0,0,0,0,0,35,0,0,0,0,0,0,0,0,0,0,0,0,0,0,0,0,0,0,0,0,0,0,0,0,0,0,0,0,0,21,22,23,0,0,0,0,33,0,0,0,0,0,
0,0,0,0,0,35,0,0,0,0,0,0,0,0,0,0,0,0,0,0,0,0,0,0,0,0,0,0,0,0,0,0,0,0,0,0,0,0,0,0,0,0,33,0,0,0,0,0,
0,0,0,0,0,31,30,0,0,7,8,0,0,0,0,0,0,0,0,0,0,0,0,0,0,0,0,0,0,0,0,0,0,0,0,0,0,0,0,0,0,0,33,0,0,0,0,0,
0,0,0,0,0,0,35,0,0,0,0,0,0,0,0,0,0,0,0,0,0,0,0,0,0,0,0,0,0,0,0,0,0,0,0,0,0,0,7,8,0,0,33,0,0,0,0,0,
0,0,0,0,0,0,35,0,0,0,0,0,0,0,0,0,0,0,0,0,0,0,0,0,0,0,0,0,0,0,0,0,0,0,0,0,0,0,0,0,0,0,33,0,0,0,0,0,
0,0,0,0,0,0,35,45,0,0,0,0,0,0,0,0,0,0,0,0,0,0,28,29,29,29,29,30,0,0,0,0,0,0,0,0,0,28,29,29,29,29,32,0,0,0,0,0,
0,0,0,0,0,0,31,29,29,30,0,0,0,0,45,0,0,0,28,29,29,29,32,0,0,0,45,31,30,0,0,0,0,28,29,29,29,32,0,0,0,0,0,0,0,0,0,0,
0,0,0,0,0,0,46,0,0,31,29,29,29,29,29,29,29,29,32,0,0,0,0,0,0,51,0,0,31,29,29,29,29,32,0,0,0,0,0,46,0,0,0,0,0,0,0,0,
0,0,0,0,0,0,0,0,0,0,0,0,0,0,0,0,0,0,0,0,0,0,0,0,0,0,0,0,0,0,0,0,0,0,0,0,0,0,0,0,0,0,0,0,0,0,0,0,
0,0,0,0,0,0,0,0,0,0,0,0,0,0,0,0,0,0,0,0,0,0,0,0,0,0,0,0,0,0,0,0,0,0,0,0,0,0,0,0,0,0,0,0,0,0,0,0,
0,0,0,0,0,0,0,0,0,0,0,0,0,0,0,0,0,0,0,0,0,0,0,0,0,0,0,0,0,0,0,0,0,0,0,0,0,0,0,0,0,0,0,0,0,0,0,0,
0,0,0,0,0,0,0,0,0,0,0,0,0,0,0,0,0,0,0,0,0,0,0,0,0,0,0,0,0,0,0,0,0,0,0,0,0,0,0,0,0,0,0,0,0,0,0,0,
0,0,0,0,0,0,0,0,0,0,0,0,0,0,0,0,0,0,0,0,0,0,0,0,0,0,0,0,0,0,0,0,0,0,0,0,0,0,0,0,0,0,0,0,0,0,0,0
  </data>
 </layer>
 <objectgroup id="4" name="events"/>
 <group id="7" name="above">
 <layer id="5" name="middle_above+1" width="48" height="32">
  <data encoding="csv">
0,0,0,0,0,0,0,0,0,0,0,0,0,0,0,0,0,0,0,0,0,0,0,0,0,0,0,0,0,0,0,0,0,0,0,0,0,0,0,0,0,0,0,0,0,0,0,0,
0,0,0,0,0,0,0,0,0,0,0,0,0,0,0,0,0,0,0,0,0,0,0,0,0,0,0,0,0,0,0,0,0,0,0,0,0,0,0,0,0,0,0,0,0,0,0,0,
0,0,0,0,0,0,0,0,0,0,0,0,0,0,0,0,0,0,0,0,0,0,0,0,0,0,0,0,0,0,0,0,0,0,0,0,0,0,0,0,0,0,0,0,0,0,0,0,
0,0,0,0,0,0,0,0,0,0,0,0,0,0,0,0,0,0,0,0,0,0,0,0,0,0,0,0,0,0,0,0,0,0,0,0,0,0,0,0,0,0,0,0,0,0,0,0,
0,0,0,0,0,0,0,0,0,0,0,0,0,0,0,0,0,0,0,0,0,0,0,0,0,0,0,0,0,0,0,0,0,0,0,0,0,0,0,0,0,0,0,0,0,0,0,0,
0,0,0,0,0,0,0,0,0,0,0,0,0,0,0,0,0,0,0,0,0,0,0,0,0,0,0,0,0,0,0,0,0,0,0,13,14,15,0,0,0,0,0,0,0,0,0,0,
0,0,0,0,0,0,0,0,0,0,0,0,0,0,0,0,0,0,0,47,48,36,37,0,0,0,36,37,47,48,0,0,0,0,0,16,17,18,0,0,0,0,0,0,0,0,0,0,
0,0,0,0,0,0,0,0,0,0,0,0,0,0,0,0,0,0,0,0,0,0,0,0,0,0,0,0,0,0,0,0,0,0,9,0,0,0,0,0,0,0,0,0,0,0,0,0,
0,0,0,0,0,0,0,0,0,0,0,0,0,0,0,0,0,0,0,0,0,0,0,0,0,0,0,0,0,0,0,0,0,0,0,0,0,0,0,0,0,0,0,0,0,0,0,0,
0,0,0,0,0,0,0,0,0,0,0,0,0,0,0,0,0,0,0,0,0,0,0,0,0,0,0,0,0,0,0,0,0,0,0,0,0,0,0,0,0,0,0,0,0,0,0,0,
0,0,0,0,0,0,0,0,0,0,0,0,0,0,0,0,0,0,0,0,0,0,0,0,0,0,0,0,0,0,0,0,0,0,0,0,0,0,0,0,0,0,0,0,0,0,0,0,
0,0,0,0,0,0,0,0,0,0,0,0,0,0,0,0,0,9,0,0,0,0,0,0,0,0,0,0,0,0,0,0,0,0,0,0,0,0,0,0,0,0,0,0,0,0,0,0,
0,0,0,0,0,0,0,0,0,0,0,0,0,0,0,0,0,0,0,0,0,0,0,0,0,0,0,0,0,0,0,0,0,0,0,0,0,0,0,0,0,0,0,0,0,0,0,0,
0,0,0,0,0,0,0,0,0,0,0,0,0,0,0,0,0,0,0,0,0,0,0,0,0,0,0,0,0,0,0,0,0,0,0,0,0,0,0,0,0,0,0,0,0,0,0,0,
0,0,0,0,0,0,0,0,0,0,0,0,0,0,0,0,0,0,0,0,0,0,0,0,0,0,0,0,0,0,0,0,0,0,0,0,0,0,0,0,0,0,0,0,0,0,0,0,
0,0,0,0,0,0,0,0,0,0,0,0,13,14,15,0,0,0,0,0,0,0,0,0,0,0,0,0,0,0,0,0,0,0,0,0,0,0,0,0,0,0,0,0,0,0,0,0,
0,0,0,0,0,0,0,0,0,0,0,0,16,17,18,0,0,0,0,0,0,0,0,0,0,0,0,0,0,0,0,0,0,0,0,0,0,0,0,0,0,0,0,0,0,0,0,0,
0,0,0,0,0,0,0,0,0,0,0,0,0,0,0,0,0,0,0,0,0,0,0,0,0,0,0,0,0,0,0,0,0,0,0,13,14,15,0,0,0,0,0,0,0,0,0,0,
0,0,0,0,0,0,0,0,0,0,0,0,0,0,0,0,0,0,0,0,0,0,0,0,0,0,0,0,0,0,0,0,0,0,0,16,17,18,0,0,0,0,0,0,0,0,0,0,
0,0,0,0,0,0,0,0,0,0,0,0,0,0,0,0,0,0,0,0,0,0,0,0,0,0,0,0,0,0,0,0,0,0,0,0,0,0,0,0,0,0,0,0,0,0,0,0,
0,0,0,0,0,0,0,0,0,5,6,0,0,0,0,0,0,0,0,0,0,0,0,0,0,0,0,0,0,0,0,0,0,0,0,0,0,0,0,0,0,0,0,0,0,0,0,0,
0,0,0,0,0,0,0,0,0,0,0,0,0,0,0,0,0,0,0,0,0,0,0,0,0,0,0,0,0,0,0,0,0,0,0,0,0,0,5,6,0,0,0,0,0,0,0,0,
0,0,0,0,0,0,0,0,0,0,0,0,0,0,0,0,0,0,0,0,0,0,0,0,0,0,0,0,0,0,0,0,0,0,0,0,0,0,0,0,0,0,0,0,0,0,0,0,
0,0,0,0,0,0,0,0,0,0,0,0,0,0,0,0,0,0,0,0,0,0,0,0,0,0,0,0,0,0,0,0,0,0,0,0,0,0,0,0,0,0,0,0,0,0,0,0,
0,0,0,0,0,0,0,0,0,0,0,0,0,0,0,0,0,0,0,0,0,0,0,0,0,0,0,0,0,0,0,0,0,0,0,0,0,0,0,0,0,0,0,0,0,0,0,0,
0,0,0,0,0,0,0,0,0,0,0,0,0,0,0,0,0,0,0,0,0,0,0,0,0,0,0,0,0,0,0,0,0,0,0,0,0,0,0,0,0,0,0,0,0,0,0,0,
0,0,0,0,0,0,0,0,0,0,0,0,0,0,0,0,0,0,0,0,0,0,0,0,0,0,0,0,0,0,0,0,0,0,0,0,0,0,0,0,0,0,0,0,0,0,0,0,
0,0,0,0,0,0,0,0,0,0,0,0,0,0,0,0,0,0,0,0,0,0,0,0,0,0,0,0,0,0,0,0,0,0,0,0,0,0,0,0,0,0,0,0,0,0,0,0,
0,0,0,0,0,0,0,0,0,0,0,0,0,0,0,0,0,0,0,0,0,0,0,0,0,0,0,0,0,0,0,0,0,0,0,0,0,0,0,0,0,0,0,0,0,0,0,0,
0,0,0,0,0,0,0,0,0,0,0,0,0,0,0,0,0,0,0,0,0,0,0,0,0,0,0,0,0,0,0,0,0,0,0,0,0,0,0,0,0,0,0,0,0,0,0,0,
0,0,0,0,0,0,0,0,0,0,0,0,0,0,0,0,0,0,0,0,0,0,0,0,0,0,0,0,0,0,0,0,0,0,0,0,0,0,0,0,0,0,0,0,0,0,0,0,
0,0,0,0,0,0,0,0,0,0,0,0,0,0,0,0,0,0,0,0,0,0,0,0,0,0,0,0,0,0,0,0,0,0,0,0,0,0,0,0,0,0,0,0,0,0,0,0
 </data>
 </layer>
 </group>
</map>
