<?xml version="1.0" encoding="UTF-8"?>
<map version="1.10" tiledversion="1.10.2" orientation="orthogonal" renderorder="right-down" compressionlevel="0" width="54" height="40" tilewidth="32" tileheight="32" infinite="0" nextlayerid="4" nextobjectid="1">
 <tileset firstgid="1" source="whiteport-town.tsx"/>
 <layer id="1" name="lower" width="54" height="40">
  <data encoding="csv">
3,2,3,2,3,2,3,2,3,2,3,2,3,2,3,2,3,2,3,2,3,2,139,135,135,135,135,141,3,2,3,5,7,15,15,19,150,81,81,81,81,81,81,81,81,81,81,81,81,81,81,81,81,81,
2,3,2,3,2,3,2,3,2,3,2,3,2,3,2,3,2,3,2,3,2,3,139,135,135,135,137,145,2,3,3,8,15,15,15,19,150,81,81,81,81,81,81,81,81,81,81,81,81,81,81,81,81,81,
3,3,3,3,3,3,3,3,3,3,3,3,3,3,3,3,3,3,3,3,3,3,146,138,135,135,141,3,3,5,6,7,15,15,15,19,150,81,81,81,81,81,81,81,81,81,81,81,81,81,81,81,81,81,
3,3,3,3,3,3,3,3,3,3,3,3,3,3,3,3,3,3,3,3,3,3,2,139,137,142,145,2,2,8,15,15,15,19,19,19,150,81,81,81,81,81,81,81,81,81,81,81,81,81,81,81,81,81,
3,3,3,3,3,3,3,3,3,3,3,3,3,3,3,3,3,3,3,3,3,3,3,139,141,3,2,2,5,7,15,15,15,19,153,99,147,81,81,81,81,81,81,81,81,81,81,81,81,81,81,81,81,81,
3,3,3,3,3,3,3,3,3,3,3,3,3,3,3,3,3,3,3,3,3,2,2,146,145,2,3,5,7,15,15,19,19,19,150,81,81,81,81,81,81,81,81,81,81,81,81,81,81,81,81,81,81,81,
6,6,6,6,6,6,6,6,6,6,6,6,6,6,6,6,6,6,6,6,6,6,6,6,6,6,6,7,15,15,15,19,153,99,147,81,81,81,81,81,81,81,81,81,81,81,81,81,81,81,81,81,81,81,
2,2,3,3,3,3,15,15,15,15,15,15,15,15,15,15,15,15,15,15,15,15,15,15,15,15,15,15,15,15,15,19,150,81,81,81,81,81,81,81,81,81,81,81,81,81,81,81,81,81,81,81,81,81,
2,2,3,3,3,3,3,3,3,3,3,3,3,3,3,3,3,3,3,3,3,3,3,3,3,3,19,19,19,19,19,153,147,81,81,81,81,81,81,81,81,81,81,81,81,81,81,81,81,81,81,81,81,81,
2,2,3,3,3,3,3,3,3,3,3,3,3,3,2,3,3,3,3,3,3,2,3,143,144,8,153,99,99,99,99,147,81,81,81,81,81,81,81,81,81,81,81,81,81,81,81,81,81,81,81,81,81,81,
2,2,3,3,3,3,3,3,3,3,3,3,2,2,3,3,3,3,3,3,3,3,2,139,141,8,155,149,81,81,81,81,81,81,81,81,81,81,81,81,81,81,81,81,81,81,81,81,81,81,81,81,81,81,
2,2,3,3,3,3,3,3,3,3,3,3,3,3,2,3,3,3,3,3,3,2,3,139,141,8,19,155,149,81,81,81,81,100,152,149,81,81,81,81,81,81,81,81,81,81,81,81,81,81,81,81,81,81,
2,2,3,3,3,3,3,3,3,3,3,3,3,2,3,3,3,3,3,3,3,3,3,139,141,12,10,19,150,81,81,81,81,151,19,155,149,81,81,81,81,81,81,81,81,81,81,81,81,81,81,81,81,81,
2,2,3,3,3,3,3,3,3,3,3,3,2,3,143,140,140,140,140,140,140,140,140,136,141,5,7,19,150,81,81,81,81,151,19,19,150,81,81,81,81,81,81,81,81,81,81,81,81,81,81,81,81,81,
2,2,3,3,3,3,3,3,3,3,3,3,3,143,136,137,142,142,142,142,142,142,142,142,145,8,19,153,147,81,81,81,81,148,154,19,150,81,81,81,81,81,81,81,81,81,81,81,81,81,81,81,81,81,
2,2,3,2,3,3,3,2,3,3,3,3,143,136,135,141,3,2,2,5,6,6,6,6,6,7,19,150,81,81,81,81,81,81,148,99,147,81,81,81,81,81,81,81,81,81,81,81,81,81,81,81,81,81,
3,2,3,3,2,2,3,3,3,3,3,3,139,135,137,145,5,6,6,7,19,19,19,19,19,19,153,147,81,81,81,100,152,152,152,152,152,152,152,152,149,81,81,81,81,81,81,81,81,81,81,81,81,81,
140,140,140,140,140,140,140,140,140,140,140,140,136,137,145,5,7,19,19,19,153,99,99,99,99,99,147,81,81,81,81,151,11,13,13,13,13,13,13,10,150,81,81,81,81,81,81,81,81,81,81,81,81,81,
135,135,135,135,135,135,135,135,135,135,137,142,142,145,5,7,19,153,99,99,147,81,81,81,81,81,81,81,81,81,81,151,9,3,3,3,3,3,3,8,150,81,81,81,81,81,81,81,81,81,81,81,81,81,
135,135,135,137,142,142,142,142,142,142,145,5,6,6,7,19,19,150,81,81,81,81,81,81,81,81,81,81,81,81,81,151,9,3,3,3,3,3,3,8,155,152,149,81,81,81,81,81,81,81,81,81,81,81,
142,142,142,145,3,2,3,2,3,3,3,8,19,19,19,153,99,147,81,81,81,81,81,81,81,81,81,81,81,81,81,151,9,3,3,3,3,3,3,3,13,10,150,81,81,81,81,81,81,81,81,81,81,81,
2,3,3,3,3,3,3,3,3,3,3,8,19,153,99,147,81,81,81,81,81,81,81,81,81,81,81,81,81,81,81,151,9,3,3,3,3,3,3,3,3,8,150,81,81,81,81,81,81,81,81,81,81,81,
3,2,3,3,3,3,3,3,3,3,3,8,153,147,81,81,81,81,81,81,81,81,81,81,81,100,152,152,152,152,152,101,9,3,3,3,3,3,3,3,3,8,150,81,81,81,81,81,81,81,81,81,81,81,
3,3,3,3,3,3,3,3,3,3,3,8,150,81,81,81,81,81,81,81,81,81,152,152,152,101,11,13,13,13,13,13,14,3,3,3,3,3,3,3,3,8,155,152,149,81,81,81,81,81,81,81,81,81,
3,3,3,3,3,3,3,3,3,3,3,8,150,81,81,81,81,81,81,100,152,101,13,13,13,13,14,3,3,3,3,3,3,3,3,3,3,3,3,3,3,3,13,10,150,81,81,81,81,81,81,81,81,81,
3,3,3,3,3,3,3,3,3,3,3,8,150,81,81,81,81,100,152,101,11,13,2,3,3,3,3,143,140,144,3,3,3,3,3,3,3,3,3,3,3,3,3,8,155,152,149,81,81,81,81,81,81,81,
3,3,3,3,3,3,3,3,3,3,3,8,155,149,81,81,81,151,11,13,14,3,143,140,140,140,140,136,137,145,3,3,3,3,3,3,3,3,3,3,3,3,3,3,13,10,150,81,81,81,81,81,81,81,
3,3,3,3,3,3,3,3,3,3,3,12,10,155,152,152,152,101,9,3,3,3,139,135,135,135,135,135,141,3,3,3,3,3,3,3,3,3,3,3,3,3,3,3,3,8,150,81,81,81,81,81,81,81,
3,3,3,3,3,3,3,3,3,3,3,3,12,13,13,13,13,13,14,143,140,140,136,137,142,142,142,142,145,2,3,3,3,3,3,3,3,3,3,3,3,3,3,3,3,8,150,81,81,81,81,81,81,81,
3,3,3,3,3,3,3,3,3,3,3,3,3,3,2,2,3,2,2,146,142,142,142,145,3,2,2,3,3,3,3,3,3,3,3,3,3,3,3,3,3,3,3,3,3,8,150,81,81,81,81,81,81,81,
3,3,3,3,3,3,3,3,3,3,3,3,3,3,3,3,3,3,3,3,3,3,3,3,3,3,3,3,3,3,3,3,3,3,3,3,3,3,3,3,3,3,3,3,3,8,150,81,81,81,81,81,81,81,
3,3,3,3,3,3,3,3,3,3,3,3,3,3,3,3,3,3,3,3,3,3,3,3,3,3,3,3,3,3,3,3,3,3,3,3,3,3,3,3,3,3,3,3,3,8,150,81,81,81,81,81,81,81,
3,3,3,3,3,3,3,3,3,3,3,3,3,3,3,3,3,3,3,3,3,3,3,3,3,3,3,3,3,3,3,3,3,3,3,3,3,3,3,3,3,3,3,3,3,8,150,81,81,81,81,81,81,81,
3,3,3,3,3,3,3,3,3,3,3,3,3,3,3,3,3,3,3,3,3,3,3,3,3,3,3,3,3,3,3,3,3,3,3,3,3,3,3,3,3,3,3,3,3,8,150,81,81,81,81,81,81,81,
3,3,3,3,3,3,3,3,3,3,3,3,3,3,3,3,3,3,3,3,3,3,3,3,3,3,3,3,3,3,3,3,3,3,3,3,3,3,3,3,3,3,3,3,3,8,150,81,81,81,81,81,81,81,
3,3,3,3,3,3,3,3,3,3,3,3,3,3,3,3,3,3,3,3,3,3,3,3,3,3,3,3,3,3,3,3,3,3,3,3,3,3,3,3,3,3,3,3,3,8,150,81,81,81,81,81,81,81,
3,3,3,3,3,3,3,3,3,3,3,3,3,3,3,3,3,3,3,3,3,3,3,3,3,3,3,3,3,3,3,3,3,3,3,3,3,3,3,3,3,3,3,3,3,8,150,81,81,81,81,81,81,81,
3,3,3,3,3,3,3,3,3,3,3,3,3,3,3,3,3,3,3,3,3,3,3,3,3,3,3,3,3,3,3,3,3,3,3,3,3,3,3,3,3,3,3,3,3,8,150,81,81,81,81,81,81,81,
3,3,3,3,3,3,3,3,3,3,3,3,3,3,3,3,3,3,3,3,3,3,3,3,3,3,3,3,3,3,3,3,3,3,3,3,3,3,3,3,3,3,3,3,3,8,150,81,81,81,81,81,81,81,
3,3,3,3,3,3,3,3,3,3,3,3,3,3,3,3,3,3,3,3,3,3,3,3,3,3,3,3,3,3,3,3,3,3,3,3,3,3,3,3,3,3,3,3,3,8,150,81,81,81,81,81,81,81
  </data>
 </layer>
 <layer id="2" name="middle" width="54" height="40">
  <data encoding="csv">
23,24,23,24,23,24,23,24,23,24,23,24,23,24,23,24,23,24,23,24,23,25,0,0,0,0,0,0,37,38,37,38,0,0,16,16,0,0,0,0,0,0,0,0,0,0,0,0,0,0,0,0,0,0,
20,21,20,21,20,21,20,21,20,21,20,21,20,21,20,21,20,21,20,21,20,22,0,0,0,0,0,0,0,0,0,0,0,0,16,16,0,0,0,0,0,0,0,0,0,0,0,0,0,0,0,0,0,0,
23,24,23,24,23,24,23,24,23,24,23,24,23,24,23,24,23,24,23,24,23,25,0,0,0,0,0,0,0,0,0,0,4,17,18,16,0,0,0,0,0,0,0,0,0,0,0,0,0,0,0,0,0,0,
20,21,20,21,20,21,20,21,20,21,20,21,20,21,20,21,20,21,20,21,20,22,0,0,0,0,0,0,0,0,0,0,16,4,17,18,0,0,0,0,0,0,0,0,0,0,0,0,0,0,0,0,0,0,
23,24,23,24,23,24,23,24,23,24,23,24,23,24,23,24,23,24,23,24,23,25,124,125,127,133,0,0,0,0,4,17,18,16,0,0,0,0,0,0,0,0,0,0,0,0,0,0,0,0,0,0,0,0,
31,30,31,30,31,30,31,30,31,30,31,30,31,30,31,30,31,30,31,30,31,32,128,129,131,121,0,0,0,0,16,4,17,18,45,46,0,0,0,0,0,0,0,0,0,0,0,0,0,0,0,0,0,0,
37,38,37,38,37,38,37,38,37,38,37,38,37,38,37,38,37,38,37,38,37,38,134,0,0,123,0,0,0,4,18,16,0,0,47,48,0,0,0,0,0,0,0,0,0,0,0,0,0,0,0,0,0,0,
17,17,17,17,17,17,17,17,17,17,17,17,17,17,17,17,17,17,17,17,17,17,17,41,42,17,17,17,17,18,4,18,0,0,0,49,50,0,0,0,0,0,0,0,0,0,0,0,0,0,0,0,0,0,
17,17,17,17,17,17,17,17,17,17,17,17,17,17,17,17,17,17,17,17,17,17,17,41,42,17,17,17,17,17,18,0,0,0,0,51,52,0,0,0,0,0,0,0,0,0,0,0,0,0,0,0,0,0,
20,21,20,21,20,21,20,21,20,21,20,22,54,55,55,53,0,0,0,0,0,0,1,0,0,0,0,0,0,0,0,0,0,0,45,46,0,0,0,0,0,0,0,0,0,0,0,0,0,0,0,0,0,0,
23,24,23,24,23,24,23,24,23,24,23,25,53,55,54,56,0,0,0,0,0,77,0,0,0,0,0,0,0,0,0,0,0,0,47,48,0,0,0,0,0,0,0,0,0,0,0,0,0,0,0,0,0,0,
20,21,20,21,20,21,20,21,31,30,31,32,56,54,54,55,0,0,0,0,0,77,0,0,0,0,0,0,0,0,0,0,0,0,0,0,49,50,0,0,0,0,0,0,0,0,0,0,0,0,0,0,0,0,
23,24,23,24,23,24,23,25,37,38,37,38,79,0,0,0,78,79,79,79,79,80,125,126,127,133,0,0,0,0,0,0,0,0,0,0,51,52,0,0,0,0,0,0,0,0,0,0,0,0,0,0,0,0,
20,21,31,30,31,30,31,32,0,0,0,0,53,0,0,0,0,0,0,0,0,128,129,130,131,121,0,0,0,0,0,0,0,0,0,0,0,0,49,50,0,0,0,0,0,0,0,0,0,0,0,0,0,0,
23,24,37,38,37,38,37,38,0,0,0,0,56,0,0,0,0,0,0,0,0,132,0,0,0,122,0,0,0,0,0,0,0,0,0,0,0,0,51,52,0,0,0,0,0,0,0,0,0,0,0,0,0,0,
31,32,0,0,0,0,0,0,0,0,0,0,77,0,0,0,0,0,0,0,0,134,0,0,0,123,0,0,0,0,0,0,28,29,28,29,45,46,28,29,0,0,0,0,0,0,0,0,0,0,0,0,0,0,
37,38,0,0,0,0,0,0,78,79,79,79,80,0,0,0,0,0,0,0,0,57,58,59,60,61,0,0,0,0,0,0,35,36,35,36,47,48,35,36,0,0,0,0,0,0,0,0,0,0,0,0,0,0,
0,0,0,0,0,0,0,0,0,0,0,0,0,0,0,0,0,0,0,0,0,62,63,64,65,66,0,0,0,0,0,0,20,21,20,21,20,21,20,22,0,0,0,0,0,0,0,0,0,0,0,0,0,0,
0,0,0,0,0,0,0,0,0,0,0,0,0,0,0,0,0,0,0,0,0,62,63,64,65,66,0,0,0,0,0,0,23,24,23,24,23,24,23,25,0,0,0,0,0,0,0,0,0,0,0,0,0,0,
28,29,28,29,28,29,28,29,28,29,28,29,0,0,0,0,0,0,0,0,0,67,68,69,70,71,0,0,0,0,0,0,20,21,20,21,20,21,20,22,28,29,0,0,0,0,0,0,0,0,0,0,0,0,
35,36,35,36,35,36,35,36,35,36,35,36,0,0,0,0,0,0,0,0,0,62,63,64,65,66,0,0,82,83,0,0,23,24,23,24,23,24,23,24,35,36,0,0,0,0,0,0,0,0,0,0,0,0,
20,21,20,21,20,21,20,21,20,21,20,22,0,0,0,0,0,0,0,0,0,67,68,69,70,71,84,85,86,87,28,29,20,21,20,21,20,21,20,21,20,22,0,0,0,0,0,0,0,0,0,0,0,0,
23,24,23,24,23,24,23,24,23,24,23,25,0,0,0,0,0,0,0,0,0,62,63,64,65,66,88,89,90,91,35,36,23,24,23,24,23,24,23,24,23,25,0,0,0,0,0,0,0,0,0,0,0,0,
20,21,20,21,20,21,20,21,20,21,20,22,0,0,0,0,0,0,0,0,0,67,68,69,70,71,92,93,94,95,20,21,20,21,20,21,20,21,20,21,20,22,28,29,0,0,0,0,0,0,0,0,0,0,
23,24,23,24,23,24,23,24,23,24,23,25,0,0,0,0,0,0,0,0,0,72,73,74,75,76,96,0,97,98,23,24,23,24,23,24,23,24,23,24,23,24,35,36,0,0,0,0,0,0,0,0,0,0,
20,21,20,21,20,21,20,21,20,21,20,22,0,0,0,0,0,0,0,0,0,72,0,0,0,0,78,79,79,79,20,21,20,21,20,21,20,21,20,21,20,21,20,22,28,29,0,0,0,0,0,0,0,0,
23,24,23,24,23,24,23,24,23,24,23,25,0,0,0,0,0,0,0,0,0,0,77,0,0,0,0,0,0,0,23,24,23,24,23,24,23,24,23,24,23,24,23,24,35,36,0,0,0,0,0,0,0,0,
20,21,20,21,20,21,20,21,20,21,20,22,28,29,0,0,0,0,0,0,0,0,77,0,0,0,0,0,0,0,20,21,20,21,20,21,20,21,20,21,20,21,20,21,20,22,0,0,0,0,0,0,0,0,
23,24,23,24,23,24,23,24,23,24,23,24,35,36,0,53,53,0,78,79,79,79,80,0,0,0,0,0,0,0,23,24,23,24,23,24,23,24,23,24,23,24,23,24,23,25,0,0,0,0,0,0,0,0,
20,21,20,21,20,21,20,21,20,21,20,21,20,22,28,56,56,29,28,29,28,29,28,29,28,29,28,29,28,29,20,21,20,21,20,21,20,21,20,21,20,21,20,21,20,22,0,0,0,0,0,0,0,0,
23,24,23,24,23,24,23,24,23,24,23,24,23,24,35,79,79,36,35,36,35,36,35,36,35,36,35,36,35,36,23,24,23,24,23,24,23,24,23,24,23,24,23,24,23,25,0,0,0,0,0,0,0,0,
20,21,20,21,20,21,20,21,20,21,20,21,20,21,20,21,20,21,20,21,20,21,20,21,20,21,20,21,20,21,20,21,20,21,20,21,20,21,20,21,20,21,20,21,20,22,0,0,0,0,0,0,0,0,
23,24,23,24,23,24,23,24,23,24,23,24,23,24,23,24,23,24,23,24,23,24,23,24,23,24,23,24,23,24,23,24,23,24,23,24,23,24,23,24,23,24,23,24,23,25,0,0,0,0,0,0,0,0,
20,21,20,21,20,21,20,21,20,21,20,21,20,21,20,21,20,21,20,21,20,21,20,21,20,21,20,21,20,21,20,21,20,21,20,21,20,21,20,21,20,21,20,21,20,22,0,0,0,0,0,0,0,0,
23,24,23,24,23,24,23,24,23,24,23,24,23,24,23,24,23,24,23,24,23,24,23,24,23,24,23,24,23,24,23,24,23,24,23,24,23,24,23,24,23,24,23,24,23,25,0,0,0,0,0,0,0,0,
20,21,20,21,20,21,20,21,20,21,20,21,20,21,20,21,20,21,20,21,20,21,20,21,20,21,20,21,20,21,20,21,20,21,20,21,20,21,20,21,20,21,20,21,20,22,0,0,0,0,0,0,0,0,
23,24,23,24,23,24,23,24,23,24,23,24,23,24,23,24,23,24,23,24,23,24,23,24,23,24,23,24,23,24,23,24,23,24,23,24,23,24,23,24,23,24,23,24,23,25,0,0,0,0,0,0,0,0,
20,21,20,21,20,21,20,21,20,21,20,21,20,21,20,21,20,21,20,21,20,21,20,21,20,21,20,21,20,21,20,21,20,21,20,21,20,21,20,21,20,21,20,21,20,22,0,0,0,0,0,0,0,0,
23,24,23,24,23,24,23,24,23,24,23,24,23,24,23,24,23,24,23,24,23,24,23,24,23,24,23,24,23,24,23,24,23,24,23,24,23,24,23,24,23,24,23,24,23,25,0,0,0,0,0,0,0,0,
20,21,20,21,20,21,20,21,20,21,20,21,20,21,20,21,20,21,20,21,20,21,20,21,20,21,20,21,20,21,20,21,20,21,20,21,20,21,20,21,20,21,20,21,20,22,0,0,0,0,0,0,0,0
  </data>
 </layer>
 <layer id="3" name="upper" width="54" height="40">
  <data encoding="csv">
0,0,0,0,0,0,0,0,0,0,0,0,0,0,26,0,0,0,0,0,0,0,26,0,0,0,0,0,0,0,0,0,0,44,0,0,0,0,0,0,0,0,0,0,0,0,0,0,0,0,0,0,0,0,
0,0,0,0,0,0,0,0,0,0,0,0,0,0,33,0,0,0,0,0,0,0,33,0,0,0,0,0,0,0,0,0,43,0,0,0,0,0,0,0,0,0,0,0,0,0,0,0,0,0,0,0,0,0,
0,0,0,0,0,0,0,0,0,0,0,0,0,0,0,0,0,0,0,0,0,0,26,0,0,0,0,0,0,0,0,0,0,0,0,0,0,0,0,0,0,0,0,0,0,0,0,0,0,0,0,0,0,0,
0,0,0,0,0,0,0,0,0,0,0,0,0,0,0,0,0,0,0,0,0,0,33,0,0,0,0,0,0,0,0,0,0,0,0,0,0,0,0,0,0,0,0,0,0,0,0,0,0,0,0,0,0,0,
0,0,0,0,0,0,0,0,0,0,0,0,0,0,0,0,0,0,0,0,0,0,26,0,0,0,0,0,0,0,0,0,0,0,0,0,0,0,0,0,0,0,0,0,0,0,0,0,0,0,0,0,0,0,
0,0,0,0,0,0,0,0,0,0,0,0,0,0,0,0,0,0,0,0,0,0,33,0,0,0,0,0,0,0,0,0,0,0,0,0,0,0,0,0,0,0,0,0,0,0,0,0,0,0,0,0,0,0,
0,0,0,0,0,0,0,0,0,0,0,0,0,0,0,0,0,0,0,0,0,0,0,0,0,0,0,0,0,0,0,0,0,0,0,0,0,0,0,0,0,0,0,0,0,0,0,0,0,0,0,0,0,0,
28,29,28,29,28,29,28,29,28,29,28,29,0,0,0,0,0,0,0,0,0,0,40,0,0,39,0,0,0,0,0,0,0,0,0,0,0,0,0,0,0,0,0,0,0,0,0,0,0,0,0,0,0,0,
35,36,35,36,35,36,35,36,35,36,35,36,26,0,0,0,102,103,104,105,106,0,40,0,0,39,0,0,0,0,0,0,0,0,0,0,0,0,0,0,0,0,0,0,0,0,0,0,0,0,0,0,0,0,
0,0,0,0,0,0,0,0,0,0,0,0,33,0,0,0,107,108,109,110,111,0,0,0,0,0,0,0,0,0,0,0,0,0,0,0,0,0,0,0,0,0,0,0,0,0,0,0,0,0,0,0,0,0,
0,0,0,0,0,0,0,0,0,0,0,0,26,0,0,0,112,113,114,115,116,0,0,0,0,0,0,0,0,0,0,0,0,0,0,0,0,0,0,0,0,0,0,0,0,0,0,0,0,0,0,0,0,0,
0,0,0,0,0,0,0,0,0,0,82,83,33,0,0,0,117,118,0,119,120,0,0,0,0,0,0,0,0,0,0,0,0,0,0,0,0,0,0,0,0,0,0,0,0,0,0,0,0,0,0,0,0,0,
0,0,0,0,0,0,0,0,84,85,86,87,0,0,0,0,0,0,0,0,0,124,0,0,0,0,0,0,0,0,0,0,0,0,0,0,0,0,0,0,0,0,0,0,0,0,0,0,0,0,0,0,0,0,
0,0,0,0,0,0,0,0,88,89,90,91,0,0,0,0,0,0,0,0,0,0,0,0,0,0,0,0,0,0,0,0,0,0,0,0,0,0,0,0,0,0,0,0,0,0,0,0,0,0,0,0,0,0,
0,0,26,0,0,0,0,0,92,93,94,95,0,0,0,0,0,0,0,0,0,0,0,0,0,0,0,0,0,0,0,0,0,0,0,0,0,0,0,0,0,0,0,0,0,0,0,0,0,0,0,0,0,0,
0,0,33,0,0,0,0,0,96,0,97,98,0,0,0,0,0,0,0,0,0,0,0,0,0,0,0,0,0,0,0,0,0,0,0,0,28,29,0,0,0,0,0,0,0,0,0,0,0,0,0,0,0,0,
0,0,0,0,0,0,0,0,0,0,0,0,0,0,0,0,0,0,0,0,0,0,0,0,0,0,0,0,0,0,0,27,0,0,0,0,35,36,0,0,26,0,0,0,0,0,0,0,0,0,0,0,0,0,
0,0,0,0,0,0,0,0,0,0,0,0,0,0,0,0,0,0,0,0,0,0,0,0,0,0,0,0,0,0,0,34,0,0,0,0,0,0,0,0,33,0,0,0,0,0,0,0,0,0,0,0,0,0,
0,0,0,0,0,0,0,0,0,0,0,0,0,0,0,0,0,0,0,0,0,0,0,0,0,0,0,0,0,0,0,27,0,0,0,0,0,0,0,0,26,0,0,0,0,0,0,0,0,0,0,0,0,0,
0,0,0,0,0,0,0,0,0,0,0,0,0,0,0,0,0,0,0,0,0,0,0,0,0,0,0,0,0,0,0,34,0,0,0,0,0,0,0,0,33,0,0,0,0,0,0,0,0,0,0,0,0,0,
0,0,0,0,0,0,0,0,0,0,0,0,26,0,0,0,0,0,0,0,0,0,0,0,0,0,0,0,0,0,0,27,0,0,0,0,0,0,0,0,0,0,26,0,0,0,0,0,0,0,0,0,0,0,
0,0,0,0,0,0,0,0,0,0,0,0,33,0,0,0,0,0,0,0,0,0,0,0,0,0,0,0,0,0,0,34,0,0,0,0,0,0,0,0,0,0,33,0,0,0,0,0,0,0,0,0,0,0,
0,0,0,0,0,0,0,0,0,0,0,0,26,0,0,0,0,0,0,0,0,0,0,0,0,0,0,0,0,27,0,0,0,0,0,0,0,0,0,0,0,0,26,0,0,0,0,0,0,0,0,0,0,0,
0,0,0,0,0,0,0,0,0,0,0,0,33,0,0,0,0,0,0,0,82,83,0,0,0,0,0,0,0,34,0,0,0,0,0,0,0,0,0,0,0,0,33,0,0,0,0,0,0,0,0,0,0,0,
0,0,0,0,0,0,0,0,0,0,0,0,26,0,0,0,0,0,84,85,86,87,0,0,0,0,0,0,0,27,0,0,0,0,0,0,0,0,0,0,0,0,0,0,26,0,0,0,0,0,0,0,0,0,
0,0,0,0,0,0,0,0,0,0,0,0,33,0,0,0,0,0,88,89,90,91,0,0,0,0,0,0,0,34,0,0,0,0,0,0,0,0,0,0,0,0,0,0,33,0,0,0,0,0,0,0,0,0,
0,0,0,0,0,0,0,0,0,0,0,0,26,0,0,0,0,0,92,93,94,95,0,0,0,0,0,0,0,27,0,0,0,0,0,0,0,0,0,0,0,0,0,0,0,0,26,0,0,0,0,0,0,0,
0,0,0,0,0,0,0,0,0,0,0,0,33,0,0,0,0,0,96,0,97,98,0,0,0,0,0,0,0,34,0,0,0,0,0,0,0,0,0,0,0,0,0,0,0,0,33,0,0,0,0,0,0,0,
0,0,0,0,0,0,0,0,0,0,0,0,0,0,26,0,0,0,0,0,0,0,0,0,0,0,0,0,0,27,0,0,0,0,0,0,0,0,0,0,0,0,0,0,0,0,26,0,0,0,0,0,0,0,
0,0,0,0,0,0,0,0,0,0,0,0,0,0,33,29,28,29,0,0,0,0,0,0,0,0,0,0,0,34,0,0,0,0,0,0,0,0,0,0,0,0,0,0,0,0,33,0,0,0,0,0,0,0,
0,0,0,0,0,0,0,0,0,0,0,0,0,0,0,36,35,0,0,0,0,0,0,0,0,0,0,0,0,0,0,0,0,0,0,0,0,0,0,0,0,0,0,0,0,0,26,0,0,0,0,0,0,0,
0,0,0,0,0,0,0,0,0,0,0,0,0,0,0,0,0,0,0,0,0,0,0,0,0,0,0,0,0,0,0,0,0,0,0,0,0,0,0,0,0,0,0,0,0,0,33,0,0,0,0,0,0,0,
0,0,0,0,0,0,0,0,0,0,0,0,0,0,0,0,0,0,0,0,0,0,0,0,0,0,0,0,0,0,0,0,0,0,0,0,0,0,0,0,0,0,0,0,0,0,26,0,0,0,0,0,0,0,
0,0,0,0,0,0,0,0,0,0,0,0,0,0,0,0,0,0,0,0,0,0,0,0,0,0,0,0,0,0,0,0,0,0,0,0,0,0,0,0,0,0,0,0,0,0,33,0,0,0,0,0,0,0,
0,0,0,0,0,0,0,0,0,0,0,0,0,0,0,0,0,0,0,0,0,0,0,0,0,0,0,0,0,0,0,0,0,0,0,0,0,0,0,0,0,0,0,0,0,0,26,0,0,0,0,0,0,0,
0,0,0,0,0,0,0,0,0,0,0,0,0,0,0,0,0,0,0,0,0,0,0,0,0,0,0,0,0,0,0,0,0,0,0,0,0,0,0,0,0,0,0,0,0,0,33,0,0,0,0,0,0,0,
0,0,0,0,0,0,0,0,0,0,0,0,0,0,0,0,0,0,0,0,0,0,0,0,0,0,0,0,0,0,0,0,0,0,0,0,0,0,0,0,0,0,0,0,0,0,26,0,0,0,0,0,0,0,
0,0,0,0,0,0,0,0,0,0,0,0,0,0,0,0,0,0,0,0,0,0,0,0,0,0,0,0,0,0,0,0,0,0,0,0,0,0,0,0,0,0,0,0,0,0,33,0,0,0,0,0,0,0,
0,0,0,0,0,0,0,0,0,0,0,0,0,0,0,0,0,0,0,0,0,0,0,0,0,0,0,0,0,0,0,0,0,0,0,0,0,0,0,0,0,0,0,0,0,0,26,0,0,0,0,0,0,0,
0,0,0,0,0,0,0,0,0,0,0,0,0,0,0,0,0,0,0,0,0,0,0,0,0,0,0,0,0,0,0,0,0,0,0,0,0,0,0,0,0,0,0,0,0,0,33,0,0,0,0,0,0,0
  </data>
 </layer>
 <objectgroup id="4" name="events"/>
</map>
