<?xml version="1.0" encoding="UTF-8"?>
<map version="1.10" tiledversion="1.10.2" orientation="orthogonal" renderorder="right-down" compressionlevel="0" width="58" height="54" tilewidth="32" tileheight="32" infinite="0" nextlayerid="4" nextobjectid="1">
 <tileset firstgid="1" source="RMXP-JohtoCompactExterior.tsx"/>
 <tileset firstgid="2401" source="RMXP-auto-tfj-waterfall.tsx"/>
 <tileset firstgid="2449" source="RMXP-auto-sand.tsx"/>
 <tileset firstgid="2497" source="RMXP-auto-still.tsx"/>
 <tileset firstgid="2545" source="RMXP-auto-noanimsea.tsx"/>
 <tileset firstgid="2593" source="RMXP-auto-hgss-sea.tsx"/>
 <tileset firstgid="2641" source="RMXP-auto-lake.tsx"/>
 <tileset firstgid="2689" source="RMXP-auto-r49water.tsx"/>
 <layer id="1" name="lower" width="58" height="54">
  <data encoding="csv">
0,0,0,0,0,0,0,0,0,0,0,0,0,0,0,0,0,0,0,0,0,0,0,0,0,0,0,0,0,0,0,0,0,0,0,0,0,0,0,0,0,0,0,0,0,0,0,0,0,0,0,0,0,0,0,0,0,0,
0,0,0,0,0,0,0,0,0,0,0,0,0,0,0,0,0,0,0,0,0,0,0,0,0,0,0,0,0,0,0,0,0,0,0,0,0,0,0,0,0,0,0,0,0,0,0,0,0,0,0,0,0,0,0,0,0,0,
0,0,0,0,0,0,0,0,0,0,0,0,0,0,0,0,0,0,0,0,0,0,0,0,0,0,0,0,0,0,0,0,0,0,0,0,0,0,0,0,0,0,0,0,0,0,0,0,0,0,0,0,0,0,0,0,0,0,
0,0,0,0,0,0,0,0,0,0,0,0,0,0,0,0,0,0,0,0,0,0,0,0,0,0,0,0,0,0,0,0,0,0,0,0,0,0,0,0,0,0,0,0,0,0,0,0,0,0,0,0,0,0,0,0,0,0,
0,0,0,0,0,0,0,0,0,0,0,0,0,0,0,0,0,0,0,0,0,0,0,0,0,0,0,0,0,0,0,0,0,0,0,0,0,0,0,0,0,0,0,0,0,0,0,0,0,0,0,0,0,0,0,0,0,0,
0,0,0,0,0,0,0,0,0,0,0,0,0,0,0,0,0,0,0,0,0,0,0,0,0,0,0,0,0,0,0,0,0,0,0,0,0,0,0,0,0,0,0,0,0,0,0,0,0,0,0,0,0,0,0,0,0,0,
0,0,0,0,0,0,0,0,0,0,0,0,0,0,0,0,0,0,0,0,0,0,0,0,0,0,0,0,0,0,0,0,0,0,0,0,0,0,0,0,0,0,0,0,0,0,0,0,0,0,0,0,0,0,0,0,0,0,
0,0,0,0,0,0,0,0,0,0,0,0,15,13,15,13,15,13,15,13,15,13,15,13,15,13,15,13,15,13,15,13,15,13,15,13,15,13,15,13,15,13,15,13,15,13,15,13,15,13,15,13,15,13,15,13,15,13,
0,0,0,0,0,0,0,0,0,0,0,0,13,15,13,15,13,15,13,15,13,15,13,15,13,15,13,15,13,15,13,15,13,15,13,15,13,15,13,15,13,15,13,15,13,15,13,15,13,15,13,15,13,15,13,15,13,15,
0,0,0,0,0,0,0,0,0,0,0,0,15,13,15,13,15,13,15,13,15,13,15,13,15,13,15,13,15,13,15,13,15,13,15,13,15,13,15,13,15,13,15,13,15,13,15,13,15,13,15,13,15,13,15,13,15,13,
0,0,0,0,0,0,0,0,0,0,0,0,13,15,13,15,13,15,13,15,13,15,13,15,13,15,13,15,13,15,13,15,13,15,13,15,13,15,13,15,13,15,13,15,13,15,13,15,13,15,13,15,13,15,13,15,13,15,
0,0,0,0,0,0,0,0,0,0,0,0,15,13,15,13,15,13,15,13,15,13,15,13,15,13,15,13,15,13,15,13,15,13,15,13,15,13,15,13,15,13,15,13,15,13,15,13,15,13,15,13,15,13,15,13,15,13,
0,0,0,0,0,0,0,0,0,0,0,0,13,15,13,15,13,15,13,15,13,15,13,15,13,15,13,15,13,15,13,15,13,15,13,15,13,15,13,15,13,15,13,15,13,15,13,15,13,15,13,15,13,15,13,15,13,15,
0,0,0,0,0,0,0,0,0,0,0,0,15,13,15,13,15,13,15,13,15,13,15,13,15,13,15,13,15,13,15,13,15,13,15,13,15,15,289,290,289,292,57,13,15,13,15,13,15,13,15,13,15,13,15,13,15,13,
0,0,0,0,0,0,0,0,0,0,0,0,13,15,13,15,13,15,13,15,13,15,297,298,297,298,297,298,13,15,13,15,13,15,13,15,297,298,297,298,297,298,13,15,13,15,13,15,13,15,13,15,13,15,13,15,13,15,
0,0,0,0,0,0,0,0,0,0,0,0,15,13,15,13,15,13,15,13,15,13,15,13,15,13,15,13,15,13,15,13,15,13,15,13,15,13,15,13,15,13,15,13,57,13,15,13,15,13,15,13,15,13,15,13,15,13,
0,0,0,0,0,0,0,0,0,0,0,0,13,15,13,15,13,15,13,15,13,15,13,15,13,15,13,15,13,15,13,15,13,15,13,15,13,15,13,15,13,15,13,15,13,15,13,15,13,15,13,15,13,15,13,15,13,15,
0,0,0,0,0,0,0,0,0,0,0,0,15,13,15,13,15,15,15,13,15,13,15,13,15,13,15,13,15,13,15,13,15,13,15,13,15,13,15,13,15,13,15,13,15,13,15,13,15,13,15,13,15,13,15,13,15,13,
0,0,0,0,0,0,0,0,0,0,0,0,13,15,297,15,13,15,15,15,13,15,13,15,13,13,13,15,13,15,13,15,13,15,13,15,13,13,15,13,13,13,13,15,13,15,13,15,13,15,13,15,13,15,13,15,13,15,
0,0,0,0,0,0,0,0,0,0,0,0,15,13,15,13,15,13,15,13,15,13,15,13,13,13,15,13,15,13,15,13,15,13,15,13,15,13,13,13,13,13,15,13,15,13,15,13,15,13,15,13,15,13,15,13,15,13,
0,0,0,0,0,0,0,0,0,0,0,0,2469,2469,2469,2469,2469,2469,2469,2485,13,15,13,13,1127,13,13,15,13,15,13,15,13,15,13,15,13,13,1127,1126,1127,13,13,15,13,15,13,15,13,15,13,15,13,15,13,15,13,15,
0,0,0,0,0,0,0,0,0,0,0,0,2449,2449,2449,2449,2449,2449,2449,2473,15,13,15,13,1135,13,15,13,15,13,15,13,15,13,15,13,15,13,1135,1134,1135,13,15,13,15,13,15,13,13,13,15,13,15,13,15,13,15,13,
0,0,0,0,0,0,0,0,0,0,0,0,2449,2453,2477,2457,2449,2449,2449,2473,13,13,13,1134,1127,1134,13,13,13,13,13,13,13,13,13,13,13,1134,1126,1127,1126,13,13,15,13,15,13,15,13,13,13,15,13,15,13,15,13,15,
0,0,0,0,0,0,0,0,0,0,0,0,2449,2473,1603,2465,2449,2449,2449,2473,13,1135,1134,1134,1135,1134,1135,1134,1135,1134,1135,1134,1135,1135,1134,1135,1134,1135,1134,1135,1134,13,15,13,15,13,15,13,15,13,15,13,15,13,15,13,15,13,
0,0,0,0,0,0,0,0,0,0,0,0,2477,2479,2482,2478,2477,2477,2477,2487,13,1127,1134,13,13,13,13,13,13,13,13,13,1134,1127,1134,13,13,13,13,13,13,13,13,15,13,15,13,15,13,13,13,15,13,15,13,15,13,15,
0,0,0,0,0,0,0,0,0,0,0,0,15,13,15,13,15,13,15,13,13,1135,13,13,13,13,13,13,13,13,13,15,13,1135,13,13,15,13,15,13,15,13,15,13,15,13,15,13,15,13,15,13,15,13,15,13,15,13,
0,0,0,0,0,0,0,0,0,0,0,0,13,15,13,15,13,15,13,15,13,1127,13,15,13,13,13,13,13,13,13,15,13,1127,13,15,15,15,13,15,13,15,13,15,13,15,13,15,13,15,13,15,13,15,13,15,13,15,
0,0,0,0,0,0,0,0,0,0,0,0,15,13,15,13,15,13,15,13,13,1135,13,15,13,13,13,13,13,13,13,13,13,1127,1134,13,13,13,13,13,13,13,15,13,15,13,15,13,2483,2469,2469,2469,2469,2469,2469,2469,2469,2469,
122,122,122,122,122,122,122,122,122,122,123,0,13,15,13,15,13,15,13,15,13,1127,13,13,13,13,13,13,13,13,13,13,13,1135,1134,1135,1134,1135,1134,1135,1134,13,13,15,13,15,13,15,2465,2449,2449,2449,2449,2449,2449,2449,2449,2449,
2565,2565,2565,2565,2565,2565,2565,2565,2565,2581,131,0,15,13,15,13,15,13,15,13,13,1135,13,15,13,13,15,13,13,15,15,13,13,1134,13,13,13,13,13,13,13,13,15,13,15,13,15,13,2489,2477,2477,2477,2477,2477,2477,2477,2477,2477,
2545,2545,2545,2545,2545,2545,2545,2545,2545,2569,131,0,13,15,13,15,13,15,13,15,13,1127,1134,13,13,13,13,13,13,13,13,13,1134,13,2495,13,13,15,13,15,13,15,13,15,13,15,13,15,13,15,15,15,13,15,15,15,13,15,
2545,2545,2545,2545,2545,2545,2545,2545,2545,2569,131,0,15,13,15,13,15,13,15,13,13,1135,1134,1135,1134,1135,1134,1135,1134,1135,1134,1135,1134,13,13,13,15,13,15,13,15,13,15,13,15,13,15,13,15,13,15,13,15,13,15,13,15,13,
2545,2545,2545,2545,2545,2545,2545,2545,2545,2569,151,122,122,122,123,15,13,15,13,15,13,13,13,13,13,13,13,13,13,13,13,13,13,13,13,13,13,15,13,15,13,15,13,59,13,15,13,15,13,15,13,15,13,15,13,15,13,15,
2545,2545,2545,2545,2545,2545,2545,2545,2545,2547,2565,2565,2565,2581,131,13,15,13,15,13,15,13,15,13,15,13,15,13,15,13,15,13,15,13,15,13,15,13,15,13,15,13,13,59,15,13,15,13,15,13,15,13,15,13,15,13,15,13,
2545,2545,2545,2545,2545,2545,2545,2545,2545,2545,2545,2545,2545,2569,131,15,13,15,13,15,13,15,13,15,13,15,13,15,13,15,13,15,13,15,13,15,13,15,13,15,13,15,66,67,13,15,13,15,13,15,13,15,13,15,13,15,13,15,
2545,2545,2545,2545,2545,2545,2545,2545,2545,2545,2545,2545,2545,2569,131,13,15,13,15,13,15,13,15,13,15,13,15,13,15,13,15,13,15,13,15,13,15,13,57,13,15,59,15,13,15,13,15,13,15,13,15,13,15,13,15,13,15,13,
2545,2545,2545,2545,2545,2545,2545,2545,2545,2545,2545,2545,2545,2569,151,122,122,122,122,122,122,122,122,122,122,122,123,15,13,15,13,15,13,15,13,15,13,15,65,15,13,67,13,15,13,15,13,15,13,15,13,15,13,15,13,15,13,15,
2545,2545,2545,2545,2545,2545,2545,2545,2545,2545,2545,2545,2545,2547,2565,2565,2565,2565,2565,2565,2565,2565,2565,2565,2565,2581,131,15,15,15,15,15,15,15,15,13,15,13,15,13,15,13,15,13,15,13,15,13,15,13,15,13,15,13,15,13,15,13,
2545,2545,2545,2545,2545,2545,2545,2545,2545,2545,2545,2545,2545,2545,2545,2545,2545,2545,2545,2545,2545,2545,2545,2545,2545,2569,151,122,122,122,122,122,122,122,123,15,13,15,13,15,13,15,13,15,13,15,13,15,13,15,13,15,13,15,13,15,13,15,
2545,2545,2545,2545,2545,2545,2545,2545,2545,2545,2545,2545,2545,2545,2545,2545,2545,2545,2545,2545,2545,2545,2545,2545,2545,2547,2565,2565,2565,2565,2565,2565,2565,2581,131,13,15,13,15,13,15,13,15,13,15,13,15,13,15,13,15,13,15,13,15,13,15,13,
2545,2545,2545,2545,2545,2545,2545,2545,2545,2545,2545,2545,2545,2545,2545,2545,2545,2545,2545,2545,2545,2545,2549,2573,2573,2553,2545,2545,2545,2545,2545,2545,2545,2569,151,122,122,122,122,122,122,122,123,0,0,0,0,0,0,0,0,0,0,0,0,0,0,0,
2545,2545,2545,2545,2545,2545,2545,2545,2545,2545,2545,2545,2545,2545,2545,2545,2545,2545,2545,2545,2545,2545,2569,130,130,2585,2553,2545,2545,2545,2545,2545,2545,2547,2565,2565,2565,2565,2565,2565,2565,2581,131,0,0,0,0,0,0,0,0,0,0,0,0,0,0,0,
2545,2545,2545,2545,2545,2545,2545,2545,2545,2545,2545,2545,2545,2545,2545,2545,2545,2545,2545,2545,2545,2545,2569,130,130,130,2561,2545,2545,2545,2545,2545,2545,2545,2545,2545,2545,2545,2545,2545,2545,2569,151,122,122,122,122,122,123,0,0,0,0,0,0,0,0,0,
2545,2545,2545,2545,2545,2545,2545,2545,2545,2545,2545,2545,2545,2545,2545,2545,2545,2545,2545,2545,2545,2545,2547,2565,2565,2565,2546,2545,2545,2545,2545,2545,2545,2545,2545,2545,2545,2545,2545,2545,2545,2547,2565,2565,2565,2565,2565,2581,131,0,0,0,0,0,0,0,0,0,
2545,2545,2545,2545,2545,2545,2545,2545,2545,2545,2545,2545,2545,2545,2545,2545,2545,2545,2545,2545,2545,2545,2545,2545,2545,2545,2545,2545,2545,2545,2545,2545,2545,2545,2545,2545,2545,2545,2545,2545,2545,2545,2545,2545,2545,2545,2545,2569,131,0,0,0,0,0,0,0,0,0,
2545,2545,2545,2545,2545,2545,2545,2545,2545,2545,2545,2545,2545,2545,2545,2545,2545,2545,2545,2545,2545,2545,2545,2545,2545,2545,2545,2545,2545,2545,2545,2545,2545,2545,2545,2545,2545,2545,2545,2545,2545,2545,2545,2545,2545,2545,2545,2569,131,0,0,0,0,0,0,0,0,0,
2545,2545,2545,2545,2545,2545,2545,2545,2545,2545,2545,2545,2545,2545,2545,2545,2545,2545,2545,2545,2545,2545,2545,2545,2545,2545,2545,2545,2545,2545,2545,2545,2545,2545,2545,2545,2545,2545,2545,2545,2545,2545,2545,2545,2545,2545,2545,2569,131,0,0,0,0,0,0,0,0,0,
2545,2545,2545,2545,2545,2545,2545,2545,2545,2545,2545,2545,2545,2545,2545,2545,2545,2545,2545,2545,2545,2545,2545,2545,2545,2545,2545,2545,2545,2545,2545,2545,2545,2545,2545,2545,2545,2545,2545,2545,2545,2545,2545,2545,2545,2545,2545,2569,131,0,0,0,0,0,0,0,0,0,
2545,2545,2545,2545,2545,2545,2545,2545,2545,2545,2545,2545,2545,2545,2545,2545,2545,2545,2545,2545,2545,2545,2545,2545,2545,2545,2545,2545,2545,2545,2545,2545,2545,2545,2545,2545,2545,2545,2545,2545,2545,2545,2545,2545,2545,2545,2545,2569,0,0,0,0,0,0,0,0,0,0,
2545,2545,2545,2545,2545,2545,2545,2545,2545,2545,2545,2545,2545,2545,2545,2545,2545,2545,2545,2545,2545,2545,2545,2545,2545,2545,2545,2545,2545,2545,2545,2545,2545,2545,2545,2545,2545,2545,2545,2545,2545,2545,2545,2545,2545,2545,2545,2569,0,0,0,0,0,0,0,0,0,0,
2545,2545,2545,2545,2545,2545,2545,2545,2545,2545,2545,2545,2545,2545,2545,2545,2545,2545,2545,2545,2545,2545,2545,2545,2545,2545,2545,2545,2545,2545,2545,2545,2545,2545,2545,2545,2545,2545,2545,2545,2545,2545,2545,2545,2545,2545,2545,2569,0,0,0,0,0,0,0,0,0,0,
2545,2545,2545,2545,2545,2545,2545,2545,2545,2545,2545,2545,2545,2545,2545,2545,2545,2545,2545,2545,2545,2545,2545,2545,2545,2545,2545,2545,2545,2545,2545,2545,2545,2545,2545,2545,2545,2545,2545,2545,2545,2545,2545,2545,2545,2545,2545,2547,2565,2565,2565,2581,0,0,0,0,0,0,
2545,2545,2545,2545,2545,2545,2545,2545,2545,2545,2545,2545,2545,2545,2545,2545,2545,2545,2545,2545,2545,2545,2545,2545,2545,2545,2545,2545,2545,2545,2545,2545,2545,2545,2545,2545,2545,2545,2545,2545,2545,2545,2545,2545,2545,2545,2545,2545,2545,2545,2545,2569,0,0,0,0,0,0,
2545,2545,2545,2545,2545,2545,2545,2545,2545,2545,2545,2545,2545,2545,2545,2545,2545,2545,2545,2545,2545,2545,2545,2545,2545,2545,2545,2545,2545,2545,2545,2545,2545,2545,2545,2545,2545,2545,2545,2545,2545,2545,2545,2545,2545,2545,2545,2545,2545,2545,2545,2569,0,0,0,0,0,0
  </data>
 </layer>
 <layer id="2" name="middle" width="58" height="54">
  <data encoding="csv">
281,282,281,282,281,282,281,282,281,282,281,282,281,282,281,282,281,282,281,282,281,282,281,282,281,282,281,282,281,282,281,282,281,282,281,282,281,282,281,282,281,282,281,282,281,282,281,282,57,58,58,58,58,58,58,58,58,58,
273,274,273,274,273,274,273,274,273,274,273,274,273,274,273,274,273,274,273,274,273,274,273,274,273,274,273,274,273,274,273,274,273,274,273,274,273,274,273,274,273,274,273,274,273,274,273,274,57,58,58,58,58,58,58,58,58,58,
281,282,281,282,281,282,281,282,281,282,281,282,281,282,281,282,281,282,281,282,281,282,281,282,281,282,281,282,281,282,281,282,281,282,281,282,281,282,281,282,281,282,281,282,281,282,281,284,57,58,58,58,58,58,58,58,58,58,
273,274,273,274,273,274,273,274,273,274,273,274,273,274,273,274,273,274,273,274,273,274,273,274,273,274,273,274,273,274,273,274,273,274,273,274,273,274,273,274,273,274,273,274,273,274,273,276,57,58,58,58,58,58,58,58,58,58,
281,282,281,282,281,282,281,282,281,282,281,282,281,282,281,282,281,282,281,282,281,282,281,282,281,282,281,282,281,282,281,282,281,282,281,282,281,282,281,282,281,282,281,282,281,282,281,284,57,58,58,58,58,58,58,58,58,58,
273,274,273,274,273,274,273,274,273,274,273,274,273,274,273,274,273,274,273,274,273,274,273,274,273,274,273,274,273,274,273,274,273,274,273,274,273,274,273,274,273,274,273,274,273,274,273,276,57,58,58,58,58,58,58,58,58,58,
281,282,281,282,281,282,281,282,281,282,281,282,281,282,281,282,281,282,281,282,281,282,281,282,281,282,281,282,281,282,281,282,281,282,281,282,281,282,281,282,281,282,281,282,281,282,281,284,57,58,58,58,58,58,58,58,58,58,
273,274,273,274,273,274,273,274,273,274,273,274,273,274,273,274,273,274,273,274,273,274,273,274,273,274,273,274,273,274,273,274,273,274,273,274,273,274,273,274,273,274,273,274,273,274,273,276,57,58,58,58,58,58,58,58,58,58,
281,282,281,282,281,282,281,282,281,282,281,282,281,282,281,282,281,282,281,282,281,282,281,282,281,282,281,282,281,282,281,282,281,282,281,282,281,282,281,282,281,282,281,282,281,282,281,284,57,58,58,58,58,58,58,58,58,58,
273,274,273,274,273,274,273,274,273,274,273,274,273,274,273,274,273,274,273,274,273,274,273,274,273,274,273,274,273,274,273,274,273,274,273,274,273,274,273,274,273,274,291,290,291,290,291,292,57,58,58,58,58,58,58,58,58,58,
281,282,281,282,281,282,281,282,281,282,281,282,281,282,281,282,281,282,281,282,281,282,281,282,281,282,281,282,281,282,281,282,281,282,281,282,281,282,281,282,281,284,299,300,299,300,299,300,57,58,58,58,58,58,58,58,58,58,
273,274,273,274,273,274,273,274,273,274,273,274,273,274,273,274,273,274,273,274,273,274,273,274,273,274,273,274,273,274,273,274,273,274,273,274,273,274,273,274,273,276,49,50,50,50,50,50,46,58,58,58,58,58,58,58,58,58,
281,282,281,282,281,282,281,282,281,282,281,282,281,282,281,282,281,282,281,282,281,282,281,282,281,282,281,282,281,282,281,282,281,282,281,282,281,282,281,282,281,284,57,58,58,58,58,58,58,58,58,58,58,58,58,58,58,58,
273,274,273,274,273,274,273,274,273,274,273,274,273,274,273,274,273,274,273,274,291,290,291,290,291,290,291,290,273,274,273,274,291,290,291,290,291,290,0,0,1375,1376,287,58,58,58,58,58,58,58,58,58,58,58,58,58,58,58,
281,282,281,282,281,282,281,282,281,282,281,282,281,282,281,282,281,282,281,284,299,300,299,300,299,300,299,710,281,282,281,284,299,300,299,300,0,0,1381,1382,1383,1384,65,66,24,58,58,58,58,58,58,58,58,58,58,58,58,58,
273,274,273,274,273,274,273,274,273,274,273,274,273,274,273,274,291,290,291,292,287,288,0,0,0,0,0,718,291,290,291,292,49,50,50,51,0,0,1389,1390,1391,1392,273,292,287,58,58,58,58,58,58,58,58,58,58,58,58,58,
281,282,281,282,281,282,281,282,281,282,281,282,281,282,281,284,299,300,299,300,295,296,721,0,0,0,0,735,299,300,299,300,57,58,58,59,0,0,1397,1398,1399,1400,281,282,65,66,66,66,66,66,66,66,66,66,66,66,66,66,
273,274,273,274,273,274,273,274,273,274,273,274,273,274,291,292,0,0,0,641,291,292,729,0,0,0,0,736,49,50,50,50,46,58,58,59,0,0,1405,0,1407,1408,273,274,273,276,0,0,0,0,0,0,273,274,273,274,273,274,
281,282,281,282,281,282,281,282,281,282,281,282,281,284,1563,300,1566,1567,0,649,299,300,0,0,0,0,743,744,57,58,23,66,66,66,66,67,0,0,0,0,0,743,281,282,281,284,0,0,0,0,0,0,281,282,281,282,281,282,
273,274,273,274,273,274,273,274,273,274,273,274,273,276,1571,1572,1573,1574,659,652,21,19,22,993,994,995,21,19,57,58,59,1628,1629,1630,1631,1632,0,993,994,994,994,995,291,290,291,292,0,2,0,0,0,0,273,274,273,274,273,274,
281,282,281,282,281,282,281,282,281,282,281,282,281,284,1579,1580,1581,1582,1583,0,0,0,0,999,0,1000,0,0,65,66,67,1636,1637,1638,1639,1640,736,999,0,0,0,1000,299,300,299,300,0,0,0,0,0,0,281,282,281,282,281,282,
273,274,273,274,273,274,273,274,273,274,273,274,273,276,1587,1588,1589,1590,1591,0,0,0,0,999,0,1000,2,0,0,0,0,1644,1645,0,1647,1648,736,999,0,0,0,1000,0,0,0,0,0,0,0,0,0,0,273,274,273,274,273,274,
281,282,281,282,281,282,281,282,281,282,281,282,281,284,1595,1596,1597,1598,1599,0,993,994,994,984,0,992,994,994,994,994,994,994,994,994,994,994,994,984,0,0,479,1000,0,0,0,0,0,0,0,0,0,0,281,282,281,282,281,282,
273,274,273,274,273,274,273,274,273,274,273,274,273,276,287,1604,1605,1606,1607,0,999,0,0,0,0,0,0,0,0,0,0,0,0,0,0,0,0,665,666,667,668,1000,287,288,287,288,0,0,0,0,0,0,291,290,273,274,273,274,
281,282,281,282,281,282,281,282,281,282,281,282,281,282,1611,1612,1613,1614,1615,0,999,0,968,997,997,997,997,997,997,997,997,997,976,0,968,997,997,673,674,675,676,998,0,0,0,0,21,19,22,0,21,22,299,300,281,282,281,282,
273,274,273,274,273,274,273,274,273,274,273,274,273,274,273,274,273,274,273,276,999,0,1000,0,0,0,0,0,0,0,0,0,999,0,1000,0,0,681,682,683,684,735,273,274,273,276,287,288,0,0,0,0,0,0,291,290,291,290,
281,282,281,282,281,282,281,282,281,282,281,282,281,282,281,282,281,282,281,284,999,0,1000,0,0,0,0,0,0,0,0,0,999,0,1000,0,2,689,0,691,692,736,281,282,281,282,295,296,0,0,0,0,0,0,299,300,299,300,
289,290,289,290,289,290,289,290,289,290,273,274,273,274,273,274,273,274,273,276,999,0,1000,0,0,0,0,0,0,0,0,0,999,0,992,994,994,994,994,994,994,995,273,274,273,274,273,276,0,0,0,0,0,0,0,0,0,0,
299,300,299,300,299,300,299,300,299,300,281,282,281,282,281,282,281,282,281,284,999,0,1000,0,0,0,0,0,0,0,0,0,999,0,0,0,0,0,0,0,0,1000,281,282,281,282,281,284,0,0,0,0,0,0,0,0,0,0,
0,0,0,0,0,0,0,0,0,0,273,274,273,274,273,274,273,274,273,276,999,0,1000,0,0,0,0,0,0,0,0,0,999,968,997,997,997,997,997,997,997,998,291,290,273,274,273,276,287,288,287,288,287,288,287,288,287,288,
0,0,0,0,0,0,0,0,0,0,281,282,281,282,281,282,281,282,281,284,999,0,992,994,994,994,994,994,994,994,994,994,984,1000,295,296,295,296,0,0,0,0,299,300,281,282,281,282,295,296,295,296,295,296,295,296,295,296,
0,0,0,0,0,0,0,0,0,0,289,290,289,290,273,274,273,274,273,276,999,288,0,0,0,0,287,288,287,288,287,288,287,1000,273,274,273,276,0,0,49,50,50,51,273,274,273,274,273,274,273,274,273,274,273,274,273,274,
0,0,0,0,0,0,0,0,0,0,299,300,299,300,281,282,281,282,281,282,996,997,997,997,997,997,997,997,997,997,997,997,997,998,281,282,281,284,49,50,46,58,58,59,281,282,281,282,281,282,281,282,281,282,281,282,281,282,
0,0,0,0,0,0,0,0,0,0,0,0,0,0,273,274,273,274,273,274,273,276,0,0,0,0,273,274,273,274,273,274,273,274,273,274,273,276,57,58,58,58,58,0,273,274,273,274,273,274,273,274,273,274,273,274,273,274,
0,0,0,0,0,0,0,0,0,0,0,0,0,0,281,282,281,282,281,282,281,284,0,0,0,0,281,282,281,282,281,282,281,282,281,282,281,284,57,58,58,23,0,0,281,282,281,282,281,282,281,282,281,282,281,282,281,282,
0,0,0,0,0,0,0,0,0,0,0,0,0,0,289,290,289,290,289,290,289,292,0,0,0,0,273,274,273,274,273,274,273,274,273,274,273,276,0,58,58,288,273,274,273,274,273,274,273,274,273,274,273,274,273,274,273,274,
0,0,0,0,0,0,0,0,0,0,0,0,0,0,299,300,299,300,299,300,299,300,0,0,0,0,281,282,281,282,281,282,281,282,281,282,281,282,0,66,66,0,281,282,281,282,281,282,281,282,281,282,281,282,281,282,281,282,
0,0,0,0,0,0,0,0,0,0,0,0,0,0,401,402,0,0,0,0,0,0,0,0,0,0,289,290,289,290,289,290,289,290,273,274,273,274,273,274,273,274,273,274,273,274,273,274,273,274,273,274,273,274,273,274,273,274,
0,0,0,0,0,0,0,0,0,0,0,0,0,0,409,410,0,0,0,0,0,0,0,0,0,0,299,300,299,300,299,300,299,300,281,282,281,282,281,282,281,282,281,282,281,282,281,282,281,282,281,282,281,282,281,282,281,282,
0,0,0,0,0,0,0,0,0,0,0,0,0,0,0,417,418,401,402,0,0,0,0,0,0,0,0,0,0,0,0,0,0,0,289,290,289,290,289,290,289,290,273,274,273,274,273,274,273,274,273,274,273,274,273,274,273,274,
0,0,0,0,0,0,0,0,0,0,0,0,0,0,0,425,426,409,410,0,0,0,0,0,0,0,0,0,0,0,0,0,0,0,299,300,299,300,299,300,299,300,281,282,281,282,281,282,281,282,281,282,281,282,281,282,281,282,
0,0,0,0,0,0,0,0,0,0,0,0,0,0,0,0,0,0,417,418,0,0,0,0,0,0,0,0,0,0,0,0,0,417,418,0,0,0,0,0,0,0,289,290,289,290,289,290,273,274,273,274,273,274,273,274,273,274,
0,0,0,0,0,0,0,0,0,0,0,0,0,0,0,0,0,0,425,426,0,0,0,0,0,0,0,0,0,0,0,0,0,425,426,0,0,0,0,0,0,0,299,300,299,300,299,300,281,282,281,282,281,282,281,282,281,282,
0,0,0,0,0,0,0,0,0,0,0,0,0,0,0,0,0,0,0,0,401,402,0,0,0,0,0,0,0,0,0,0,401,402,0,0,0,0,0,0,0,0,0,0,0,0,0,0,273,274,273,274,273,274,273,274,273,274,
0,0,0,0,0,0,0,0,0,0,0,0,0,0,0,0,0,0,0,0,409,410,0,0,0,0,0,0,0,0,401,402,409,410,0,0,0,0,0,0,0,0,0,0,0,0,0,0,281,282,281,282,281,282,281,282,281,282,
0,0,0,0,0,0,0,0,0,0,0,0,0,0,0,0,0,0,0,0,417,418,401,402,0,0,417,418,0,0,409,410,0,0,0,0,0,0,0,0,0,0,0,0,0,0,0,0,273,274,273,274,273,274,273,274,273,274,
0,0,0,0,0,0,0,0,0,0,0,0,0,0,0,0,0,0,0,0,425,426,409,410,417,418,425,426,401,402,417,418,0,0,0,0,0,0,0,0,0,0,0,0,0,0,0,0,281,282,281,282,281,282,281,282,281,282,
0,0,0,0,0,0,0,0,0,0,0,0,0,0,0,0,0,0,0,0,0,0,0,0,425,426,0,0,409,410,425,426,0,0,0,0,0,0,0,0,0,0,0,0,0,0,0,0,273,274,273,274,273,274,273,274,273,274,
0,0,0,0,0,0,0,0,0,0,0,0,0,0,0,0,0,0,0,0,0,0,0,0,0,0,0,0,0,0,0,0,0,0,0,0,0,0,0,0,0,0,0,0,0,0,0,0,281,282,281,282,281,282,281,282,281,282,
0,0,0,0,0,0,0,0,0,0,0,0,0,0,0,0,0,0,0,0,0,0,0,0,0,0,0,0,0,0,0,0,0,0,0,0,0,0,0,0,0,0,0,0,0,0,0,0,289,290,289,290,273,274,273,274,273,274,
0,0,0,0,0,0,0,0,0,0,0,0,0,0,0,0,0,0,0,0,0,0,0,0,0,0,0,0,0,0,0,0,0,0,0,0,0,0,0,0,0,0,0,0,0,0,0,0,297,298,297,298,281,282,281,282,281,282,
0,0,0,0,0,0,0,0,0,0,0,0,0,0,0,0,0,0,0,0,0,0,0,0,0,0,0,0,0,0,0,0,0,0,0,0,0,0,0,0,0,0,0,0,0,0,0,0,0,0,0,0,273,274,273,274,273,274,
0,0,0,0,0,0,0,0,0,0,0,0,0,0,0,0,0,0,0,0,0,0,0,0,0,0,0,0,0,0,0,0,0,0,0,0,0,0,0,0,0,0,0,0,0,0,0,0,0,0,0,0,281,282,281,282,281,282,
0,0,0,0,0,0,0,0,0,0,0,0,0,0,0,0,0,0,0,0,0,0,0,0,0,0,0,0,0,0,0,0,0,0,0,0,0,0,0,0,0,0,0,0,0,0,0,0,0,0,0,0,273,274,273,274,273,274
  </data>
 </layer>
 <layer id="3" name="upper" width="58" height="54">
  <data encoding="csv">
0,0,0,0,0,0,0,0,0,0,0,0,0,0,0,0,0,0,0,0,0,0,0,0,0,0,0,0,0,0,0,0,0,0,0,0,0,0,0,0,0,0,0,0,0,0,0,0,0,0,0,0,0,0,0,0,0,0,
0,0,0,0,0,0,0,0,0,0,0,0,0,0,0,0,0,0,0,0,0,0,0,0,0,0,0,0,0,0,0,0,0,0,0,0,0,0,0,0,0,0,0,0,0,0,0,0,0,0,0,0,0,0,0,0,0,0,
0,0,0,0,0,0,0,0,0,0,0,0,0,0,0,0,0,0,0,0,0,0,0,0,0,0,0,0,0,0,0,0,0,0,0,0,0,0,0,0,0,0,0,0,0,0,0,0,285,0,0,0,0,0,0,0,0,0,
0,0,0,0,0,0,0,0,0,0,0,0,0,0,0,0,0,0,0,0,0,0,0,0,0,0,0,0,0,0,0,0,0,0,0,0,0,0,0,0,0,0,0,0,0,0,0,0,293,0,0,0,0,0,0,0,0,0,
0,0,0,0,0,0,0,0,0,0,0,0,0,0,0,0,0,0,0,0,0,0,0,0,0,0,0,0,0,0,0,0,0,0,0,0,0,0,0,0,0,0,0,0,0,0,0,0,285,0,0,0,0,0,0,0,0,0,
0,0,0,0,0,0,0,0,0,0,0,0,0,0,0,0,0,0,0,0,0,0,0,0,0,0,0,0,0,0,0,0,0,0,0,0,0,0,0,0,0,0,0,0,0,0,0,0,293,0,0,0,0,0,0,0,0,0,
0,0,0,0,0,0,0,0,0,0,0,0,0,0,0,0,0,0,0,0,0,0,0,0,0,0,0,0,0,0,0,0,0,0,0,0,0,0,0,0,0,0,0,0,0,0,0,0,285,0,0,0,0,0,0,0,0,0,
0,0,0,0,0,0,0,0,0,0,0,0,0,0,0,0,0,0,0,0,0,0,0,0,0,0,0,0,0,0,0,0,0,0,0,0,0,0,0,0,0,0,0,0,0,0,0,0,293,0,0,0,0,0,0,0,0,0,
0,0,0,0,0,0,0,0,0,0,0,0,0,0,0,0,0,0,0,0,0,0,0,0,0,0,0,0,0,0,0,0,0,0,0,0,0,0,0,0,0,0,0,0,0,0,0,0,285,0,0,0,0,0,0,0,0,0,
0,0,0,0,0,0,0,0,0,0,0,0,0,0,0,0,0,0,0,0,0,0,0,0,0,0,0,0,0,0,0,0,0,0,0,0,0,0,0,0,0,0,0,0,0,0,0,0,293,0,0,0,0,0,0,0,0,0,
0,0,0,0,0,0,0,0,0,0,0,0,0,0,0,0,0,0,0,0,0,0,0,0,0,0,0,0,0,0,0,0,0,0,0,0,0,0,0,0,0,0,285,0,0,0,0,0,0,0,0,0,0,0,0,0,0,0,
0,0,0,0,0,0,0,0,0,0,0,0,0,0,0,0,0,0,0,0,0,0,0,0,0,0,0,0,0,0,0,0,0,0,0,0,0,0,0,0,0,0,293,0,0,0,0,0,0,0,0,0,0,0,0,0,0,0,
0,0,0,0,0,0,0,0,0,0,0,0,0,0,0,0,0,0,0,0,0,0,0,0,0,0,0,0,0,0,0,0,0,0,0,0,0,0,0,0,0,0,285,0,0,0,0,0,0,0,0,0,0,0,0,0,0,0,
0,0,0,0,0,0,0,0,0,0,0,0,0,0,0,0,0,0,0,0,0,0,0,0,699,700,0,0,0,0,0,0,0,0,0,0,0,0,0,0,0,0,293,288,0,0,0,0,0,0,0,0,0,0,0,0,0,0,
0,0,0,0,0,0,0,0,0,0,0,0,0,0,0,0,0,0,0,0,285,0,705,706,707,708,709,286,0,0,0,0,285,0,0,0,0,0,0,0,0,0,295,296,285,0,0,0,0,0,0,0,0,0,0,0,0,0,
0,0,0,0,0,0,0,0,0,0,0,0,0,0,0,0,0,0,0,0,293,0,713,714,715,716,717,294,0,0,0,0,293,0,0,0,0,0,0,0,0,0,0,0,293,288,0,0,0,0,0,0,287,288,287,288,287,288,
0,0,0,0,0,0,0,0,0,0,0,0,0,0,0,0,285,0,0,286,0,0,285,722,723,724,725,726,0,0,0,0,0,0,0,0,0,0,0,0,0,286,0,0,295,296,285,0,0,0,0,286,295,296,295,296,295,296,
0,0,0,0,0,0,0,0,0,0,0,0,0,0,0,0,293,0,0,294,0,0,293,730,0,732,733,734,0,0,0,0,0,0,0,0,0,0,0,0,0,294,0,0,0,0,293,0,0,2218,0,294,0,0,0,0,0,0,
0,0,0,0,0,0,0,0,0,0,0,0,0,0,0,1564,1565,1566,1567,0,0,0,0,742,743,743,0,0,0,0,0,1620,1621,1622,1623,1624,0,0,742,743,743,286,0,0,0,0,285,0,2225,2226,2227,286,0,0,0,0,0,0,
0,0,0,0,0,0,0,0,0,0,0,0,0,0,0,0,0,0,1575,0,0,0,0,0,0,0,0,0,0,0,0,0,0,0,0,0,0,0,0,0,0,294,0,0,0,0,293,0,2233,2234,2235,294,0,0,0,0,0,0,
0,0,0,0,0,0,0,0,0,0,0,0,0,0,0,0,0,0,0,0,0,0,0,0,0,0,0,0,0,0,0,0,0,0,0,0,0,0,0,0,0,0,0,0,0,0,0,0,2241,2242,2243,286,0,0,0,0,0,0,
0,0,0,0,0,0,0,0,0,0,0,0,0,0,0,0,0,0,0,0,0,0,0,0,0,0,0,0,0,0,0,0,0,0,0,0,5,0,0,0,0,0,0,0,0,0,0,0,0,0,0,294,0,0,0,0,0,0,
0,0,0,0,0,0,0,0,0,0,0,0,0,0,285,0,0,0,0,0,0,0,0,0,0,0,0,0,0,0,0,742,743,743,743,743,744,0,0,0,0,0,0,0,0,0,0,0,0,0,0,286,0,0,0,0,0,0,
0,0,0,0,0,0,0,0,0,0,0,0,0,0,293,288,287,288,287,288,0,0,0,0,0,0,0,0,0,0,0,0,0,0,0,0,0,0,0,0,0,0,0,0,0,0,0,0,0,0,0,294,0,0,0,0,0,0,
0,0,0,0,0,0,0,0,0,0,0,0,0,0,295,296,295,296,295,296,285,0,0,0,1650,1651,1652,1653,1654,1655,1656,0,0,0,0,0,0,0,0,0,0,286,295,296,295,296,285,0,0,0,0,0,0,286,0,0,0,0,
0,0,0,0,0,0,0,0,0,0,0,0,0,0,0,0,0,0,0,0,293,0,0,0,1658,1659,1660,1661,1662,1663,1664,0,0,0,0,0,0,0,0,0,0,294,0,0,0,0,293,0,0,0,0,0,0,294,0,0,0,0,
0,0,0,0,0,0,0,0,0,0,0,0,0,0,0,0,0,0,0,0,285,0,0,0,1666,1667,1668,1669,1670,1671,1672,0,0,0,0,0,0,0,0,0,0,286,0,0,0,0,0,0,285,0,0,0,0,0,0,0,0,0,
0,0,0,0,0,0,0,0,0,0,0,0,0,0,0,0,0,0,0,0,293,0,0,0,1674,1675,1676,1677,1678,1679,1680,0,0,0,0,0,0,742,743,743,743,744,0,0,0,0,0,0,293,0,0,0,0,0,0,0,0,0,
0,0,0,0,0,0,0,0,0,286,0,0,0,0,0,0,0,0,0,0,285,0,0,0,1682,1683,1684,0,1686,1687,1688,0,0,0,0,0,0,0,0,0,0,286,0,0,0,0,0,0,285,0,0,0,0,0,0,0,0,0,
0,0,0,0,0,0,0,0,0,294,0,0,0,0,0,0,0,0,0,0,293,0,0,0,0,0,0,0,0,0,0,0,0,0,287,288,287,288,0,0,0,294,0,0,0,0,0,0,293,0,0,0,0,0,0,0,0,0,
0,0,0,0,0,0,0,0,0,286,0,0,0,0,0,0,0,0,0,0,285,0,0,0,0,0,0,0,0,0,0,0,0,286,0,0,0,0,285,0,0,0,0,286,0,0,0,0,0,0,0,0,0,0,0,0,0,0,
0,0,0,0,0,0,0,0,0,294,0,0,0,0,0,0,0,0,0,0,293,288,0,0,0,0,287,288,287,288,287,288,287,294,0,0,0,0,293,0,0,0,0,294,0,0,0,0,0,0,0,0,0,0,0,0,0,0,
0,0,0,0,0,0,0,0,0,0,0,0,0,286,0,0,0,0,0,0,295,296,285,0,0,286,295,296,295,296,295,296,295,296,0,0,0,0,285,0,0,0,0,286,0,0,0,0,0,0,0,0,0,0,0,0,0,0,
0,0,0,0,0,0,0,0,0,0,0,0,0,294,0,0,0,0,0,0,0,0,293,0,0,294,0,0,0,0,0,0,0,0,0,0,0,0,293,0,0,0,287,294,0,0,0,0,0,0,0,0,0,0,0,0,0,0,
0,0,0,0,0,0,0,0,0,0,0,0,0,286,0,0,0,0,0,0,0,0,285,0,0,286,0,0,0,0,0,0,0,0,0,0,0,0,285,0,0,286,295,296,0,0,0,0,0,0,0,0,0,0,0,0,0,0,
0,0,0,0,0,0,0,0,0,0,0,0,0,294,0,0,0,0,0,0,0,0,293,0,0,294,0,0,0,0,0,0,0,0,0,0,0,0,293,288,287,294,0,0,0,0,0,0,0,0,0,0,0,0,0,0,0,0,
0,0,0,0,0,0,0,0,0,0,0,0,0,0,0,0,0,0,0,0,0,0,0,0,0,286,0,0,0,0,0,0,0,0,0,0,0,0,295,296,295,296,0,0,0,0,0,0,0,0,0,0,0,0,0,0,0,0,
0,0,0,0,0,0,0,0,0,0,0,0,0,0,0,0,0,0,0,0,0,0,0,0,0,294,0,0,0,0,0,0,0,0,0,0,0,0,0,0,0,0,0,0,0,0,0,0,0,0,0,0,0,0,0,0,0,0,
0,0,0,0,0,0,0,0,0,0,0,0,0,0,0,0,0,0,0,0,0,0,0,0,0,0,0,0,0,0,0,0,0,286,0,0,0,0,0,0,0,0,0,0,0,0,0,0,0,0,0,0,0,0,0,0,0,0,
0,0,0,0,0,0,0,0,0,0,0,0,0,0,0,0,0,0,0,0,0,0,0,0,0,0,0,0,0,0,0,0,0,294,0,0,0,0,0,0,0,0,0,0,0,0,0,0,0,0,0,0,0,0,0,0,0,0,
0,0,0,0,0,0,0,0,0,0,0,0,0,0,0,0,0,0,0,0,0,0,0,0,0,0,0,0,0,0,0,0,0,0,0,0,0,0,0,0,0,286,0,0,0,0,0,0,0,0,0,0,0,0,0,0,0,0,
0,0,0,0,0,0,0,0,0,0,0,0,0,0,0,0,0,0,0,0,0,0,0,0,0,0,0,0,0,0,0,0,0,0,0,0,0,0,0,0,0,294,0,0,0,0,0,0,0,0,0,0,0,0,0,0,0,0,
0,0,0,0,0,0,0,0,0,0,0,0,0,0,0,0,0,0,0,0,0,0,0,0,0,0,0,0,0,0,0,0,0,0,0,0,0,0,0,0,0,0,0,0,0,0,0,286,0,0,0,0,0,0,0,0,0,0,
0,0,0,0,0,0,0,0,0,0,0,0,0,0,0,0,0,0,0,0,0,0,0,0,0,0,0,0,0,0,0,0,0,0,0,0,0,0,0,0,0,0,0,0,0,0,0,294,0,0,0,0,0,0,0,0,0,0,
0,0,0,0,0,0,0,0,0,0,0,0,0,0,0,0,0,0,0,0,0,0,0,0,0,0,0,0,0,0,0,0,0,0,0,0,0,0,0,0,0,0,0,0,0,0,0,286,0,0,0,0,0,0,0,0,0,0,
0,0,0,0,0,0,0,0,0,0,0,0,0,0,0,0,0,0,0,0,0,0,0,0,0,0,0,0,0,0,0,0,0,0,0,0,0,0,0,0,0,0,0,0,0,0,0,294,0,0,0,0,0,0,0,0,0,0,
0,0,0,0,0,0,0,0,0,0,0,0,0,0,0,0,0,0,0,0,0,0,0,0,0,0,0,0,0,0,0,0,0,0,0,0,0,0,0,0,0,0,0,0,0,0,0,286,0,0,0,0,0,0,0,0,0,0,
0,0,0,0,0,0,0,0,0,0,0,0,0,0,0,0,0,0,0,0,0,0,0,0,0,0,0,0,0,0,0,0,0,0,0,0,0,0,0,0,0,0,0,0,0,0,0,294,0,0,0,0,0,0,0,0,0,0,
0,0,0,0,0,0,0,0,0,0,0,0,0,0,0,0,0,0,0,0,0,0,0,0,0,0,0,0,0,0,0,0,0,0,0,0,0,0,0,0,0,0,0,0,0,0,0,286,0,0,0,0,0,0,0,0,0,0,
0,0,0,0,0,0,0,0,0,0,0,0,0,0,0,0,0,0,0,0,0,0,0,0,0,0,0,0,0,0,0,0,0,0,0,0,0,0,0,0,0,0,0,0,0,0,0,294,0,0,0,0,0,0,0,0,0,0,
0,0,0,0,0,0,0,0,0,0,0,0,0,0,0,0,0,0,0,0,0,0,0,0,0,0,0,0,0,0,0,0,0,0,0,0,0,0,0,0,0,0,0,0,0,0,0,0,0,0,0,286,0,0,0,0,0,0,
0,0,0,0,0,0,0,0,0,0,0,0,0,0,0,0,0,0,0,0,0,0,0,0,0,0,0,0,0,0,0,0,0,0,0,0,0,0,0,0,0,0,0,0,0,0,0,0,0,0,0,294,0,0,0,0,0,0,
0,0,0,0,0,0,0,0,0,0,0,0,0,0,0,0,0,0,0,0,0,0,0,0,0,0,0,0,0,0,0,0,0,0,0,0,0,0,0,0,0,0,0,0,0,0,0,0,0,0,0,286,0,0,0,0,0,0,
0,0,0,0,0,0,0,0,0,0,0,0,0,0,0,0,0,0,0,0,0,0,0,0,0,0,0,0,0,0,0,0,0,0,0,0,0,0,0,0,0,0,0,0,0,0,0,0,0,0,0,294,0,0,0,0,0,0
  </data>
 </layer>
 <objectgroup id="4" name="events"/>
</map>
