<?xml version="1.0" encoding="UTF-8"?>
<map version="1.10" tiledversion="1.10.2" orientation="orthogonal" renderorder="right-down" compressionlevel="0" width="48" height="48" tilewidth="32" tileheight="32" infinite="0" nextlayerid="4" nextobjectid="1">
 <tileset firstgid="1" source="RMXP-KANTO50S_OUT.tsx"/>
 <tileset firstgid="2225" source="RMXP-auto-hgss-sea.tsx"/>
 <tileset firstgid="2273" source="RMXP-auto-noanimsea.tsx"/>
 <tileset firstgid="2321" source="RMXP-auto-a-beach.tsx"/>
 <tileset firstgid="2369" source="RMXP-auto-a-flowred.tsx"/>
 <tileset firstgid="2417" source="RMXP-auto-a-flow.tsx"/>
 <tileset firstgid="2465" source="RMXP-auto-land2-2.tsx"/>
 <tileset firstgid="2513" source="RMXP-auto-still.tsx"/>
 <layer id="1" name="lower" width="48" height="48">
  <data encoding="csv">
0,0,0,0,0,0,0,0,0,0,0,0,3,3,3,3,2529,2513,2513,2513,2513,2513,4,4,4,2513,2537,289,290,5,2289,2273,2273,2273,2273,2273,2273,2273,2273,2273,2273,2273,2273,2273,2273,2273,2273,2273,
0,0,0,0,0,0,0,0,0,0,0,0,3,3,3,3,2529,2513,2513,2513,2513,2513,4,4,4,2513,2537,289,290,5,2289,2273,2273,2273,2273,2273,2273,2273,2273,2273,2273,2273,2273,2273,2273,2273,2273,2273,
0,0,0,0,0,0,0,0,0,0,0,0,3,3,3,3,2529,2513,2513,2513,2513,2513,4,4,4,2513,2537,289,290,5,2289,2273,2273,2273,2273,2273,2273,2273,2273,2273,2273,2273,2273,2273,2273,2273,2273,2273,
0,0,0,0,0,0,0,0,0,0,0,0,3,3,3,3,2529,2513,2513,2513,2513,2513,4,4,4,2513,2537,289,290,5,2289,2273,2273,2273,2273,2273,2273,2273,2273,2273,2273,2273,2273,2273,2273,2273,2273,2273,
4,4,4,4,4,4,4,4,4,4,4,4,4,4,4,4,2529,2513,2513,2513,2513,2513,2513,2513,2513,2513,2537,289,290,5,2289,2273,2273,2273,2273,2273,2273,2273,2273,2273,2273,2273,2273,2273,2273,2273,2273,2273,
4,4,4,4,4,4,4,4,4,4,4,4,4,4,4,4,2529,2513,2513,2513,2513,2513,2513,2513,2513,2513,2537,289,290,5,2289,2273,2273,2273,2273,2273,2273,2273,2273,2273,2273,2273,2273,2273,2273,2273,2273,2273,
4,4,4,4,4,4,4,4,4,4,4,4,4,4,4,4,2529,2513,2513,2513,2513,2513,2513,2513,2513,2513,2537,282,284,5,2289,2273,2273,2273,2273,2273,2273,2273,2273,2273,2273,2273,2273,2273,2273,2273,2273,2273,
4,4,4,4,2547,2533,2533,2533,2533,2533,2533,2533,2533,2533,2533,2533,2514,2513,2513,2513,2517,2541,2541,2541,2541,2541,2551,5,6,5,2289,2273,2273,2273,2273,2273,2273,2273,2273,2273,2273,2273,2273,2273,2273,2273,2273,2273,
4,4,4,4,2529,2513,2513,2513,2513,2513,2513,2513,2513,2513,2513,2513,2513,2513,2513,2513,2537,5,4,4,4,4,4,3,4,4,2313,2301,2301,2301,2301,2301,2301,2301,2301,2301,2301,2301,2301,2301,2301,2301,2301,2301,
4,4,4,4,2529,2513,2517,2541,2541,2541,2541,2541,2541,2541,2541,2541,2541,2541,2541,2541,2551,6,6,6,6,3,40,5,6,5,5,5,5,5,5,5,5,5,5,5,4,4,4,4,4,4,4,4,
4,4,4,4,2529,2513,2537,2,40,40,40,40,24,40,40,40,40,40,40,40,24,6,5,4,3,5,4,3,4,5,6,6,6,6,6,6,6,6,6,5,4,4,4,4,4,4,4,4,
4,4,4,4,2529,2513,2537,2,24,154,155,156,40,40,40,40,24,40,40,24,40,6,5,6,5,40,6,5,6,5,398,399,399,399,399,399,399,400,2,2,4,4,4,4,4,4,4,4,
4,4,4,4,2529,2513,2537,5,24,162,163,164,40,24,40,40,40,40,40,40,40,6,6,4,3,4,3,4,5,5,406,407,382,415,415,383,407,408,4,4,6,6,6,6,6,4,4,4,
4,4,4,4,2529,2513,2537,2,4,4,4,4,4,4,4,4,4,4,4,4,4,6,5,6,5,6,40,6,4,4,406,407,408,5,4,406,407,408,4,4,4,4,4,4,4,4,4,4,
4,4,4,4,2529,2513,2537,2,4,4,4,4,4,4,4,4,4,4,4,4,4,6,3,4,40,4,3,4,4,4,406,407,408,4,5,406,407,408,4,4,4,4,4,4,4,4,4,4,
4,4,4,4,2529,2513,2537,5,4,4,4,4,4,4,4,4,4,4,4,4,4,6,5,6,5,6,5,6,4,4,406,407,408,5,4,406,407,408,5,6,5,4,5,4,4,4,4,4,
163,163,164,4,2529,2513,2537,2,398,399,399,399,399,399,399,399,399,399,399,399,399,399,399,399,399,399,399,399,399,399,391,407,408,5,6,406,407,408,3,4,3,5,4,4,4,4,4,4,
163,163,164,40,2529,2513,2537,5,406,407,407,407,407,407,407,407,407,407,407,407,407,407,407,407,407,407,407,407,407,407,407,407,408,4,6,406,407,408,5,6,4,5,4,4,4,4,4,4,
171,171,172,5,2529,2513,2537,2,406,407,382,415,415,415,415,415,415,415,415,415,415,415,415,415,415,415,415,415,415,415,415,415,416,5,6,406,407,408,40,4,3,4,4,4,4,4,4,4,
5,40,5,2,2529,2513,2537,2,406,407,408,6,5,5,5,5,5,5,5,5,3,4,3,4,3,4,6,5,6,5,6,5,40,5,6,406,407,408,4,6,5,4,4,4,4,4,4,4,
2533,2533,2533,2533,2514,2513,2537,5,406,407,408,3,3,4,4,4,4,4,4,4,4,5,4,4,4,3,4,3,40,3,4,3,4,3,6,406,407,408,3,4,40,5,2,5,2,2,2,2,
2513,2513,2513,2513,2513,2513,2537,2,406,407,408,6,5,4,4,4,4,4,4,4,4,4,4,4,4,4,6,5,6,4,4,4,4,4,6,406,407,408,4,5,6,4,4,4,4,4,4,4,
2541,2541,2541,2541,2541,2541,2551,5,406,407,390,399,399,399,399,399,399,399,399,400,4,4,4,4,4,3,3,3,4,4,4,4,4,4,5,406,407,408,5,4,3,4,4,3,4,3,4,3,
5,5,5,5,5,5,5,4,406,407,407,407,407,407,407,407,407,407,407,408,4,4,4,4,4,5,40,5,4,4,4,4,4,4,4,406,407,408,5,5,4,5,5,4,5,4,5,4,
398,399,399,399,399,399,399,399,391,407,382,415,415,415,415,415,415,383,407,408,3,4,3,4,3,3,4,3,4,4,3,40,5,4,5,406,407,408,2,3,4,4,4,4,4,4,4,4,
406,407,407,407,407,407,407,407,407,407,408,3,2,3,2,3,2,406,407,408,5,6,5,6,5,5,6,4,3,6,2,3,3,5,5,406,407,408,2,5,6,5,98,99,99,99,99,99,
414,415,415,415,415,415,415,415,383,407,408,5,40,3,3,2,3,406,407,390,399,399,399,399,399,399,399,399,399,399,399,399,399,399,399,391,407,408,2,4,3,4,106,107,107,107,107,107,
4,5,4,5,5,4,4,3,406,407,408,4,3,4,5,3,2,406,407,407,407,407,407,407,407,407,407,407,407,407,407,407,407,407,407,407,407,408,2,5,4,5,106,107,107,107,107,107,
4,4,4,4,4,4,2,5,406,407,408,3,6,6,6,6,3,406,407,382,415,415,415,415,415,415,415,415,415,415,415,415,415,415,415,415,415,416,2,4,3,5,106,107,107,107,107,107,
4,4,4,4,4,4,2,40,406,407,408,3,6,6,6,6,3,406,407,408,4,5,4,3,4,3,5,4,4,4,4,5,4,3,4,5,5,6,2,40,6,4,106,107,107,107,107,107,
4,4,4,4,4,4,2,5,406,407,408,40,6,6,6,6,5,406,407,408,2,4,4,4,4,4,4,4,40,3,4,4,4,4,4,4,3,4,2,4,3,5,106,107,107,107,107,107,
4,4,4,4,4,4,2,3,406,407,408,3,6,6,6,6,4,406,407,408,40,4,4,4,4,4,4,4,3,4,4,4,4,4,4,4,5,6,2,5,4,5,106,107,107,107,107,107,
4,4,4,4,4,4,2,5,406,407,408,3,3,6,6,6,3,406,407,408,2,4,4,4,4,4,4,4,4,4,4,4,4,4,4,4,3,4,2,4,3,4,106,107,107,107,107,107,
4,4,4,4,4,4,2,40,406,407,390,399,399,399,399,399,399,391,407,390,399,399,399,399,399,399,399,399,399,399,399,399,399,399,399,399,399,400,2,5,4,5,106,107,107,107,107,107,
4,4,4,4,4,4,2,5,406,407,407,407,407,407,407,407,407,407,407,407,407,407,407,407,407,407,407,407,407,407,407,407,407,407,407,407,407,408,2,4,3,5,106,107,107,107,107,107,
4,4,4,4,4,4,2,3,414,415,415,415,415,415,415,415,415,415,415,415,415,415,415,415,415,415,415,415,415,415,415,415,415,415,415,415,415,416,2,5,4,4,106,107,107,107,107,107,
4,4,4,4,4,4,2,4,4,4,4,4,4,4,4,4,4,6,6,4,6,6,6,6,6,6,2,4,4,4,4,4,4,4,4,4,4,4,2,40,4,5,106,107,107,107,107,107,
4,4,4,4,4,4,2,4,3,4,3,3,3,4,3,3,4,3,4,3,4,3,4,3,4,3,4,3,4,3,4,3,4,40,4,3,4,3,4,3,4,4,106,107,107,107,107,107,
4,4,4,4,4,4,2,3,5,3,5,6,5,3,4,3,6,4,5,5,6,5,6,40,6,5,5,5,6,4,5,4,5,5,5,4,5,4,5,4,5,5,106,107,107,107,107,107,
4,4,4,4,4,4,64,4,4,4,4,4,4,4,4,4,40,3,4,3,4,3,5,3,4,3,4,3,3,3,4,3,4,5,5,5,5,5,5,5,5,6,114,115,115,115,115,115,
4,4,4,4,4,4,4,4,4,4,4,4,4,4,2,5,5,4,5,5,3,3,3,3,3,3,3,3,2,4,5,4,5,5,98,99,99,99,99,99,99,99,99,99,99,99,99,99,
4,4,4,4,4,4,4,4,4,4,4,4,4,4,2,4,3,3,4,5,5,3,4,3,4,3,4,3,2,3,4,3,4,5,106,107,107,107,107,107,107,107,107,107,107,107,107,107,
4,4,4,4,4,4,4,4,4,4,4,4,4,4,2,5,5,4,5,5,6,5,5,5,6,5,5,5,2,4,5,4,5,5,106,107,107,107,107,107,107,107,107,107,107,107,107,107,
4,4,4,4,4,4,4,4,4,4,4,4,4,4,2,5,3,4,3,5,4,3,4,3,4,3,5,3,2,3,4,3,4,5,106,107,107,107,107,107,107,107,107,107,107,107,107,107,
4,4,4,4,4,4,4,4,4,4,4,4,4,6,6,154,155,155,156,5,40,40,5,6,5,6,5,6,6,154,155,155,156,5,106,107,107,107,107,107,107,107,107,107,107,107,107,107,
4,4,4,4,4,4,4,4,4,4,4,4,4,6,6,162,163,163,164,5,40,40,2,5,2,5,2,40,6,162,163,163,164,5,106,107,107,107,107,107,107,107,107,107,107,107,107,107,
4,4,4,4,4,4,4,4,4,4,4,4,4,6,6,162,163,163,164,5,5,5,6,6,5,6,5,40,6,162,163,163,164,5,106,107,107,107,107,107,107,107,107,107,107,107,107,107,
4,4,4,4,4,4,4,4,4,4,4,4,4,6,6,162,163,163,164,5,40,2,5,5,2,5,2,4,6,162,163,163,164,5,106,107,107,107,107,107,107,107,107,107,107,107,107,107
  </data>
 </layer>
 <layer id="2" name="middle" width="48" height="48">
  <data encoding="csv">
797,797,797,797,797,797,797,797,797,797,797,797,797,797,798,798,0,0,0,0,0,0,0,0,0,0,0,0,0,1282,0,0,0,0,0,0,0,0,0,0,0,0,0,0,0,0,0,0,
797,797,797,797,797,797,797,797,797,797,797,797,797,797,798,798,0,0,0,0,0,0,0,0,0,0,0,0,0,1282,0,0,0,0,0,0,0,0,0,0,0,0,0,0,0,0,0,0,
797,797,797,797,797,797,797,797,797,797,797,797,797,797,798,798,0,0,0,0,0,0,0,0,0,0,0,0,0,1282,0,0,0,0,0,0,0,0,0,0,0,0,0,0,0,0,0,0,
797,797,797,797,797,797,797,797,797,797,797,797,797,797,798,798,0,0,0,0,0,0,0,0,0,0,0,0,0,1282,0,0,0,0,0,0,0,0,0,0,0,0,0,0,0,0,0,0,
797,797,797,797,797,797,797,797,797,797,797,797,797,797,798,798,0,0,0,0,0,0,0,0,0,0,0,0,0,1282,0,0,0,0,0,0,0,0,0,0,0,0,0,0,0,0,0,0,
797,797,809,805,805,805,805,805,805,805,805,805,805,805,806,798,0,0,0,0,0,0,0,0,0,0,0,811,815,1282,0,0,0,0,0,0,0,0,0,0,0,0,0,0,0,0,0,0,
797,797,798,809,805,805,805,805,805,805,805,805,805,805,805,806,0,0,0,0,0,0,0,0,0,0,0,0,0,1282,0,0,0,0,0,0,0,0,0,0,0,0,0,0,0,0,0,0,
797,797,798,798,0,0,0,0,0,0,0,0,0,0,0,0,0,0,0,0,0,0,0,0,0,0,0,0,0,1282,0,0,0,0,0,0,0,0,0,0,0,0,0,0,0,0,0,0,
797,797,798,798,0,0,0,0,0,0,0,0,0,0,0,0,0,0,0,0,0,476,0,0,0,476,0,0,0,1282,0,0,0,0,0,0,0,0,0,0,525,526,525,526,525,526,525,526,
797,797,798,798,0,0,0,0,0,0,0,0,0,0,0,0,0,0,0,0,0,476,0,0,0,476,0,0,0,1284,1298,1298,1298,1298,1298,1298,1298,1298,1278,0,419,418,417,418,417,418,417,418,
797,797,798,798,0,0,0,1275,1298,1298,1298,1298,1298,1298,1298,1298,1298,1298,1298,1298,1298,476,0,0,0,0,2129,2130,2131,479,0,0,0,0,0,0,0,0,1282,939,427,426,425,426,425,426,425,426,
797,797,798,798,0,0,0,1281,0,0,0,0,0,0,0,0,0,0,0,0,0,476,0,0,0,0,2137,2138,2139,2140,0,0,0,0,0,0,0,0,1282,0,419,418,417,418,417,418,417,418,
797,797,798,798,0,0,0,1281,1469,1466,1467,1467,1467,1468,1469,1467,1467,1467,1467,1467,1468,476,0,0,0,0,2145,2146,2147,2148,0,0,0,0,0,0,0,0,1282,939,427,426,427,426,425,426,425,426,
797,797,798,798,0,0,0,1281,1477,1474,1475,1478,1479,1480,1477,1479,1478,1479,1478,1479,1480,476,843,0,0,843,2153,2154,2155,2156,0,0,0,0,0,0,0,0,1282,939,435,434,419,418,417,418,417,418,
797,797,798,798,0,0,0,1281,1485,1482,1487,1486,1487,1488,1485,1487,1486,1487,1486,1487,1488,476,851,0,0,851,2161,2162,2163,2164,0,0,0,0,0,0,0,0,1282,939,443,444,427,426,425,426,425,426,
805,805,806,798,0,0,0,1281,1493,0,1495,1494,1495,1496,1493,1495,1494,1495,1494,1495,1496,476,859,0,0,859,0,939,0,939,0,0,0,0,0,0,0,0,1295,1295,1298,1278,419,418,417,418,417,418,
802,802,802,803,0,0,0,1281,1329,1431,1431,1431,1431,1431,1329,1431,1431,1431,1431,1431,1431,0,0,0,0,0,0,0,0,0,0,0,0,0,476,0,0,0,0,0,0,1282,427,426,425,426,425,426,
0,0,0,0,0,0,0,1281,0,0,0,0,0,0,0,0,0,0,0,0,0,0,0,0,0,0,0,0,0,0,0,0,0,0,476,0,0,0,0,0,0,1282,419,418,417,418,417,418,
0,0,0,0,0,0,0,1281,0,0,0,0,0,1469,1467,1467,1467,1467,1467,1468,740,741,742,743,624,0,0,0,0,0,0,0,0,0,476,0,0,0,0,0,0,1282,427,426,425,426,425,426,
0,0,0,0,0,0,0,1281,0,0,0,0,0,1477,1479,1478,1479,1478,1479,1480,748,749,750,751,632,0,0,0,0,0,0,0,0,0,476,0,0,0,0,0,843,1282,435,434,433,434,433,434,
0,0,0,0,0,0,0,1281,0,0,0,811,829,1485,1487,1482,1487,1486,1487,1488,756,757,758,759,640,1342,829,0,0,0,0,0,0,0,476,0,0,0,0,0,851,1282,443,444,443,444,443,444,
0,0,0,0,0,0,0,1281,0,0,0,0,0,1493,1495,0,1495,1494,1495,1496,764,765,0,767,648,1350,0,0,0,0,0,0,0,0,0,0,0,0,0,0,859,1295,1298,1298,1298,1298,1298,1298,
0,0,0,0,0,0,0,1281,0,0,0,0,0,1329,1431,1431,1431,1431,1431,1431,1430,1431,1431,1431,1431,1358,0,0,0,0,0,0,0,0,0,0,0,0,0,0,0,0,0,0,0,0,0,0,
1298,1298,1298,1298,1298,1298,1298,1296,0,0,0,0,0,0,0,0,0,0,0,0,0,0,0,0,0,939,0,0,0,0,0,0,0,0,0,0,0,0,0,0,843,0,0,0,0,0,0,0,
0,0,0,0,0,0,0,0,0,0,0,0,0,0,0,0,0,0,0,0,0,0,0,0,0,0,0,0,0,0,0,0,0,0,811,829,829,815,1280,0,851,1279,1298,1298,1298,1298,1298,1298,
0,0,0,0,0,0,0,843,0,0,0,0,0,0,0,0,953,0,0,0,0,0,0,0,0,0,0,0,0,0,0,0,0,0,0,0,0,0,1281,0,859,1282,0,0,1234,1235,1236,0,
0,0,0,0,0,0,0,851,0,0,0,0,0,0,0,0,0,0,0,0,0,0,0,0,0,0,0,0,0,0,0,0,0,0,0,0,0,0,1281,0,0,1282,0,1241,1242,1243,1244,1248,
1298,1298,1298,1298,1298,1298,1280,859,0,0,0,0,0,1369,1377,0,0,0,0,0,0,0,0,0,0,0,0,0,0,0,0,0,0,0,0,0,0,0,1281,0,0,1282,0,0,1250,1251,1252,0,
525,526,525,526,525,526,1281,0,0,0,0,0,1370,1371,1372,1373,0,0,0,0,0,0,0,0,0,0,0,0,0,0,0,0,0,0,0,0,0,0,1281,0,0,1282,0,1257,1258,1259,1260,1256,
417,418,417,418,417,420,1281,0,0,0,0,0,1378,1379,1380,1381,843,0,0,0,0,1469,1467,1467,1467,1467,1467,1468,0,0,1469,1466,1471,1472,2129,2130,2131,2132,1281,0,0,1282,0,1237,1238,1239,1240,1342,
425,426,425,426,425,428,1281,0,0,0,0,0,1386,1387,1388,1389,851,0,0,0,0,1477,1479,1478,1479,1478,1479,1480,0,0,1477,1474,1479,1480,2137,2138,2139,2140,1281,0,0,1282,0,1272,1268,1269,1270,1350,
417,418,417,418,417,420,1281,0,0,0,0,0,1394,0,1396,1397,859,0,0,0,0,1485,1487,1486,1487,1486,1487,1488,0,939,1485,1482,1487,1488,2145,2146,2147,2148,1281,0,0,1282,0,0,1271,1431,1431,1358,
425,426,425,426,425,428,1281,0,0,0,0,0,1405,1431,1431,1431,0,0,0,0,0,1493,1495,1494,1495,1494,1495,1496,0,939,1493,0,1495,1496,2153,2154,2155,2156,1281,0,0,1282,0,1241,1242,1243,1244,1248,
417,418,417,418,417,420,1281,0,0,0,0,0,0,0,0,0,0,0,0,0,0,1329,1431,1431,1431,1431,1431,1431,0,0,1329,1431,1431,1431,2161,2162,2163,2164,1281,0,0,1282,0,0,1250,1251,1252,0,
425,426,425,426,425,428,1281,0,0,0,0,0,0,0,0,0,0,0,0,0,0,0,0,0,0,0,0,0,0,0,0,0,0,0,0,0,0,0,1281,0,0,1282,0,1257,1258,1259,1260,1256,
417,418,417,418,417,420,1281,0,0,0,0,0,0,0,0,0,0,0,0,0,0,0,0,0,0,0,0,0,0,0,0,0,0,0,0,0,0,0,1281,0,0,1282,0,1237,1238,1239,1240,1342,
425,426,425,426,425,428,1281,686,687,687,687,687,687,687,687,687,688,1298,1298,1298,1298,1298,1298,1298,1298,1298,0,686,687,687,687,687,687,687,687,687,687,688,1296,0,0,1282,0,1272,1268,1269,1270,1350,
417,418,417,418,417,420,1281,0,0,0,0,0,0,0,0,0,0,0,0,0,0,0,0,0,0,0,0,0,0,0,0,0,0,0,0,0,0,0,0,0,0,1282,0,0,1271,1431,1431,1358,
425,426,425,426,425,428,1281,0,0,0,0,0,0,0,0,0,0,0,0,0,0,0,0,0,0,0,0,0,0,0,0,0,0,0,0,0,0,0,0,0,0,1282,0,0,0,0,0,0,
417,418,417,418,417,420,412,1298,1298,1298,1298,1298,1298,1298,1280,0,0,0,0,1279,0,0,0,0,0,0,0,0,1280,0,0,0,0,1279,1298,1298,1298,1298,1298,1298,1298,1294,0,0,0,0,0,0,
425,426,425,426,425,428,525,526,525,526,525,526,525,526,1281,0,0,0,0,1282,811,829,829,829,829,829,829,815,1281,0,0,0,0,1282,0,0,0,0,0,0,0,0,0,0,0,0,0,0,
417,418,417,418,417,418,417,418,417,418,417,418,417,420,1281,0,0,0,0,1282,0,0,0,0,0,0,0,0,1281,0,0,0,0,1282,0,0,0,0,0,0,0,0,0,0,0,0,0,0,
425,426,425,426,425,426,425,426,425,426,425,426,425,428,1281,0,0,0,0,1282,0,0,0,0,0,0,0,0,1281,0,0,0,0,1282,0,310,311,311,311,311,311,311,311,311,311,311,311,311,
417,418,417,418,417,418,417,418,417,418,417,418,417,420,1281,0,0,0,0,1282,0,0,0,0,0,0,0,0,1281,0,0,0,0,1282,0,318,319,319,319,319,319,319,319,319,319,319,319,319,
425,426,425,426,425,426,425,426,425,426,425,426,425,428,1281,0,0,0,0,1282,0,0,0,0,0,0,0,0,1281,0,0,0,0,1282,0,326,327,327,327,327,327,327,327,327,327,327,327,327,
417,418,417,418,417,418,417,418,417,418,417,418,417,420,1281,0,0,0,0,1282,0,0,0,0,0,0,0,0,1281,0,0,0,0,1282,0,310,311,311,311,311,311,311,311,311,311,311,311,311,
425,426,425,426,425,426,425,426,425,426,425,426,425,428,1281,0,0,0,0,1282,0,0,0,0,0,0,0,0,1281,0,0,0,0,1282,0,318,319,319,319,319,319,319,319,319,319,319,319,319,
417,418,417,418,417,418,417,418,417,418,417,418,417,420,1281,0,0,0,0,1282,0,0,0,0,0,0,0,0,1281,0,0,0,0,1282,0,326,327,327,327,327,327,327,327,327,327,327,327,327
  </data>
 </layer>
 <layer id="3" name="upper" width="48" height="48">
  <data encoding="csv">
0,0,0,0,0,0,0,0,0,0,0,0,0,0,0,0,0,0,0,0,0,1209,1210,1211,1212,1213,0,0,0,0,0,0,0,0,0,0,0,0,0,0,0,0,0,0,0,0,0,0,
0,0,0,0,0,0,0,0,0,0,0,0,0,0,0,0,0,0,0,0,0,1217,1218,1219,1220,1221,0,0,0,0,0,0,0,0,0,0,0,0,0,0,0,0,0,0,0,0,0,0,
0,0,0,0,0,0,0,0,0,0,0,0,0,0,0,0,0,0,0,0,0,1209,1210,1211,1212,1213,0,0,0,0,0,0,0,0,0,0,0,0,0,0,0,0,0,0,0,0,0,0,
0,0,0,0,0,0,0,0,0,0,0,0,0,0,0,0,0,0,0,0,0,1217,1218,1219,1220,1221,0,0,0,0,0,0,0,0,0,0,0,0,0,0,0,0,0,0,0,0,0,0,
0,0,0,0,0,0,0,0,0,0,0,0,0,0,0,0,0,0,0,0,0,1209,1210,1211,1212,1213,0,0,0,0,0,0,0,0,0,0,0,0,0,0,0,0,0,0,0,0,0,0,
0,0,0,0,0,0,0,0,0,0,0,0,0,0,0,0,0,0,0,0,0,1217,1218,1219,1220,1221,0,0,0,0,0,0,0,0,0,0,0,0,0,0,0,0,0,0,0,0,0,0,
0,0,0,0,0,0,0,0,0,0,0,0,0,0,0,0,0,0,0,0,0,1217,1218,1219,1220,1221,0,0,0,0,0,0,0,0,0,0,0,0,0,0,0,0,0,0,0,0,0,0,
0,0,0,0,0,0,0,0,0,0,0,0,0,0,0,0,0,0,0,0,0,1225,1226,1227,1228,1229,0,0,0,0,0,0,0,0,0,0,0,0,0,0,412,413,412,413,412,413,412,413,
0,0,0,0,0,0,0,0,0,0,0,0,0,0,0,0,0,0,0,0,0,0,0,0,0,0,0,0,0,0,0,0,0,0,0,0,0,0,0,432,0,0,0,0,0,0,0,0,
0,0,0,0,0,0,0,0,0,0,0,0,0,0,0,0,0,0,0,0,0,0,0,0,0,0,0,0,0,471,471,471,471,471,471,471,471,471,0,440,0,0,0,0,0,0,0,0,
0,0,0,0,0,0,0,0,0,0,0,0,0,0,0,0,0,0,0,0,0,0,0,0,0,0,0,0,0,2132,479,479,479,479,479,479,479,479,0,432,0,0,0,0,0,0,0,0,
0,0,0,0,0,0,0,0,0,0,0,0,0,0,0,0,0,0,0,0,0,0,0,0,0,0,0,0,0,0,0,0,0,0,0,0,0,0,0,440,0,0,0,0,0,0,0,0,
0,0,0,0,0,0,0,0,0,0,0,0,0,0,0,0,0,0,0,0,0,0,0,0,0,0,0,0,0,0,0,0,0,0,0,0,0,0,0,432,0,0,0,0,0,0,0,0,
0,0,0,0,0,0,0,0,0,0,0,0,0,0,0,0,0,0,0,0,0,0,0,0,0,0,0,0,0,0,0,0,0,0,0,0,0,0,0,440,0,0,0,0,0,0,0,0,
0,0,0,0,0,0,0,0,0,0,0,0,0,0,0,0,0,0,0,0,0,0,0,0,0,0,939,0,939,939,0,0,0,0,0,0,0,0,0,0,0,432,0,0,0,0,0,0,
0,0,0,0,0,0,0,0,0,0,0,0,0,0,0,0,0,0,0,0,0,0,0,0,0,0,0,939,0,939,0,0,0,0,0,0,0,0,0,0,0,440,0,0,0,0,0,0,
0,0,0,0,0,0,0,0,0,0,0,0,0,0,0,0,0,0,0,0,0,0,0,0,0,0,0,0,0,0,0,0,0,0,0,0,0,0,0,0,0,432,0,0,0,0,0,0,
0,0,0,0,0,0,0,0,0,0,0,0,0,0,0,0,0,0,0,0,0,0,0,0,0,0,0,0,0,0,0,0,0,0,0,0,0,0,0,0,0,440,0,0,0,0,0,0,
0,0,0,0,0,0,0,0,0,0,0,0,0,0,0,0,0,0,0,0,0,0,0,0,0,0,0,0,0,0,0,0,0,0,0,0,0,0,0,0,0,432,0,0,0,0,0,0,
0,0,0,0,0,0,0,0,0,0,0,0,0,0,0,0,0,0,0,0,0,0,0,0,0,0,0,691,692,693,694,695,696,736,0,0,0,0,0,0,0,440,0,0,0,0,0,0,
0,0,0,0,0,0,0,0,0,0,0,0,0,0,0,0,0,0,0,0,0,0,0,0,0,829,0,699,700,701,702,703,704,744,0,0,0,0,0,0,0,0,0,0,0,0,0,0,
0,0,0,0,0,0,0,0,0,0,0,0,0,0,0,0,0,0,0,0,0,0,0,0,0,0,0,707,708,709,710,711,712,752,0,0,0,0,0,0,0,0,0,0,0,0,0,0,
0,0,0,0,0,0,0,0,0,0,0,0,0,0,0,0,0,0,0,0,0,0,0,0,0,0,0,715,716,717,718,719,720,760,0,0,0,0,0,0,0,0,0,0,0,0,0,0,
0,0,0,0,0,0,0,0,0,0,0,0,0,0,0,0,0,0,0,0,0,0,0,0,0,0,0,723,724,725,0,727,728,768,0,0,0,0,0,0,0,0,0,0,0,0,0,0,
0,0,0,0,0,0,0,0,0,0,0,0,0,0,0,0,0,0,0,0,0,0,0,0,0,0,0,0,0,0,0,0,0,0,0,0,0,0,0,0,0,0,0,0,0,0,0,0,
0,0,0,0,0,0,0,0,0,0,0,0,0,0,0,0,0,0,0,0,0,0,0,0,0,0,0,0,0,0,0,0,0,0,0,0,0,0,0,0,0,0,0,0,0,0,0,0,
0,0,0,0,0,0,0,0,0,0,0,0,0,0,0,0,0,0,0,0,0,0,0,0,0,0,0,0,0,0,0,0,0,0,0,0,0,0,0,0,0,0,0,0,0,0,0,0,
412,413,412,413,412,413,0,0,0,0,0,0,0,0,0,0,0,0,0,0,0,0,0,0,0,0,0,0,0,0,0,0,0,0,0,0,0,0,0,0,0,0,0,0,0,0,0,0,
0,0,0,0,0,0,431,0,0,0,0,0,0,0,0,0,0,0,0,0,0,0,0,0,0,0,0,0,0,0,0,0,0,0,0,0,0,0,0,0,0,0,0,0,0,0,0,0,
0,0,0,0,0,0,439,0,0,0,0,0,0,0,0,0,0,0,0,0,0,0,0,0,0,0,0,0,0,0,0,0,0,0,0,0,0,0,0,0,0,0,0,0,0,0,0,0,
0,0,0,0,0,0,431,0,0,0,0,0,0,0,0,0,0,0,0,0,0,0,0,0,0,0,0,0,0,0,0,0,0,0,0,0,0,0,0,0,0,0,0,0,0,0,0,0,
0,0,0,0,0,0,439,0,0,0,0,0,0,0,0,0,0,0,0,0,0,0,0,0,0,0,0,0,0,0,0,0,0,0,0,0,0,0,0,0,0,0,0,0,1234,1235,1236,0,
0,0,0,0,0,0,431,0,0,0,0,0,0,0,0,0,0,0,0,0,0,0,0,0,0,0,0,0,0,0,0,0,0,0,0,0,0,0,0,0,0,0,0,0,0,0,0,0,
0,0,0,0,0,0,439,0,0,0,0,0,0,0,0,0,0,0,0,0,0,0,0,0,0,0,0,0,0,0,0,0,0,0,0,0,0,0,0,0,0,0,0,0,0,0,0,0,
0,0,0,0,0,0,431,0,0,0,0,0,0,0,0,0,0,0,0,0,0,0,0,0,0,0,0,0,0,0,0,0,0,0,0,0,0,0,0,0,0,0,0,0,0,0,0,0,
0,0,0,0,0,0,439,0,0,0,0,0,0,0,0,0,0,0,0,0,0,0,0,0,0,0,0,0,0,0,0,0,0,0,0,0,0,0,0,0,0,0,0,0,0,0,0,0,
0,0,0,0,0,0,431,0,0,0,0,0,0,0,0,0,0,0,0,0,0,0,0,0,0,0,0,0,0,0,0,0,0,0,0,0,0,0,0,0,0,0,0,0,0,0,0,0,
0,0,0,0,0,0,439,0,0,0,0,0,0,0,0,0,0,0,0,0,0,0,0,0,0,0,0,0,0,0,0,0,0,0,0,0,0,0,0,0,0,0,0,0,0,0,0,0,
0,0,0,0,0,0,431,0,0,0,0,0,0,0,0,0,0,0,0,0,0,0,0,0,0,0,0,0,0,0,0,0,0,0,0,0,0,0,0,0,0,0,0,0,0,0,0,0,
0,0,0,0,0,0,439,413,412,413,412,413,412,413,0,0,0,0,0,0,0,0,0,0,0,0,0,0,0,0,0,0,0,0,0,0,0,0,0,0,0,0,0,0,0,0,0,0,
0,0,0,0,0,0,0,0,0,0,0,0,0,0,431,0,0,0,0,0,0,0,0,0,0,0,0,0,0,0,0,0,0,0,0,0,0,0,0,0,0,0,0,0,0,0,0,0,
0,0,0,0,0,0,0,0,0,0,0,0,0,0,439,0,0,0,0,0,0,0,0,0,0,0,0,0,0,0,0,0,0,0,0,0,0,0,0,0,0,0,0,0,0,0,0,0,
0,0,0,0,0,0,0,0,0,0,0,0,0,0,431,0,0,0,0,0,0,0,0,0,0,0,0,0,0,0,0,0,0,0,0,0,0,0,0,0,0,0,0,0,0,0,0,0,
0,0,0,0,0,0,0,0,0,0,0,0,0,0,439,0,0,0,0,0,0,0,0,0,0,0,0,0,0,0,0,0,0,0,0,0,0,0,0,0,0,0,0,0,0,0,0,0,
0,0,0,0,0,0,0,0,0,0,0,0,0,0,431,0,0,0,0,0,0,0,0,0,0,0,0,0,0,0,0,0,0,0,0,0,0,0,0,0,0,0,0,0,0,0,0,0,
0,0,0,0,0,0,0,0,0,0,0,0,0,0,439,0,0,0,0,0,0,0,0,0,0,0,0,0,0,0,0,0,0,0,0,0,0,0,0,0,0,0,0,0,0,0,0,0,
0,0,0,0,0,0,0,0,0,0,0,0,0,0,431,0,0,0,0,0,0,0,0,0,0,0,0,0,0,0,0,0,0,0,0,0,0,0,0,0,0,0,0,0,0,0,0,0,
0,0,0,0,0,0,0,0,0,0,0,0,0,0,439,0,0,0,0,0,0,0,0,0,0,0,0,0,0,0,0,0,0,0,0,0,0,0,0,0,0,0,0,0,0,0,0,0
  </data>
 </layer>
 <objectgroup id="4" name="events"/>
</map>
