<?xml version="1.0" encoding="UTF-8"?>
<map version="1.10" tiledversion="1.10.2" orientation="orthogonal" renderorder="right-down" compressionlevel="0" width="35" height="20" tilewidth="32" tileheight="32" infinite="0" nextlayerid="4" nextobjectid="1">
 <tileset firstgid="1" source="RMXP-KANTO50S_OUT.tsx"/>
 <tileset firstgid="2225" source="RMXP-auto-hgss-sea.tsx"/>
 <tileset firstgid="2273" source="RMXP-auto-noanimsea.tsx"/>
 <tileset firstgid="2321" source="RMXP-auto-a-beach.tsx"/>
 <tileset firstgid="2369" source="RMXP-auto-a-flowred.tsx"/>
 <tileset firstgid="2417" source="RMXP-auto-a-flow.tsx"/>
 <tileset firstgid="2465" source="RMXP-auto-land2-2.tsx"/>
 <tileset firstgid="2513" source="RMXP-auto-still.tsx"/>
 <layer id="1" name="lower" width="35" height="20">
  <data encoding="csv">
417,418,417,418,417,418,417,418,417,418,417,420,2,2,2,2,2,2,2,2,2,2,2,417,418,417,418,417,418,417,418,417,418,417,418,
425,426,425,426,425,426,425,426,425,426,425,428,2,2,2,2,2,2,2,2,2,2,2,425,426,425,426,425,426,425,426,425,426,425,426,
417,418,417,418,417,418,417,418,417,418,417,420,2,2,2,2,2,2,2,2,2,2,2,417,418,417,418,417,418,417,418,417,418,417,418,
425,426,425,426,425,426,425,426,425,426,425,428,2,2,2,2,2,2,2,2,2,2,2,425,426,425,426,425,426,425,426,425,426,425,426,
417,418,417,418,417,418,417,418,417,418,417,420,2,2,2,2,2,2,2,2,2,2,2,417,418,417,418,417,418,417,418,417,418,417,418,
425,426,425,426,425,426,425,426,425,426,425,428,2,2,2,2,2,2,2,2,2,2,2,425,426,425,426,425,426,425,426,425,426,425,426,
417,418,417,418,417,418,417,418,417,418,417,436,5,5,2,5,4,2,2,2,2,2,2,417,418,417,418,417,418,417,418,417,418,417,418,
425,426,425,426,425,426,425,426,425,426,425,428,6,4,2,2,4,2,2,2,2,2,2,425,426,425,426,425,426,425,426,425,426,425,426,
417,418,417,418,417,418,417,418,417,418,433,436,4,3,4,4,2,2,2,2,2,2,2,433,434,417,418,417,418,417,418,417,418,417,418,
425,426,425,426,425,426,425,426,425,428,441,442,4,4,4,6,337,338,339,4,4,4,4,441,442,425,426,425,426,425,426,425,426,425,426,
433,434,433,434,433,434,433,434,433,436,3,4,4,6,2,4,337,338,339,3,6,3,4,3,4,433,434,433,434,433,434,433,434,433,434,
441,442,441,442,441,442,441,442,441,442,5,6,4,4,2,6,337,338,339,4,2,4,4,5,6,441,442,441,442,441,442,441,442,441,442,
805,805,805,805,805,805,805,805,805,805,805,810,3,5,4,2,345,346,347,2,3,4,4,809,805,805,805,805,805,805,805,805,805,805,805,
794,794,794,794,794,794,794,794,794,794,794,796,5,3,4,3,4,4,4,3,6,5,6,798,794,794,794,794,794,794,794,794,794,794,794,
794,794,794,794,794,794,794,794,794,794,794,804,805,805,805,805,321,322,323,805,805,805,805,806,794,794,794,794,794,794,794,794,794,794,794,
805,805,805,805,805,805,805,805,805,805,810,794,794,794,794,794,321,322,323,794,794,794,794,794,809,805,805,805,805,805,805,805,805,805,805,
794,794,794,794,794,794,794,794,794,794,804,805,805,805,805,805,321,322,323,805,805,805,805,805,806,794,794,794,794,794,794,794,794,794,794,
805,805,805,805,805,805,805,805,805,810,794,794,794,794,794,794,321,322,323,794,794,794,794,794,794,809,805,805,805,805,805,805,805,805,805,
794,794,794,794,794,794,794,794,794,804,805,805,805,805,805,805,321,322,323,805,805,805,805,805,805,806,794,794,794,794,794,794,794,794,794,
797,797,797,797,797,797,797,797,797,794,794,794,794,794,794,794,321,322,323,794,794,794,794,794,794,794,797,797,797,797,797,797,797,797,797
  </data>
 </layer>
 <layer id="2" name="middle" width="35" height="20">
  <data encoding="csv">
0,0,0,0,0,0,0,0,0,0,0,0,439,0,0,0,0,0,0,0,0,0,440,0,0,0,0,0,0,0,0,0,0,0,0,
0,0,0,0,0,0,0,0,0,0,0,0,431,1783,1783,1783,1783,1783,1783,1783,1783,1783,432,0,0,0,0,0,0,0,0,0,0,0,0,
0,0,0,0,0,0,0,0,0,0,0,0,1787,1791,1791,1791,1791,1791,1791,1791,1791,1791,1792,0,0,0,0,0,0,0,0,0,0,0,0,
0,0,0,0,0,0,0,0,0,0,0,0,1795,1799,1799,1799,1799,1799,1799,1799,1799,1799,1800,0,0,0,0,0,0,0,0,0,0,0,0,
0,0,0,0,0,0,0,0,0,0,0,0,1803,1807,1807,1807,1807,1807,1807,1807,1807,1807,1808,0,0,0,0,0,0,0,0,0,0,0,0,
0,0,0,0,0,0,0,0,0,0,0,0,1811,1815,1815,1815,1815,1815,1815,1815,1815,1815,1816,0,0,0,0,0,0,0,0,0,0,0,0,
0,0,0,0,0,0,0,0,0,0,0,0,1819,1823,1823,1823,1823,1823,1823,1823,1823,1823,1824,0,0,0,0,0,0,0,0,0,0,0,0,
0,0,0,0,0,0,0,0,0,0,0,0,1827,1831,1831,1831,1831,1831,1831,1831,1831,1831,1832,0,0,0,0,0,0,0,0,0,0,0,0,
0,0,0,0,0,0,0,0,0,0,0,0,1827,1831,1831,1831,1831,1831,1831,1831,1831,1831,1832,0,0,0,0,0,0,0,0,0,0,0,0,
0,0,0,0,0,0,0,0,0,0,472,0,1827,1831,1831,1831,1831,1831,1831,1831,1831,1831,1832,0,472,0,0,0,0,0,0,0,0,0,0,
0,0,0,0,0,0,0,0,0,0,480,0,1851,1839,1839,1839,1839,1839,1839,1839,1839,1839,1840,0,480,0,0,0,0,0,0,0,0,0,0,
0,0,0,0,0,0,0,0,0,0,470,469,2114,2114,2114,2114,2114,2114,2114,2114,2114,2114,2114,483,469,0,0,0,0,0,0,0,0,0,0,
0,0,0,0,0,0,0,0,0,0,0,0,470,0,0,0,0,0,0,0,0,0,470,0,0,0,0,0,0,0,0,0,0,0,0,
0,0,0,0,0,0,0,0,0,0,0,0,469,0,0,0,2118,2119,2120,0,0,0,483,0,0,0,0,0,0,0,0,0,0,0,0,
0,0,0,0,0,0,0,0,0,0,0,0,0,0,0,0,0,0,0,0,0,0,0,0,0,0,0,0,0,0,0,0,0,0,0,
0,0,0,0,0,0,0,0,0,0,0,0,0,0,0,0,0,0,0,0,0,0,0,0,0,0,0,0,0,0,0,0,0,0,0,
0,0,0,0,0,0,0,0,0,0,0,0,0,0,0,0,0,0,0,0,0,0,0,0,0,0,0,0,0,0,0,0,0,0,0,
0,0,0,0,0,0,0,0,0,0,0,0,0,0,0,0,0,0,0,0,0,0,0,0,0,0,0,0,0,0,0,0,0,0,0,
0,0,0,0,0,0,0,0,0,0,0,0,0,0,0,0,0,0,0,0,0,0,0,0,0,0,0,0,0,0,0,0,0,0,0,
0,0,0,0,0,0,0,0,0,0,0,0,0,0,0,0,0,0,0,0,0,0,0,0,0,0,0,0,0,0,0,0,0,0,0
  </data>
 </layer>
 <layer id="3" name="upper" width="35" height="20">
  <data encoding="csv">
0,0,0,0,0,0,0,0,0,0,0,0,0,0,0,0,0,0,0,0,0,0,0,0,0,0,0,0,0,0,0,0,0,0,0,
0,0,0,0,0,0,0,0,0,0,0,0,1779,0,0,0,0,0,0,0,0,0,1784,0,0,0,0,0,0,0,0,0,0,0,0,
0,0,0,0,0,0,0,0,0,0,0,0,0,0,0,0,0,0,0,0,0,0,0,0,0,0,0,0,0,0,0,0,0,0,0,
0,0,0,0,0,0,0,0,0,0,0,0,0,0,0,0,0,0,0,0,0,0,0,0,0,0,0,0,0,0,0,0,0,0,0,
0,0,0,0,0,0,0,0,0,0,0,0,0,0,0,0,0,0,0,0,0,0,0,0,0,0,0,0,0,0,0,0,0,0,0,
0,0,0,0,0,0,0,0,0,0,0,0,0,0,0,0,0,0,0,0,0,0,0,0,0,0,0,0,0,0,0,0,0,0,0,
0,0,0,0,0,0,0,0,0,0,0,0,0,0,0,0,0,0,0,0,0,0,0,0,0,0,0,0,0,0,0,0,0,0,0,
0,0,0,0,0,0,0,0,0,0,0,0,431,0,0,0,0,0,0,0,0,0,432,0,0,0,0,0,0,0,0,0,0,0,0,
0,0,0,0,0,0,0,0,0,0,0,0,439,0,0,2125,2126,2127,2128,2169,0,0,440,0,0,0,0,0,0,0,0,0,0,0,0,
0,0,0,0,0,0,0,0,0,0,431,472,0,0,0,2133,2142,2143,2144,2177,0,0,0,472,432,0,0,0,0,0,0,0,0,0,0,
0,0,0,0,0,0,0,0,0,0,439,480,472,472,472,2141,2150,2151,2152,2185,472,472,472,480,440,0,0,0,0,0,0,0,0,0,0,
0,0,0,0,0,0,0,0,0,0,0,0,480,480,480,2157,2158,2159,2160,2201,480,480,480,0,0,0,0,0,0,0,0,0,0,0,0,
0,0,0,0,0,0,0,0,0,0,0,0,0,0,0,2165,2166,2167,2168,2209,0,0,0,0,0,0,0,0,0,0,0,0,0,0,0,
0,0,0,0,0,0,0,0,0,0,0,0,0,0,0,0,0,0,0,0,0,0,0,0,0,0,0,0,0,0,0,0,0,0,0,
0,0,0,0,0,0,0,0,0,0,0,0,0,0,0,0,0,0,0,0,0,0,0,0,0,0,0,0,0,0,0,0,0,0,0,
0,0,0,0,0,0,0,0,0,0,0,0,0,0,0,0,0,0,0,0,0,0,0,0,0,0,0,0,0,0,0,0,0,0,0,
0,0,0,0,0,0,0,0,0,0,0,0,0,0,0,0,0,0,0,0,0,0,0,0,0,0,0,0,0,0,0,0,0,0,0,
0,0,0,0,0,0,0,0,0,0,0,0,0,0,0,0,0,0,0,0,0,0,0,0,0,0,0,0,0,0,0,0,0,0,0,
0,0,0,0,0,0,0,0,0,0,0,0,0,0,0,0,0,0,0,0,0,0,0,0,0,0,0,0,0,0,0,0,0,0,0,
0,0,0,0,0,0,0,0,0,0,0,0,0,0,0,0,0,0,0,0,0,0,0,0,0,0,0,0,0,0,0,0,0,0,0
  </data>
 </layer>
 <objectgroup id="4" name="events"/>
</map>
