<?xml version="1.0" encoding="UTF-8"?>
<map version="1.10" tiledversion="1.10.2" orientation="orthogonal" renderorder="right-down" compressionlevel="0" width="38" height="29" tilewidth="32" tileheight="32" infinite="0" nextlayerid="4" nextobjectid="1">
 <tileset firstgid="1" source="RMXP-KANTO50S_OUT.tsx"/>
 <tileset firstgid="2225" source="RMXP-auto-hgss-sea.tsx"/>
 <tileset firstgid="2273" source="RMXP-auto-noanimsea.tsx"/>
 <tileset firstgid="2321" source="RMXP-auto-a-beach.tsx"/>
 <tileset firstgid="2369" source="RMXP-auto-a-flowred.tsx"/>
 <tileset firstgid="2417" source="RMXP-auto-a-flow.tsx"/>
 <tileset firstgid="2465" source="RMXP-auto-land2-2.tsx"/>
 <tileset firstgid="2513" source="RMXP-auto-still.tsx"/>
 <layer id="1" name="lower" width="38" height="29">
  <data encoding="csv">
0,0,0,0,4,4,4,4,4,4,4,4,2,5,6,5,4,4,4,4,4,4,4,4,4,4,4,4,4,4,0,0,0,0,0,0,0,0,
0,0,0,0,4,4,4,4,4,4,4,4,3,5,4,6,6,4,4,4,4,4,4,4,4,4,4,4,4,4,0,0,0,0,0,0,0,0,
0,0,0,0,4,4,4,4,4,4,4,4,5,4,4,5,4,4,4,4,4,4,4,4,4,4,4,4,4,4,0,0,0,0,0,0,0,0,
0,0,0,0,4,4,4,4,4,4,4,4,4,4,4,5,6,4,4,4,4,4,4,4,4,4,4,4,4,4,0,0,0,0,0,0,0,0,
4,4,4,4,4,4,4,4,4,4,4,4,4,4,4,4,4,4,4,4,4,4,4,4,4,4,4,4,4,4,0,0,0,0,0,0,0,0,
4,4,4,4,4,4,4,4,4,4,4,4,4,4,5,5,2,4,4,4,4,4,4,4,4,4,4,4,4,4,0,0,0,0,0,0,0,0,
4,4,4,4,4,4,4,4,4,4,4,4,5,4,3,4,2,4,4,4,4,4,4,4,4,4,4,4,4,4,0,0,0,0,0,0,0,0,
4,4,4,4,4,4,4,361,362,362,362,362,363,6,2,5,5,4,4,4,4,4,4,4,4,4,4,4,4,4,0,0,0,0,0,0,0,0,
4,4,4,4,4,4,4,369,370,370,370,370,371,5,4,4,4,6,2,4,4,4,4,4,4,4,4,4,4,4,0,0,0,0,0,0,0,0,
4,4,4,4,4,4,3,369,370,370,370,370,371,6,5,5,2,4,4,4,4,4,4,4,4,5,4,4,4,4,0,0,0,0,0,0,0,0,
4,4,4,4,4,6,5,377,378,378,378,378,379,4,3,4,2,4,4,4,4,4,4,4,3,3,4,4,4,4,0,0,0,0,0,0,0,0,
4,4,4,4,4,4,2,4,2,5,5,5,4,2,2,5,5,4,3,4,4,4,4,4,4,5,4,4,4,4,0,0,0,0,0,0,0,0,
4,4,4,4,4,6,2,42,43,43,44,6,5,4,4,4,4,6,2,4,361,362,362,362,363,4,4,4,4,4,0,0,0,0,0,0,0,0,
155,155,155,156,2,4,3,50,51,51,52,4,361,362,362,362,362,363,2,6,377,378,378,378,379,5,4,4,4,4,0,0,0,0,0,0,0,0,
163,163,163,164,2,6,42,53,51,51,54,44,369,370,370,370,370,371,3,2,3,6,6,6,3,3,4,4,4,4,0,0,0,0,0,0,0,0,
171,171,171,172,2,4,58,59,59,59,61,52,369,370,370,370,370,371,5,4,4,6,6,6,6,5,4,4,4,4,0,0,0,0,0,0,0,0,
6,6,6,6,6,6,4,3,2,3,58,60,377,378,378,378,378,379,6,3,4,3,4,6,6,4,4,4,4,4,0,0,0,0,0,0,0,0,
3,4,4,4,4,4,2,4,4,4,4,4,5,6,6,6,6,5,6,5,361,362,362,362,362,363,4,4,4,4,0,0,0,0,0,0,0,0,
4,4,4,4,4,6,3,361,362,362,362,362,362,362,362,362,362,363,4,3,369,370,370,370,370,371,4,4,4,4,0,0,0,0,0,0,0,0,
4,4,4,4,4,4,3,369,370,370,370,370,370,370,370,370,370,371,5,2,369,370,370,370,370,371,4,4,4,4,0,0,0,0,0,0,0,0,
4,4,4,4,4,5,4,369,370,370,370,370,370,370,370,370,370,371,3,4,377,378,378,378,378,379,4,4,4,4,0,0,0,0,0,0,0,0,
4,4,4,4,4,5,4,377,378,378,378,378,378,378,378,378,378,379,5,5,6,6,5,5,4,4,4,4,4,4,0,0,0,0,0,0,0,0,
4,4,4,4,4,6,4,4,4,4,4,4,5,4,3,4,4,4,3,4,3,4,3,4,4,4,4,4,4,4,0,0,0,0,0,0,0,0,
4,4,4,4,4,4,4,4,4,4,4,4,4,4,2,2,3,2,4,4,4,4,4,4,4,4,4,4,4,4,0,0,0,0,0,0,0,0,
0,0,0,0,0,0,0,0,0,0,0,0,0,0,2,3,4,2,0,0,0,0,0,0,0,0,0,0,0,0,0,0,0,0,0,0,0,0,
0,0,0,0,0,0,0,0,0,0,0,0,0,0,2,4,5,2,0,0,0,0,0,0,0,0,0,0,0,0,0,0,0,0,0,0,0,0,
0,0,0,0,0,0,0,0,0,0,0,0,0,0,2,4,5,2,0,0,0,0,0,0,0,0,0,0,0,0,0,0,0,0,0,0,0,0,
0,0,0,0,0,0,0,0,0,0,0,0,0,0,2,3,6,2,0,0,0,0,0,0,0,0,0,0,0,0,0,0,0,0,0,0,0,0,
0,0,0,0,2,2,2,2,2,2,2,2,2,2,2,3,4,2,2,2,2,2,2,2,2,2,2,2,2,2,2,2,2,0,0,0,0,0
  </data>
 </layer>
 <layer id="2" name="middle" width="38" height="29">
  <data encoding="csv">
794,794,794,794,796,797,797,797,797,797,798,794,794,795,0,0,0,0,785,786,792,796,794,794,794,794,794,794,794,794,794,794,794,794,794,794,794,794,
794,794,794,794,796,797,797,797,797,797,798,794,794,795,0,0,0,0,793,794,794,796,794,794,794,794,794,794,794,794,794,794,794,794,794,794,794,794,
794,794,794,794,796,797,797,797,797,797,798,794,794,795,0,0,0,785,792,794,794,796,794,794,794,794,794,794,794,794,794,794,794,794,794,794,794,794,
794,794,794,794,804,805,805,805,805,805,806,809,802,803,0,0,0,793,788,789,789,792,794,794,794,794,794,794,794,794,794,794,794,794,794,794,794,794,
794,794,794,794,794,794,794,794,794,794,794,795,938,0,0,0,938,793,796,797,797,797,797,797,797,794,794,794,794,794,794,794,794,794,794,794,794,794,
810,794,794,794,794,794,794,794,794,794,794,795,938,0,0,0,938,793,796,797,797,797,797,797,797,794,794,794,794,794,794,794,794,794,794,794,794,794,
793,794,794,794,794,794,794,809,802,802,802,803,0,0,0,0,0,793,796,797,797,797,797,797,797,794,794,794,794,794,794,794,794,794,794,794,794,794,
793,794,794,794,794,794,794,795,0,0,0,0,0,0,0,0,0,793,796,797,797,797,797,797,797,794,794,794,794,794,794,794,794,794,794,794,794,794,
793,794,794,794,809,802,802,803,0,0,0,0,0,0,0,0,953,793,796,797,797,797,797,797,797,794,794,794,794,794,794,794,794,794,794,794,794,794,
793,794,794,794,795,938,938,0,0,0,0,0,0,0,0,0,0,793,804,805,805,805,805,805,805,805,805,810,794,794,794,794,794,794,794,794,794,794,
793,794,794,794,795,0,0,0,0,0,0,0,0,0,0,0,0,801,802,802,802,802,802,802,802,802,810,793,794,794,794,794,794,794,794,794,794,794,
793,794,794,794,795,1029,0,0,0,0,0,0,0,0,0,0,0,0,938,938,0,0,0,0,0,1342,793,793,794,794,794,794,794,794,794,794,794,794,
801,802,802,802,803,1045,0,0,0,0,0,0,0,1637,1638,1639,1640,0,0,938,0,0,0,0,0,1350,793,793,794,794,794,794,794,794,794,794,794,794,
0,0,0,0,0,0,0,0,0,0,0,0,0,1645,1646,1647,1648,0,0,0,1330,1431,1431,1431,1431,1358,793,793,794,794,794,794,794,794,794,794,794,794,
0,0,0,0,0,0,0,0,0,0,0,0,938,1653,1654,1655,1656,1342,0,0,0,0,0,0,0,938,793,793,794,794,794,794,794,794,794,794,794,794,
0,0,0,0,0,1029,0,0,0,0,0,0,938,1661,0,1663,1664,1350,0,0,0,0,0,0,0,938,793,793,794,794,794,794,794,794,794,794,794,794,
1298,1298,1298,1298,1298,1045,0,0,0,0,0,0,0,1430,1431,1431,1431,1358,0,0,0,1437,1438,1439,1440,0,793,793,794,794,794,794,794,794,794,794,794,794,
785,786,786,786,787,0,0,0,1637,1638,1639,1640,0,1437,1438,1439,1440,0,0,0,0,1445,1446,1447,1448,0,793,793,794,794,794,794,794,794,794,794,794,794,
793,794,794,794,795,0,0,0,1645,1646,1647,1648,0,1445,1446,1447,1448,0,0,0,0,1453,1454,1455,1456,1342,793,793,794,794,794,794,794,794,794,794,794,794,
793,794,794,794,795,0,0,938,1653,1654,1655,1656,1342,1453,1454,1455,1456,1342,0,0,0,1461,0,1463,1464,1350,793,793,794,794,794,794,794,794,794,794,794,794,
793,794,794,794,795,0,0,956,1661,0,1663,1664,1350,1461,0,1463,1464,1350,0,0,0,1405,1431,1431,1431,1358,793,793,794,794,794,794,794,794,794,794,794,794,
793,794,794,794,795,0,0,0,1430,1431,1431,1431,1358,1430,1431,1431,1431,1358,1029,0,0,0,0,0,0,0,793,793,794,794,794,794,794,794,794,794,794,794,
793,794,794,794,795,958,566,958,958,0,938,938,0,938,0,0,0,0,1045,0,938,938,958,0,958,958,793,793,794,794,794,794,794,794,794,794,794,794,
792,794,794,794,791,786,786,786,786,786,786,786,786,786,787,0,0,785,786,786,786,786,786,786,786,786,792,793,794,794,794,794,794,794,794,794,794,794,
794,794,794,794,794,794,794,794,794,794,794,794,794,794,795,0,0,793,794,794,794,794,794,794,794,794,794,793,794,794,794,794,794,794,794,794,794,794,
794,794,794,794,794,794,794,794,794,794,794,794,794,794,795,0,0,793,794,794,794,794,794,794,794,794,794,793,794,794,794,794,794,794,794,794,794,794,
794,794,794,794,794,794,794,794,794,794,794,794,794,794,795,0,0,793,794,794,794,794,794,794,794,794,794,793,794,794,794,794,794,794,794,794,794,794,
794,794,794,794,794,794,794,794,794,794,794,794,794,794,795,0,0,793,794,794,794,794,794,794,794,794,794,801,805,805,805,805,805,805,805,805,805,805,
794,794,794,794,794,794,794,794,794,794,794,809,805,805,803,0,0,801,805,805,805,805,805,805,805,805,805,805,805,805,805,805,805,805,805,805,805,805
  </data>
 </layer>
 <layer id="3" name="upper" width="38" height="29">
  <data encoding="csv">
0,0,0,0,0,0,0,0,0,0,0,0,0,0,0,0,0,0,0,0,0,0,0,0,0,0,0,0,0,0,0,0,0,0,0,0,0,0,
0,0,0,0,0,0,0,0,0,0,0,0,0,0,0,0,0,0,0,0,0,0,0,0,0,0,0,0,0,0,0,0,0,0,0,0,0,0,
0,0,0,0,0,0,0,0,0,0,0,0,0,0,0,0,0,0,0,0,0,0,0,0,0,0,0,0,0,0,0,0,0,0,0,0,0,0,
0,0,0,0,0,0,0,0,0,0,0,0,0,0,0,0,0,0,0,0,0,0,0,0,0,0,0,0,0,0,0,0,0,0,0,0,0,0,
0,0,0,0,0,0,0,0,824,0,0,0,0,0,0,0,0,0,0,0,0,0,0,0,0,0,0,0,0,0,0,0,0,0,0,0,0,0,
501,0,0,0,0,0,0,0,0,0,0,0,0,0,0,0,0,0,0,0,0,0,0,0,0,0,0,0,0,0,0,0,0,0,0,0,0,0,
509,0,0,0,0,816,0,0,1437,1438,1439,1440,0,0,0,0,0,0,0,0,825,826,0,0,0,0,0,0,0,0,0,0,0,0,0,0,0,0,
501,0,0,0,0,0,0,0,1445,1446,1447,1448,0,0,0,0,0,0,0,0,833,834,0,0,0,0,0,0,0,0,0,0,0,0,0,0,0,0,
509,0,0,0,0,0,0,0,1453,1454,1455,1456,0,0,0,0,0,0,0,0,2062,2063,2022,2023,2024,0,0,0,0,0,0,0,0,0,0,0,0,0,
501,0,0,0,0,0,0,0,1461,0,1463,1464,0,0,0,0,0,0,0,0,2070,2071,2030,2031,2032,0,0,0,0,0,0,0,0,0,0,0,0,0,
509,0,0,0,0,0,0,0,1405,1431,1431,1431,0,0,0,0,0,0,0,0,2078,2079,2038,2039,2040,0,0,0,0,0,0,0,0,0,0,0,0,0,
0,0,0,0,0,0,0,0,0,0,0,0,0,0,0,0,0,0,0,0,2086,2087,2046,2047,2048,938,0,824,0,0,0,0,0,0,0,0,0,0,
0,0,0,0,0,0,0,0,0,0,0,0,0,0,0,0,0,0,0,0,2094,2095,2054,2055,2056,938,0,0,0,0,0,0,0,0,0,0,0,0,
0,0,0,0,0,0,0,0,0,0,0,0,0,0,0,0,0,0,0,0,0,0,0,0,0,0,0,0,0,0,0,0,0,0,0,0,0,0,
0,0,0,0,0,0,0,0,0,0,0,0,0,0,0,0,0,0,0,0,0,0,0,0,0,0,0,0,0,0,0,0,0,0,0,0,0,0,
0,0,0,0,0,0,0,0,0,0,0,0,0,0,0,0,0,0,0,0,0,0,0,0,0,0,0,0,0,824,0,0,0,0,0,0,0,0,
0,0,0,0,0,0,0,0,0,0,0,0,0,0,0,0,0,0,0,0,0,0,0,0,0,0,0,0,0,0,0,0,0,0,0,0,0,0,
0,0,0,0,0,0,0,0,0,0,0,0,0,0,0,0,0,0,0,0,0,0,0,0,0,0,0,0,0,0,0,0,0,0,0,0,0,0,
0,0,0,0,0,0,0,0,0,0,0,0,0,0,0,0,0,0,0,0,0,0,0,0,0,938,0,816,0,0,0,0,0,0,0,0,0,0,
0,0,0,0,0,0,0,0,0,0,0,0,0,0,0,0,0,0,0,0,0,0,0,0,0,938,0,0,0,0,0,0,0,0,0,0,0,0,
0,0,0,0,0,0,0,0,0,0,0,0,0,0,0,0,0,0,0,0,0,0,0,0,0,0,0,0,0,0,0,0,0,0,0,0,0,0,
0,0,0,0,0,0,0,0,0,0,0,0,0,0,0,0,0,0,0,0,0,0,0,0,0,0,0,0,0,0,0,0,0,0,0,0,0,0,
0,0,0,0,0,0,0,0,0,0,0,0,0,0,0,0,0,0,0,0,0,0,0,0,0,0,0,0,0,0,0,0,0,0,0,0,0,0,
0,0,0,0,0,0,0,0,0,0,0,0,0,0,0,0,0,0,0,0,0,0,0,0,0,0,0,0,0,0,0,0,0,0,0,0,0,0,
0,0,0,0,0,0,0,0,0,0,0,0,0,0,0,0,0,0,0,0,0,0,0,0,0,0,0,0,0,0,0,0,0,0,0,0,0,0,
0,0,0,0,0,0,0,0,0,0,0,0,0,0,0,0,0,0,0,0,0,0,0,0,0,0,0,0,0,0,0,0,0,0,0,0,0,0,
0,0,0,0,0,0,0,0,0,0,0,0,0,0,0,0,0,0,0,0,0,0,0,0,0,0,0,0,0,0,0,0,0,0,0,0,0,0,
0,0,0,0,0,0,0,0,0,0,0,0,0,0,0,0,0,0,0,0,0,0,0,0,0,0,0,0,0,0,0,0,0,0,0,0,0,0,
0,0,0,0,0,0,0,0,0,0,0,0,0,0,0,0,0,0,0,0,0,0,0,0,0,0,0,0,0,0,0,0,0,0,0,0,0,0
  </data>
 </layer>
 <objectgroup id="4" name="events"/>
</map>
