<?xml version="1.0" encoding="UTF-8"?>
<map version="1.10" tiledversion="1.10.2" orientation="orthogonal" renderorder="right-down" compressionlevel="0" width="48" height="26" tilewidth="32" tileheight="32" infinite="0" nextlayerid="4" nextobjectid="1">
 <tileset firstgid="1" source="RMXP-JohtoCompactExterior.tsx"/>
 <tileset firstgid="2401" source="RMXP-auto-tfj-waterfall.tsx"/>
 <tileset firstgid="2449" source="RMXP-auto-sand.tsx"/>
 <tileset firstgid="2497" source="RMXP-auto-still.tsx"/>
 <tileset firstgid="2545" source="RMXP-auto-noanimsea.tsx"/>
 <tileset firstgid="2593" source="RMXP-auto-hgss-sea.tsx"/>
 <tileset firstgid="2641" source="RMXP-auto-lake.tsx"/>
 <tileset firstgid="2689" source="RMXP-auto-r49water.tsx"/>
 <layer id="1" name="lower" width="48" height="26">
  <data encoding="csv">
0,0,0,0,0,0,0,0,0,0,0,0,0,0,0,0,0,0,0,0,0,0,0,0,0,0,0,0,0,0,0,0,0,0,0,0,0,0,0,0,0,0,0,0,0,0,0,0,
0,0,0,0,0,0,0,0,0,0,0,0,0,0,0,0,0,0,0,0,0,0,0,0,0,0,0,0,0,0,0,0,0,0,0,0,0,0,0,0,0,0,0,0,0,0,0,0,
0,0,0,0,0,0,0,0,0,0,0,0,0,0,0,0,0,0,0,0,0,0,0,0,0,0,0,0,0,0,0,0,0,0,0,0,0,0,0,0,0,0,0,0,0,0,0,0,
0,0,0,0,0,0,0,0,0,0,0,0,0,0,0,0,0,0,0,0,0,0,0,0,0,0,0,0,0,0,0,0,0,0,0,0,0,0,0,0,0,0,0,0,0,0,0,0,
0,0,0,0,0,0,0,0,0,0,0,0,0,0,0,0,0,0,0,0,0,0,0,0,0,0,0,0,0,0,0,0,0,0,0,0,0,0,0,0,0,0,0,0,0,0,0,0,
0,0,0,0,0,0,0,0,0,0,0,0,0,0,0,0,0,0,0,0,0,0,0,0,0,0,0,0,0,0,0,0,0,0,0,0,0,0,0,0,0,0,0,0,0,0,0,0,
0,0,0,0,0,0,0,0,0,0,0,0,281,282,281,282,281,282,281,282,281,282,281,282,281,282,281,282,281,282,281,282,281,282,0,0,0,0,0,0,0,0,0,0,0,0,0,0,
0,0,0,0,0,0,0,0,0,0,0,0,273,274,273,274,273,274,273,274,273,274,273,274,273,274,273,274,273,274,273,274,273,274,0,0,0,0,0,0,0,0,0,0,0,0,0,0,
0,0,0,0,0,0,0,0,0,0,0,0,281,282,281,282,281,282,281,282,281,282,281,282,281,282,281,282,281,282,281,282,281,282,0,0,0,0,0,0,0,0,0,0,0,0,0,0,
0,0,0,0,0,0,0,0,0,0,0,0,273,274,273,290,289,290,289,290,289,290,289,290,289,290,289,290,273,274,273,274,273,274,0,0,0,0,0,0,0,0,0,0,0,0,0,0,
0,0,0,0,0,0,0,0,0,0,0,0,281,282,281,282,281,282,297,298,297,298,297,298,297,298,297,298,281,282,281,282,281,282,0,0,0,0,0,0,0,0,0,0,0,0,0,0,
0,0,0,0,0,0,0,0,0,0,0,0,289,290,289,290,289,292,13,13,11,10,11,11,11,14,13,13,289,290,289,290,289,290,0,0,0,0,0,0,0,0,0,0,0,0,0,0,
0,0,0,0,0,0,0,0,0,0,0,0,297,298,297,298,297,298,11,11,14,11,11,11,11,11,11,11,297,298,297,298,297,298,0,0,0,0,0,0,0,0,0,0,0,0,0,0,
0,0,0,0,0,0,0,0,0,0,0,0,11,15,15,13,15,15,11,13,11,13,10,10,11,13,13,10,10,12,12,13,11,13,0,0,0,0,0,0,0,0,0,0,0,0,0,0,
0,0,0,0,0,0,0,0,0,0,0,0,12,11,12,11,12,11,12,12,12,12,12,11,12,11,10,10,10,10,10,10,12,11,0,0,0,0,0,0,0,0,0,0,0,0,0,0,
11,13,11,13,11,13,11,13,11,13,11,13,11,13,11,13,10,13,12,14,14,12,12,13,11,13,11,13,10,10,10,10,11,13,0,0,0,0,0,0,0,0,0,0,0,0,0,0,
13,11,13,11,13,11,13,11,13,11,13,11,13,11,10,10,10,10,14,14,14,14,12,11,12,11,12,11,12,12,12,12,12,11,0,0,0,0,0,0,0,0,0,0,0,0,0,0,
0,0,0,0,0,0,0,0,0,0,0,0,11,13,10,10,10,10,11,14,14,12,11,13,11,13,14,14,11,12,12,13,11,13,0,0,0,0,0,0,0,0,0,0,0,0,0,0,
0,0,0,0,0,0,0,0,0,0,0,0,12,11,12,10,10,11,12,11,12,11,12,11,12,14,14,14,14,11,12,10,10,11,0,0,0,0,0,0,0,0,0,0,0,0,0,0,
0,0,0,0,0,0,0,0,0,0,0,0,11,13,12,12,10,10,11,13,11,13,11,13,11,14,14,14,14,13,11,10,10,13,0,0,0,0,0,0,0,0,0,0,0,0,0,0,
0,0,0,0,0,0,0,0,0,0,0,0,13,11,12,10,10,10,10,11,12,11,12,11,12,12,14,14,12,11,12,10,10,11,0,0,0,0,0,0,0,0,0,0,0,0,0,0,
0,0,0,0,0,0,0,0,0,0,0,0,11,13,11,13,10,10,11,13,11,13,11,13,12,12,12,12,12,13,11,13,11,13,0,0,0,0,0,0,0,0,0,0,0,0,0,0,
0,0,0,0,0,0,0,0,0,0,0,0,12,11,12,11,12,11,12,11,10,10,12,11,12,12,12,12,12,11,12,11,12,11,0,0,0,0,0,0,0,0,0,0,0,0,0,0,
0,0,0,0,0,0,0,0,0,0,0,0,11,13,11,13,11,13,11,10,10,10,10,13,11,12,12,14,14,14,11,13,11,13,0,0,0,0,0,0,0,0,0,0,0,0,0,0,
13,13,13,13,13,13,13,13,13,13,13,13,13,10,10,13,14,13,11,11,11,11,13,13,11,11,13,11,13,10,13,10,10,13,13,13,13,13,13,13,13,13,13,13,13,13,13,13,
13,13,13,13,13,13,13,13,13,13,13,13,13,10,13,10,13,14,13,13,11,11,13,11,13,13,11,13,10,13,10,14,10,13,13,13,13,13,13,13,13,13,13,13,13,13,13,13
  </data>
 </layer>
 <layer id="2" name="middle" width="48" height="26">
  <data encoding="csv">
281,282,281,282,281,282,281,282,281,282,281,282,281,282,281,282,281,282,281,282,281,282,281,282,281,282,281,282,281,282,281,282,281,282,281,282,281,282,281,282,281,282,281,282,281,282,281,282,
273,274,273,274,273,274,273,274,273,274,273,274,273,274,273,274,273,274,273,274,273,274,273,274,273,274,273,274,273,274,273,274,273,274,273,274,273,274,273,274,273,274,273,274,273,274,273,274,
281,282,281,282,281,282,281,282,281,282,281,282,281,282,281,282,281,282,281,282,281,282,281,282,281,282,281,282,281,282,281,282,281,282,281,282,281,282,281,282,281,282,281,282,281,282,281,282,
273,274,273,274,273,274,273,274,273,274,273,274,273,274,273,274,273,274,273,274,273,274,273,274,273,274,273,274,273,274,273,274,273,274,273,274,273,274,273,274,273,274,273,274,273,274,273,274,
281,282,281,282,281,282,281,282,281,282,281,282,281,282,281,282,281,282,281,282,281,282,281,282,281,282,281,282,281,282,281,282,281,282,281,282,281,282,281,282,281,282,281,282,281,282,281,282,
273,274,273,274,273,274,273,274,273,274,273,274,273,274,273,274,273,274,273,274,273,274,273,274,273,274,273,274,273,274,273,274,273,274,273,274,273,274,273,274,273,274,273,274,273,274,273,274,
281,282,281,282,281,282,281,282,281,282,281,282,0,0,0,0,0,0,0,0,0,0,0,0,0,0,0,0,0,0,0,0,0,0,281,282,281,282,281,282,281,282,281,282,281,282,281,282,
273,274,273,274,273,274,273,274,273,274,273,274,0,0,0,0,0,0,0,0,0,0,0,0,0,0,0,0,0,0,0,0,0,0,273,274,273,274,273,274,273,274,273,274,273,274,273,274,
281,282,281,282,281,282,281,282,281,282,281,282,0,0,0,0,0,0,0,0,0,0,0,0,0,0,0,0,0,0,0,0,0,0,281,282,281,282,281,282,281,282,281,282,281,282,281,282,
273,274,273,274,273,274,273,274,273,274,273,274,0,0,0,0,0,0,0,0,0,0,0,0,0,0,0,0,0,0,0,0,0,0,273,274,273,274,273,274,273,274,273,274,273,274,273,274,
281,282,281,282,281,282,281,282,281,282,281,282,0,0,0,0,0,0,0,0,0,0,0,0,0,0,0,0,0,0,0,0,0,0,281,282,281,282,281,282,281,282,281,282,281,282,281,282,
273,274,273,274,273,274,273,274,273,274,273,274,0,0,0,0,0,0,293,0,0,0,0,457,458,0,0,294,0,0,0,0,0,0,273,274,273,274,273,274,273,274,273,274,273,274,273,274,
281,282,281,282,281,282,281,282,281,282,281,284,0,0,0,0,0,0,17,0,0,0,0,0,0,0,0,17,0,0,0,0,0,0,281,282,281,282,281,282,281,282,281,282,281,282,281,282,
273,274,273,274,273,274,273,274,273,274,275,276,293,0,0,0,0,0,0,0,0,0,0,0,0,0,0,0,0,0,0,0,0,294,273,274,273,274,273,274,273,274,273,274,273,274,273,274,
281,282,281,282,281,282,281,282,281,282,283,284,285,0,449,450,0,0,0,0,0,0,0,0,0,0,0,0,0,0,0,0,0,286,281,282,281,282,281,282,281,282,281,282,281,282,281,282,
273,274,273,274,273,274,273,274,273,274,275,276,293,0,457,458,0,0,0,0,0,0,0,0,0,0,0,0,0,0,0,0,0,294,273,274,273,274,273,274,273,274,273,274,273,274,273,274,
281,282,281,282,281,282,281,282,281,282,283,284,285,0,0,0,0,0,0,0,0,0,0,0,0,0,0,0,0,0,0,449,450,286,281,282,281,282,281,282,281,282,281,282,281,282,281,282,
273,274,273,274,273,274,273,274,273,274,275,276,293,0,0,0,0,0,0,0,0,0,0,0,0,0,0,0,0,0,0,457,458,294,273,274,273,274,273,274,273,274,273,274,273,274,273,274,
281,282,281,282,281,282,281,282,281,282,283,284,285,0,0,0,0,0,0,0,0,0,0,0,0,0,0,0,0,0,0,0,0,286,281,282,281,282,281,282,281,282,281,282,281,282,281,282,
273,274,273,274,273,274,273,274,273,274,275,276,293,0,0,0,0,0,0,0,0,0,0,0,0,0,0,0,0,0,0,0,0,294,273,274,273,274,273,274,273,274,273,274,273,274,273,274,
281,282,281,282,281,282,281,282,281,282,283,284,285,0,0,0,0,0,0,0,0,0,0,0,0,0,0,0,0,0,0,0,0,286,281,282,281,282,281,282,281,282,281,282,281,282,281,282,
273,274,273,274,273,274,273,274,273,274,275,276,293,0,0,0,0,0,0,0,0,0,0,0,0,0,0,0,0,449,450,0,0,294,273,274,273,274,273,274,273,274,273,274,273,274,273,274,
281,282,281,282,281,282,281,282,281,282,283,284,285,0,0,0,0,0,0,0,0,0,0,0,0,0,0,0,0,457,458,0,0,286,281,282,281,282,281,282,281,282,281,282,281,282,281,282,
273,274,273,274,273,274,273,274,273,274,275,276,293,0,0,0,0,0,0,0,0,0,0,449,450,0,0,0,0,0,0,0,0,294,273,274,273,274,273,274,273,274,273,274,273,274,273,274,
281,282,281,282,281,282,281,282,281,282,281,284,285,0,0,0,0,0,9,0,0,0,0,457,458,0,0,9,0,0,0,0,0,286,281,282,281,282,281,282,281,282,281,282,281,282,281,282,
273,274,273,274,273,274,273,274,273,274,273,276,293,0,0,0,0,0,17,0,0,0,0,0,0,0,0,17,0,0,0,0,0,294,273,274,273,274,273,274,273,274,273,274,273,274,273,274
  </data>
 </layer>
 <layer id="3" name="upper" width="48" height="26">
  <data encoding="csv">
0,0,0,0,0,0,0,0,0,0,0,0,0,0,0,0,0,0,0,0,0,0,0,0,0,0,0,0,0,0,0,0,0,0,0,0,0,0,0,0,0,0,0,0,0,0,0,0,
0,0,0,0,0,0,0,0,0,0,0,0,0,0,0,0,0,0,0,0,0,0,0,0,0,0,0,0,0,0,0,0,0,0,0,0,0,0,0,0,0,0,0,0,0,0,0,0,
0,0,0,0,0,0,0,0,0,0,0,0,0,0,0,0,0,0,0,0,0,0,0,0,0,0,0,0,0,0,0,0,0,0,0,0,0,0,0,0,0,0,0,0,0,0,0,0,
0,0,0,0,0,0,0,0,0,0,0,0,0,0,0,0,0,0,0,0,0,0,0,0,0,0,0,0,0,0,0,0,0,0,0,0,0,0,0,0,0,0,0,0,0,0,0,0,
0,0,0,0,0,0,0,0,0,0,0,0,0,0,0,0,0,0,0,0,0,0,0,0,0,0,0,0,0,0,0,0,0,0,0,0,0,0,0,0,0,0,0,0,0,0,0,0,
0,0,0,0,0,0,0,0,0,0,0,0,0,0,0,0,0,0,0,0,0,0,0,0,0,0,0,0,0,0,0,0,0,0,0,0,0,0,0,0,0,0,0,0,0,0,0,0,
0,0,0,0,0,0,0,0,0,0,0,0,0,0,0,0,0,0,0,0,0,0,0,0,0,0,0,0,0,0,0,0,0,0,0,0,0,0,0,0,0,0,0,0,0,0,0,0,
0,0,0,0,0,0,0,0,0,0,0,0,0,0,0,0,0,0,0,0,0,0,0,0,0,0,0,0,0,0,0,0,0,0,0,0,0,0,0,0,0,0,0,0,0,0,0,0,
0,0,0,0,0,0,0,0,0,0,0,0,0,0,0,0,0,0,0,0,0,0,0,0,0,0,0,0,0,0,0,0,0,0,0,0,0,0,0,0,0,0,0,0,0,0,0,0,
0,0,0,0,0,0,0,0,0,0,0,0,0,0,0,0,0,0,0,0,0,0,0,0,0,0,0,0,0,0,0,0,0,0,0,0,0,0,0,0,0,0,0,0,0,0,0,0,
0,0,0,0,0,0,0,0,0,0,0,0,0,0,0,0,0,0,285,0,0,0,0,0,0,0,0,287,0,0,0,0,0,0,0,0,0,0,0,0,0,0,0,0,0,0,0,0,
0,0,0,0,0,0,0,0,0,0,0,0,0,0,0,0,0,0,9,0,0,0,0,0,0,0,0,9,0,0,0,0,0,0,0,0,0,0,0,0,0,0,0,0,0,0,0,0,
0,0,0,0,0,0,0,0,0,0,0,0,285,0,0,0,0,0,0,0,0,0,0,0,0,0,0,0,0,0,0,0,0,286,0,0,0,0,0,0,0,0,0,0,0,0,0,0,
0,0,0,0,0,0,0,0,0,0,0,0,0,0,0,0,0,0,0,0,0,0,0,0,0,0,0,0,0,0,0,0,0,0,0,0,0,0,0,0,0,0,0,0,0,0,0,0,
0,0,0,0,0,0,0,0,0,0,0,0,0,0,0,0,0,0,0,0,0,0,0,0,0,0,0,0,0,0,0,0,0,0,0,0,0,0,0,0,0,0,0,0,0,0,0,0,
0,0,0,0,0,0,0,0,0,0,0,0,0,0,0,0,0,0,0,0,0,0,0,0,0,0,0,0,0,0,0,0,0,0,0,0,0,0,0,0,0,0,0,0,0,0,0,0,
0,0,0,0,0,0,0,0,0,0,0,0,0,0,0,0,0,0,0,0,0,0,0,0,0,0,0,0,0,0,0,0,0,0,0,0,0,0,0,0,0,0,0,0,0,0,0,0,
0,0,0,0,0,0,0,0,0,0,0,0,0,0,0,0,0,0,0,0,0,0,0,0,0,0,0,0,0,0,0,0,0,0,0,0,0,0,0,0,0,0,0,0,0,0,0,0,
0,0,0,0,0,0,0,0,0,0,0,0,0,0,0,0,0,0,0,0,0,0,0,0,0,0,0,0,0,0,0,0,0,0,0,0,0,0,0,0,0,0,0,0,0,0,0,0,
0,0,0,0,0,0,0,0,0,0,0,0,0,0,0,0,0,0,0,0,0,0,0,0,0,0,0,0,0,0,0,0,0,0,0,0,0,0,0,0,0,0,0,0,0,0,0,0,
0,0,0,0,0,0,0,0,0,0,0,0,0,0,0,0,0,0,0,0,0,0,0,0,0,0,0,0,0,0,0,0,0,0,0,0,0,0,0,0,0,0,0,0,0,0,0,0,
0,0,0,0,0,0,0,0,0,0,0,0,0,0,0,0,0,0,0,0,0,0,0,0,0,0,0,0,0,0,0,0,0,0,0,0,0,0,0,0,0,0,0,0,0,0,0,0,
0,0,0,0,0,0,0,0,0,0,0,0,0,0,0,0,0,0,0,0,0,0,0,0,0,0,0,0,0,0,0,0,0,0,0,0,0,0,0,0,0,0,0,0,0,0,0,0,
0,0,0,0,0,0,0,0,0,0,0,0,0,0,0,0,0,0,0,0,0,0,0,0,0,0,0,0,0,0,0,0,0,0,0,0,0,0,0,0,0,0,0,0,0,0,0,0,
0,0,0,0,0,0,0,0,0,0,0,0,0,0,0,0,0,0,0,0,0,0,0,0,0,0,0,0,0,0,0,0,0,0,0,0,0,0,0,0,0,0,0,0,0,0,0,0,
0,0,0,0,0,0,0,0,0,0,0,0,287,288,287,288,287,288,9,0,0,0,0,0,0,0,0,9,287,288,287,288,287,288,0,0,0,0,0,0,0,0,0,0,0,0,0,0
  </data>
 </layer>
 <objectgroup id="4" name="events"/>
</map>
