<?xml version="1.0" encoding="UTF-8"?>
<map version="1.10" tiledversion="1.10.2" orientation="orthogonal" renderorder="right-down" compressionlevel="0" width="60" height="46" tilewidth="32" tileheight="32" infinite="0" nextlayerid="8" nextobjectid="1">
 <tileset firstgid="1" source="RMXP-KANTO50S_OUT.tsx"/>
 <tileset firstgid="2225" source="RMXP-auto-hgss-sea.tsx"/>
 <tileset firstgid="2273" source="RMXP-auto-noanimsea.tsx"/>
 <tileset firstgid="2321" source="RMXP-auto-a-beach.tsx"/>
 <tileset firstgid="2369" source="RMXP-auto-a-flowred.tsx"/>
 <tileset firstgid="2417" source="RMXP-auto-a-flow.tsx"/>
 <tileset firstgid="2465" source="RMXP-auto-land2-2.tsx"/>
 <tileset firstgid="2513" source="RMXP-auto-still.tsx"/>
 <layer id="1" name="lower" width="60" height="46">
  <data encoding="csv">
0,0,0,0,0,0,0,0,0,0,0,0,0,0,0,0,0,0,0,0,0,0,0,0,0,0,0,0,0,0,0,0,0,0,0,0,0,0,0,0,0,0,0,0,0,0,0,0,0,0,0,0,0,0,0,0,0,0,0,0,
0,0,0,0,0,0,0,0,0,0,0,0,0,0,0,0,0,0,0,0,0,0,0,0,0,0,0,0,0,0,0,0,0,0,0,0,0,0,0,0,0,0,0,0,0,0,0,0,0,0,0,0,0,0,0,0,0,0,0,0,
0,0,0,0,0,0,0,0,0,0,0,0,0,0,0,0,0,0,0,0,0,0,0,0,0,0,0,0,0,0,0,0,0,0,0,0,0,0,0,0,0,0,0,0,0,0,0,0,0,0,0,0,0,0,0,0,0,0,0,0,
0,0,0,0,0,0,0,0,0,0,0,0,0,0,0,0,0,0,0,0,0,0,0,0,0,0,0,0,0,0,0,0,0,0,0,0,0,0,0,0,0,0,0,0,0,0,0,0,0,0,0,0,0,0,0,0,0,0,0,0,
0,0,0,0,0,0,0,0,0,0,0,0,0,0,0,0,0,0,0,0,0,0,0,0,0,0,0,0,0,0,0,0,0,0,0,0,0,0,0,0,0,0,0,0,0,0,0,0,0,0,0,0,0,0,0,0,0,0,0,0,
0,0,0,0,0,0,0,0,0,0,0,0,0,0,0,0,0,0,0,0,0,0,0,0,0,0,0,0,0,0,0,0,0,0,0,0,0,0,0,0,0,0,0,0,0,0,0,0,0,0,0,0,0,0,0,0,0,0,0,0,
0,0,4,0,0,0,4,0,0,0,4,4,4,4,4,4,4,4,4,4,4,4,4,4,4,4,4,4,4,4,4,4,4,4,4,4,4,4,4,4,4,4,4,4,4,4,4,4,4,4,4,4,4,4,4,4,4,4,4,4,
0,0,4,0,0,0,4,0,0,0,4,4,4,4,4,4,4,4,4,4,4,4,4,4,4,4,4,4,4,4,4,4,4,4,4,4,4,4,4,4,4,4,4,4,4,4,4,4,4,4,4,4,4,4,4,4,4,4,4,4,
0,0,4,0,0,0,4,0,0,0,4,4,4,4,3,3,3,3,3,3,5,3,4,3,4,4,4,4,4,4,4,3,4,4,4,4,4,4,3,2,3,2,3,3,3,3,3,3,4,4,4,4,4,4,4,4,4,4,4,4,
0,0,4,0,0,0,4,0,0,0,4,4,4,4,2,2,2,2,5,5,3,3,4,6,42,43,43,43,43,43,44,4,3,4,4,4,4,4,6,3,2,3,3,42,43,43,43,44,4,4,4,4,4,4,4,4,4,4,4,4,
0,0,4,0,0,0,4,0,0,0,4,4,4,4,6,2,2,2,5,2,5,4,3,4,50,51,51,51,51,51,52,4,3,4,4,4,4,4,3,5,5,5,42,53,51,51,51,52,4,4,4,4,4,4,4,4,4,4,4,4,
0,0,4,0,0,0,4,0,0,0,4,4,4,4,2,2,2,2,5,5,2,5,4,5,50,51,51,51,51,51,52,5,4,3,4,3,4,2,2,4,3,4,58,61,51,51,51,52,4,4,4,4,4,4,4,4,4,4,4,4,
0,0,4,0,0,0,4,0,0,0,4,4,4,4,5,5,5,2,3,2,5,4,3,4,58,59,59,59,59,59,60,4,3,2,2,5,5,5,5,5,5,5,2,58,59,59,59,60,2,4,4,4,4,4,4,4,4,4,4,4,
0,0,4,0,0,0,4,0,0,0,4,4,4,4,3,3,3,2,5,3,3,3,3,3,3,3,4,6,4,6,3,3,3,3,3,3,3,3,3,3,3,3,3,3,3,3,3,4,3,4,4,4,4,4,4,4,4,4,4,4,
0,0,4,0,0,0,4,0,0,0,4,4,4,4,3,2,393,394,394,394,394,394,394,394,394,394,394,394,394,394,394,394,394,394,395,3,2,3,2,3,2,3,2,3,3,3,6,393,394,395,4,4,4,4,4,4,4,4,4,4,
0,0,4,0,0,0,4,0,0,0,4,4,4,4,5,6,401,402,402,402,402,402,402,402,402,402,402,402,402,402,402,402,402,402,403,4,2,2,3,2,3,3,4,4,4,4,4,401,402,403,4,4,4,4,4,4,4,4,4,4,
0,0,4,0,0,0,4,0,0,0,4,4,4,4,4,4,401,402,402,402,402,402,402,402,402,402,402,402,402,402,402,402,402,402,403,3,2,3,2,3,4,3,4,4,4,4,5,401,402,403,4,4,4,4,4,4,4,4,4,4,
0,0,4,0,0,0,4,0,0,0,4,4,4,4,4,4,401,402,405,410,410,410,410,410,410,410,410,410,410,410,410,410,404,402,403,4,2,4,2,4,5,4,4,4,4,4,4,401,402,403,4,4,4,4,4,4,4,4,4,4,
0,0,4,0,0,0,4,0,0,0,4,4,4,4,4,4,401,402,403,5,6,3,4,3,4,3,4,3,4,4,5,6,401,402,397,394,394,394,394,394,394,394,394,394,394,394,394,396,402,403,4,4,4,4,4,4,4,4,4,4,
0,0,4,0,0,0,4,0,0,0,4,4,4,4,4,4,401,402,403,4,4,6,5,4,5,4,5,4,3,3,4,4,401,402,402,402,402,402,402,402,402,402,402,402,402,402,402,402,402,403,4,4,4,4,4,4,4,4,4,4,
0,0,4,0,0,0,4,0,0,0,4,4,4,4,4,4,401,402,403,4,4,1335,4,3,4,3,4,3,4,1335,4,4,401,402,405,410,410,410,410,410,410,410,410,410,410,410,410,404,402,403,4,4,4,4,4,4,4,4,4,4,
0,0,4,0,0,0,4,0,0,0,4,4,4,4,4,4,401,402,403,4,4,3,5,4,5,4,5,4,3,4,4,4,401,402,403,4,4,4,4,4,3,3,42,43,43,43,44,401,402,403,4,4,4,4,4,4,4,4,4,4,
0,0,4,0,0,0,4,0,0,0,4,4,4,4,4,4,401,402,403,4,4,4,3,4,2,4,3,5,4,6,4,4,401,402,403,5,4,4,4,4,5,6,50,51,51,51,52,401,402,403,4,4,4,4,4,4,4,4,4,4,
0,0,4,0,0,0,4,0,0,0,4,4,4,4,4,4,401,402,397,394,394,394,394,394,394,394,394,394,394,395,3,3,401,402,403,3,4,4,4,4,4,4,50,51,51,51,52,401,402,403,4,4,4,4,4,4,4,4,4,4,
0,0,4,0,0,0,4,0,0,0,4,4,4,4,4,4,401,402,402,402,402,402,402,402,402,402,402,402,402,403,5,6,401,402,403,4,4,4,4,4,4,4,58,59,59,59,60,401,402,403,4,4,4,4,4,4,4,4,4,4,
0,0,4,0,0,0,4,0,0,0,4,4,4,4,4,4,409,410,410,410,410,410,410,410,410,410,410,410,410,411,3,6,401,402,397,394,394,394,394,394,394,394,394,394,394,394,394,396,402,403,4,4,4,4,4,4,4,4,4,4,
0,0,4,0,0,0,4,0,0,0,4,4,4,4,4,4,5,5,5,5,5,5,5,5,5,5,5,5,5,5,5,4,401,402,402,402,402,402,402,402,402,402,402,402,402,402,402,402,402,397,394,395,3,3,3,3,3,3,3,3,
0,0,4,0,0,0,4,0,0,0,4,4,4,4,4,4,3,3,3,3,3,3,3,5,6,3,4,3,4,3,5,6,401,402,405,410,410,410,410,410,410,410,410,410,410,410,410,404,402,402,402,403,3,4,3,4,3,4,3,4,
0,0,4,0,0,0,4,0,0,0,4,4,4,4,4,4,3,3,3,6,3,3,5,4,4,4,4,4,4,4,4,4,401,402,403,3,5,6,5,6,5,6,5,6,5,6,3,401,402,405,410,411,4,5,4,5,4,5,4,5,
0,0,4,0,0,0,4,0,0,0,4,4,4,4,4,4,6,3,3,3,3,6,5,4,4,4,4,4,4,4,4,4,401,402,403,5,4,4,4,4,4,4,4,4,4,4,5,401,402,403,5,6,3,4,3,4,3,4,3,4,
0,0,4,0,0,0,4,0,0,0,4,4,4,4,4,4,3,3,3,3,3,4,3,4,4,4,4,4,4,4,4,4,401,402,403,3,4,4,4,4,4,4,4,4,4,4,3,401,402,403,4,4,4,4,4,4,4,4,4,4,
0,0,4,0,0,0,4,0,0,0,4,4,4,4,4,4,5,3,3,3,3,6,5,4,4,4,5,4,5,4,4,4,401,402,403,4,6,6,6,6,6,6,6,6,6,6,4,401,402,403,4,4,4,4,4,4,4,4,4,4,
0,0,4,0,0,0,4,0,0,0,4,4,4,4,4,4,3,4,3,4,3,4,3,3,393,394,394,394,394,394,394,394,396,402,403,6,5,3,3,3,3,5,3,3,3,3,6,401,402,403,4,4,4,4,4,4,4,4,4,4,
0,0,4,0,0,0,4,0,0,0,4,4,4,4,4,4,5,6,6,3,3,3,6,5,401,402,402,402,402,402,402,402,402,402,403,3,5,5,6,5,6,5,6,5,6,5,6,401,402,403,4,4,4,4,4,4,4,4,4,4,
0,0,4,0,0,0,4,0,0,0,4,4,4,4,4,4,3,3,4,3,4,3,4,3,409,410,410,410,410,410,410,410,404,402,403,2,5,3,3,3,3,5,3,3,3,3,6,401,402,403,4,4,4,4,4,4,4,4,4,4,
0,0,4,0,0,0,4,0,0,0,4,4,4,4,4,4,5,4,5,4,5,4,5,4,6,3,4,6,5,6,5,3,401,402,403,3,5,5,6,5,6,5,6,5,6,5,6,401,402,403,4,4,4,4,4,4,4,4,4,4,
0,0,4,0,0,0,4,0,0,0,4,4,4,4,4,4,3,3,4,3,4,3,4,3,3,6,3,4,3,4,4,5,401,402,403,2,3,3,3,3,3,2,3,3,3,3,4,401,402,403,4,4,4,4,4,4,4,4,4,4,
0,0,4,0,0,0,4,0,0,0,4,4,4,4,4,4,3,3,4,393,394,394,394,394,394,394,394,394,394,394,394,394,396,402,397,394,394,394,394,394,394,394,394,394,394,394,394,396,402,403,4,4,4,4,4,4,4,4,4,4,
0,0,4,0,0,0,4,0,0,0,4,4,4,4,4,4,5,3,4,409,410,410,410,410,410,410,410,410,410,410,410,410,410,410,410,410,410,410,410,410,410,410,410,410,410,410,410,410,410,411,4,4,4,4,4,4,4,4,4,4,
0,0,4,0,0,0,4,0,0,0,4,4,4,4,4,4,3,4,3,4,3,4,3,4,3,4,3,4,3,4,154,155,155,156,4,3,4,3,4,3,4,3,4,3,4,3,4,3,4,3,4,4,4,4,4,4,4,4,4,4,
0,0,4,0,0,0,4,0,0,0,4,4,4,4,4,4,4,5,4,5,4,5,4,5,4,5,4,5,4,5,162,163,163,164,6,4,5,4,5,4,5,4,5,4,5,4,5,4,5,4,4,4,4,4,4,4,4,4,4,4,
0,0,4,0,0,0,4,0,0,0,4,4,4,4,4,4,3,4,3,4,3,4,3,4,3,4,3,4,3,4,162,163,163,164,5,6,5,3,4,3,4,3,4,3,4,3,4,3,4,3,4,4,4,4,4,4,4,4,4,4,
0,0,4,0,0,0,4,0,0,0,4,4,4,4,4,4,4,4,4,4,4,4,4,4,4,4,4,4,4,4,162,163,163,164,4,4,4,4,4,4,4,4,4,4,4,4,4,4,4,4,4,4,4,4,4,4,4,4,4,4,
0,0,4,0,0,0,4,0,0,0,4,4,4,4,4,4,4,4,4,4,4,4,4,4,4,4,4,4,4,4,162,163,163,164,4,4,4,4,4,4,4,4,4,4,4,4,4,4,4,4,4,4,4,4,4,4,4,4,4,4,
0,0,4,0,0,0,4,0,0,0,4,4,4,4,4,4,4,4,4,4,4,4,4,4,4,4,4,4,4,4,170,158,163,164,4,4,4,4,4,4,4,4,4,4,4,4,4,4,4,4,4,4,4,4,4,4,4,4,4,4,
0,0,4,0,0,0,4,0,0,0,4,4,4,4,4,4,4,4,4,4,4,4,4,4,4,4,4,4,4,4,6,162,163,164,4,4,4,4,4,4,4,4,4,4,4,4,4,4,4,4,4,4,4,4,4,4,4,4,4,4
  </data>
 </layer>
 <layer id="2" name="middle" width="60" height="46">
  <data encoding="csv">
0,426,0,426,0,426,0,426,0,426,0,426,0,426,0,426,0,426,0,426,0,426,0,426,0,426,0,426,0,426,0,426,0,426,0,426,0,426,0,426,0,426,0,426,0,426,0,426,0,426,0,426,0,426,0,426,0,0,0,0,
0,418,0,418,0,418,0,418,0,418,0,418,0,418,0,418,0,418,0,418,0,418,0,418,0,418,0,418,0,418,0,418,0,418,0,418,0,418,0,418,0,418,0,418,0,418,0,418,0,418,0,418,0,418,0,418,0,0,0,0,
0,426,0,426,0,426,0,426,0,426,0,426,0,426,0,426,0,426,0,426,0,426,0,426,0,426,0,426,0,426,0,426,0,426,0,426,0,426,0,426,0,426,0,426,0,426,0,426,0,426,0,426,0,426,0,426,0,0,0,0,
0,418,0,418,0,418,0,418,0,418,0,418,0,418,0,418,0,418,0,418,0,418,0,418,0,418,0,418,0,418,0,418,0,418,0,418,0,418,0,418,0,418,0,418,0,418,0,418,0,418,0,418,0,418,0,418,0,0,0,0,
0,426,0,426,0,426,0,426,0,426,0,426,0,426,0,426,0,426,0,426,0,426,0,426,0,426,0,426,0,426,0,426,0,426,0,426,0,426,0,426,0,426,0,426,0,426,0,426,0,426,0,426,0,426,0,426,0,0,0,0,
0,418,0,418,0,418,0,418,0,418,0,418,0,418,0,418,0,418,0,418,0,418,0,418,0,418,0,418,0,418,0,418,0,418,0,418,0,418,0,418,0,418,0,418,0,418,0,418,0,418,0,418,0,418,0,418,0,0,0,0,
0,426,0,426,0,426,0,426,0,426,0,426,0,426,0,426,0,426,0,426,0,426,0,426,0,426,0,426,0,426,0,426,0,426,0,426,0,426,0,426,0,426,0,426,0,426,0,426,0,426,0,426,0,426,0,426,0,0,0,0,
0,418,0,418,0,418,0,418,0,418,0,418,0,418,0,434,0,434,0,434,0,434,0,434,0,434,0,434,0,434,0,434,0,434,0,434,0,434,0,434,0,434,0,434,0,434,0,434,0,418,0,418,0,418,0,418,0,0,0,0,
0,426,0,426,0,426,0,426,0,426,0,426,0,0,443,444,443,444,443,444,443,444,443,444,443,444,443,444,443,444,443,444,443,444,443,444,443,444,443,444,443,444,443,444,443,444,443,444,0,426,0,426,0,426,0,426,0,0,0,0,
0,418,0,418,0,418,0,418,0,418,0,418,0,0,0,0,0,0,0,0,0,0,0,0,0,0,0,0,0,0,0,0,0,0,0,0,0,0,1342,0,0,0,0,0,0,0,0,0,0,418,0,418,0,418,0,418,0,0,0,0,
0,426,0,426,0,426,0,426,0,426,0,426,0,0,0,0,0,0,0,0,0,0,0,0,0,0,0,0,0,0,0,0,0,0,0,0,0,0,1350,1334,1334,1334,0,0,0,0,0,0,0,426,0,426,0,426,0,426,0,0,0,0,
0,418,0,418,0,418,0,418,0,418,0,418,0,0,0,1405,1431,1431,1431,0,0,0,0,0,0,0,0,0,0,0,0,0,0,1430,1431,1431,1431,1431,1358,0,0,0,0,1405,1431,1431,1431,0,0,434,0,418,0,418,0,418,0,0,0,0,
0,426,0,426,0,426,0,426,0,426,0,426,0,0,1334,1334,1334,0,0,0,0,0,0,0,0,0,0,0,0,0,0,0,0,0,0,1334,1334,1334,1334,1334,1334,1334,0,0,0,0,0,0,443,444,0,426,0,426,0,426,0,0,0,0,
0,418,0,418,0,418,0,418,0,418,0,418,0,0,811,829,815,0,0,811,829,829,829,829,829,815,0,0,0,0,811,829,829,829,829,829,829,829,829,829,829,829,829,829,829,829,815,0,0,0,0,418,0,418,0,418,0,0,0,0,
0,426,0,426,0,426,0,426,0,426,0,426,0,0,0,0,0,0,0,0,0,0,0,0,0,0,0,0,0,0,0,0,0,0,0,0,0,0,0,0,0,0,0,0,0,0,0,0,0,0,0,426,0,426,0,426,0,0,0,0,
0,418,0,418,0,418,0,418,0,418,0,418,0,0,0,0,0,0,0,0,0,0,0,0,0,0,0,0,0,0,0,0,0,0,0,0,0,0,0,0,0,0,1441,1442,1443,1444,0,0,0,0,0,418,0,418,0,418,0,0,0,0,
0,426,0,426,0,426,0,426,0,426,0,426,0,426,0,0,0,0,0,0,0,0,0,0,0,0,0,0,0,0,0,0,0,0,0,0,0,0,0,0,0,0,1449,1450,1451,1452,0,0,0,0,0,426,0,426,0,426,0,0,0,0,
0,418,0,418,0,418,0,418,0,418,0,418,0,418,0,0,0,0,0,0,0,0,0,0,0,0,0,0,0,0,0,0,0,0,0,0,0,0,0,0,0,0,1457,0,1459,1460,0,0,0,0,0,418,0,418,0,418,0,0,0,0,
0,426,0,426,0,426,0,426,0,426,0,426,0,426,0,0,0,0,0,0,0,0,0,0,0,0,0,0,0,0,0,0,0,0,0,0,0,0,0,0,0,0,1405,1431,1431,1431,0,0,0,0,0,426,0,426,0,426,0,0,0,0,
0,418,0,418,0,418,0,418,0,418,0,418,0,418,0,0,0,0,0,0,0,0,0,0,0,0,0,0,0,0,0,0,0,0,0,0,0,0,0,0,0,0,0,0,0,0,0,0,0,0,0,418,0,418,0,418,0,0,0,0,
0,426,0,426,0,426,0,426,0,426,0,426,0,426,0,0,0,0,0,0,0,0,0,0,0,0,0,0,0,0,0,0,0,0,0,0,0,0,0,0,0,0,0,0,0,0,0,0,0,0,0,426,0,426,0,426,0,0,0,0,
0,418,0,418,0,418,0,418,0,418,0,418,0,418,0,0,0,0,0,0,0,0,0,0,0,0,0,0,0,0,0,0,0,0,0,0,0,0,0,0,0,0,0,0,0,0,0,0,0,0,0,418,0,418,0,418,0,0,0,0,
0,426,0,426,0,426,0,426,0,426,0,426,0,426,0,0,0,0,0,443,444,863,0,0,0,0,0,0,0,863,443,444,0,0,0,1441,1442,1443,1444,0,0,0,0,0,0,0,0,0,0,0,0,426,0,426,0,426,0,0,0,0,
0,418,0,418,0,418,0,418,0,418,0,418,0,418,0,0,0,0,0,0,0,0,0,0,0,0,0,0,0,0,0,1316,0,0,0,1449,1450,1451,1452,0,0,0,0,0,0,1309,0,0,0,0,0,434,0,434,0,434,0,0,0,0,
0,426,0,426,0,426,0,426,0,426,0,426,0,426,0,0,0,0,0,0,0,0,0,0,0,0,0,0,0,0,0,1324,0,0,0,1457,0,1459,1460,863,0,0,0,0,0,0,0,0,0,0,443,444,443,444,443,444,443,442,443,442,
0,418,0,418,0,418,0,418,0,418,0,418,0,418,0,0,0,0,0,0,0,0,0,0,0,0,0,0,0,0,0,1324,0,0,0,1405,1431,1431,1431,0,0,0,0,0,0,0,0,0,0,0,953,1334,1334,1334,1334,1334,1334,1334,1334,1334,
0,426,0,426,0,426,0,426,0,426,0,426,0,426,0,0,1334,1334,1334,1334,1334,1334,1334,1334,1334,1334,1334,1334,1334,1334,1334,1327,0,0,0,0,0,0,0,0,0,0,0,0,0,0,0,0,0,0,0,0,0,0,0,0,0,0,0,0,
0,418,0,418,0,418,0,418,0,418,0,418,0,418,0,0,0,0,0,0,0,0,0,0,0,740,741,742,743,624,0,0,0,0,0,0,0,0,0,0,0,0,0,0,0,0,0,0,0,0,0,0,0,0,0,0,0,0,0,0,
0,426,0,426,0,426,0,426,0,426,0,426,0,426,0,0,0,0,0,0,0,0,0,0,0,748,749,750,751,632,419,0,0,0,0,0,0,0,0,0,0,0,0,0,0,0,0,0,0,0,0,0,0,0,0,0,0,0,0,0,
0,418,0,418,0,418,0,418,0,418,0,418,0,418,0,0,0,0,0,0,0,0,0,0,0,756,757,758,759,640,427,0,0,0,0,0,0,434,0,434,0,434,0,434,0,0,0,0,0,0,0,0,0,0,0,0,0,0,0,0,
0,426,0,426,0,426,0,426,0,426,0,426,0,426,0,0,0,0,0,0,0,0,0,0,0,764,765,0,767,648,435,0,0,0,0,0,443,444,443,444,443,444,443,444,443,444,0,0,0,0,0,0,863,0,0,0,0,0,0,0,
0,418,0,418,0,418,0,418,0,418,0,418,0,418,0,0,0,0,0,0,0,0,0,443,444,1430,1431,1431,1431,1431,443,444,0,0,0,0,1318,1334,1334,1334,1334,1334,1334,1334,1334,1334,1319,0,0,0,0,418,0,418,0,418,0,0,0,0,
0,426,0,426,0,426,0,426,0,426,0,426,0,426,0,0,0,0,0,0,0,0,0,0,0,0,0,0,0,0,0,0,0,0,0,0,1325,0,0,0,0,0,0,0,0,0,1324,0,0,0,0,426,0,426,0,426,0,0,0,0,
0,418,0,418,0,418,0,418,0,418,0,418,0,418,0,0,0,0,0,0,0,0,0,0,0,0,0,0,0,0,0,0,0,0,0,0,1325,0,0,0,0,0,0,0,0,0,1324,0,0,0,0,418,0,418,0,418,0,0,0,0,
0,426,0,426,0,426,0,426,0,426,0,426,0,426,0,0,0,0,0,1441,1442,1443,1444,0,0,0,0,0,0,0,0,0,0,0,0,0,1325,1405,1431,1431,1431,0,1405,1431,1431,1431,1324,0,0,0,0,426,0,426,0,426,0,0,0,0,
0,418,0,418,0,418,0,418,0,418,0,418,0,418,0,0,0,0,0,1449,1450,1451,1452,0,0,0,0,0,0,0,0,0,0,0,0,0,1325,0,0,0,0,0,0,0,0,0,1324,0,0,0,0,418,0,418,0,418,0,0,0,0,
0,426,0,426,0,426,0,426,0,426,0,426,0,426,0,426,0,0,0,1457,0,1459,1460,0,0,0,0,0,0,0,0,0,0,0,0,0,1326,811,829,829,815,0,811,829,829,815,1327,0,0,0,0,426,0,426,0,426,0,0,0,0,
0,418,0,418,0,418,0,418,0,418,0,418,0,418,0,418,0,0,0,1405,1431,1431,1431,0,0,0,0,0,0,0,0,0,0,0,0,0,0,0,0,0,0,0,0,0,0,0,0,0,0,0,0,418,0,418,0,418,0,0,0,0,
0,426,0,426,0,426,0,426,0,426,0,426,0,426,0,426,0,426,0,0,0,0,0,0,0,0,0,0,0,0,0,0,0,0,0,0,0,0,0,0,0,0,0,0,0,0,0,0,0,0,0,426,0,426,0,426,0,0,0,0,
0,418,0,418,0,418,0,418,0,418,0,418,0,418,0,418,0,0,0,0,0,0,0,0,0,0,0,0,0,0,0,0,0,0,0,0,0,0,0,0,0,0,0,0,0,0,0,0,0,0,0,418,0,418,0,418,0,0,0,0,
0,426,0,426,0,426,0,426,0,426,0,426,0,426,0,426,0,0,0,0,0,0,0,0,0,0,0,0,0,863,0,0,0,0,863,0,0,0,0,0,0,0,0,0,0,0,0,0,0,0,427,426,0,426,0,426,0,0,0,0,
0,418,0,418,0,418,0,418,0,418,0,418,0,418,0,418,0,418,0,418,0,418,0,418,0,418,0,418,0,0,0,0,0,0,0,418,0,418,0,418,0,418,0,418,0,418,0,418,0,418,0,418,0,418,0,418,0,0,0,0,
0,426,0,426,0,426,0,426,0,426,0,426,0,426,0,426,0,426,0,426,0,426,0,426,0,426,0,426,0,0,0,0,0,0,0,426,0,426,0,426,0,426,0,426,0,426,0,426,0,426,0,426,0,426,0,426,0,0,0,0,
0,418,0,418,0,418,0,418,0,418,0,418,0,418,0,418,0,418,0,418,0,418,0,418,0,418,0,418,0,0,0,0,0,0,0,418,0,418,0,418,0,418,0,418,0,418,0,418,0,418,0,418,0,418,0,418,0,0,0,0,
0,426,0,426,0,426,0,426,0,426,0,426,0,426,0,426,0,426,0,426,0,426,0,426,0,426,0,426,0,0,0,0,0,0,427,426,0,426,0,426,0,426,0,426,0,426,0,426,0,426,0,426,0,426,0,426,0,0,0,0,
0,418,0,418,0,418,0,418,0,418,0,418,0,418,0,418,0,418,0,418,0,418,0,418,0,418,0,418,0,0,0,0,0,0,0,418,0,418,0,418,0,418,0,418,0,418,0,418,0,418,0,418,0,418,0,418,0,0,0,0
  </data>
 </layer>
 <layer id="3" name="upper" width="60" height="46">
  <data encoding="csv">
0,0,0,0,0,0,0,0,0,0,0,0,0,0,0,0,0,0,0,0,0,0,0,0,0,0,0,0,0,0,0,0,0,0,0,0,0,0,0,0,0,0,0,0,0,0,0,0,0,0,0,0,0,0,0,0,0,0,0,0,
0,0,0,0,0,0,0,0,0,0,0,0,0,0,0,0,0,0,0,0,0,0,0,0,0,0,0,0,0,0,0,0,0,0,0,0,0,0,0,0,0,0,0,0,0,0,0,0,0,0,0,0,0,0,0,0,0,0,0,0,
0,0,0,0,0,0,0,0,0,0,0,0,0,0,0,0,0,0,0,0,0,0,0,0,0,0,0,0,0,0,0,0,0,0,0,0,0,0,0,0,0,0,0,0,0,0,0,0,0,0,0,0,0,0,0,0,0,0,0,0,
0,0,0,0,0,0,0,0,0,0,0,0,0,0,0,0,0,0,0,0,0,0,0,0,0,0,0,0,0,0,0,0,0,0,0,0,0,0,0,0,0,0,0,0,0,0,0,0,0,0,0,0,0,0,0,0,0,0,0,0,
0,0,0,0,0,0,0,0,0,0,0,0,0,0,0,0,0,0,0,0,0,0,0,0,0,0,0,0,0,0,0,0,0,0,0,0,0,0,0,0,0,0,0,0,0,0,0,0,0,0,0,0,0,0,0,0,0,0,0,0,
0,0,0,0,0,0,0,0,0,0,0,0,0,0,0,0,0,0,0,0,0,0,0,0,0,0,0,0,0,0,0,0,0,0,0,0,0,0,0,0,0,0,0,0,0,0,0,0,0,0,0,0,0,0,0,0,0,0,0,0,
0,0,0,0,0,0,0,0,0,0,0,0,0,0,0,0,0,0,0,0,0,0,0,0,0,0,0,0,0,0,0,0,0,0,0,0,0,0,0,0,0,0,0,0,0,0,0,0,0,0,0,0,0,0,0,0,0,0,0,0,
0,0,0,0,0,0,0,0,0,0,0,0,0,0,0,0,0,0,0,0,0,0,0,0,0,0,0,0,0,0,0,0,0,1921,1922,1923,1924,1925,0,0,0,0,0,0,0,0,0,0,0,0,0,0,0,0,0,0,0,0,0,0,
0,0,0,0,0,0,0,0,0,0,0,0,0,0,0,1441,1442,1443,1444,0,0,0,0,0,0,0,0,0,0,0,0,0,0,1929,1930,1931,1932,1933,1316,0,0,0,0,1441,1442,1443,1444,0,0,0,0,0,0,0,0,0,0,0,0,0,
0,0,0,0,0,0,0,0,0,0,0,0,0,0,0,1449,1450,1451,1452,0,0,0,0,0,0,0,0,0,0,0,0,0,0,1937,1938,1939,1940,1941,1324,0,0,0,0,1449,1450,1451,1452,0,0,0,0,0,0,0,0,0,0,0,0,0,
0,0,0,0,0,0,0,0,0,0,0,0,0,0,0,1423,1424,1459,1460,0,0,0,0,0,0,0,0,0,0,0,0,0,0,1945,1946,0,1948,1949,1332,0,0,0,0,1423,1424,1459,1460,0,0,0,0,0,0,0,0,0,0,0,0,0,
0,0,0,0,0,0,0,0,0,0,0,0,0,0,0,0,0,0,0,0,863,0,0,0,0,0,0,0,0,0,0,0,0,0,0,0,0,0,0,0,0,0,0,0,0,0,0,0,0,0,0,0,0,0,0,0,0,0,0,0,
0,0,0,0,0,0,0,0,0,0,0,0,0,0,0,0,0,0,0,0,0,0,0,0,0,0,0,0,0,0,0,0,0,0,0,0,0,0,0,0,0,0,0,0,0,0,0,0,0,0,0,0,0,0,0,0,0,0,0,0,
0,0,0,0,0,0,0,0,0,0,0,0,0,0,0,0,0,0,0,0,0,0,0,0,0,0,0,0,0,0,0,0,0,0,0,0,0,0,0,0,0,0,0,0,0,0,0,0,0,0,0,0,0,0,0,0,0,0,0,0,
0,0,0,0,0,0,0,0,0,0,0,0,0,0,0,0,0,0,0,0,0,0,0,0,0,0,0,0,0,0,0,0,0,0,0,0,0,0,0,0,0,0,0,0,0,0,0,0,0,0,0,0,0,0,0,0,0,0,0,0,
0,0,0,0,0,0,0,0,0,0,0,0,0,0,0,0,0,0,0,0,0,0,0,0,0,0,0,0,0,0,0,0,0,0,0,0,0,0,0,0,0,0,0,0,0,0,0,0,0,0,0,0,0,0,0,0,0,0,0,0,
0,0,0,0,0,0,0,0,0,0,0,0,0,0,0,0,0,0,0,0,0,0,0,0,0,0,0,0,0,0,0,0,0,0,0,0,0,0,0,0,0,0,0,0,0,0,0,0,0,0,0,0,0,0,0,0,0,0,0,0,
0,0,0,0,0,0,0,0,0,0,0,0,0,0,0,0,0,0,0,0,0,0,691,692,693,694,695,696,736,0,0,0,0,0,0,0,0,0,0,0,0,0,0,0,0,0,0,0,0,0,0,0,0,0,0,0,0,0,0,0,
0,0,0,0,0,0,0,0,0,0,0,0,0,0,0,0,0,0,0,0,0,0,699,700,701,702,703,704,744,0,0,0,0,0,0,0,0,0,0,0,0,0,0,0,0,0,0,0,0,0,0,0,0,0,0,0,0,0,0,0,
0,0,0,0,0,0,0,0,0,0,0,0,0,0,0,0,0,0,0,0,0,0,707,708,709,710,711,712,752,0,0,0,0,0,0,0,0,0,0,0,0,0,0,0,0,0,0,0,0,0,0,0,0,0,0,0,0,0,0,0,
0,0,0,0,0,0,0,0,0,0,0,0,0,0,0,0,0,0,0,0,0,0,715,716,717,718,719,720,760,0,0,0,0,0,0,0,0,0,0,0,0,0,0,0,0,0,0,0,0,0,0,0,0,0,0,0,0,0,0,0,
0,0,0,0,0,0,0,0,0,0,0,0,0,0,0,0,0,0,0,0,0,0,723,724,725,0,727,728,768,0,0,0,0,0,0,0,0,0,0,0,0,0,0,0,0,0,0,0,0,0,0,0,0,0,0,0,0,0,0,0,
0,0,0,0,0,0,0,0,0,0,0,0,0,0,0,0,0,0,0,0,0,0,0,0,0,0,0,0,0,0,0,0,0,0,0,0,0,0,0,0,0,0,0,0,0,0,0,0,0,0,0,0,0,0,0,0,0,0,0,0,
0,0,0,0,0,0,0,0,0,0,0,0,0,0,0,0,0,0,0,0,0,0,0,0,0,0,0,0,0,0,0,0,0,0,0,0,0,0,0,0,0,0,0,0,0,0,0,0,0,0,0,0,0,0,0,0,0,0,0,0,
0,0,0,0,0,0,0,0,0,0,0,0,0,0,0,0,0,0,0,0,0,0,0,0,0,0,0,0,0,0,0,0,0,0,0,0,0,0,0,0,0,0,0,0,0,0,0,0,0,0,0,0,0,0,0,0,0,0,0,0,
0,0,0,0,0,0,0,0,0,0,0,0,0,0,0,0,0,0,0,0,0,0,0,0,0,0,0,0,0,0,0,0,0,0,0,0,0,0,0,0,0,0,0,0,0,0,0,0,0,0,0,0,0,0,0,0,0,0,0,0,
0,0,0,0,0,0,0,0,0,0,0,0,0,0,0,0,0,0,0,0,0,0,0,0,0,0,0,0,0,0,0,0,0,0,0,0,0,0,0,0,0,0,0,0,0,0,0,0,0,0,0,0,863,0,0,0,0,0,0,0,
0,0,0,0,0,0,0,0,0,0,0,0,0,0,0,0,0,865,866,866,867,0,0,0,0,0,0,0,0,0,0,0,0,0,0,0,0,0,0,0,0,0,0,0,0,0,0,0,0,0,0,0,0,0,0,0,0,0,0,0,
0,0,0,0,0,0,0,0,0,0,0,0,0,0,0,0,0,873,874,874,871,867,0,0,0,0,0,0,0,0,0,0,0,0,0,0,0,0,0,0,0,0,0,0,0,0,0,0,0,0,0,0,0,0,0,0,0,0,0,0,
0,0,0,0,0,0,0,0,0,0,0,0,0,0,0,0,0,873,874,874,874,875,0,0,0,0,0,0,0,0,0,0,0,0,0,0,0,0,0,0,0,0,0,0,0,0,0,0,0,0,0,0,0,0,0,0,0,0,0,0,
0,0,0,0,0,0,0,0,0,0,0,0,0,0,0,0,0,881,882,890,874,875,0,0,0,0,0,0,0,0,0,0,0,0,0,0,0,0,0,0,0,0,0,0,0,0,0,0,0,0,0,0,0,0,0,0,0,0,0,0,
0,0,0,0,0,0,0,0,0,0,0,0,0,0,0,0,0,0,0,881,882,883,0,0,0,0,0,0,0,0,0,0,0,0,0,0,0,1441,1442,1443,1444,0,1441,1442,1443,1444,0,0,0,0,0,0,0,0,0,0,0,0,0,0,
0,0,0,0,0,0,0,0,0,0,0,0,0,0,0,0,0,0,0,0,0,0,0,0,0,0,0,0,0,0,0,0,0,0,0,0,0,1449,1450,1451,1452,0,1449,1450,1451,1452,0,0,0,0,0,0,0,0,0,0,0,0,0,0,
0,0,0,0,0,0,0,0,0,0,0,0,0,0,0,0,0,0,0,0,0,0,0,863,0,0,0,0,0,0,0,0,0,0,0,0,0,1457,0,1459,1460,0,1457,1415,1459,1460,0,0,0,0,0,0,0,0,0,0,0,0,0,0,
0,0,0,0,0,0,0,0,0,0,0,0,0,0,0,0,0,0,0,0,0,0,0,0,0,0,0,0,0,0,0,0,0,0,0,0,0,0,0,0,0,0,0,0,0,0,0,0,0,0,0,0,0,0,0,0,0,0,0,0,
0,0,0,0,0,0,0,0,0,0,0,0,0,0,0,0,0,0,0,0,0,0,0,0,0,0,0,0,0,0,0,0,0,0,0,0,0,0,0,0,0,0,0,0,0,0,0,0,0,0,0,0,0,0,0,0,0,0,0,0,
0,0,0,0,0,0,0,0,0,0,0,0,0,0,0,0,0,0,0,0,0,0,0,0,0,0,0,0,0,0,0,0,0,0,0,0,0,0,0,0,0,0,0,0,0,0,0,0,0,0,0,0,0,0,0,0,0,0,0,0,
0,0,0,0,0,0,0,0,0,0,0,0,0,0,0,0,0,0,0,0,0,0,0,0,0,0,0,0,0,0,0,0,0,0,0,0,0,0,0,0,0,0,0,0,0,0,0,0,0,0,0,0,0,0,0,0,0,0,0,0,
0,0,0,0,0,0,0,0,0,0,0,0,0,0,0,0,0,0,0,0,0,0,0,0,0,0,0,0,0,0,0,0,0,0,0,0,0,0,0,0,0,0,0,0,0,0,0,0,0,0,0,0,0,0,0,0,0,0,0,0,
0,0,0,0,0,0,0,0,0,0,0,0,0,0,0,0,0,0,0,0,0,0,0,0,0,0,0,0,0,0,0,0,0,0,0,0,0,0,0,0,0,0,0,0,0,0,0,0,0,0,0,0,0,0,0,0,0,0,0,0,
0,0,0,0,0,0,0,0,0,0,0,0,0,0,0,0,0,0,0,0,0,0,0,0,0,0,0,0,0,0,0,0,0,0,0,0,0,0,0,0,0,0,0,0,0,0,0,0,0,0,0,0,0,0,0,0,0,0,0,0,
0,0,0,0,0,0,0,0,0,0,0,0,0,0,0,0,0,0,0,0,0,0,0,0,0,0,0,0,0,0,0,0,0,0,0,0,0,0,0,0,0,0,0,0,0,0,0,0,0,0,0,0,0,0,0,0,0,0,0,0,
0,0,0,0,0,0,0,0,0,0,0,0,0,0,0,0,0,0,0,0,0,0,0,0,0,0,0,0,0,0,0,0,0,0,0,0,0,0,0,0,0,0,0,0,0,0,0,0,0,0,0,0,0,0,0,0,0,0,0,0,
0,0,0,0,0,0,0,0,0,0,0,0,0,0,0,0,0,0,0,0,0,0,0,0,0,0,0,0,0,0,0,0,0,0,0,0,0,0,0,0,0,0,0,0,0,0,0,0,0,0,0,0,0,0,0,0,0,0,0,0,
0,0,0,0,0,0,0,0,0,0,0,0,0,0,0,0,0,0,0,0,0,0,0,0,0,0,0,0,0,0,0,0,0,0,0,0,0,0,0,0,0,0,0,0,0,0,0,0,0,0,0,0,0,0,0,0,0,0,0,0,
0,0,0,0,0,0,0,0,0,0,0,0,0,0,0,0,0,0,0,0,0,0,0,0,0,0,0,0,0,0,0,0,0,0,0,0,0,0,0,0,0,0,0,0,0,0,0,0,0,0,0,0,0,0,0,0,0,0,0,0
  </data>
 </layer>
 <objectgroup id="4" name="events"/>
 <group id="7" name="above">
 <layer id="5" name="middle_above" width="60" height="46">
  <data encoding="csv">
425,0,425,0,425,0,425,0,425,0,425,0,425,0,425,0,425,0,425,0,425,0,425,0,425,0,425,0,425,0,425,0,425,0,425,0,425,0,425,0,425,0,425,0,425,0,425,0,425,0,425,0,425,0,425,0,425,428,425,428,
417,0,417,0,417,0,417,0,417,0,417,0,417,0,417,0,417,0,417,0,417,0,417,0,417,0,417,0,417,0,417,0,417,0,417,0,417,0,417,0,417,0,417,0,417,0,417,0,417,0,417,0,417,0,417,0,417,420,417,420,
425,0,425,0,425,0,425,0,425,0,425,0,425,0,425,0,425,0,425,0,425,0,425,0,425,0,425,0,425,0,425,0,425,0,425,0,425,0,425,0,425,0,425,0,425,0,425,0,425,0,425,0,425,0,425,0,425,428,425,428,
417,0,417,0,417,0,417,0,417,0,417,0,417,0,417,0,417,0,417,0,417,0,417,0,417,0,417,0,417,0,417,0,417,0,417,0,417,0,417,0,417,0,417,0,417,0,417,0,417,0,417,0,417,0,417,0,417,420,417,420,
425,0,425,0,425,0,425,0,425,0,425,0,425,0,425,0,425,0,425,0,425,0,425,0,425,0,425,0,425,0,425,0,425,0,425,0,425,0,425,0,425,0,425,0,425,0,425,0,425,0,425,0,425,0,425,0,425,428,425,428,
417,0,417,0,417,0,417,0,417,0,417,0,417,0,417,0,417,0,417,0,417,0,417,0,417,0,417,0,417,0,417,0,417,0,417,0,417,0,417,0,417,0,417,0,417,0,417,0,417,0,417,0,417,0,417,0,417,420,417,420,
425,0,425,0,425,0,425,0,425,0,425,0,425,0,425,0,425,0,425,0,425,0,425,0,425,0,425,0,425,0,425,0,425,0,425,0,425,0,425,0,425,0,425,0,425,0,425,0,425,0,425,0,425,0,425,0,425,428,425,428,
417,0,417,0,417,0,417,0,417,0,417,0,417,0,433,0,433,0,433,0,433,0,433,0,433,0,433,0,433,0,433,0,433,0,433,0,433,0,433,0,433,0,433,0,433,0,433,0,417,0,417,0,417,0,417,0,417,420,417,420,
425,0,425,0,425,0,425,0,425,0,425,0,425,428,0,0,0,0,0,0,0,0,0,0,0,0,0,0,0,0,0,0,0,0,0,0,0,0,0,0,0,0,0,0,0,0,0,0,425,0,425,0,425,0,425,0,425,428,425,428,
417,0,417,0,417,0,417,0,417,0,417,0,417,420,0,0,0,0,0,0,0,0,0,0,0,0,0,0,0,0,0,0,0,0,0,0,0,0,0,0,0,0,0,0,0,0,0,0,417,0,417,0,417,0,417,0,417,420,417,420,
425,0,425,0,425,0,425,0,425,0,425,0,425,428,0,0,0,0,0,0,0,0,0,0,0,0,0,0,0,0,0,0,0,0,0,0,0,0,0,0,0,0,0,0,0,0,0,0,425,0,425,0,425,0,425,0,425,428,425,428,
417,0,417,0,417,0,417,0,417,0,417,0,417,420,0,0,0,0,0,0,0,0,0,0,0,0,0,0,0,0,0,0,0,0,0,0,0,0,0,0,0,0,0,0,0,0,0,0,433,0,417,0,417,0,417,0,417,420,417,420,
425,0,425,0,425,0,425,0,425,0,425,0,425,428,0,0,0,0,0,0,0,0,0,0,0,0,0,0,0,0,0,0,0,0,0,0,0,0,0,0,0,0,0,0,0,0,0,0,0,0,425,0,425,0,425,0,425,428,425,428,
417,0,417,0,417,0,417,0,417,0,417,0,417,420,0,0,0,0,0,0,0,0,0,0,0,0,0,0,0,0,0,0,0,0,0,0,0,0,0,0,0,0,0,0,0,0,0,0,0,0,417,0,417,0,417,0,417,420,417,420,
425,0,425,0,425,0,425,0,425,0,425,0,425,428,431,0,0,0,0,0,0,0,0,0,0,0,0,0,0,0,0,0,0,0,0,0,0,0,0,0,0,0,1433,1434,1435,1436,0,0,0,0,425,0,425,0,425,0,425,428,425,428,
417,0,417,0,417,0,417,0,417,0,417,0,417,420,439,0,0,0,0,0,0,0,0,0,0,0,0,0,0,0,0,0,0,0,0,0,0,0,0,0,0,0,0,0,0,0,0,0,0,0,417,0,417,0,417,0,417,420,417,420,
425,0,425,0,425,0,425,0,425,0,425,0,425,0,525,526,431,0,0,0,0,0,0,0,0,0,0,0,0,0,0,0,0,0,0,0,0,0,0,0,0,0,0,0,0,0,0,0,0,0,425,0,425,0,425,0,425,428,425,428,
417,0,417,0,417,0,417,0,417,0,417,0,417,0,417,420,439,0,0,0,0,0,0,0,0,0,0,0,0,0,0,0,0,0,0,0,0,0,0,0,0,0,0,0,0,0,0,0,0,0,417,0,417,0,417,0,417,420,417,420,
425,0,425,0,425,0,425,0,425,0,425,0,425,0,425,428,431,0,0,525,526,0,0,0,0,0,0,0,0,0,525,526,0,0,0,0,0,0,0,0,0,0,0,0,0,0,0,0,0,0,425,0,425,0,425,0,425,428,425,428,
417,0,417,0,417,0,417,0,417,0,417,0,417,0,417,420,439,0,0,417,420,0,0,0,0,0,0,0,0,0,417,420,0,0,0,0,0,0,0,0,0,0,0,0,0,0,0,0,0,0,417,0,417,0,417,0,417,420,417,420,
425,0,425,0,425,0,425,0,425,0,425,0,425,0,425,428,431,0,0,425,428,847,0,0,0,0,0,0,0,847,425,428,0,0,0,0,0,0,0,0,0,0,0,0,0,0,0,0,0,0,425,0,425,0,425,0,425,428,425,428,
417,0,417,0,417,0,417,0,417,0,417,0,417,0,417,420,439,0,0,433,436,855,0,0,0,0,0,0,0,855,433,436,0,0,0,1433,1434,1435,1436,0,0,0,0,0,0,0,0,0,0,0,417,0,417,0,417,0,417,420,417,420,
425,0,425,0,425,0,425,0,425,0,425,0,425,0,425,428,431,0,0,0,0,0,0,0,0,0,0,0,0,0,0,0,0,0,0,0,0,0,0,847,0,0,0,0,0,1301,0,0,0,0,425,0,425,0,425,0,425,428,425,428,
417,0,417,0,417,0,417,0,417,0,417,0,417,0,417,420,439,0,0,0,0,0,0,0,0,0,0,0,0,0,0,0,0,0,0,0,0,0,0,855,0,0,0,0,0,0,0,0,0,0,433,0,433,0,433,0,433,436,433,436,
425,0,425,0,425,0,425,0,425,0,425,0,425,0,425,428,431,0,0,0,0,0,0,0,0,0,0,0,0,0,0,0,0,0,0,0,0,0,0,0,0,0,0,0,0,0,0,0,0,0,0,0,0,0,0,0,0,0,0,0,
417,0,417,0,417,0,417,0,417,0,417,0,417,0,417,420,439,0,0,0,0,0,0,0,0,0,0,0,0,0,0,0,0,0,0,0,0,0,0,0,0,0,0,0,0,0,0,0,0,0,0,0,0,0,0,0,0,0,0,0,
425,0,425,0,425,0,425,0,425,0,425,0,425,0,425,428,0,0,0,0,0,0,0,0,0,0,0,0,0,0,0,0,0,0,0,0,0,0,0,0,0,0,0,0,0,0,0,0,0,0,0,0,0,0,0,0,0,0,0,0,
417,0,417,0,417,0,417,0,417,0,417,0,417,0,417,420,439,0,0,0,0,0,0,525,526,0,0,0,0,0,525,526,0,0,0,0,412,413,412,413,412,413,412,413,412,413,0,0,0,0,0,0,0,0,0,0,0,0,0,0,
425,0,425,0,425,0,425,0,425,0,425,0,425,0,425,428,431,0,0,0,0,0,0,417,420,0,0,0,0,0,0,420,0,0,0,0,525,526,525,526,525,526,525,526,525,526,0,0,0,0,0,0,847,0,0,0,0,0,0,0,
417,0,417,0,417,0,417,0,417,0,417,0,417,0,417,420,439,0,0,0,0,0,0,425,428,0,0,0,0,0,0,428,0,0,0,0,433,0,433,0,433,0,433,0,433,436,0,0,0,0,0,0,855,0,0,0,0,0,0,0,
425,0,425,0,425,0,425,0,425,0,425,0,425,0,425,428,431,0,0,0,0,0,0,433,436,0,0,0,0,0,0,436,0,0,0,0,0,0,0,0,0,0,0,0,0,0,0,0,0,0,525,526,0,526,525,526,525,526,525,526,
417,0,417,0,417,0,417,0,417,0,417,0,417,0,417,420,439,0,0,0,0,0,0,0,0,0,0,0,0,0,0,0,0,0,0,0,0,0,0,0,0,0,0,0,0,0,0,0,0,0,417,0,417,0,417,0,417,420,417,420,
425,0,425,0,425,0,425,0,425,0,425,0,425,0,425,428,431,0,0,0,0,0,0,0,0,0,0,0,0,0,0,0,0,0,0,0,0,0,0,0,0,0,0,0,0,0,0,0,0,0,425,0,425,0,425,0,425,428,425,428,
417,0,417,0,417,0,417,0,417,0,417,0,417,0,417,420,439,0,0,1433,1434,1435,1436,0,0,0,0,0,0,0,0,0,0,0,0,0,0,0,0,0,0,0,0,0,0,0,0,0,0,0,417,0,417,0,417,0,417,420,417,420,
425,0,425,0,425,0,425,0,425,0,425,0,425,0,425,428,431,0,0,0,0,0,0,0,0,0,0,0,0,0,0,0,0,0,0,0,0,0,0,0,0,0,0,0,0,0,0,0,0,0,425,0,425,0,425,0,425,428,425,428,
417,0,417,0,417,0,417,0,417,0,417,0,417,0,417,420,439,0,0,0,0,0,0,0,0,0,0,0,0,0,0,0,0,0,0,0,0,0,0,0,0,0,0,0,0,0,0,0,0,0,417,0,417,0,417,0,417,420,417,420,
425,0,425,0,425,0,425,0,425,0,425,0,425,0,425,0,525,526,431,0,0,0,0,0,0,0,0,0,0,0,0,0,0,0,0,0,0,0,0,0,0,0,0,0,0,0,0,0,0,0,425,0,425,0,425,0,425,428,425,428,
417,0,417,0,417,0,417,0,417,0,417,0,417,0,417,0,417,420,439,0,0,0,0,0,0,0,0,0,0,0,0,0,0,0,0,0,0,0,0,0,0,0,0,0,0,0,0,0,0,0,417,0,417,0,417,0,417,420,417,420,
425,0,425,0,425,0,425,0,425,0,425,0,425,0,425,0,425,0,431,0,0,0,0,0,0,0,0,0,0,847,0,0,0,0,847,0,0,0,0,0,0,0,0,0,0,0,0,0,0,0,425,0,425,0,425,0,425,428,425,428,
417,0,417,0,417,0,417,0,417,0,417,0,417,0,417,0,417,420,439,0,0,0,0,0,0,0,0,0,0,855,0,0,0,0,855,0,0,0,0,0,0,0,0,0,0,0,0,0,0,413,417,0,417,0,417,0,417,420,417,420,
425,0,425,0,425,0,425,0,425,0,425,0,425,0,425,0,425,428,525,526,525,526,525,526,525,526,525,526,525,0,0,0,0,0,0,0,525,526,525,526,525,526,525,526,525,526,525,526,525,526,0,0,425,0,425,0,425,428,425,428,
417,0,417,0,417,0,417,0,417,0,417,0,417,0,417,0,417,0,417,0,417,0,417,0,417,0,417,0,417,420,0,0,0,0,417,0,417,0,417,0,417,0,417,0,417,0,417,0,417,0,417,0,417,0,417,0,417,420,417,420,
425,0,425,0,425,0,425,0,425,0,425,0,425,0,425,0,425,0,425,0,425,0,425,0,425,0,425,0,425,428,0,0,0,0,425,0,425,0,425,0,425,0,425,0,425,0,425,0,425,0,425,0,425,0,425,0,425,428,425,428,
417,0,417,0,417,0,417,0,417,0,417,0,417,0,417,0,417,0,417,0,417,0,417,0,417,0,417,0,417,420,0,0,0,0,417,0,417,0,417,0,417,0,417,0,417,0,417,0,417,0,417,0,417,0,417,0,417,420,417,420,
425,0,425,0,425,0,425,0,425,0,425,0,425,0,425,0,425,0,425,0,425,0,425,0,425,0,425,0,425,428,0,0,0,0,0,0,425,0,425,0,425,0,425,0,425,0,425,0,425,0,425,0,425,0,425,0,425,428,425,428,
417,0,417,0,417,0,417,0,417,0,417,0,417,0,417,0,417,0,417,0,417,0,417,0,417,0,417,0,417,420,0,0,0,0,417,0,417,0,417,0,417,0,417,0,417,0,417,0,417,0,417,0,417,0,417,0,417,420,417,420
  </data>
 </layer>
 <layer id="6" name="upper_above" width="60" height="46">
  <data encoding="csv">
0,0,0,0,0,0,0,0,0,0,0,0,0,0,0,0,0,0,0,0,0,0,0,0,0,0,0,0,0,0,0,0,0,0,0,0,0,0,0,0,0,0,0,0,0,0,0,0,0,0,0,0,0,0,0,0,0,0,0,0,
0,0,0,0,0,0,0,0,0,0,0,0,0,0,0,0,0,0,0,0,0,0,0,0,0,0,0,0,0,0,0,0,0,0,0,0,0,0,0,0,0,0,0,0,0,0,0,0,0,0,0,0,0,0,0,0,0,0,0,0,
0,0,0,0,0,0,0,0,0,0,0,0,0,0,0,0,0,0,0,0,0,0,0,0,0,0,0,0,0,0,0,0,0,0,0,0,0,0,0,0,0,0,0,0,0,0,0,0,0,0,0,0,0,0,0,0,0,0,0,0,
0,0,0,0,0,0,0,0,0,0,0,0,0,0,0,0,0,0,0,0,0,0,0,0,0,0,0,0,0,0,0,0,0,0,0,0,0,0,0,0,0,0,0,0,0,0,0,0,0,0,0,0,0,0,0,0,0,0,0,0,
0,0,0,0,0,0,0,0,0,0,0,0,0,0,0,0,0,0,0,0,0,0,0,0,0,0,0,0,0,0,0,0,0,0,0,0,0,0,0,0,0,0,0,0,0,0,0,0,0,0,0,0,0,0,0,0,0,0,0,0,
0,0,0,0,0,0,0,0,0,0,0,0,0,0,0,0,0,0,0,0,0,0,0,0,0,0,0,0,0,0,0,0,0,0,0,0,0,0,0,0,0,0,0,0,0,0,0,0,0,0,0,0,0,0,0,0,0,0,0,0,
0,0,0,0,0,0,0,0,0,0,0,0,0,0,0,0,0,0,0,0,0,0,0,0,0,0,0,0,0,0,0,0,0,0,0,0,0,0,0,0,0,0,0,0,0,0,0,0,0,0,0,0,0,0,0,0,0,0,0,0,
0,0,0,0,0,0,0,0,0,0,0,0,0,0,0,1433,1434,1435,1436,0,0,0,0,0,0,0,0,0,0,0,0,0,0,0,0,0,0,0,0,0,0,0,0,1433,1434,1435,1436,0,0,0,0,0,0,0,0,0,0,0,0,0,
0,0,0,0,0,0,0,0,0,0,0,0,0,0,431,0,0,0,0,0,0,0,0,0,0,0,0,0,0,0,0,0,0,0,0,0,0,0,0,0,0,0,0,0,0,0,0,432,0,0,0,0,0,0,0,0,0,0,0,0,
0,0,0,0,0,0,0,0,0,0,0,0,0,0,439,0,0,0,0,0,847,0,0,0,0,0,0,0,0,0,0,0,0,0,0,0,0,0,0,0,0,0,0,0,0,0,0,440,0,0,0,0,0,0,0,0,0,0,0,0,
0,0,0,0,0,0,0,0,0,0,0,0,0,0,431,0,0,0,0,0,855,0,0,0,0,0,0,0,0,0,0,0,0,0,0,0,0,0,0,0,0,0,0,0,0,0,0,432,0,0,0,0,0,0,0,0,0,0,0,0,
0,0,0,0,0,0,0,0,0,0,0,0,0,0,439,0,0,0,0,0,0,0,0,0,0,0,0,0,0,0,0,0,0,0,0,0,0,0,0,0,0,0,0,0,0,0,0,440,0,0,0,0,0,0,0,0,0,0,0,0,
0,0,0,0,0,0,0,0,0,0,0,0,0,0,431,0,0,0,0,0,0,0,0,0,0,0,0,0,0,0,0,0,0,0,0,0,0,0,0,0,0,0,0,0,0,0,0,0,0,432,0,0,0,0,0,0,0,0,0,0,
0,0,0,0,0,0,0,0,0,0,0,0,0,0,439,0,0,0,0,0,0,0,0,0,0,0,0,0,0,0,0,0,0,0,0,0,0,0,0,0,0,0,0,0,0,0,0,0,0,440,0,0,0,0,0,0,0,0,0,0,
0,0,0,0,0,0,0,0,0,0,0,0,0,0,0,0,0,0,0,0,0,0,0,0,0,0,0,0,0,0,0,0,0,0,0,0,0,0,0,0,0,0,0,0,0,0,0,0,0,432,0,0,0,0,0,0,0,0,0,0,
0,0,0,0,0,0,0,0,0,0,0,0,0,0,412,413,0,0,0,0,0,0,0,0,0,0,0,0,0,0,0,0,0,0,0,0,0,0,0,0,0,0,0,0,0,0,0,0,0,440,0,0,0,0,0,0,0,0,0,0,
0,0,0,0,0,0,0,0,0,0,0,0,0,0,0,0,0,0,0,0,0,0,0,0,0,0,0,0,0,0,0,0,0,0,0,0,0,0,0,0,0,0,0,0,0,0,0,0,0,432,0,0,0,0,0,0,0,0,0,0,
0,0,0,0,0,0,0,0,0,0,0,0,0,0,0,0,0,0,0,412,413,0,0,0,0,0,0,0,0,0,412,413,0,0,0,0,0,0,0,0,0,0,0,0,0,0,0,0,0,440,0,0,0,0,0,0,0,0,0,0,
0,0,0,0,0,0,0,0,0,0,0,0,0,0,0,0,0,0,432,0,0,431,0,0,0,0,0,0,0,432,0,0,431,0,0,0,0,0,0,0,0,0,0,0,0,0,0,0,0,432,0,0,0,0,0,0,0,0,0,0,
0,0,0,0,0,0,0,0,0,0,0,0,0,0,0,0,0,0,440,0,0,439,0,0,0,0,0,0,0,440,0,0,439,0,0,0,0,0,0,0,0,0,0,0,0,0,0,0,0,440,0,0,0,0,0,0,0,0,0,0,
0,0,0,0,0,0,0,0,0,0,0,0,0,0,0,0,0,0,432,0,0,431,0,0,0,0,0,0,0,432,0,0,431,0,0,0,0,0,0,0,0,0,0,0,0,0,0,0,0,432,0,0,0,0,0,0,0,0,0,0,
0,0,0,0,0,0,0,0,0,0,0,0,0,0,0,0,0,0,440,0,0,439,0,0,0,0,0,0,0,440,0,0,439,0,0,0,0,0,0,0,0,0,0,0,0,0,0,0,0,440,0,0,0,0,0,0,0,0,0,0,
0,0,0,0,0,0,0,0,0,0,0,0,0,0,0,0,0,0,0,0,0,0,0,0,0,0,0,0,0,0,0,0,0,0,0,0,0,0,0,0,0,0,0,0,0,0,0,0,0,432,0,0,0,0,0,0,0,0,0,0,
0,0,0,0,0,0,0,0,0,0,0,0,0,0,0,0,0,0,0,0,0,0,0,0,0,0,0,0,0,0,0,0,0,0,0,0,0,0,0,0,0,0,0,0,0,0,0,0,0,440,0,0,0,0,0,0,0,0,0,0,
0,0,0,0,0,0,0,0,0,0,0,0,0,0,0,0,0,0,0,0,0,0,0,0,0,0,0,0,0,0,0,0,0,0,0,0,0,0,0,0,0,0,0,0,0,0,0,0,0,0,0,0,847,0,0,0,0,0,0,0,
0,0,0,0,0,0,0,0,0,0,0,0,0,0,0,0,0,0,0,0,0,0,0,0,0,0,0,0,0,0,0,0,0,0,0,0,0,0,0,0,0,0,0,0,0,0,0,0,0,0,0,0,855,0,0,0,0,0,0,0,
0,0,0,0,0,0,0,0,0,0,0,0,0,0,0,0,431,0,0,0,0,0,0,0,0,0,0,0,0,0,0,0,0,0,0,0,0,0,0,0,0,0,0,0,0,0,0,0,0,0,0,0,0,0,0,0,0,0,0,0,
0,0,0,0,0,0,0,0,0,0,0,0,0,0,0,0,0,0,0,0,0,0,432,0,0,0,0,0,0,0,0,0,431,0,0,0,0,0,0,0,0,0,0,0,0,0,0,0,0,0,0,0,0,0,0,0,0,0,0,0,
0,0,0,0,0,0,0,0,0,0,0,0,0,0,0,0,0,0,0,0,0,0,440,0,0,0,0,0,0,0,0,0,439,0,0,432,0,0,0,0,0,0,0,0,0,0,431,0,0,0,0,0,0,0,0,0,0,0,0,0,
0,0,0,0,0,0,0,0,0,0,0,0,0,0,0,0,0,0,0,0,0,0,432,0,0,431,0,0,0,432,0,0,431,0,0,440,0,0,0,0,0,0,0,0,0,0,439,0,0,0,412,413,412,413,412,413,412,413,412,413,
0,0,0,0,0,0,0,0,0,0,0,0,0,0,0,0,0,0,0,0,0,0,440,0,0,439,0,0,0,440,0,0,439,0,0,0,0,1433,1434,1435,1436,0,1433,1434,1435,1436,0,0,0,432,0,0,525,0,0,0,0,0,0,0,
0,0,0,0,0,0,0,0,0,0,0,0,0,0,0,0,0,0,0,0,0,0,0,847,0,0,0,0,0,0,0,0,0,0,0,0,0,0,0,0,0,0,0,0,0,0,0,0,0,440,0,0,0,0,0,0,0,0,0,0,
0,0,0,0,0,0,0,0,0,0,0,0,0,0,0,0,0,0,0,0,0,0,0,855,0,0,0,0,0,0,0,0,0,0,0,0,0,0,0,0,0,0,0,0,0,0,0,0,0,432,0,0,0,0,0,0,0,0,0,0,
0,0,0,0,0,0,0,0,0,0,0,0,0,0,0,0,0,0,0,0,0,0,0,0,0,0,0,0,0,0,0,0,0,0,0,0,0,0,0,0,0,0,0,0,0,0,0,0,0,440,0,0,0,0,0,0,0,0,0,0,
0,0,0,0,0,0,0,0,0,0,0,0,0,0,0,0,0,0,0,0,0,0,0,0,0,0,0,0,0,0,0,0,0,0,0,0,0,0,0,0,0,0,0,0,0,0,0,0,0,432,0,0,0,0,0,0,0,0,0,0,
0,0,0,0,0,0,0,0,0,0,0,0,0,0,0,0,412,413,0,0,0,0,0,0,0,0,0,0,0,0,0,0,0,0,0,0,0,0,0,0,0,0,0,0,0,0,0,0,0,440,0,0,0,0,0,0,0,0,0,0,
0,0,0,0,0,0,0,0,0,0,0,0,0,0,0,0,0,0,0,0,0,0,0,0,0,0,0,0,0,0,0,0,0,0,0,0,0,0,0,0,0,0,0,0,0,0,0,0,0,432,0,0,0,0,0,0,0,0,0,0,
0,0,0,0,0,0,0,0,0,0,0,0,0,0,0,0,0,0,0,0,0,0,0,0,0,0,0,0,0,0,0,0,0,0,0,0,0,0,0,0,0,0,0,0,0,0,0,0,0,440,0,0,0,0,0,0,0,0,0,0,
0,0,0,0,0,0,0,0,0,0,0,0,0,0,0,0,0,0,0,0,0,0,0,0,0,0,0,0,0,0,0,0,0,0,0,0,0,0,0,0,0,0,0,0,0,0,0,0,0,432,0,0,0,0,0,0,0,0,0,0,
0,0,0,0,0,0,0,0,0,0,0,0,0,0,0,0,0,0,412,413,412,413,412,413,412,413,412,413,412,413,0,0,0,0,412,413,412,413,412,413,412,413,412,413,412,413,412,413,412,440,0,0,0,0,0,0,0,0,0,0,
0,0,0,0,0,0,0,0,0,0,0,0,0,0,0,0,0,0,0,0,0,0,0,0,0,0,0,0,0,526,431,0,0,432,525,526,0,0,0,0,0,0,0,0,0,0,0,0,0,0,0,0,0,0,0,0,0,0,0,0,
0,0,0,0,0,0,0,0,0,0,0,0,0,0,0,0,0,0,0,0,0,0,0,0,0,0,0,0,0,0,439,0,0,440,0,0,0,0,0,0,0,0,0,0,0,0,0,0,0,0,0,0,0,0,0,0,0,0,0,0,
0,0,0,0,0,0,0,0,0,0,0,0,0,0,0,0,0,0,0,0,0,0,0,0,0,0,0,0,0,0,431,0,0,432,0,0,0,0,0,0,0,0,0,0,0,0,0,0,0,0,0,0,0,0,0,0,0,0,0,0,
0,0,0,0,0,0,0,0,0,0,0,0,0,0,0,0,0,0,0,0,0,0,0,0,0,0,0,0,0,0,439,0,0,440,0,0,0,0,0,0,0,0,0,0,0,0,0,0,0,0,0,0,0,0,0,0,0,0,0,0,
0,0,0,0,0,0,0,0,0,0,0,0,0,0,0,0,0,0,0,0,0,0,0,0,0,0,0,0,0,0,431,0,0,432,0,0,0,0,0,0,0,0,0,0,0,0,0,0,0,0,0,0,0,0,0,0,0,0,0,0,
0,0,0,0,0,0,0,0,0,0,0,0,0,0,0,0,0,0,0,0,0,0,0,0,0,0,0,0,0,0,439,0,0,440,0,0,0,0,0,0,0,0,0,0,0,0,0,0,0,0,0,0,0,0,0,0,0,0,0,0
  </data>
 </layer>
 </group>
</map>
