<?xml version="1.0" encoding="UTF-8"?>
<map version="1.10" tiledversion="1.10.2" orientation="orthogonal" renderorder="right-down" compressionlevel="0" width="50" height="90" tilewidth="32" tileheight="32" infinite="0" nextlayerid="4" nextobjectid="1">
 <tileset firstgid="1" source="RMXP-JohtoCompactExterior.tsx"/>
 <tileset firstgid="2401" source="RMXP-auto-tfj-waterfall.tsx"/>
 <tileset firstgid="2449" source="RMXP-auto-sand.tsx"/>
 <tileset firstgid="2497" source="RMXP-auto-still.tsx"/>
 <tileset firstgid="2545" source="RMXP-auto-noanimsea.tsx"/>
 <tileset firstgid="2593" source="RMXP-auto-hgss-sea.tsx"/>
 <tileset firstgid="2641" source="RMXP-auto-lake.tsx"/>
 <tileset firstgid="2689" source="RMXP-auto-r49water.tsx"/>
 <layer id="1" name="lower" width="50" height="90">
  <data encoding="csv">
58,58,58,58,58,58,58,58,58,58,58,58,58,58,58,58,58,58,2561,2545,2545,2545,2545,2545,2545,13,13,13,2545,2545,2569,2465,2473,13,58,0,0,0,0,0,0,0,0,0,0,0,0,0,0,0,
58,58,58,58,58,58,58,58,58,58,58,58,58,58,58,58,58,58,2561,2545,2545,2545,2545,2545,2545,13,13,13,2545,2545,2569,2465,2473,13,58,0,0,0,58,58,58,58,0,0,0,0,0,0,0,0,
0,0,2483,2469,2469,2469,2469,2470,2494,58,2483,2469,2469,2485,58,58,58,58,2561,2545,2545,2545,2545,2545,2545,13,13,13,2545,2545,2569,2465,2473,13,58,0,0,0,58,58,58,58,0,0,0,0,0,0,0,0,
0,0,2465,2449,2449,2449,2449,2473,13,58,2465,2449,2449,2473,58,58,58,58,2561,2545,2545,2545,2549,2573,2573,13,13,13,2573,2573,2583,2465,2473,13,58,0,0,0,58,58,58,58,0,0,0,0,0,0,0,0,
0,0,2465,2449,2449,2449,2449,2473,13,13,2465,2449,2449,2451,2485,58,58,58,2561,2545,2545,2545,2569,58,58,58,13,58,58,58,58,2478,2487,13,58,0,0,0,58,58,58,58,0,0,0,0,0,0,0,0,
0,0,2465,2449,2449,2449,2449,2473,13,13,2465,2449,2449,2449,2473,58,58,58,2561,2545,2545,2545,2569,13,58,13,58,58,58,58,58,58,58,13,58,0,0,0,58,58,58,58,0,0,0,0,0,0,0,0,
0,0,2465,2449,2449,2449,2449,2473,13,13,2465,2449,2449,2449,2451,2485,2579,2565,2546,2545,2545,2545,2569,13,13,37,42,42,42,42,42,42,42,42,58,58,58,58,58,58,58,58,0,0,0,0,0,0,0,0,
0,0,2465,2449,2449,2449,2449,2473,13,13,2489,2457,2449,2449,2449,2473,2561,2545,2545,2545,2545,2545,2569,13,13,35,11,2483,2469,2469,2469,2469,2469,2469,2469,2485,13,13,58,58,58,58,0,0,0,0,0,0,0,0,
0,0,2465,2449,2449,2449,2449,2451,2485,13,1,2465,2449,2449,2449,2473,2561,2545,2545,2545,2545,2545,2569,13,13,35,13,2465,2449,2449,2449,2449,2449,2449,2449,2473,13,11,58,58,58,58,0,0,0,0,0,0,0,0,
0,0,2465,2449,2449,2449,2449,2449,2473,13,15,2465,2449,2449,2449,2473,13,13,13,13,13,13,13,13,13,43,11,2465,2449,2449,2453,2477,2477,2477,2457,2473,15,13,58,58,58,58,0,0,0,0,0,0,0,0,
0,0,2465,2449,2449,2449,2449,2449,2473,13,1,2489,2457,2449,2449,2473,13,13,13,13,13,13,13,13,2483,2469,2469,2450,2453,2477,2487,1,1,1,2465,2451,2469,2485,58,58,58,58,0,0,0,0,0,0,0,0,
0,0,2465,2449,2449,2449,2449,2449,2473,13,1,11,2465,2449,2449,2473,13,13,13,13,13,13,13,13,2465,2449,2449,2449,2473,1,1,1,1,1,2465,2449,2449,2473,58,58,58,58,0,0,0,0,0,0,0,0,
0,0,2465,2449,2449,2449,2449,2449,2451,2485,15,13,2465,2449,2449,2473,2561,2545,2545,2545,2545,2545,2569,13,2465,2449,2449,2449,2473,1,1,1,1,1,2465,2449,2449,2473,58,58,58,58,0,0,0,0,0,0,0,0,
0,0,2465,2449,2449,2449,2449,2449,2449,2473,13,11,2465,2449,2449,2473,2561,2545,2545,2545,2545,2545,2569,13,2465,2449,2449,2449,2451,2469,2485,13,13,13,2465,2449,2449,2473,58,58,58,58,0,0,0,0,0,0,0,0,
0,0,2465,2449,2449,2449,2449,2449,2449,2473,15,13,2465,2449,2449,2473,2561,2545,2545,2545,2545,2545,2569,13,2465,2449,2449,2449,2449,2449,2451,2469,2469,2469,2450,2449,2449,2473,58,58,58,58,0,0,0,0,0,0,0,0,
0,0,2465,2449,2449,2449,2449,2449,2449,2451,2469,2469,2450,2449,2449,2473,2561,2545,2545,2549,2573,2573,2583,2492,2458,2449,2449,2449,2449,2449,2449,2449,2449,2449,2449,2449,2449,2473,58,58,58,58,0,0,0,0,0,0,0,0,
0,0,2465,2449,2449,2449,2449,2449,2449,2449,2449,2449,2449,2449,2449,2473,2561,2545,2545,2569,58,58,58,58,2465,2449,2449,2449,2449,2449,2449,2449,2449,2449,2449,2449,2449,2473,58,58,58,58,0,0,0,0,0,0,0,0,
0,0,2465,2449,2449,2449,2449,2449,2449,2449,2449,2449,2449,2449,2449,2473,2561,2545,2545,2569,58,58,58,58,2465,2449,2449,2449,2449,2449,2449,2449,2449,2449,2449,2449,2449,2473,58,58,58,58,0,0,0,0,0,0,0,0,
0,0,2465,2449,2449,2449,2449,2449,2449,2449,2449,2449,2449,2449,2449,2473,2561,2545,2545,2569,2483,2469,2469,2469,2450,2449,2449,2449,2449,2449,2449,2449,2453,2477,2477,2457,2449,2473,58,58,58,58,0,0,0,0,0,0,0,0,
0,0,2465,2449,2449,2449,2449,2449,2449,2449,2449,2449,2449,2449,2449,2473,2561,2545,2545,2569,2465,2449,2449,2449,2449,2449,2449,2449,2449,2449,2449,2449,2473,13,13,2465,2449,2473,58,58,58,58,0,0,0,0,0,0,0,0,
0,0,2465,2449,2449,2449,2449,2449,2449,2449,2449,2449,2449,2449,2449,2473,2561,2545,2545,2569,2465,2449,2449,2449,2449,2449,2449,2449,2449,2453,2477,2477,2487,13,13,2465,2449,2473,58,58,58,58,0,0,0,0,0,0,0,0,
0,0,2465,2449,2449,2449,2449,2449,2453,2477,2477,2457,2449,2449,2449,2473,2561,2545,2545,2569,2465,2449,2449,2449,2449,2449,2449,2449,2449,2473,13,13,13,13,13,2465,2449,2473,58,58,58,58,0,0,0,0,0,0,0,0,
0,0,2465,2449,2449,2449,2449,2449,2473,13,13,2465,2449,2449,2449,2473,2561,2545,2545,2569,2467,2477,2477,2477,2457,2449,2449,2449,2449,2473,1,1,1,1,11,2465,2449,2473,58,58,58,58,0,0,0,0,0,0,0,0,
0,0,2465,2449,2449,2449,2449,2449,2473,13,13,2465,2449,2449,2449,2473,2561,2545,2545,2569,2481,13,1,1,2465,2449,2449,2449,2449,2451,2469,2469,2485,15,13,2465,2449,2473,58,58,58,58,0,0,0,0,0,0,0,0,
0,0,2465,2449,2449,2449,2449,2449,2473,13,13,2465,2449,2449,2449,2473,2561,2545,2545,2569,2481,13,1,1,2465,2449,2449,2449,2449,2449,2449,2449,2451,2469,2469,2450,2449,2473,58,58,58,58,0,0,0,0,0,0,0,0,
0,0,2465,2449,2449,2449,2449,2449,2473,13,13,2465,2449,2449,2449,2473,2561,2545,2545,2569,2481,13,1,1,2465,2449,2449,2449,2449,2449,2449,2453,2477,2477,2477,2477,2477,2487,58,58,58,58,0,0,0,0,0,0,0,0,
0,0,2465,2449,2449,2449,2449,2449,2473,13,15,2465,2449,2449,2449,2473,2561,2545,2545,2569,2466,2469,2469,2469,2450,2449,2449,2449,2449,2449,2449,2473,58,58,58,58,58,58,58,58,58,58,0,0,0,0,0,0,0,0,
0,0,2465,2449,2449,2449,2449,2449,2473,13,13,2465,2449,2449,2449,2473,2561,2545,2545,2569,2465,2449,2449,2449,2449,2449,2449,2449,2449,2449,2449,2473,58,58,58,58,58,58,58,58,0,0,0,0,0,0,0,0,0,0,
0,0,2465,2449,2449,2449,2449,2449,2473,13,1,2465,2449,2449,2449,2473,2561,2545,2545,2569,2465,2449,2449,2449,2449,2449,2449,2449,2449,2449,2449,2473,58,58,58,58,58,58,58,58,0,0,0,0,0,0,0,0,0,0,
0,0,2465,2449,2449,2449,2449,2449,2473,13,1,2465,2449,2449,2449,2473,2561,2545,2545,2569,2465,2449,2449,2449,2449,2449,2449,2449,2449,2449,2449,2473,58,58,58,58,58,58,58,58,0,0,0,0,0,0,0,0,0,0,
0,0,2465,2449,2449,2449,2449,2449,2473,13,1,2489,2457,2449,2449,2473,2561,2545,2545,2569,2465,2449,2449,2449,2449,2449,2449,2449,2453,2477,2477,2487,58,58,58,58,58,58,58,58,0,0,0,0,0,0,0,0,0,0,
0,0,2465,2449,2449,2449,2449,2449,2473,13,1,1,2465,2449,2449,2473,2561,2545,2545,2569,2465,2449,2449,2449,2449,2449,2453,2477,2487,1,1,13,58,58,58,58,58,58,58,58,0,0,0,0,0,0,0,0,0,0,
0,0,2465,2449,2449,2449,2449,2449,2473,13,15,1,2465,2449,2449,2473,2561,2545,2545,2569,2465,2449,2449,2449,2449,2449,2473,1,1,1,1,13,58,58,58,58,58,58,58,58,0,0,0,0,0,0,0,0,0,0,
0,0,2465,2449,2449,2449,2453,2477,2474,13,1,13,2465,2449,2449,2473,2561,2545,2545,2569,2489,58,58,2449,2449,2449,2473,13,13,13,13,13,58,58,58,58,58,58,58,58,0,0,0,0,0,0,0,0,0,0,
0,0,2465,2449,2449,2449,2473,58,2466,2485,15,13,2465,2449,2449,2473,2561,2545,2545,2569,58,2489,2477,2477,2477,2477,2474,58,58,58,58,58,58,58,58,58,58,58,58,58,0,0,0,0,0,0,0,0,0,0,
0,0,2465,2449,2449,2449,2451,2469,2450,2473,13,13,2465,2449,2449,2473,2561,2545,2545,2547,2565,2565,2565,2565,2581,58,2481,58,58,58,58,58,58,58,58,58,58,58,58,58,0,0,0,0,0,0,0,0,0,0,
0,0,2465,2449,2449,2449,2449,2453,2477,2487,13,11,2465,2449,2449,2473,2561,2545,2545,2545,2545,2545,2545,2545,2569,58,2481,58,58,58,58,58,58,58,58,58,58,58,58,58,0,0,0,0,0,0,0,0,0,0,
0,0,2465,2449,2449,2449,2449,2473,13,13,15,13,2465,2449,2449,2473,2561,2545,2545,2545,2545,2545,2545,2545,2569,58,2481,58,58,58,58,58,58,58,58,58,58,58,0,0,0,0,0,0,0,0,0,0,0,0,
0,0,2465,2449,2449,2449,2449,2473,13,13,13,13,2465,2449,2449,2473,2585,2573,2573,2573,2573,2553,2545,2545,2569,58,2481,58,58,58,58,58,58,58,58,58,58,58,0,0,0,0,0,0,0,0,0,0,0,0,
0,0,2465,2449,2449,2449,2449,2473,13,13,2483,2469,2450,2449,2449,2451,58,58,58,58,58,2561,2545,2545,2569,58,2481,58,58,58,58,58,58,58,58,58,58,58,0,0,0,0,0,0,0,0,0,0,0,0,
0,0,2465,2449,2449,2449,2449,2473,13,13,2465,2449,2449,2449,2449,2449,2449,2449,2449,2451,58,2561,2545,2545,2569,58,2493,58,58,58,58,58,58,58,58,58,58,58,0,0,0,0,0,0,0,0,0,0,0,0,
0,0,2465,2449,2449,2449,2449,2473,13,13,2465,2449,2449,2449,2449,2449,2449,2449,2449,2449,58,2561,2545,2545,2569,11,11,11,11,11,11,11,0,0,0,0,0,0,0,0,0,0,0,0,0,0,0,0,0,0,
0,0,2465,2449,2449,2449,2449,2473,13,2492,2458,2449,2449,2449,2449,2449,2449,2449,2449,2449,2473,2561,2545,2545,2569,11,1,1,1,1,1,11,0,0,0,0,0,0,0,0,0,0,0,0,0,0,0,0,0,0,
0,0,2489,2477,2457,2449,2453,2487,13,58,2465,2449,2449,2449,2449,2449,2449,2449,2449,2449,2473,2561,2545,2545,2569,11,1,1,1,1,1,11,0,0,0,0,0,0,0,0,0,0,0,0,0,0,0,0,0,0,
58,58,58,58,2465,2449,2473,13,13,2483,2450,2449,2449,2449,2449,2449,2449,2449,2449,2449,2473,2561,2545,2545,2569,2483,2469,2469,2485,1,1,2491,0,0,0,0,0,0,0,0,0,0,0,0,0,0,0,0,0,0,
58,58,58,58,2465,2449,2473,13,13,2489,2477,2477,2457,2449,2451,2469,2449,2449,2449,2449,2473,2561,2545,2545,2569,2465,2449,2449,2451,2469,2469,2475,58,0,0,0,0,0,58,0,0,0,0,0,0,0,0,0,0,0,
58,58,58,58,2465,2449,2473,13,13,13,13,13,2465,2449,2449,2449,2449,2449,2449,2449,2473,2561,2545,2545,2569,2465,2449,2449,2449,2449,2449,2473,0,0,0,0,0,0,0,0,0,0,0,0,0,0,0,0,0,0,
0,0,2483,2469,2450,2449,2473,13,13,13,13,13,2465,2449,2449,2449,2449,2449,2449,2449,2473,2561,2545,2545,2569,2465,2449,2449,2449,2449,2449,2473,0,0,0,0,0,0,0,0,0,0,0,0,0,0,0,0,0,0,
0,0,2465,2449,2449,2449,2473,13,13,58,13,13,2465,2449,2449,2449,2449,2449,2449,2449,2473,2561,2545,2545,2569,2465,2449,2449,2449,2449,2449,2473,0,0,0,58,0,0,0,0,0,0,0,0,0,0,0,0,0,0,
0,0,2465,2449,2449,2449,2451,2485,58,2492,2471,2469,2450,2449,2449,2449,2449,2449,2449,2449,2473,2561,2545,2545,2569,2465,2449,2449,2449,2449,2449,2473,0,0,0,0,0,0,0,0,0,0,0,0,0,0,0,0,0,0,
0,0,2465,2449,2449,2449,2449,2451,2485,58,2465,2449,2449,2449,2449,2449,2449,2449,2449,2449,2473,2561,2545,2545,2569,2465,2449,2449,2449,2449,2449,2473,0,0,0,0,0,0,0,0,0,0,0,0,0,0,0,0,0,0,
0,0,2465,2449,2449,2449,2449,2449,2451,2469,2450,2449,2449,2449,2449,2449,2449,2449,2449,2449,2473,2561,2545,2545,2569,2465,2449,2449,2449,2449,2449,2451,2469,2469,2469,2469,2469,2469,2485,0,0,0,0,0,0,0,0,0,0,0,
0,0,2465,2449,2449,2449,2449,2449,2449,2449,2449,2449,2449,2449,2449,2449,2449,2449,2449,2449,2473,2561,2545,2545,2569,2465,2449,2449,2449,2449,2449,2449,2449,2449,2449,2449,2449,2449,2473,0,0,0,0,0,0,0,0,0,0,0,
0,0,2465,2449,2449,2449,2449,2449,2449,2449,2449,2449,2453,2477,2477,2477,2477,2477,2477,2477,2487,2561,2545,2545,2569,2489,2477,2477,2457,2449,2449,2449,2449,2449,2449,2449,2449,2449,2473,0,0,0,0,0,0,0,0,0,0,0,
0,0,2465,2449,2449,2449,2449,2449,2449,2449,2449,2449,2473,13,1,11,1,1,1,32,58,2561,2545,2545,2569,13,403,13,2465,2449,2449,2449,2449,2449,2449,2449,2449,2449,2473,0,0,0,0,0,0,0,0,0,0,0,
0,0,2489,2477,2477,2477,2477,2477,2477,2457,2449,2449,2473,13,15,1,1,1,1,33,13,2561,2545,2545,2569,13,35,11,2489,2477,2457,2449,2449,2449,2449,2449,2449,2449,2473,0,0,0,0,0,0,0,0,0,0,0,
0,0,13,13,13,13,13,13,13,2465,2449,2449,2473,25,26,26,26,26,26,28,13,2561,2545,2545,2569,13,35,13,11,13,2465,2449,2449,2449,2449,2449,2449,2449,2473,0,0,0,0,0,0,0,0,0,0,0,
0,0,13,13,13,13,13,13,13,2465,2449,2449,2473,40,13,13,13,13,13,13,58,2561,2545,2545,2569,13,411,13,13,13,2465,2449,2449,2449,2449,2449,2449,2449,2473,0,0,0,0,0,0,0,0,0,0,0,
0,0,13,13,13,13,13,13,13,2465,2449,2449,2451,2469,2485,2579,2565,2565,2565,2565,2565,2546,2545,2545,2569,2483,2485,13,11,13,2465,2449,2449,2449,2449,2453,2477,2477,2487,0,0,0,0,0,0,0,0,0,0,0,
0,0,13,13,13,13,13,13,13,2465,2449,2449,2449,2449,2473,2561,2545,2545,2545,2545,2545,2545,2545,2545,2569,2465,2451,2469,2469,2469,2450,2449,2449,2449,2449,2473,13,13,13,13,0,0,0,0,0,0,0,0,0,0,
0,0,13,13,13,13,13,13,13,2465,2449,2449,2449,2449,2473,2561,2545,2545,2549,2573,2573,2573,2573,2573,2583,2465,2449,2449,2449,2449,2449,2449,2449,2449,2449,2473,13,11,13,13,0,0,0,0,0,0,0,0,0,0,
0,0,13,13,13,13,13,13,13,2465,2449,2449,2449,2449,2473,2561,2545,2545,2569,58,58,58,58,58,58,2450,2449,2449,2449,2449,2449,2449,2449,2449,2449,2473,15,13,13,13,0,0,0,0,0,0,0,0,0,0,
0,0,58,58,58,58,58,58,58,2489,2477,2457,2449,2449,2473,2561,2545,2545,2569,58,2450,2449,2449,2449,2449,2449,2449,2449,2449,2449,2449,2449,2449,2449,2449,2473,13,11,13,13,0,0,0,0,0,0,0,0,0,0,
0,0,58,58,58,58,58,58,58,13,13,2489,2477,2457,2473,2561,2545,2545,2569,58,2449,2449,2449,2449,2449,2453,2477,2477,2477,2477,2477,2477,2477,2477,2477,2487,15,13,13,13,0,0,0,0,0,0,0,0,0,0,
0,0,58,58,58,58,58,58,58,13,13,13,13,2465,2473,2561,2545,2545,2569,58,2449,2449,2449,2449,2449,2473,13,11,15,13,13,13,13,13,13,13,13,11,13,13,0,0,0,0,0,0,0,0,0,0,
0,0,58,58,58,58,58,58,58,13,13,13,13,2489,2487,2561,2545,2545,2569,58,2449,2449,2449,2449,2449,2473,15,13,15,13,13,13,13,13,13,13,13,13,13,13,0,0,0,0,0,0,0,0,0,0,
0,0,58,58,58,58,58,58,58,13,13,13,13,32,13,2561,2545,2545,2569,58,2457,2449,2449,2449,2449,2473,13,11,13,13,13,13,13,13,13,13,13,13,13,13,0,0,0,0,0,0,0,0,0,0,
58,58,58,58,58,58,58,58,58,13,13,11,13,33,13,2561,2545,2545,2569,58,2465,2449,2449,2453,2477,2487,13,13,25,26,26,26,26,26,26,27,13,13,13,13,0,0,0,0,0,0,0,0,0,0,
13,13,13,13,13,13,13,13,13,13,15,13,15,33,13,2561,2545,2545,2569,58,2465,2449,2449,2473,1,1,1,1,33,2531,2517,2517,2517,2517,2533,35,13,13,13,13,58,58,58,58,0,0,0,0,0,0,
13,11,13,1,1,1,13,11,13,13,13,13,13,33,13,13,13,13,13,13,2465,2453,2477,2487,1,1,1,1,33,2513,2497,2497,2497,2497,2521,35,13,13,13,13,58,58,58,58,0,0,0,0,0,0,
15,13,13,13,13,13,15,13,15,13,13,13,13,33,13,13,13,13,13,13,2465,2473,1,1,1,1,1,1,33,2513,2497,2497,2497,2497,2521,35,13,13,13,13,58,58,58,58,0,0,0,0,0,0,
13,13,13,11,13,11,13,1,1,1,11,13,11,33,13,13,13,13,13,13,2489,2487,13,13,13,13,13,13,33,2537,2525,2525,2525,2525,2535,35,13,13,13,13,58,58,58,58,0,0,0,0,0,0,
13,1,1,1,15,1,1,1,1,1,13,15,13,33,13,2561,2545,2545,2569,57,403,13,13,13,13,13,13,13,41,42,42,42,42,42,42,43,13,13,13,13,58,58,58,58,0,0,0,0,0,0,
13,13,13,13,13,13,13,13,13,13,13,13,13,33,13,2561,2545,2545,2569,13,29,26,26,26,26,26,26,26,26,26,26,26,27,13,13,15,13,13,13,13,58,58,58,58,0,0,0,0,0,0,
58,58,58,58,58,58,58,58,58,58,58,58,58,33,13,2561,2545,2545,2569,58,13,13,13,13,13,13,13,13,13,13,13,13,35,13,13,13,13,13,13,58,58,58,58,58,0,0,0,0,0,0,
58,58,58,58,58,58,58,58,58,58,58,58,13,13,13,2561,2545,2545,2547,2565,2565,2565,2565,2565,2565,2565,2565,2565,2565,2565,2581,58,58,58,58,58,58,58,58,58,58,58,58,58,0,0,0,0,0,0,
58,58,58,58,58,58,58,58,58,58,58,13,13,13,13,2561,2545,2545,2545,2545,2545,2545,2545,2545,2545,2545,2545,2545,2545,2545,2569,0,0,0,58,58,58,58,58,58,58,58,58,0,0,0,0,0,0,0,
58,58,58,58,58,58,58,58,58,58,58,13,13,13,13,2585,2573,2573,2573,2573,2573,2573,2573,2573,2573,2573,2573,2553,2545,2545,2569,0,0,0,58,58,58,58,58,58,58,58,58,0,0,0,0,0,0,0,
13,13,13,13,13,13,13,13,13,13,13,13,13,13,58,58,58,58,58,58,58,58,58,58,58,58,58,2561,2545,2545,2569,0,0,0,58,58,58,58,58,58,58,58,58,0,0,0,0,0,0,0,
13,13,13,13,13,13,13,13,13,13,58,58,58,58,58,58,58,58,58,58,58,58,58,58,58,58,58,2561,2545,2545,2569,0,0,0,58,58,58,58,58,58,58,58,58,0,0,0,0,0,0,0,
13,13,13,13,13,13,13,13,13,13,58,58,58,58,58,58,58,58,58,58,58,58,58,58,58,13,13,2561,2545,2545,2569,0,0,0,0,0,0,0,0,0,0,0,0,0,0,0,0,0,0,0,
13,13,13,13,13,13,13,13,13,13,58,58,58,58,58,58,58,58,58,58,58,58,58,58,58,13,13,2561,2545,2545,2569,0,0,0,0,0,0,0,0,0,0,0,0,0,0,0,0,0,0,0,
13,13,13,13,13,13,13,13,13,13,58,58,58,58,58,58,58,58,58,58,58,58,58,13,13,13,13,2561,2545,2545,2569,0,0,0,0,0,0,0,0,0,0,0,0,0,0,0,0,0,0,0,
13,13,13,13,13,13,13,13,13,13,58,58,58,58,58,58,58,58,58,58,58,58,13,13,13,13,13,2561,2545,2545,2569,0,0,0,0,0,0,0,0,0,0,0,0,0,0,0,0,0,0,0,
13,13,13,13,13,13,13,13,13,13,13,13,13,13,13,13,13,13,13,13,13,13,13,13,13,13,13,2561,2545,2545,2569,0,0,0,0,0,0,0,0,0,0,0,0,0,0,0,0,0,0,0,
13,13,13,13,13,13,13,13,13,13,13,13,13,13,13,13,13,13,13,13,13,13,13,13,13,13,13,2561,2545,2545,2569,0,0,0,0,0,0,0,0,0,0,0,0,0,0,0,0,0,0,0,
13,13,13,13,13,13,13,13,13,13,13,13,13,13,13,13,13,13,13,13,13,13,13,13,13,13,13,2561,2545,2545,2569,0,0,0,0,0,0,0,0,0,0,0,0,0,0,0,0,0,0,0,
13,13,13,13,13,13,13,13,13,13,13,13,13,13,13,13,13,13,13,13,13,13,13,13,13,13,13,2561,2545,2545,2569,0,0,0,0,0,0,0,0,0,0,0,0,0,0,0,0,0,0,0,
13,13,13,13,13,13,13,13,13,13,13,13,13,13,13,13,13,13,13,13,13,13,13,13,13,13,13,2561,2545,2545,2569,0,0,0,0,0,0,0,0,0,0,0,0,0,0,0,0,0,0,0,
13,13,13,13,13,13,13,13,13,13,13,13,13,13,13,13,13,13,13,13,13,13,13,13,13,13,13,2561,2545,2545,2569,0,0,0,0,0,0,0,0,0,0,0,0,0,0,0,0,0,0,0
  </data>
 </layer>
 <layer id="2" name="middle" width="50" height="90">
  <data encoding="csv">
50,50,50,50,50,50,50,51,57,0,0,0,0,59,59,59,59,59,0,0,0,0,0,0,0,0,0,0,0,0,0,57,57,57,57,58,58,58,58,58,58,58,58,58,58,58,58,58,58,58,
58,58,58,58,58,58,58,59,65,66,66,66,66,67,59,59,59,59,0,0,0,0,0,0,0,0,0,0,0,0,0,57,57,57,57,58,58,58,58,58,49,58,58,58,58,58,58,58,58,58,
58,58,58,58,58,58,58,59,23,66,66,66,66,66,67,59,59,59,0,0,1414,1505,0,0,0,0,0,0,0,0,0,57,57,57,57,58,58,58,58,58,57,58,58,58,58,58,58,58,58,58,
58,58,58,58,58,58,58,59,59,23,66,66,0,66,66,67,59,59,1414,1505,1422,1513,0,0,0,0,0,0,0,0,0,57,57,57,57,58,58,58,58,58,57,58,58,58,58,58,58,58,58,58,
58,58,58,58,58,58,58,59,59,59,0,0,0,0,23,66,67,59,1422,1513,0,1457,0,49,50,0,0,0,50,50,50,46,57,57,57,58,58,58,58,58,57,58,58,58,58,58,58,58,58,58,
58,58,58,58,58,58,58,59,59,59,0,0,0,0,59,23,66,67,0,0,0,0,1457,57,49,0,0,0,50,50,50,50,46,57,57,58,58,58,58,58,57,58,58,58,58,58,58,58,58,58,
58,58,58,58,58,58,58,59,59,59,0,0,0,0,59,59,0,0,0,0,0,0,0,57,57,0,0,0,0,0,0,0,0,57,65,66,66,66,66,24,57,58,58,58,58,58,58,58,58,58,
58,58,58,58,58,58,58,59,59,59,0,0,0,0,59,59,0,0,0,0,0,0,0,57,57,0,0,0,0,0,0,0,0,65,66,66,66,66,24,57,57,58,58,58,58,58,58,58,58,58,
58,58,58,58,58,58,58,59,59,59,0,0,0,0,59,59,0,0,0,0,0,0,0,57,57,0,0,0,0,0,0,0,0,0,0,0,0,0,57,57,57,58,58,58,58,58,58,58,58,58,
58,58,58,58,58,58,58,59,59,59,0,0,0,0,0,0,0,0,0,0,0,0,0,0,0,0,0,0,0,0,0,0,0,0,0,0,0,0,57,57,57,58,58,58,58,58,58,58,58,58,
58,58,58,58,58,58,58,59,59,59,0,0,0,0,0,0,0,0,0,0,0,0,0,0,0,0,0,0,0,0,0,0,0,0,0,0,0,0,57,57,57,58,58,58,58,58,58,58,58,58,
58,58,58,58,58,58,58,59,59,59,0,0,0,0,0,0,0,0,0,0,0,0,0,0,0,0,0,0,0,0,0,0,0,0,0,0,0,0,57,57,57,58,58,58,58,58,58,58,58,58,
58,58,58,58,58,58,58,59,59,59,0,0,0,0,59,59,0,0,0,0,0,0,0,57,57,0,0,0,0,0,0,0,0,0,0,0,0,0,57,57,57,58,58,58,58,58,58,58,58,58,
58,58,58,58,58,58,58,59,59,59,0,0,0,0,59,59,0,0,0,0,0,0,0,57,57,0,0,49,50,50,50,50,50,51,0,0,0,0,57,57,57,58,58,58,58,58,58,58,58,58,
58,58,58,58,58,58,58,59,59,59,0,0,0,0,59,59,0,0,0,0,0,0,0,57,57,19,19,57,58,58,58,58,58,59,0,0,0,0,57,57,57,58,58,58,58,58,58,58,58,58,
58,58,58,58,58,58,58,59,59,59,0,0,0,0,59,59,0,0,0,0,0,0,0,57,57,0,0,57,58,58,58,58,58,59,0,0,0,0,57,57,57,58,58,58,58,58,58,58,58,58,
58,58,58,58,58,58,58,59,59,59,0,0,0,0,59,59,0,0,0,0,49,50,50,46,57,0,0,57,58,58,58,58,58,59,19,19,22,0,57,57,57,58,58,58,58,58,58,58,58,58,
58,58,58,58,58,58,58,59,59,59,19,19,19,19,59,59,0,0,0,0,57,49,50,50,46,19,19,57,58,58,58,58,58,59,0,0,0,0,57,57,57,58,58,58,58,58,58,58,58,58,
58,58,58,58,58,58,58,59,59,59,0,0,0,0,59,59,0,0,0,0,57,57,0,0,0,0,0,57,58,58,58,58,58,59,0,0,0,0,57,57,57,58,58,58,58,58,58,58,58,58,
58,58,58,58,58,58,58,59,59,59,0,0,0,0,59,59,0,0,0,0,57,57,0,0,0,0,0,57,58,58,58,58,58,59,0,0,0,0,57,57,57,58,58,58,58,58,58,58,58,58,
58,58,58,58,58,58,58,59,59,59,0,0,0,0,59,59,0,0,0,0,57,57,0,0,49,50,50,46,58,58,58,58,58,59,22,0,21,19,57,57,57,58,58,58,58,58,58,58,58,58,
58,58,58,58,58,58,58,59,59,59,0,0,0,0,59,59,0,0,0,0,57,57,0,0,57,58,58,58,58,23,66,66,66,67,0,0,0,0,57,57,57,58,58,58,58,58,58,58,58,58,
58,58,58,58,58,58,58,59,59,59,0,0,0,0,59,59,0,0,0,0,57,57,19,19,57,58,58,58,58,59,0,0,0,0,0,0,0,0,57,57,57,58,58,58,58,58,58,58,58,58,
58,58,58,58,58,58,58,59,59,59,0,0,0,0,59,59,0,0,0,0,57,57,0,0,57,58,58,58,58,59,0,0,0,0,0,0,0,0,57,57,57,58,58,58,58,58,58,58,58,58,
58,58,58,58,58,58,58,59,59,59,19,19,19,19,59,59,0,0,0,0,57,57,0,0,57,58,58,58,58,59,0,0,0,0,0,0,0,0,57,57,57,58,58,58,58,58,58,58,58,58,
58,58,58,58,58,58,58,59,59,59,0,0,0,0,59,59,0,0,0,0,57,57,0,0,57,58,58,58,58,59,0,49,50,50,50,50,50,50,46,57,57,58,58,58,58,58,58,58,58,58,
58,58,58,58,58,58,58,59,59,59,0,0,0,0,59,59,0,0,0,0,57,57,0,0,57,58,58,58,58,59,0,57,49,50,50,50,50,50,50,46,57,58,58,58,58,58,58,58,58,58,
58,58,58,58,58,58,58,59,59,59,0,0,0,0,59,59,0,0,0,0,57,57,0,0,65,66,66,66,66,67,0,57,57,58,58,58,58,58,58,58,57,58,58,58,58,58,58,58,58,58,
58,58,58,58,58,58,58,59,59,59,0,0,0,0,59,59,0,0,0,0,57,57,0,0,0,0,0,0,0,0,0,57,57,49,50,50,50,50,50,50,46,58,58,58,58,58,58,58,58,58,
58,58,58,58,58,58,58,59,59,59,0,0,0,0,59,59,0,0,0,0,57,57,0,0,0,0,0,0,0,0,0,57,57,57,58,58,58,58,58,58,58,58,58,58,58,58,58,58,58,58,
58,58,58,58,58,58,58,59,59,59,0,0,0,0,59,59,0,0,0,0,57,57,0,0,0,0,0,0,0,0,0,57,57,57,58,58,58,58,58,58,58,58,58,58,58,58,58,58,58,58,
58,58,58,58,58,58,58,59,59,59,0,0,0,0,59,59,0,0,0,0,57,57,0,0,0,0,0,0,0,0,0,57,57,57,58,58,58,58,58,58,58,58,58,58,58,58,58,58,58,58,
58,58,58,58,58,58,58,59,59,59,0,0,0,0,59,59,0,0,0,0,57,57,0,0,0,0,0,0,0,0,0,57,57,57,58,58,58,58,58,58,58,58,58,58,58,58,58,58,58,58,
58,58,58,58,58,58,58,59,59,59,0,0,0,0,59,59,0,0,0,0,57,65,66,66,66,66,24,49,50,50,50,46,57,57,58,58,58,58,58,58,58,58,58,58,58,58,58,58,58,58,
58,58,58,58,23,66,66,67,59,59,0,0,0,0,59,59,0,0,0,0,65,66,66,66,66,24,57,57,58,58,58,58,57,57,58,58,58,58,58,58,58,58,58,58,58,58,58,58,58,58,
58,58,58,58,59,58,58,58,59,59,0,0,0,0,59,59,0,0,0,0,0,0,0,0,0,57,57,57,49,50,50,50,46,57,58,58,58,58,58,58,58,58,58,58,58,58,58,58,58,58,
58,58,58,58,59,58,58,58,59,59,0,0,0,0,59,59,0,0,0,0,0,0,0,0,0,57,57,57,57,49,50,50,50,46,58,58,58,58,58,58,58,58,58,58,58,58,58,58,58,58,
58,58,58,58,59,58,58,58,59,59,0,0,0,0,59,59,0,0,0,0,0,0,0,0,0,57,57,57,57,57,58,58,58,58,58,58,58,58,58,58,58,58,58,58,58,58,58,58,58,58,
58,58,58,58,59,58,58,58,59,59,0,0,0,0,59,59,0,0,0,0,0,0,0,0,0,57,57,57,57,65,66,66,66,66,66,66,66,66,66,66,66,24,58,58,58,58,58,58,58,58,
58,58,58,58,59,58,58,58,59,59,0,0,0,0,59,45,50,50,50,50,51,0,0,0,0,57,57,57,65,66,66,66,66,66,66,66,66,66,24,58,58,57,58,58,58,58,58,58,58,58,
58,58,58,58,59,58,58,58,59,59,0,0,0,0,59,0,0,0,0,0,59,0,0,0,0,57,57,65,66,66,66,66,24,58,58,58,58,58,57,58,58,57,58,58,58,58,58,58,58,58,
58,58,58,58,59,58,58,58,59,59,0,0,0,0,59,0,0,0,0,0,59,0,0,0,0,57,65,66,66,66,66,24,57,58,58,58,58,58,57,58,58,57,58,58,58,58,58,58,58,58,
58,58,58,58,59,58,58,58,59,45,51,0,0,0,59,0,0,0,0,0,59,0,0,0,0,57,0,0,0,0,0,57,57,58,58,58,58,58,57,58,58,57,58,58,58,58,58,58,58,58,
58,58,58,58,59,58,58,58,45,51,59,0,0,0,59,0,0,0,0,0,59,0,0,0,0,57,0,0,0,0,0,57,57,58,58,58,58,58,57,58,58,57,58,58,58,58,58,58,58,58,
50,50,50,51,59,58,58,58,58,59,59,0,0,0,45,50,51,0,0,0,59,0,0,0,0,57,0,0,0,0,0,57,57,58,58,58,58,58,57,58,58,57,58,58,58,58,58,58,58,58,
58,58,58,59,59,58,58,58,58,59,59,0,0,0,0,0,59,0,0,0,59,0,0,0,0,57,0,0,0,0,0,57,65,66,66,24,58,58,65,66,24,57,58,58,58,58,58,58,58,58,
58,58,58,59,59,58,58,58,58,59,59,0,0,0,0,0,59,0,0,0,59,0,0,0,0,57,0,0,0,0,0,57,58,58,58,57,58,58,58,58,57,57,58,58,58,58,58,58,58,58,
58,58,58,59,59,58,58,58,58,59,59,0,0,0,0,0,59,0,0,0,59,0,0,0,0,57,0,0,0,0,0,57,58,58,58,57,58,58,58,58,57,57,58,58,58,58,58,58,58,58,
58,58,58,59,59,58,58,23,66,67,59,0,0,0,0,0,59,0,0,0,59,0,0,0,0,57,0,0,0,0,0,65,24,58,58,65,66,66,66,24,57,57,58,58,58,58,58,58,58,58,
58,58,58,59,59,58,58,59,23,66,67,0,0,0,0,0,59,0,0,0,59,0,0,0,0,57,0,0,0,0,0,0,57,58,58,58,58,58,58,57,57,57,58,58,58,58,58,58,58,58,
58,58,58,59,59,58,58,59,59,23,66,66,66,66,66,66,67,0,0,0,59,0,0,0,0,57,0,0,0,0,0,0,57,58,58,58,58,58,58,57,57,57,58,58,58,58,58,58,58,58,
58,58,58,59,59,58,58,59,59,59,0,0,0,0,0,0,0,0,0,0,59,0,0,0,0,57,0,0,0,0,0,0,65,66,66,24,58,58,58,57,57,57,58,58,58,58,58,58,58,58,
58,58,58,59,59,58,58,59,59,59,0,0,0,0,0,0,0,0,0,0,59,0,0,0,0,57,0,0,0,0,0,0,0,0,0,65,66,66,24,57,57,57,58,58,58,58,58,58,58,58,
58,58,58,59,59,58,58,59,59,59,0,0,0,0,0,0,0,0,0,0,59,0,0,0,0,57,0,0,0,0,0,0,0,0,0,0,0,0,57,57,57,57,58,58,58,58,58,58,58,58,
58,58,58,59,59,58,58,59,59,59,0,0,0,0,0,0,0,0,0,0,59,0,0,0,0,57,0,0,0,49,50,50,51,0,0,0,0,0,57,57,57,57,58,58,58,58,58,58,58,58,
58,58,58,59,59,58,58,59,59,59,0,0,0,0,0,0,0,0,0,0,59,0,0,0,0,57,0,0,0,57,58,58,59,0,0,0,0,0,57,57,57,57,58,58,58,58,58,58,58,58,
58,58,58,59,59,58,58,59,59,59,0,0,0,0,0,0,0,0,0,0,59,0,0,0,0,57,0,0,0,57,58,58,45,50,50,51,0,0,57,57,57,57,58,58,58,58,58,58,58,58,
58,58,58,59,59,58,58,59,59,59,0,0,0,0,23,66,66,66,66,66,67,0,0,0,0,57,19,19,19,57,58,58,58,58,58,59,0,0,57,57,57,57,58,58,58,58,58,58,58,58,
58,58,58,59,59,58,58,59,59,59,0,0,0,0,59,0,0,0,0,0,0,0,0,0,0,57,0,0,0,57,58,58,58,58,58,59,0,0,57,57,57,57,58,58,58,58,58,58,58,58,
58,58,58,59,59,58,58,59,59,59,19,19,19,19,59,0,0,0,0,0,0,0,0,0,0,57,0,0,0,57,58,58,58,58,58,59,0,0,57,57,57,57,58,58,58,58,58,58,58,58,
58,58,58,59,59,58,58,59,59,59,0,0,0,0,59,0,0,0,0,0,0,0,0,0,0,57,0,0,0,57,58,58,58,58,58,59,0,0,57,57,57,57,58,58,58,58,58,58,58,58,
58,58,58,59,59,58,58,59,59,59,0,0,0,0,59,0,0,0,0,49,50,50,50,50,50,46,0,0,0,57,58,58,58,58,58,59,0,0,57,57,57,57,58,58,58,58,58,58,58,58,
58,58,58,59,59,58,58,59,59,59,0,0,0,0,59,0,0,0,0,57,0,0,0,0,0,0,0,0,0,57,58,58,58,58,58,59,0,0,57,57,57,57,58,58,58,58,58,58,58,58,
58,58,58,59,59,58,58,59,59,59,0,0,0,0,59,0,0,0,0,57,0,0,0,0,0,0,0,0,0,57,58,58,58,58,58,59,0,0,57,57,57,57,58,58,58,58,58,58,58,58,
66,66,66,67,59,58,58,59,59,59,0,0,0,0,59,0,0,0,0,57,0,0,0,0,0,0,0,0,0,57,58,58,58,58,58,59,0,0,57,57,57,57,58,58,58,58,58,58,58,58,
66,66,66,66,67,58,58,59,59,59,0,0,0,0,59,0,0,0,0,57,0,0,0,0,0,0,0,0,0,57,58,58,58,58,58,59,0,0,57,57,57,57,58,58,58,58,58,58,58,58,
66,66,66,66,66,66,66,67,59,59,19,19,19,19,59,0,0,0,0,57,0,0,0,0,0,0,0,0,0,65,66,66,66,66,66,67,287,288,57,57,57,57,58,58,58,58,58,58,58,58,
66,66,66,66,66,66,66,66,67,59,0,0,0,0,59,0,0,0,0,57,0,0,0,0,0,0,0,0,0,0,0,0,0,0,0,0,295,296,57,57,57,57,58,58,58,58,58,58,58,58,
66,66,66,66,66,66,66,66,66,67,0,0,0,0,59,0,0,0,0,57,0,0,0,0,0,0,0,0,70,0,0,0,0,0,0,0,273,276,57,57,57,57,58,58,58,58,58,58,58,58,
0,0,0,0,0,0,0,0,0,0,0,0,0,0,640,640,640,640,640,640,0,0,0,0,0,0,0,0,70,0,0,0,0,0,0,0,281,284,57,57,57,57,58,58,58,58,58,58,58,58,
0,0,0,0,0,0,0,0,0,0,0,0,0,0,648,648,648,648,648,648,287,288,287,288,287,288,287,288,70,288,287,288,287,288,287,288,273,276,57,57,57,57,58,58,58,58,58,58,58,58,
0,0,0,0,0,0,0,0,0,0,0,0,0,0,656,656,656,656,656,656,295,296,295,296,295,296,295,296,295,296,295,296,295,296,295,296,281,284,57,57,57,57,58,58,58,58,58,58,58,58,
0,0,0,0,0,0,0,0,0,0,0,0,0,0,59,0,0,0,0,320,291,290,291,290,291,290,291,290,291,290,291,290,291,290,291,290,291,292,57,57,57,57,58,58,58,58,58,58,58,58,
50,50,50,50,50,50,50,50,50,50,50,50,50,51,59,0,0,0,0,57,299,300,299,300,299,300,299,300,299,300,299,300,299,300,299,300,299,300,57,57,57,57,58,58,58,58,58,58,58,58,
50,50,50,50,50,50,50,50,50,50,50,50,51,59,59,0,0,0,0,65,66,66,66,66,66,66,66,66,66,66,66,24,49,50,50,50,50,50,46,57,57,57,58,58,58,58,58,58,58,58,
50,50,50,50,50,50,50,50,50,50,50,51,59,59,59,0,0,0,0,0,0,0,0,0,0,0,0,0,0,0,0,57,57,49,58,50,50,50,50,46,57,57,58,58,58,58,58,58,58,58,
50,50,50,50,50,50,50,50,50,50,51,59,59,59,59,0,0,0,0,0,0,0,0,0,0,0,0,0,0,0,0,57,57,57,49,50,50,50,50,50,46,57,58,58,58,58,58,58,58,58,
50,50,50,50,50,50,50,50,50,51,59,59,59,59,59,0,0,0,0,0,0,0,0,0,0,0,0,0,0,0,0,57,57,57,57,49,50,50,50,50,50,46,50,58,58,58,58,58,58,58,
58,58,58,58,58,58,58,58,58,59,59,59,59,59,45,50,50,50,50,50,50,50,50,50,50,50,51,0,0,1414,1505,57,57,57,57,57,58,58,58,58,58,58,58,58,58,58,58,58,58,58,
58,58,58,58,58,58,58,58,58,59,59,59,59,45,50,50,50,50,50,50,50,50,50,50,50,51,59,1414,1505,1422,1513,57,57,57,57,57,58,58,58,58,58,58,58,58,58,58,58,58,58,58,
58,58,58,58,58,58,58,58,58,59,59,59,45,50,50,50,50,50,50,50,50,50,50,50,51,59,59,1422,1513,0,0,57,57,57,57,57,58,58,58,58,58,58,58,58,58,58,58,58,58,58,
58,58,58,58,58,58,58,58,58,59,59,45,50,50,50,50,50,50,50,50,50,50,50,51,59,59,59,0,0,0,0,57,57,57,57,57,58,58,58,58,58,58,58,58,58,58,58,58,58,58,
58,58,58,58,58,58,58,58,58,59,45,50,50,50,50,50,50,50,50,50,50,50,51,59,59,59,59,0,0,0,0,57,57,57,57,57,58,58,58,58,58,58,58,58,58,58,58,58,58,58,
58,58,58,58,58,58,58,58,58,45,50,50,50,50,50,50,50,50,50,50,50,51,59,59,59,59,59,0,0,0,0,57,57,57,57,57,58,58,58,58,58,58,58,58,58,58,58,58,58,58,
58,58,58,58,58,58,58,58,58,58,58,58,58,58,58,58,58,58,58,58,58,59,59,59,59,59,59,0,0,0,0,57,57,57,57,57,58,58,58,58,58,58,58,58,58,58,58,58,58,58,
58,58,58,58,58,58,58,58,58,58,58,58,58,58,58,58,58,58,58,58,58,59,59,59,59,59,59,0,0,0,0,57,57,57,57,57,58,58,58,58,58,58,58,58,58,58,58,58,58,58,
58,58,58,58,58,58,58,58,58,58,58,58,58,58,58,58,58,58,58,58,58,59,59,59,59,59,59,0,0,0,0,57,57,57,57,57,58,58,58,58,58,58,58,58,58,58,58,58,58,58,
58,58,58,58,58,58,58,58,58,58,58,58,58,58,58,58,58,58,58,58,58,59,59,59,59,59,59,0,0,0,0,57,57,57,57,57,58,58,58,58,58,58,58,58,58,58,58,58,58,58,
58,58,58,58,58,58,58,58,58,58,58,58,58,58,58,58,58,58,58,58,58,59,59,59,59,59,59,0,0,0,0,57,57,57,57,57,58,58,58,58,58,58,58,58,58,58,58,58,58,58,
58,58,58,58,58,58,58,58,58,58,58,58,58,58,58,58,58,58,58,58,58,59,59,59,59,59,59,0,0,0,0,57,57,57,57,57,58,58,58,58,58,58,58,58,58,58,58,58,58,58
  </data>
 </layer>
 <layer id="3" name="upper" width="50" height="90">
  <data encoding="csv">
0,0,0,0,0,0,0,0,0,0,0,0,0,0,0,0,0,0,0,0,0,0,0,0,0,612,613,614,0,0,0,0,0,0,0,0,0,0,0,0,0,0,0,0,0,0,0,0,0,0,
0,0,0,0,0,0,0,0,0,0,0,0,0,0,0,0,0,0,0,0,0,0,0,0,0,612,613,614,0,0,0,0,0,0,0,0,0,0,0,0,0,0,0,0,0,0,0,0,0,0,
0,0,0,0,0,0,0,0,0,0,0,446,447,448,0,0,0,0,0,0,0,0,0,0,0,612,613,614,0,0,0,0,0,0,0,0,0,0,0,0,0,0,0,0,0,0,0,0,0,0,
0,0,0,0,0,0,0,0,0,0,0,454,455,456,0,0,0,0,0,0,0,0,0,0,0,612,613,614,0,0,0,0,0,0,0,0,0,0,0,0,0,0,0,0,0,0,0,0,0,0,
0,0,0,0,0,0,0,0,0,0,0,0,0,0,0,0,0,0,0,0,0,0,0,0,0,612,613,614,0,0,0,0,0,0,0,0,0,0,0,0,0,0,0,0,0,0,0,0,0,0,
0,0,0,0,0,0,0,0,0,0,0,0,0,0,0,0,0,0,0,0,0,0,0,0,0,612,613,614,0,0,0,0,0,0,0,0,0,0,0,0,0,0,0,0,0,0,0,0,0,0,
0,0,0,0,0,0,0,0,0,0,0,0,0,0,0,0,0,0,0,0,0,0,0,0,0,0,0,0,0,0,0,0,0,0,0,0,0,0,0,0,0,0,0,0,0,0,0,0,0,0,
0,0,0,0,0,0,0,0,0,0,0,0,0,0,0,0,0,0,0,0,0,0,0,0,0,0,0,0,0,0,0,0,0,0,0,0,0,0,0,0,0,0,0,0,0,0,0,0,0,0,
0,0,0,0,0,0,0,0,0,0,0,0,0,0,0,0,0,0,0,0,0,0,0,0,0,0,0,0,0,0,0,0,0,0,0,0,0,0,0,0,0,0,0,0,0,0,0,0,0,0,
0,0,0,0,0,0,0,0,0,0,0,0,0,0,640,640,640,640,640,640,640,640,640,640,640,0,0,0,0,0,0,0,0,0,0,0,0,0,0,0,0,0,0,0,0,0,0,0,0,0,
0,0,0,0,0,0,0,0,0,0,0,0,0,0,648,648,648,648,648,648,648,648,648,648,648,0,0,0,0,0,0,0,0,0,0,0,0,0,0,0,0,0,0,0,0,0,0,0,0,0,
0,0,0,0,0,0,0,0,0,0,0,0,0,0,656,656,656,656,656,656,656,656,656,656,656,0,0,0,0,0,0,0,0,0,0,0,0,0,0,0,0,0,0,0,0,0,0,0,0,0,
0,0,0,0,0,0,0,0,0,0,0,0,0,0,0,0,0,0,0,0,0,0,0,0,0,0,0,0,0,0,0,0,0,0,0,0,0,0,0,0,0,0,0,0,0,0,0,0,0,0,
0,0,0,0,0,0,0,0,0,0,0,0,0,0,0,0,0,0,0,0,0,0,0,0,0,0,0,0,0,0,0,0,0,0,0,0,0,0,0,0,0,0,0,0,0,0,0,0,0,0,
0,0,0,0,0,0,0,0,0,0,0,0,0,0,0,0,0,0,0,0,0,0,0,0,0,0,0,0,0,0,0,0,0,0,0,0,0,0,0,0,0,0,0,0,0,0,0,0,0,0,
0,0,0,0,0,0,0,0,0,0,0,0,0,0,0,0,0,0,0,0,0,0,0,0,0,0,0,0,0,0,0,0,0,0,0,0,0,0,0,0,0,0,0,0,0,0,0,0,0,0,
0,0,0,0,0,0,0,0,0,0,0,0,0,0,0,0,0,0,0,0,0,0,0,0,0,0,0,0,0,0,0,0,0,0,0,0,0,0,0,0,0,0,0,0,0,0,0,0,0,0,
0,0,0,0,0,0,0,0,0,0,0,0,0,0,0,0,0,0,0,0,0,0,0,0,0,0,0,0,0,0,0,0,0,0,0,0,0,0,0,0,0,0,0,0,0,0,0,0,0,0,
0,0,0,0,0,0,0,0,0,0,0,0,0,0,0,0,0,0,0,0,0,0,0,0,0,0,0,0,0,0,0,0,0,0,0,0,0,0,0,0,0,0,0,0,0,0,0,0,0,0,
0,0,0,0,0,0,0,0,0,0,0,0,0,0,0,0,0,0,0,0,0,0,0,0,0,0,0,0,0,0,0,0,0,0,0,0,0,0,0,0,0,0,0,0,0,0,0,0,0,0,
0,0,0,0,0,0,0,0,0,0,0,0,0,0,0,0,0,0,0,0,0,0,0,0,0,0,0,0,0,0,0,0,0,0,0,0,0,0,0,0,0,0,0,0,0,0,0,0,0,0,
0,0,0,0,0,0,0,0,0,0,0,0,0,0,0,0,0,0,0,0,0,0,0,0,0,0,0,0,0,0,0,0,0,0,0,0,0,0,0,0,0,0,0,0,0,0,0,0,0,0,
0,0,0,0,0,0,0,0,0,0,0,0,0,0,0,0,0,0,0,0,0,0,0,0,0,0,0,0,0,0,0,0,0,0,0,0,0,0,0,0,0,0,0,0,0,0,0,0,0,0,
0,0,0,0,0,0,0,0,0,0,0,0,0,0,0,0,0,0,0,0,0,0,0,0,0,0,0,0,0,0,0,0,0,0,0,0,0,0,0,0,0,0,0,0,0,0,0,0,0,0,
0,0,0,0,0,0,0,0,0,0,0,0,0,0,0,0,0,0,0,0,0,0,0,0,0,0,0,0,0,0,0,0,0,0,0,0,0,0,0,0,0,0,0,0,0,0,0,0,0,0,
0,0,0,0,0,0,0,0,0,0,0,0,0,0,0,0,0,0,0,0,0,0,0,0,0,0,0,0,0,0,0,0,0,0,0,0,0,0,0,0,0,0,0,0,0,0,0,0,0,0,
0,0,0,0,0,0,0,0,0,0,0,0,0,0,0,0,0,0,0,0,0,0,0,0,0,0,0,0,0,0,0,0,0,0,0,0,0,0,0,0,0,0,0,0,0,0,0,0,0,0,
0,0,0,0,0,0,0,0,0,0,0,0,0,0,0,0,0,0,0,0,0,0,0,0,0,0,0,0,0,0,0,0,0,0,0,0,0,0,0,0,0,0,0,0,0,0,0,0,0,0,
0,0,0,0,0,0,0,0,0,0,0,0,0,0,1133,1133,1133,1133,1133,1133,1133,1133,0,0,0,0,0,0,0,0,0,0,0,0,0,0,0,0,0,0,0,0,0,0,0,0,0,0,0,0,
0,0,0,0,0,0,0,0,0,0,0,0,0,0,0,0,0,0,0,0,0,0,0,0,0,0,0,0,0,0,0,0,0,0,0,0,0,0,0,0,0,0,0,0,0,0,0,0,0,0,
0,0,0,0,0,0,0,0,0,0,0,0,0,0,0,0,0,0,0,0,0,0,0,0,0,0,0,0,0,0,0,0,0,0,0,0,0,0,0,0,0,0,0,0,0,0,0,0,0,0,
0,0,0,0,0,0,0,0,0,0,0,0,0,0,0,0,0,0,0,0,0,0,0,0,0,0,0,0,0,0,0,0,0,0,0,0,0,0,0,0,0,0,0,0,0,0,0,0,0,0,
0,0,0,0,0,0,0,0,0,0,0,0,0,0,0,0,0,0,0,0,0,0,0,0,0,0,0,0,0,0,0,0,0,0,0,0,0,0,0,0,0,0,0,0,0,0,0,0,0,0,
0,0,0,0,0,0,0,0,0,0,0,0,0,0,0,0,0,0,0,0,0,0,0,0,0,0,0,0,0,0,0,0,0,0,0,0,0,0,0,0,0,0,0,0,0,0,0,0,0,0,
0,0,0,0,0,0,0,0,0,0,0,0,0,0,0,0,0,0,0,0,0,0,0,0,0,0,0,0,0,0,0,0,0,0,0,0,0,0,0,0,0,0,0,0,0,0,0,0,0,0,
0,0,0,0,0,0,0,0,0,0,0,0,0,0,0,0,0,0,0,0,0,0,0,0,0,0,0,0,0,0,0,0,0,0,0,0,0,0,0,0,0,0,0,0,0,0,0,0,0,0,
0,0,0,0,0,0,0,0,0,0,0,0,0,0,0,0,0,0,0,0,0,0,0,0,0,0,0,0,0,0,0,0,0,0,0,0,0,0,0,0,0,0,0,0,0,0,0,0,0,0,
0,0,0,0,0,0,0,0,0,0,0,0,0,0,0,0,0,0,0,0,0,0,0,0,0,0,0,0,0,0,0,0,0,0,0,0,0,0,0,0,0,0,0,0,0,0,0,0,0,0,
0,0,0,0,0,0,0,0,0,0,0,0,0,0,0,0,0,0,0,0,0,0,0,0,0,0,0,0,0,0,0,0,0,0,0,0,0,0,0,0,0,0,0,0,0,0,0,0,0,0,
0,0,0,0,0,0,0,0,0,0,0,0,0,0,0,0,0,0,0,0,0,0,0,0,0,0,0,0,0,0,0,0,0,0,0,0,0,0,0,0,0,0,0,0,0,0,0,0,0,0,
0,0,0,0,0,0,0,0,0,0,0,0,0,0,0,0,0,0,0,0,0,0,0,0,0,0,0,0,0,0,0,0,0,0,0,0,0,0,0,0,0,0,0,0,0,0,0,0,0,0,
0,0,0,0,0,0,0,0,0,0,0,0,0,0,0,0,0,0,0,0,0,0,0,0,0,0,0,0,0,0,0,0,0,0,0,0,0,0,0,0,0,0,0,0,0,0,0,0,0,0,
0,0,0,0,0,0,0,0,0,0,0,0,0,0,0,0,0,0,0,0,0,0,0,0,0,0,0,0,0,0,0,0,0,0,0,0,0,0,0,0,0,0,0,0,0,0,0,0,0,0,
0,0,0,0,0,0,0,0,0,0,0,0,0,0,0,0,0,0,0,0,0,0,0,0,0,0,0,0,0,0,0,0,0,0,0,0,0,0,0,0,0,0,0,0,0,0,0,0,0,0,
0,0,0,0,0,0,0,0,0,0,0,0,0,0,0,0,0,0,0,0,0,0,0,0,0,0,0,0,0,0,0,0,0,0,0,0,0,0,0,0,0,0,0,0,0,0,0,0,0,0,
0,0,0,0,0,0,0,0,0,0,0,0,0,0,0,0,0,0,0,0,0,0,0,0,0,0,0,0,0,0,0,0,0,0,0,0,0,0,0,0,0,0,0,0,0,0,0,0,0,0,
0,0,0,0,0,0,0,0,0,0,0,0,0,0,0,0,0,0,0,0,0,0,0,0,0,0,0,0,0,0,0,0,0,0,0,0,0,0,0,0,0,0,0,0,0,0,0,0,0,0,
0,0,0,0,0,0,0,0,0,0,0,0,0,0,0,0,0,0,0,0,0,0,0,0,0,0,0,0,0,0,0,0,0,0,0,0,0,0,0,0,0,0,0,0,0,0,0,0,0,0,
0,0,0,0,0,0,0,0,0,0,0,0,0,0,0,0,0,0,0,0,1133,1133,1133,1133,1133,1133,0,0,0,0,0,0,0,0,0,0,0,0,0,0,0,0,0,0,0,0,0,0,0,0,
0,0,0,0,0,0,0,0,0,0,0,0,0,0,0,0,0,0,0,0,0,0,0,0,0,0,0,0,0,0,0,0,0,0,0,0,0,0,0,0,0,0,0,0,0,0,0,0,0,0,
0,0,0,0,0,0,0,0,0,0,0,325,326,328,319,0,0,0,0,0,0,0,0,0,0,0,0,0,0,0,0,0,0,0,0,0,0,0,0,0,0,0,0,0,0,0,0,0,0,0,
0,0,0,0,0,0,0,0,0,0,0,0,0,0,0,0,0,0,0,0,0,0,0,0,0,0,0,0,0,0,0,0,0,0,0,0,0,0,0,0,0,0,0,0,0,0,0,0,0,0,
0,0,0,0,0,0,0,0,0,0,0,0,0,0,0,0,0,0,0,0,0,0,0,0,0,0,0,0,0,0,0,0,0,0,0,0,0,0,0,0,0,0,0,0,0,0,0,0,0,0,
0,0,0,0,0,0,0,0,0,0,0,0,0,0,0,0,0,0,0,0,0,0,0,0,0,0,0,0,0,0,0,0,0,0,0,0,0,0,0,0,0,0,0,0,0,0,0,0,0,0,
0,0,0,0,0,0,0,0,0,0,0,0,0,0,0,0,0,0,0,0,0,0,0,0,0,0,0,0,0,0,0,0,0,0,0,0,0,0,0,0,0,0,0,0,0,0,0,0,0,0,
0,0,0,0,0,0,0,0,0,0,0,0,0,0,0,0,0,0,0,0,0,0,0,0,0,0,0,0,0,0,0,0,0,0,0,0,0,0,0,0,0,0,0,0,0,0,0,0,0,0,
0,0,0,0,0,0,0,0,0,0,0,0,0,0,0,0,0,0,0,0,0,0,0,0,0,0,0,0,0,0,0,0,0,0,0,0,0,0,0,0,0,0,0,0,0,0,0,0,0,0,
0,0,0,0,0,0,0,0,0,0,0,0,0,0,0,0,0,0,0,0,0,0,0,0,0,0,0,0,0,0,0,0,0,0,0,0,0,0,0,0,0,0,0,0,0,0,0,0,0,0,
0,0,0,0,0,0,0,0,0,0,0,0,0,0,0,0,0,0,0,0,0,0,0,0,0,0,0,0,0,0,0,0,0,0,0,0,0,0,0,0,0,0,0,0,0,0,0,0,0,0,
0,0,0,0,0,0,0,0,0,0,0,0,0,0,0,0,0,0,0,0,0,0,0,0,0,0,0,0,0,0,0,0,0,0,0,0,0,0,0,0,0,0,0,0,0,0,0,0,0,0,
0,0,0,0,0,0,0,0,0,0,0,0,0,0,0,0,0,0,0,0,0,0,0,0,0,0,0,0,0,0,0,0,0,0,0,0,0,0,0,0,0,0,0,0,0,0,0,0,0,0,
0,0,0,0,0,0,0,0,0,0,0,0,0,0,0,0,0,0,0,0,0,0,0,0,0,0,0,0,0,0,0,0,0,0,0,0,0,0,0,0,0,0,0,0,0,0,0,0,0,0,
0,0,0,0,0,0,0,0,0,0,0,0,0,0,0,0,0,0,0,0,0,0,0,0,0,0,0,0,0,0,0,0,0,0,0,0,0,0,0,0,0,0,0,0,0,0,0,0,0,0,
0,0,0,0,0,0,0,0,0,0,0,0,0,0,0,0,0,0,0,0,0,0,0,0,0,0,0,0,0,0,0,0,0,0,0,0,0,0,0,0,0,0,0,0,0,0,0,0,0,0,
0,0,0,0,0,0,0,0,0,0,0,0,0,0,0,0,0,0,0,0,0,0,0,0,0,0,0,0,0,0,0,0,0,0,0,0,0,0,0,0,0,0,0,0,0,0,0,0,0,0,
0,0,0,0,0,0,0,0,0,0,0,0,0,0,0,0,0,0,0,0,0,0,0,0,0,0,0,0,0,0,0,0,0,0,0,0,0,0,0,0,0,0,0,0,0,0,0,0,0,0,
0,0,0,0,0,0,0,0,0,0,0,0,0,0,0,0,0,0,0,0,0,0,0,0,0,0,0,0,0,0,0,0,0,0,0,0,0,0,0,0,0,0,0,0,0,0,0,0,0,0,
0,0,0,0,0,0,0,0,0,0,0,0,0,0,0,0,0,0,0,0,0,0,0,0,0,0,0,0,0,0,0,0,0,0,0,286,0,0,285,0,0,0,0,0,0,0,0,0,0,0,
0,0,0,0,0,0,0,0,0,0,0,0,0,0,0,0,0,0,0,0,0,0,0,0,0,0,0,0,0,0,0,0,0,0,0,294,0,0,293,0,0,0,0,0,0,0,0,0,0,0,
0,0,0,0,0,0,0,0,0,0,0,0,0,0,0,0,0,0,0,0,0,0,0,0,0,0,0,0,0,0,0,0,0,0,0,286,0,0,285,0,0,0,0,0,0,0,0,0,0,0,
0,0,0,0,0,0,0,0,0,0,0,0,0,0,0,0,0,0,0,0,0,0,0,0,0,0,0,0,287,0,0,0,0,0,0,294,0,0,293,0,0,0,0,0,0,0,0,0,0,0,
0,0,0,0,0,0,0,0,0,0,0,0,0,0,0,0,0,0,0,286,0,0,0,0,0,0,0,0,0,0,0,0,0,0,0,0,0,0,285,0,0,0,0,0,0,0,0,0,0,0,
0,0,0,0,0,0,0,0,0,0,0,0,0,0,0,0,0,0,0,294,0,0,0,0,0,0,0,0,0,0,0,0,0,0,0,0,0,0,293,0,0,0,0,0,0,0,0,0,0,0,
0,0,0,0,0,0,0,0,0,0,0,0,0,0,0,0,0,0,0,0,0,0,0,0,0,0,0,0,0,0,0,0,0,0,0,0,0,0,0,0,0,0,0,0,0,0,0,0,0,0,
0,0,0,0,0,0,0,0,0,0,0,0,0,0,0,0,0,0,0,0,0,0,0,0,0,0,0,0,0,0,0,0,0,0,0,0,0,0,0,0,0,0,0,0,0,0,0,0,0,0,
0,0,0,0,0,0,0,0,0,0,0,0,0,0,0,0,0,0,0,0,0,0,0,0,0,0,0,0,0,0,0,0,0,0,0,0,0,0,0,0,0,0,0,0,0,0,0,0,0,0,
0,0,0,0,0,0,0,0,0,0,0,0,0,0,0,0,0,0,0,0,0,0,0,0,0,0,0,0,0,0,0,0,0,0,0,0,0,0,0,0,0,0,0,0,0,0,0,0,0,0,
0,0,0,0,0,0,0,0,0,0,0,0,0,0,0,0,0,0,0,0,0,0,0,0,0,0,0,0,0,0,0,0,0,0,0,0,0,0,0,0,0,0,0,0,0,0,0,0,0,0,
0,0,0,0,0,0,0,0,0,0,0,0,0,0,0,0,0,0,0,0,0,0,0,0,0,0,0,0,0,0,0,0,0,0,0,0,0,0,0,0,0,0,0,0,0,0,0,0,0,0,
0,0,0,0,0,0,0,0,0,0,0,0,0,0,0,0,0,0,0,0,0,0,0,0,0,0,0,0,0,0,0,0,0,0,0,0,0,0,0,0,0,0,0,0,0,0,0,0,0,0,
0,0,0,0,0,0,0,0,0,0,0,0,0,0,0,0,0,0,0,0,0,0,0,0,0,0,0,0,0,0,0,0,0,0,0,0,0,0,0,0,0,0,0,0,0,0,0,0,0,0,
0,0,0,0,0,0,0,0,0,0,0,0,0,0,0,0,0,0,0,0,0,0,0,0,0,0,0,0,0,0,0,0,0,0,0,0,0,0,0,0,0,0,0,0,0,0,0,0,0,0,
0,0,0,0,0,0,0,0,0,0,0,0,0,0,0,0,0,0,0,0,0,0,0,0,0,0,0,0,0,0,0,0,0,0,0,0,0,0,0,0,0,0,0,0,0,0,0,0,0,0,
0,0,0,0,0,0,0,0,0,0,0,0,0,0,0,0,0,0,0,0,0,0,0,0,0,0,0,0,0,0,0,0,0,0,0,0,0,0,0,0,0,0,0,0,0,0,0,0,0,0,
0,0,0,0,0,0,0,0,0,0,0,0,0,0,0,0,0,0,0,0,0,0,0,0,0,0,0,0,0,0,0,0,0,0,0,0,0,0,0,0,0,0,0,0,0,0,0,0,0,0,
0,0,0,0,0,0,0,0,0,0,0,0,0,0,0,0,0,0,0,0,0,0,0,0,0,0,0,0,0,0,0,0,0,0,0,0,0,0,0,0,0,0,0,0,0,0,0,0,0,0,
0,0,0,0,0,0,0,0,0,0,0,0,0,0,0,0,0,0,0,0,0,0,0,0,0,0,0,0,0,0,0,0,0,0,0,0,0,0,0,0,0,0,0,0,0,0,0,0,0,0,
0,0,0,0,0,0,0,0,0,0,0,0,0,0,0,0,0,0,0,0,0,0,0,0,0,0,0,0,0,0,0,0,0,0,0,0,0,0,0,0,0,0,0,0,0,0,0,0,0,0,
0,0,0,0,0,0,0,0,0,0,0,0,0,0,0,0,0,0,0,0,0,0,0,0,0,0,0,0,0,0,0,0,0,0,0,0,0,0,0,0,0,0,0,0,0,0,0,0,0,0,
0,0,0,0,0,0,0,0,0,0,0,0,0,0,0,0,0,0,0,0,0,0,0,0,0,0,0,0,0,0,0,0,0,0,0,0,0,0,0,0,0,0,0,0,0,0,0,0,0,0
  </data>
 </layer>
 <objectgroup id="4" name="events"/>
</map>
