<?xml version="1.0" encoding="UTF-8"?>
<map version="1.10" tiledversion="1.10.2" orientation="orthogonal" renderorder="right-down" compressionlevel="0" width="76" height="40" tilewidth="32" tileheight="32" infinite="0" nextlayerid="4" nextobjectid="1">
 <tileset firstgid="1" source="RMXP-KANTO50S_OUT.tsx"/>
 <tileset firstgid="2225" source="RMXP-auto-hgss-sea.tsx"/>
 <tileset firstgid="2273" source="RMXP-auto-noanimsea.tsx"/>
 <tileset firstgid="2321" source="RMXP-auto-a-beach.tsx"/>
 <tileset firstgid="2369" source="RMXP-auto-a-flowred.tsx"/>
 <tileset firstgid="2417" source="RMXP-auto-a-flow.tsx"/>
 <tileset firstgid="2465" source="RMXP-auto-land2-2.tsx"/>
 <tileset firstgid="2513" source="RMXP-auto-still.tsx"/>
 <layer id="1" name="lower" width="76" height="40">
  <data encoding="csv">
275,275,275,275,275,275,276,4,4,4,4,4,3,3,3,3,3,3,3,3,3,3,3,3,3,3,3,3,3,3,3,3,3,3,3,3,3,3,3,3,3,3,3,3,3,3,3,3,3,3,3,3,3,3,5,5,5,5,4,4,4,4,4,4,4,4,2289,2273,2273,2275,2293,2293,2274,2275,4,4,
275,275,275,275,275,275,276,4,4,4,4,4,3,3,3,3,3,3,3,3,3,3,3,3,3,3,3,3,3,3,3,3,3,3,3,3,3,3,3,3,3,3,3,3,3,3,3,3,3,3,3,3,3,3,3,3,3,3,3,3,4,4,4,4,4,4,2289,2273,2273,2273,2273,2273,2273,2273,4,4,
275,275,275,275,275,275,276,4,4,4,4,4,3,3,3,3,3,3,3,3,3,3,3,3,3,3,3,3,3,3,3,3,3,3,3,3,3,3,3,3,3,3,3,3,3,3,3,3,3,3,3,3,3,3,3,3,3,3,3,3,4,4,4,4,4,4,2289,2273,2273,2273,2273,2273,2273,2273,4,4,
275,275,275,275,275,275,276,4,4,4,4,4,3,3,3,3,3,3,3,266,267,267,267,267,267,267,267,267,267,267,267,267,267,267,267,267,267,267,267,268,3,3,3,3,3,266,267,267,267,267,267,267,267,268,3,3,3,3,3,3,4,4,4,4,4,4,4,4,4,4,4,4,2273,2273,4,4,
275,275,275,275,275,275,276,4,4,4,4,4,3,3,3,3,3,3,3,282,283,283,283,283,283,283,283,283,283,283,283,283,283,283,283,283,283,283,283,284,3,3,3,3,3,282,283,283,283,283,283,283,283,284,3,3,3,3,3,3,4,4,4,4,4,4,4,4,4,4,4,4,2273,2277,2301,2301,
275,275,275,275,275,275,276,4,4,4,4,4,3,3,3,3,3,3,3,266,267,267,267,267,267,267,267,267,267,267,267,267,267,267,267,267,267,267,267,268,3,3,3,3,3,266,267,267,267,267,267,267,267,268,3,3,3,3,3,3,4,4,4,4,4,4,4,4,2273,2273,4,4,2273,2297,85,90,
275,275,275,275,275,275,276,4,4,4,4,4,3,3,3,3,3,3,3,274,275,275,275,275,275,275,275,275,275,275,275,275,275,275,275,275,275,275,275,276,3,3,3,3,3,274,275,275,275,275,275,275,275,276,3,3,3,3,3,3,4,4,4,4,4,4,4,4,2273,2273,4,4,2273,2297,83,4,
275,275,275,275,275,275,276,3,4,4,4,4,3,3,3,3,3,3,3,282,283,283,283,283,283,283,283,283,283,283,283,283,283,283,283,283,283,283,283,284,3,3,3,3,3,282,283,283,283,283,283,283,283,284,3,3,3,3,3,3,4,4,4,4,4,4,4,4,2273,2273,4,4,2273,2297,83,3,
275,275,275,275,275,275,276,4,4,4,4,4,3,3,3,3,3,3,3,266,267,267,267,267,267,267,267,267,267,267,267,267,267,267,267,267,267,267,267,268,3,3,3,3,3,266,267,267,267,267,267,267,267,268,3,3,3,3,3,3,4,4,4,4,4,4,4,4,2273,2277,4,4,4,4,83,3,
275,275,275,275,275,275,276,4,4,4,4,4,3,3,3,3,3,3,3,274,275,275,275,275,275,275,275,275,275,275,275,275,275,275,275,275,275,275,275,276,3,3,3,3,3,274,275,275,275,275,275,275,275,276,3,3,3,3,3,3,4,4,4,4,4,4,4,4,2273,2297,82,82,4,4,77,74,
275,275,275,275,275,275,276,4,3,4,4,4,3,3,3,3,3,3,3,282,283,283,283,283,283,283,283,283,283,283,283,283,283,283,283,283,283,283,283,284,3,3,3,3,3,282,283,283,283,283,283,283,283,284,3,3,3,3,3,3,4,4,4,4,4,4,4,4,2273,2297,82,82,2289,2275,2293,2293,
275,275,269,283,283,283,284,3,4,4,4,4,4,4,4,4,4,4,4,4,4,4,4,4,4,4,4,4,4,4,4,4,4,4,4,4,4,4,4,4,4,4,4,4,4,4,4,4,4,4,4,4,4,4,4,4,4,4,4,4,4,4,4,4,4,4,4,4,2273,2275,2293,2293,2274,2273,2273,2273,
275,275,276,2,4,4,3,4,4,3,4,4,4,3,3,98,99,99,99,99,99,99,99,99,99,99,99,99,99,99,99,99,100,7,7,7,7,98,99,99,99,99,99,99,99,99,99,99,99,99,99,100,7,7,7,3,4,3,4,3,4,4,4,4,4,4,321,4,2273,2273,2273,2273,2273,2273,2273,2273,
275,275,276,2,4,4,4,4,4,4,4,4,5,5,5,106,107,107,107,107,107,107,107,107,107,107,107,107,107,107,107,107,108,7,7,7,7,106,107,107,107,107,107,107,107,107,107,107,107,107,107,108,7,7,7,4,5,4,5,4,4,4,4,4,4,4,358,4,4,4,4,4,4,4,4,4,
275,275,276,2,3,4,4,4,3,3,4,4,3,4,4,106,107,101,115,115,115,115,115,115,115,115,115,115,115,115,102,107,108,7,7,7,7,106,107,101,115,115,115,115,115,115,115,115,115,102,107,108,7,7,7,3,4,3,4,3,4,4,4,4,4,4,366,319,319,4,4,4,4,4,4,4,
283,283,284,2,4,4,4,4,4,4,4,4,6,5,3,106,107,108,7,7,7,7,7,7,7,7,7,7,7,7,106,107,108,7,7,7,7,106,107,108,7,7,7,7,7,7,7,7,7,114,115,116,7,7,7,4,5,4,5,4,4,4,4,4,4,4,385,319,319,2289,2273,2273,4,4,2273,2297,
4,3,4,2,4,4,4,4,4,4,4,4,3,3,4,106,107,108,7,7,7,7,7,7,7,7,7,7,7,7,106,107,108,7,7,7,7,106,107,108,7,7,7,7,7,7,7,7,7,7,7,7,7,7,7,3,4,3,4,3,4,4,4,4,4,4,2307,2293,2293,2274,2273,2273,4,4,2273,2275,
6,6,6,6,4,4,4,4,4,4,4,4,6,5,3,106,107,108,7,7,7,7,98,99,99,99,99,99,99,99,110,107,108,7,7,7,7,106,107,109,99,99,99,99,99,99,99,100,7,7,7,7,7,7,7,4,6,6,6,6,4,4,4,4,4,4,2289,2273,2273,2273,2273,2273,4,4,2273,2273,
3,4,3,4,3,4,3,4,3,3,98,99,99,99,99,110,107,108,7,7,7,7,106,107,107,107,107,107,107,107,107,107,108,7,7,7,7,106,107,107,107,107,107,107,107,107,107,108,7,7,7,7,7,7,7,5,4,3,3,6,6,6,6,6,6,6,2313,2301,2301,2301,2301,2281,4,4,2273,2273,
5,6,5,6,5,6,5,6,5,6,106,107,107,107,107,107,107,108,7,7,7,7,106,107,101,115,115,115,115,115,102,107,108,7,7,7,7,106,107,101,115,115,115,115,115,102,107,108,7,7,7,7,98,99,99,100,3,154,155,155,3,4,3,4,3,3,3,4,3,4,3,4,4,4,2273,2273,
186,186,186,186,186,186,186,186,187,6,114,115,115,115,115,102,107,109,99,99,99,99,110,107,108,7,7,7,7,7,106,107,109,99,99,99,99,110,107,108,7,7,7,7,7,106,107,108,7,7,7,7,106,107,107,108,4,162,163,163,4,5,4,5,4,6,5,4,4,5,4,5,4,4,2273,2273,
2293,2293,2293,2293,2293,2293,2293,2309,195,5,5,5,5,5,4,106,107,107,107,107,107,107,107,107,108,7,7,7,7,7,106,107,107,107,107,107,107,107,107,108,7,7,7,7,7,106,107,108,7,7,7,7,106,107,101,116,6,170,171,171,3,4,3,4,3,3,3,4,3,4,3,4,4,4,2273,2273,
2273,2273,2273,2273,2273,2273,2273,2297,195,6,5,6,5,6,6,114,115,115,115,115,115,115,115,115,116,7,7,7,7,7,114,115,115,115,115,115,115,102,107,108,7,7,7,7,7,106,107,108,7,7,7,7,106,107,108,3,6,3,6,6,6,6,6,6,6,6,2307,2293,2293,2293,2293,2309,4,4,2273,2273,
2301,2301,2301,2301,2301,2301,2301,2311,195,3,6,3,6,3,5,7,7,7,7,7,7,7,7,7,7,7,7,7,7,7,7,7,7,7,7,7,7,106,107,108,7,7,7,7,7,106,107,108,7,7,7,7,106,107,108,3,4,3,4,3,4,4,4,4,4,4,2289,2273,2273,2273,2273,2275,4,4,2273,2273,
90,90,90,90,90,90,90,90,203,4,4,4,2,2,6,7,7,7,7,7,7,7,7,7,7,7,7,7,7,7,7,7,7,7,7,7,7,106,107,109,99,99,99,99,99,110,107,108,7,7,7,7,106,107,108,4,5,4,5,4,4,4,4,4,4,4,2289,2273,2273,2273,2273,2273,4,4,2273,2273,
4,4,4,4,4,4,4,4,4,4,4,4,5,3,4,7,7,7,7,7,7,7,7,7,7,7,7,7,7,7,7,7,7,7,7,7,7,106,107,107,107,107,107,107,107,107,107,108,7,7,7,7,106,107,108,3,4,3,4,3,4,5,4,5,4,6,2289,2273,2273,2273,2273,2273,4,4,2273,2273,
4,4,4,4,4,4,4,4,4,4,4,4,4,4,6,98,99,100,7,7,7,7,7,7,7,7,7,7,7,7,7,7,7,7,7,7,7,106,107,101,115,115,115,115,115,102,107,108,7,7,7,7,106,107,108,4,5,4,5,4,3,4,3,4,3,3,2289,2273,2273,2273,2273,2273,4,4,2273,2273,
4,4,4,4,4,4,4,4,4,4,4,4,4,4,3,106,107,109,99,99,99,99,99,99,99,99,99,99,99,99,99,99,99,99,99,99,99,110,107,108,7,7,7,7,7,106,107,109,99,99,99,99,110,107,108,3,4,3,4,3,6,6,6,6,6,6,2289,2273,2273,2273,2273,2273,4,4,2273,2273,
4,4,4,4,4,4,4,4,4,4,4,4,4,4,3,106,107,107,107,107,107,107,107,107,107,107,107,107,107,107,107,107,107,107,107,107,107,107,107,108,7,7,7,7,7,106,107,107,107,107,107,107,107,107,108,4,5,4,5,4,4,4,4,4,4,4,2289,2273,2273,2273,2273,2273,4,4,2273,2273,
4,4,4,4,4,4,4,4,4,4,4,4,4,4,5,114,115,115,115,115,115,115,115,115,115,115,115,115,115,115,115,115,115,115,115,115,115,115,115,116,7,7,7,7,7,114,115,115,115,115,115,115,115,115,116,6,5,6,5,6,4,4,4,4,4,4,2289,2273,2273,2273,2273,2277,4,4,4,4,
4,4,4,4,4,4,4,4,4,4,4,4,4,4,4,4,3,4,4,4,4,4,4,3,4,4,4,4,4,4,4,4,4,3,3,4,4,4,3,4,4,4,4,3,4,4,4,4,4,3,3,4,4,4,4,4,4,3,4,4,4,4,4,4,4,4,2289,2273,2273,2273,2273,2297,82,82,4,4,
4,4,4,4,4,4,4,4,4,4,4,4,4,4,1335,4,4,4,4,4,4,4,4,4,4,4,4,4,4,4,4,4,4,4,4,4,4,4,4,4,4,4,4,4,4,4,4,4,4,4,4,4,4,4,4,4,4,4,4,1335,4,4,4,4,4,4,2289,2273,2273,2273,2273,2297,82,82,2289,2273,
4,4,4,4,4,4,4,4,4,4,4,4,4,4,4,4,4,4,4,4,4,4,4,4,4,4,4,4,4,4,4,4,4,4,4,4,4,4,4,4,4,4,4,4,4,4,4,4,266,267,267,267,267,268,4,4,4,4,4,4,4,4,4,4,4,4,2289,2273,2273,2273,2273,2275,2293,2293,2274,2273,
4,4,4,4,4,4,4,4,4,4,4,4,4,4,4,4,4,4,4,4,4,4,4,4,4,4,4,4,4,4,4,4,4,4,4,4,4,4,4,4,4,4,4,4,4,4,4,4,282,283,283,283,283,284,4,4,4,4,4,4,4,4,4,4,4,4,2289,2277,2301,2301,2301,2301,2301,2301,2301,2301,
4,4,4,4,4,4,4,4,4,4,4,4,4,4,4,4,4,4,4,4,4,4,4,4,4,4,4,4,4,4,4,4,4,4,4,4,4,4,4,4,4,4,4,4,4,4,4,4,266,267,267,267,267,268,4,4,4,4,4,4,4,4,4,4,4,4,2289,2297,85,90,90,90,90,90,90,90,
4,4,4,4,4,4,4,4,4,4,4,4,4,4,4,4,4,4,4,4,4,4,4,4,4,4,4,4,4,4,4,4,4,4,4,4,4,4,4,4,4,4,4,4,4,4,4,4,282,283,283,283,283,284,4,4,4,4,4,4,4,4,4,4,4,4,2289,2297,83,4,4,4,4,4,4,3,
4,4,4,4,4,4,4,4,4,4,4,4,4,4,4,4,4,4,4,4,4,4,4,4,4,4,4,4,4,4,4,4,4,4,4,4,4,4,4,4,4,4,4,4,4,4,4,4,266,267,267,267,267,268,4,4,4,4,4,4,4,4,4,4,4,4,2289,2297,83,5,4,4,4,3,3,4,
4,4,4,4,4,4,4,4,4,4,4,4,4,4,4,4,4,4,4,4,4,4,4,4,4,4,4,4,4,4,4,4,4,4,4,4,4,4,4,4,4,4,4,4,4,4,4,4,282,283,283,283,283,284,4,4,4,4,4,4,4,4,4,4,4,4,2289,2297,83,3,5,6,5,6,5,6,
4,4,4,4,4,4,4,4,4,4,4,4,4,4,4,4,4,4,4,4,4,4,4,4,4,4,4,4,4,4,4,4,4,4,4,4,4,4,4,4,4,4,4,4,4,4,4,4,266,267,267,267,267,268,4,4,4,4,4,4,4,4,4,4,4,4,2289,2297,77,74,74,74,74,74,74,74,
4,4,4,4,4,4,4,4,4,4,4,4,4,4,4,4,4,4,4,4,4,4,4,4,4,4,4,4,4,4,4,4,4,4,4,4,4,4,4,4,4,4,4,4,4,4,4,4,282,283,283,283,283,284,5,5,5,5,5,4,4,4,4,4,4,4,2289,2275,2293,2293,6,6,2293,2293,2293,2293
  </data>
 </layer>
 <layer id="2" name="middle" width="76" height="40">
  <data encoding="csv">
0,0,0,0,0,0,0,0,491,490,491,492,0,0,0,0,0,0,0,0,0,0,0,0,0,0,0,0,0,0,0,0,0,0,0,0,0,0,0,0,0,0,0,0,0,0,0,0,0,0,0,0,0,0,0,0,0,0,0,0,0,0,0,0,0,0,0,0,0,0,0,0,0,0,321,323,
0,0,0,0,0,0,0,0,499,498,499,500,0,0,0,0,0,0,0,0,0,0,0,0,0,0,0,0,0,0,0,0,0,0,0,0,0,0,0,0,0,0,0,0,0,0,0,0,0,0,0,0,0,0,0,0,0,0,0,0,0,0,0,0,0,0,0,0,0,0,0,0,0,0,321,323,
0,0,0,0,0,0,0,0,491,490,491,492,0,0,0,0,0,0,0,0,0,0,0,0,0,0,0,0,0,0,0,0,0,0,0,0,0,0,0,0,0,0,0,0,0,0,0,0,0,0,0,0,0,0,0,0,0,0,0,0,0,0,0,0,0,0,0,0,0,0,0,0,0,0,321,323,
0,0,0,0,0,0,0,0,499,498,499,500,0,0,0,0,0,0,0,0,0,0,0,0,0,0,0,0,0,0,0,0,0,0,0,0,0,0,0,0,0,0,0,0,0,0,0,0,0,0,0,0,0,0,0,0,0,0,0,0,0,0,0,0,0,0,321,323,324,324,321,323,0,0,321,323,
0,0,0,0,0,0,0,0,491,490,491,492,0,0,0,0,0,0,0,0,0,0,0,0,0,0,0,0,0,0,0,0,0,0,0,0,0,0,0,0,0,0,0,0,0,0,0,0,0,0,0,0,0,0,0,0,0,0,0,0,0,0,0,0,0,0,321,323,340,340,321,323,0,0,321,323,
0,0,0,0,0,0,0,0,499,498,499,500,0,0,0,0,0,0,0,0,0,0,0,0,0,0,0,0,0,0,0,0,0,0,0,0,0,0,0,0,0,0,0,0,0,0,0,0,0,0,0,0,0,0,0,0,0,0,0,0,0,0,0,0,0,0,321,323,0,0,321,323,0,0,0,0,
0,0,0,0,0,0,0,0,491,490,491,492,0,0,0,0,0,0,0,0,0,0,0,0,0,0,0,0,0,0,0,0,0,0,0,0,0,0,0,0,0,0,0,0,0,0,0,0,0,0,0,0,0,0,0,0,0,0,0,0,0,0,0,0,0,0,321,323,0,0,321,323,0,0,0,0,
0,0,0,0,0,0,0,0,499,498,499,500,0,0,0,0,0,0,0,0,0,0,0,0,0,0,0,0,0,0,0,0,0,0,0,0,0,0,0,0,0,0,0,0,0,0,0,0,0,0,0,0,0,0,0,0,0,0,0,0,0,0,0,0,0,0,321,323,0,0,321,323,0,0,0,0,
0,0,0,0,0,0,0,0,491,490,491,492,0,0,0,0,0,0,0,0,0,0,0,0,0,0,0,0,0,0,0,0,0,0,0,0,0,0,0,0,0,0,0,0,0,0,0,0,0,0,0,0,0,0,0,0,0,0,0,0,0,0,0,0,0,0,321,323,0,0,321,323,324,324,0,0,
0,0,0,0,0,0,0,0,499,498,499,500,0,0,0,0,0,0,0,0,0,0,0,0,0,0,0,0,0,0,0,0,0,0,0,0,0,0,0,0,0,0,0,0,0,0,0,0,0,0,0,0,0,0,0,0,0,0,0,0,0,0,0,0,0,0,321,323,0,0,321,323,340,340,0,0,
0,0,0,0,0,0,0,0,491,490,491,492,0,0,0,0,0,0,0,0,0,0,0,0,0,0,0,0,0,0,0,0,0,0,0,0,0,0,0,0,0,0,0,0,0,0,0,0,0,0,0,0,0,0,0,0,0,0,0,0,0,0,0,0,0,0,321,323,0,0,1265,1267,0,0,0,0,
0,0,0,0,0,0,0,0,499,498,499,500,1334,1334,1334,1334,1334,1334,1334,1334,1334,1334,1334,1334,1334,1334,1334,1334,1334,1334,1334,1334,1334,1334,1334,1334,1334,1334,1334,1334,1334,1334,1334,1334,1334,1334,1334,1334,1334,1334,1334,1334,1334,1334,1334,1334,1334,1334,1334,1334,0,0,0,0,0,0,321,323,0,0,0,0,0,0,0,0,
0,0,0,0,0,0,0,0,507,508,491,492,0,0,0,0,0,0,0,0,0,0,0,0,0,0,0,0,0,0,0,0,0,0,0,0,0,0,0,0,0,0,0,0,0,0,0,0,0,0,0,0,0,0,0,0,0,0,0,0,0,0,0,0,0,0,915,323,0,0,0,0,0,0,0,0,
0,0,0,0,0,0,0,0,0,0,499,500,0,0,0,0,0,0,0,0,0,0,0,0,0,0,0,0,0,0,0,0,0,0,0,0,0,0,0,0,0,0,0,0,0,0,0,0,0,0,0,0,0,0,0,0,476,0,0,0,0,0,0,0,0,0,923,359,360,324,324,324,321,323,324,324,
0,0,0,785,786,786,786,786,786,787,491,492,0,0,0,0,0,0,0,0,0,0,0,0,0,0,0,0,0,0,0,0,0,0,0,0,0,0,0,0,0,0,0,0,0,0,0,0,0,0,0,0,0,0,0,0,0,0,0,0,0,0,0,0,0,0,915,367,368,340,340,340,321,323,340,340,
0,0,0,793,796,797,797,797,798,795,499,500,0,0,0,0,0,0,0,0,0,0,0,0,0,0,0,0,0,0,0,0,0,0,0,0,0,0,0,0,0,0,0,0,0,0,0,0,0,0,0,0,0,0,0,0,0,0,816,0,0,0,0,0,0,0,923,386,387,0,0,0,321,323,0,0,
0,0,0,793,804,805,805,802,806,795,507,508,0,0,0,0,0,0,0,0,0,0,0,0,0,0,0,0,0,0,0,0,0,0,0,0,0,0,0,0,0,0,0,0,0,0,0,0,0,0,0,0,0,0,0,0,0,0,0,0,499,498,499,498,499,0,1265,1266,1267,0,0,0,321,323,0,0,
1298,1298,953,801,802,802,1186,802,802,803,0,0,0,0,0,0,0,0,0,0,0,0,0,0,0,0,0,0,0,0,0,0,0,0,0,0,0,0,0,0,0,0,0,0,0,0,0,0,0,0,0,0,0,0,0,0,1334,1334,1334,1319,507,508,507,508,507,0,0,0,0,0,0,0,321,323,0,0,
0,0,0,0,0,0,0,0,0,0,0,0,0,0,0,0,0,0,0,0,0,0,0,0,0,0,0,0,0,0,0,0,0,0,0,0,0,0,0,0,0,0,0,0,0,0,0,0,0,0,0,0,0,0,0,0,0,0,0,1332,1334,1334,1334,1334,1334,0,0,0,0,0,0,0,321,323,0,0,
0,0,0,0,0,0,0,0,0,0,0,0,0,0,0,0,0,0,0,0,0,0,0,0,0,0,0,0,0,0,0,0,0,0,0,0,0,0,0,0,0,0,0,0,0,0,0,0,0,0,0,0,0,0,0,0,0,0,0,0,0,0,0,0,0,1332,1334,1334,1334,1334,1334,1334,321,323,0,0,
0,0,0,0,0,0,0,0,0,0,0,0,0,0,0,0,0,0,0,0,0,0,0,0,0,0,0,0,0,0,0,0,0,0,0,0,0,0,0,0,0,0,0,0,0,0,0,0,0,0,0,0,0,0,0,0,0,0,0,0,0,0,0,0,0,0,0,0,0,0,0,0,321,323,0,0,
0,0,0,0,0,0,0,0,0,0,0,0,0,0,0,0,0,0,0,0,0,0,0,0,0,0,0,0,0,0,0,0,0,0,0,0,0,0,0,0,0,0,0,0,0,0,0,0,0,0,0,0,0,0,0,0,0,0,0,0,0,0,0,0,0,1316,1334,1334,1334,1334,1334,1334,321,323,0,0,
0,0,0,0,0,0,0,0,0,0,0,0,0,0,0,0,0,0,0,0,0,0,0,0,0,0,0,0,0,0,0,0,0,0,0,0,0,0,0,0,0,0,0,0,0,0,0,0,0,0,0,0,0,0,0,0,0,0,0,1316,1334,1334,1334,1334,1334,1327,0,0,0,0,0,0,321,323,0,0,
517,518,517,518,517,518,517,518,517,518,517,518,0,0,0,0,0,0,0,0,0,0,0,0,0,0,0,0,0,0,0,0,0,0,0,0,0,0,0,0,0,0,0,0,0,0,0,0,0,0,0,0,0,0,0,1334,1334,1334,1334,1327,0,0,0,0,0,0,0,0,0,0,0,0,321,323,0,0,
499,498,499,498,499,498,499,498,499,498,499,500,1334,1334,0,0,0,0,0,0,0,0,0,0,0,0,0,0,0,0,0,0,0,0,0,0,0,0,0,0,0,0,0,0,0,0,0,0,0,0,0,0,0,0,0,476,0,0,0,0,0,0,0,0,0,0,0,0,0,0,0,0,321,323,0,0,
491,490,491,490,491,490,491,490,491,490,491,490,517,518,0,0,0,0,0,0,0,0,0,0,0,0,0,0,0,0,0,0,0,0,0,0,0,0,0,0,0,0,0,0,0,0,0,0,0,0,0,0,0,0,0,0,0,0,476,0,0,0,0,0,0,0,0,0,0,0,0,0,321,323,0,0,
499,498,499,498,499,498,499,498,499,498,499,498,499,500,0,0,0,0,0,0,0,0,0,0,0,0,0,0,0,0,0,0,0,0,0,0,0,0,0,0,0,0,0,0,0,0,0,0,0,0,0,0,0,0,0,0,0,0,0,476,0,0,0,0,0,0,0,0,0,0,0,0,321,323,0,0,
491,490,491,490,491,490,491,490,491,490,491,490,491,492,0,0,0,0,0,0,0,0,0,0,0,0,0,0,0,0,0,0,0,0,0,0,0,0,0,0,0,0,0,0,0,0,0,0,0,0,0,0,0,0,0,0,476,0,476,476,0,0,0,0,0,0,0,0,0,0,0,0,321,323,0,0,
499,498,499,498,499,498,499,498,499,498,499,498,499,500,0,0,0,0,0,0,0,0,0,0,0,0,0,0,0,0,0,0,0,0,0,0,0,0,0,0,0,0,0,0,0,0,0,0,0,0,0,0,0,0,0,476,0,0,0,0,0,0,0,0,0,0,0,0,0,0,0,0,321,323,0,0,
491,490,491,490,491,490,491,490,491,490,491,490,491,492,471,471,0,471,471,471,471,471,0,0,471,471,471,471,0,471,471,471,471,0,0,471,471,471,0,0,471,471,471,0,471,471,471,471,471,0,0,471,471,471,471,471,471,0,471,471,0,0,0,0,0,0,0,0,0,0,0,0,321,323,324,324,
499,498,499,498,499,498,499,498,499,498,499,498,499,500,479,479,0,479,479,479,479,479,0,0,479,479,479,479,0,479,479,479,479,0,0,479,479,479,0,0,479,479,479,0,479,479,479,479,479,0,0,479,479,479,479,479,479,0,479,479,0,0,0,0,0,0,0,0,0,0,0,0,321,323,340,340,
491,490,491,490,491,490,491,490,491,490,491,490,491,492,0,1334,1334,1334,1334,1334,1334,1334,1318,1334,1334,1334,1334,1334,1334,1334,1334,1334,1334,1319,1334,1334,1334,1334,1334,1334,1334,1334,1334,1334,1334,1334,1334,1334,1318,1334,1334,1334,1334,1334,1334,1334,1334,1334,1334,1334,0,0,0,0,0,0,0,0,0,0,0,0,1265,1267,0,0,
499,498,499,498,499,498,499,498,499,498,499,498,499,498,499,498,499,498,499,498,499,500,499,500,499,500,499,500,499,500,499,500,499,500,499,498,499,498,499,498,499,498,499,498,499,498,499,500,1325,0,0,0,0,0,517,518,517,518,517,518,0,0,0,0,0,0,0,0,0,1649,1650,1651,1652,0,0,0,
491,490,491,490,491,490,491,490,491,490,491,490,491,490,491,490,491,490,491,490,491,492,491,492,491,492,491,492,491,492,491,492,491,492,491,490,491,490,491,490,491,490,491,490,491,490,491,492,1325,0,0,0,0,0,499,498,499,498,499,498,0,0,0,0,0,0,0,0,0,1657,1658,1659,1660,0,0,0,
499,498,499,498,499,498,499,498,499,498,499,498,499,498,499,498,499,498,499,498,499,500,499,500,499,500,499,500,499,500,499,500,499,500,499,498,499,498,499,498,499,498,499,498,499,498,499,500,1325,0,0,0,0,0,491,490,491,490,491,490,0,0,0,0,0,0,0,0,0,1665,1666,1667,1668,0,0,0,
491,490,491,490,491,490,491,490,491,490,491,490,491,490,491,490,491,490,491,490,491,492,491,492,491,492,491,492,491,492,491,492,491,492,491,490,491,490,491,490,491,490,491,490,491,490,491,492,1325,0,0,0,0,0,499,498,499,498,499,498,0,0,0,0,0,0,0,0,0,1673,1674,1675,1676,0,0,0,
499,498,499,498,499,498,499,498,499,498,499,498,499,498,499,498,499,498,499,498,499,500,499,500,499,500,499,500,499,500,499,500,499,500,499,498,499,498,499,498,499,498,499,498,499,498,499,500,1325,0,0,0,0,0,491,490,491,490,491,490,0,0,0,0,0,0,0,0,0,0,0,0,0,0,0,0,
491,490,491,490,491,490,491,490,491,490,491,490,491,490,491,490,491,490,491,490,491,492,491,492,491,492,491,492,491,492,491,492,491,492,491,490,491,490,491,490,491,490,491,490,491,490,491,492,1325,0,0,0,0,0,499,498,499,498,499,498,0,0,0,0,0,0,0,0,0,0,0,0,0,0,0,0,
499,498,499,498,499,498,499,498,499,498,499,498,499,498,499,498,499,498,499,498,499,500,499,500,499,500,499,500,499,500,499,500,499,500,499,498,499,498,499,498,499,498,499,498,499,498,499,500,1325,0,0,0,0,0,491,490,491,490,491,490,0,0,0,0,0,0,0,0,1298,1298,0,0,1298,1298,1298,1298,
491,490,491,490,491,490,491,490,491,490,491,490,491,490,491,490,491,490,491,490,491,492,491,492,491,492,491,492,491,492,491,492,491,492,491,490,491,490,491,490,491,490,491,490,491,490,491,492,1325,0,0,0,0,0,0,0,0,0,0,0,0,0,0,0,0,0,0,0,0,0,321,323,0,0,0,0
  </data>
 </layer>
 <layer id="3" name="upper" width="76" height="40">
  <data encoding="csv">
0,0,0,0,0,0,0,502,0,0,0,0,501,0,0,0,0,0,0,0,0,0,0,0,0,0,0,0,0,0,0,0,0,0,0,0,0,0,0,0,0,0,0,0,0,0,0,0,0,0,0,0,0,0,0,0,0,0,0,510,499,498,499,498,499,500,509,0,0,0,0,0,0,0,0,0,
0,0,0,0,0,0,0,510,0,0,0,0,509,0,0,0,0,0,0,0,0,0,0,0,0,0,0,0,0,0,0,0,0,0,0,0,0,0,0,0,0,0,0,0,0,0,0,0,0,0,0,0,0,0,0,0,0,0,0,502,491,490,491,490,491,492,501,0,0,0,0,0,0,0,0,0,
0,0,0,0,0,0,0,502,0,0,0,0,501,0,0,0,0,0,0,0,0,0,0,0,0,0,0,0,0,0,0,0,0,0,0,0,0,0,0,0,0,0,0,0,0,0,0,0,0,0,0,0,0,0,0,0,0,0,0,510,499,498,499,498,499,500,509,0,0,0,0,0,0,0,0,0,
0,0,0,0,0,0,0,510,0,0,0,0,509,0,0,0,0,0,0,0,0,0,0,0,0,0,0,0,0,0,0,0,0,0,0,0,0,0,0,0,0,0,0,0,0,0,0,0,0,0,0,0,0,0,0,0,0,0,0,502,491,490,491,490,491,492,501,0,0,0,0,0,0,0,0,0,
0,0,0,0,0,0,0,502,0,0,0,0,501,0,0,1234,1235,1236,0,0,0,0,0,0,0,0,0,0,0,0,0,0,0,0,0,0,0,0,0,0,0,1234,1235,1236,0,0,0,0,0,0,0,0,0,0,0,1234,1235,1236,0,510,499,498,499,498,499,500,509,0,0,0,0,0,0,0,0,0,
0,0,0,0,0,0,0,510,0,0,0,0,509,0,1241,1242,1243,1244,1248,0,0,0,0,0,0,0,0,0,0,0,0,0,0,0,0,0,0,0,0,0,1241,1242,1243,1244,1248,0,0,0,0,0,0,0,0,0,1241,1242,1243,1244,1248,502,491,490,491,490,491,492,501,0,0,0,0,0,0,0,0,0,
0,0,0,0,0,0,0,502,0,0,0,0,501,0,0,1250,1251,1252,0,0,0,0,0,0,0,0,0,0,0,0,0,0,0,0,0,0,0,0,0,0,0,1250,1251,1252,0,0,0,0,0,0,0,0,0,0,0,1250,1251,1252,0,510,499,498,499,498,499,500,509,0,0,0,0,0,0,0,0,0,
0,0,0,0,0,0,0,510,0,0,0,0,509,0,1257,1258,1259,1260,1256,0,0,0,0,0,0,0,0,0,0,0,0,0,0,0,0,0,0,0,0,0,1257,1258,1259,1260,1256,0,0,0,0,0,0,0,0,0,1257,1258,1259,1260,1256,502,491,490,491,490,491,492,501,0,0,0,0,0,0,0,0,0,
0,0,0,0,0,0,0,502,0,0,0,0,501,0,1237,1238,1239,1240,1342,0,0,0,0,0,0,0,0,0,0,0,0,0,0,0,0,0,0,0,0,0,1237,1238,1239,1240,1342,0,0,0,0,0,0,0,0,0,1237,1238,1239,1240,1400,510,499,498,499,498,499,500,509,0,0,0,0,0,0,0,0,0,
0,0,0,0,0,0,0,510,0,0,0,0,509,0,1272,1268,1269,1270,1350,0,0,0,0,0,0,0,0,0,0,0,0,0,0,0,0,0,0,0,0,0,1272,1268,1269,1270,1350,0,0,0,0,0,0,0,0,0,1272,1268,1269,1270,1416,502,491,490,491,490,491,492,501,0,0,0,0,0,0,0,0,0,
0,0,0,0,0,0,0,502,0,0,0,0,501,0,0,1271,1431,1431,1358,0,0,0,0,0,0,0,0,0,0,0,0,0,0,0,0,0,0,0,0,0,0,1271,1431,1431,1358,0,0,0,0,0,0,0,0,0,0,1271,1431,1431,1432,510,499,498,499,498,499,500,509,0,0,0,0,0,0,0,0,0,
0,0,0,0,0,0,0,510,0,0,0,0,509,0,0,0,0,0,0,0,0,0,0,0,0,0,0,0,0,0,0,0,0,0,0,0,0,0,0,0,0,0,0,0,0,0,0,0,0,0,0,0,0,0,0,0,0,0,0,502,491,490,491,490,491,492,501,0,0,0,0,0,0,0,0,0,
0,0,0,0,0,0,0,0,0,502,0,0,501,0,0,0,0,0,0,0,0,0,0,0,0,0,0,0,0,0,0,0,0,0,0,0,0,0,0,0,0,0,0,0,0,0,0,0,0,0,0,0,0,0,0,0,0,0,97,510,499,498,499,498,499,500,509,0,915,0,0,0,0,0,0,0,
0,0,0,0,0,0,0,0,0,510,0,0,509,0,0,0,0,0,0,0,0,0,0,0,0,0,0,0,0,0,0,0,0,0,0,0,0,0,0,0,0,0,0,0,0,0,0,0,0,0,0,0,0,0,0,0,0,0,105,502,491,490,491,490,491,492,501,0,923,0,0,0,0,0,0,0,
0,0,0,0,785,786,786,786,787,502,0,0,501,0,0,0,0,0,0,0,0,0,0,0,0,0,0,0,0,0,0,0,0,0,0,0,0,0,0,0,0,0,0,0,0,0,0,0,0,0,0,0,0,0,0,0,0,0,0,510,499,498,499,498,499,500,509,0,915,0,0,0,0,0,0,0,
0,0,0,0,0,0,0,0,0,510,0,0,509,0,0,0,0,0,0,0,0,0,0,0,0,0,0,0,0,0,0,0,0,0,0,0,0,0,0,0,0,0,0,0,0,0,0,0,0,0,0,0,0,0,0,0,0,0,0,502,491,490,491,490,491,492,501,0,923,0,0,0,0,0,0,0,
0,0,0,0,0,1177,1178,1179,0,0,0,0,0,0,0,0,0,0,0,0,0,0,0,0,0,0,0,0,0,0,0,0,0,0,0,0,0,0,0,0,0,0,0,0,0,0,0,0,0,0,0,0,0,0,0,0,0,0,0,510,2171,2172,2173,2174,2175,500,509,0,0,0,0,0,0,0,0,0,
0,0,0,0,0,1185,1186,1187,0,0,0,0,0,0,0,0,0,0,0,0,0,0,0,0,0,0,0,0,0,0,0,0,0,0,0,0,0,0,0,0,0,0,0,0,0,0,0,0,0,0,0,0,0,0,0,0,0,0,0,0,2179,2180,2181,2182,2183,508,0,0,0,0,0,0,0,0,0,0,
0,0,0,0,0,0,0,0,0,0,0,0,0,0,0,0,0,0,0,0,0,0,0,0,0,0,0,0,0,0,0,0,0,0,0,0,0,0,0,0,0,0,0,0,0,0,0,0,0,0,0,0,0,0,0,0,0,0,0,2186,2187,2188,2189,2190,2191,1319,0,0,0,0,0,0,0,0,0,0,
0,0,0,0,0,0,0,0,0,0,0,0,0,0,0,0,0,0,0,0,0,0,0,0,0,0,0,0,0,0,0,0,0,0,0,0,0,0,0,0,0,0,0,0,0,0,0,0,0,0,0,0,0,0,0,0,0,0,0,2194,2195,2196,2197,2198,2199,0,0,0,0,0,0,0,0,954,0,0,
0,0,0,0,0,0,0,0,0,0,0,0,0,0,0,0,0,0,0,0,0,0,0,0,0,0,0,0,0,0,0,0,0,0,0,0,0,0,0,0,0,0,0,0,0,0,0,0,0,0,0,0,0,0,0,0,0,0,0,2202,2203,2204,2205,2206,2207,0,0,0,0,0,0,0,0,0,0,0,
0,0,0,0,0,0,0,0,0,0,0,0,0,0,0,0,0,0,0,0,0,0,0,0,0,0,0,0,0,0,0,0,0,0,0,0,0,0,0,0,0,0,0,0,0,0,0,0,0,0,0,0,0,0,0,0,0,0,0,2210,2211,2212,2213,2214,2215,0,0,0,0,0,0,0,0,0,0,0,
0,0,0,0,0,0,0,0,0,0,0,0,0,0,0,0,0,0,0,0,0,0,0,0,0,0,0,0,0,0,0,0,0,0,0,0,0,0,0,0,0,0,0,0,0,0,0,0,0,0,0,0,0,0,0,0,0,0,0,502,517,518,517,518,517,518,501,0,0,0,0,0,0,0,0,0,
0,0,0,0,0,0,0,0,0,0,0,0,501,0,0,0,0,0,0,0,0,0,0,0,0,0,0,0,0,0,0,0,0,0,0,0,0,0,0,0,0,0,0,0,0,0,0,0,0,0,0,0,0,0,0,0,0,0,0,510,499,498,499,498,499,500,509,0,0,0,0,0,0,0,0,0,
0,0,0,0,0,0,0,0,0,0,0,0,509,0,0,0,0,0,0,0,0,0,0,0,0,0,0,0,0,0,0,0,0,0,0,0,0,0,0,0,0,0,0,0,0,0,0,0,0,0,0,0,0,0,0,0,0,0,0,502,491,490,491,490,491,492,501,0,0,0,0,0,0,0,0,0,
0,0,0,0,0,0,0,0,0,0,0,0,0,0,501,0,0,0,0,0,0,0,0,0,0,0,0,0,0,0,0,0,0,0,0,0,0,0,0,0,0,0,0,0,0,0,0,0,0,0,0,0,0,0,0,0,0,0,0,510,499,498,499,498,499,500,509,0,0,0,0,0,0,0,0,0,
0,0,0,0,0,0,0,0,0,0,0,0,0,0,509,0,0,0,0,0,0,0,0,0,0,0,0,0,0,0,0,0,0,0,0,0,0,0,0,0,0,0,0,0,0,0,0,0,0,0,0,0,0,0,0,0,0,0,0,502,491,490,491,490,491,492,501,0,0,0,0,0,0,0,0,0,
0,0,0,0,0,0,0,0,0,0,0,0,0,0,501,0,0,0,0,0,0,0,0,0,0,0,0,0,0,0,0,0,0,0,0,0,0,0,0,0,0,0,0,0,0,0,0,0,0,0,0,0,0,0,0,0,0,0,0,510,499,498,499,498,499,500,509,0,0,0,0,0,0,0,0,0,
0,0,0,0,0,0,0,0,0,0,0,0,0,0,509,0,0,0,0,0,0,0,0,0,0,0,0,0,0,0,0,0,0,0,0,0,0,0,0,0,0,0,0,0,0,0,0,0,0,0,0,0,0,0,0,0,0,0,0,502,491,490,491,490,491,492,501,0,0,0,0,0,0,0,0,0,
0,0,0,0,0,0,0,0,0,0,0,0,0,0,501,0,0,0,0,0,0,0,0,0,0,0,0,0,0,0,0,0,0,0,0,0,0,0,0,0,0,0,0,0,0,0,0,0,0,0,0,0,0,0,0,0,0,0,0,510,499,498,499,498,499,500,509,0,0,0,0,0,0,0,0,0,
0,0,0,0,0,0,0,0,0,0,0,0,0,0,509,0,0,0,0,0,0,0,0,0,0,0,0,0,0,0,0,0,0,0,0,0,0,0,0,0,0,0,0,0,0,0,0,0,0,0,0,0,0,0,0,0,0,0,0,502,491,490,491,490,491,492,501,0,0,0,0,0,0,0,0,0,
0,0,0,0,0,0,0,0,0,0,0,0,0,0,517,518,517,518,517,518,517,518,517,518,517,518,517,518,517,518,517,518,517,518,517,518,517,518,517,518,517,518,517,518,517,518,517,518,501,0,0,0,0,0,0,0,0,0,0,510,499,498,499,498,499,500,509,0,0,0,0,0,0,0,0,0,
0,0,0,0,0,0,0,0,0,0,0,0,0,0,0,0,0,0,0,0,0,0,0,0,0,0,0,0,0,0,0,0,0,0,0,0,0,0,0,0,0,0,0,0,0,0,0,0,509,0,0,0,0,502,0,0,0,0,0,0,491,490,491,490,491,492,501,0,0,0,0,0,0,0,0,0,
0,0,0,0,0,0,0,0,0,0,0,0,0,0,0,0,0,0,0,0,0,0,0,0,0,0,0,0,0,0,0,0,0,0,0,0,0,0,0,0,0,0,0,0,0,0,0,0,501,0,0,0,0,510,0,0,0,0,0,0,499,498,499,498,499,500,509,0,915,0,0,0,0,0,0,0,
0,0,0,0,0,0,0,0,0,0,0,0,0,0,0,0,0,0,0,0,0,0,0,0,0,0,0,0,0,0,0,0,0,0,0,0,0,0,0,0,0,0,0,0,0,0,0,0,509,0,0,0,0,502,0,0,0,0,0,0,491,490,491,490,491,492,501,0,923,0,0,0,0,0,0,0,
0,0,0,0,0,0,0,0,0,0,0,0,0,0,0,0,0,0,0,0,0,0,0,0,0,0,0,0,0,0,0,0,0,0,0,0,0,0,0,0,0,0,0,0,0,0,0,0,501,0,0,0,0,510,0,0,0,0,0,0,499,498,499,498,499,500,509,0,0,0,0,0,0,0,0,0,
0,0,0,0,0,0,0,0,0,0,0,0,0,0,0,0,0,0,0,0,0,0,0,0,0,0,0,0,0,0,0,0,0,0,0,0,0,0,0,0,0,0,0,0,0,0,0,0,509,0,0,0,0,502,0,0,0,0,0,0,491,490,491,490,491,492,501,0,0,0,0,0,0,0,0,0,
0,0,0,0,0,0,0,0,0,0,0,0,0,0,0,0,0,0,0,0,0,0,0,0,0,0,0,0,0,0,0,0,0,0,0,0,0,0,0,0,0,0,0,0,0,0,0,0,501,0,0,0,0,510,0,0,0,0,0,0,499,498,499,498,499,500,509,0,0,0,0,0,0,0,0,0,
0,0,0,0,0,0,0,0,0,0,0,0,0,0,0,0,0,0,0,0,0,0,0,0,0,0,0,0,0,0,0,0,0,0,0,0,0,0,0,0,0,0,0,0,0,0,0,0,509,0,0,0,0,502,0,0,0,0,0,0,491,490,491,490,491,492,501,0,0,0,0,0,0,0,0,0,
0,0,0,0,0,0,0,0,0,0,0,0,0,0,0,0,0,0,0,0,0,0,0,0,0,0,0,0,0,0,0,0,0,0,0,0,0,0,0,0,0,0,0,0,0,0,0,0,501,0,0,0,0,510,499,498,499,498,499,498,499,498,499,498,499,500,509,0,0,0,0,0,0,0,0,0
  </data>
 </layer>
 <objectgroup id="4" name="events"/>
</map>
