<?xml version="1.0" encoding="UTF-8"?>
<map version="1.10" tiledversion="1.10.2" orientation="orthogonal" renderorder="right-down" compressionlevel="0" width="65" height="61" tilewidth="32" tileheight="32" infinite="0" nextlayerid="8" nextobjectid="1">
 <tileset firstgid="1" source="RMXP-JohtoCompactExterior.tsx"/>
 <tileset firstgid="2401" source="RMXP-auto-tfj-waterfall.tsx"/>
 <tileset firstgid="2449" source="RMXP-auto-sand.tsx"/>
 <tileset firstgid="2497" source="RMXP-auto-still.tsx"/>
 <tileset firstgid="2545" source="RMXP-auto-noanimsea.tsx"/>
 <tileset firstgid="2593" source="RMXP-auto-hgss-sea.tsx"/>
 <tileset firstgid="2641" source="RMXP-auto-lake.tsx"/>
 <tileset firstgid="2689" source="RMXP-auto-r49water.tsx"/>
 <layer id="1" name="lower" width="65" height="61">
  <data encoding="csv">
13,11,13,11,13,11,13,11,13,11,13,11,13,11,35,11,13,11,13,2465,2449,2473,13,11,13,11,13,11,13,11,13,11,13,11,13,11,13,11,13,11,13,11,13,11,13,11,13,13,13,13,13,13,13,13,13,13,13,13,13,13,13,13,13,13,13,
11,13,11,13,11,13,11,13,11,13,11,13,11,13,29,26,26,26,27,2465,2449,2473,25,26,26,26,26,26,26,26,26,26,26,26,26,26,26,26,26,26,26,26,26,26,27,13,13,13,13,13,13,13,13,13,13,13,13,13,13,13,13,13,13,13,13,
13,11,13,11,13,11,13,11,13,11,13,11,57,11,13,11,13,11,13,2465,2449,2473,13,11,13,11,13,11,13,11,13,11,13,11,13,11,13,11,13,11,13,11,13,11,35,13,11,13,11,13,11,13,11,13,11,13,11,13,11,13,11,13,11,13,11,
11,13,11,13,11,13,11,13,11,13,11,13,11,13,11,13,11,13,66,2465,2449,2473,11,33,11,13,11,13,11,13,11,13,11,13,11,13,11,13,11,13,11,13,11,13,35,11,13,11,13,11,13,11,13,11,13,11,13,11,13,11,13,11,13,11,13,
13,11,13,11,13,11,13,11,13,11,13,11,13,11,13,11,13,13,11,2465,2449,2473,11,33,13,11,13,11,13,11,13,11,13,11,13,11,13,11,13,11,13,11,13,11,35,13,11,13,11,13,11,13,11,13,11,13,11,13,11,13,11,13,11,13,11,
11,13,11,13,11,13,11,13,11,13,11,13,25,26,26,26,26,26,27,2465,2449,2473,25,28,11,13,11,13,11,13,14,14,10,14,11,13,11,13,11,13,11,13,11,13,35,11,13,11,13,11,13,11,13,11,13,11,13,11,13,11,13,11,13,11,13,
13,11,13,11,13,11,13,11,13,11,13,11,33,11,13,13,13,13,11,2465,2449,2473,13,11,13,11,13,11,13,11,10,10,10,11,13,13,13,11,13,11,13,11,13,11,35,13,11,13,11,13,11,13,11,13,11,13,11,13,11,13,11,13,11,13,11,
11,13,11,13,11,13,11,13,11,13,11,13,33,13,1,1,11,11,13,2465,2449,2473,11,13,11,13,11,13,11,13,11,13,11,13,13,13,11,13,11,13,11,13,11,13,35,11,13,11,13,11,13,11,13,11,13,11,13,11,13,11,13,11,13,11,13,
13,11,13,11,13,11,13,11,13,11,13,11,33,11,1,1,11,13,11,2465,2449,2473,13,11,13,11,13,11,13,11,13,11,13,11,13,11,13,11,13,11,13,11,13,11,35,13,11,13,11,13,11,13,11,13,11,13,11,13,11,13,11,13,11,13,11,
11,13,11,13,11,13,11,13,11,13,11,13,33,13,11,11,11,11,13,2465,2449,2473,11,13,13,13,11,13,11,13,11,13,11,13,11,13,11,13,11,13,11,13,11,13,35,11,13,11,13,11,13,11,13,11,13,11,13,11,13,11,13,11,13,11,13,
13,11,13,11,13,11,13,11,13,11,13,11,33,11,13,11,11,13,11,2465,2449,2473,13,11,13,11,13,11,13,11,13,11,13,11,13,11,13,11,13,11,13,11,13,11,35,13,11,13,11,13,11,13,11,13,11,13,11,13,11,13,11,13,11,13,11,
11,13,11,13,11,13,11,13,11,13,11,13,33,13,11,11,11,11,13,2465,2449,2473,11,13,11,13,11,13,11,13,11,13,11,13,11,13,11,13,11,13,11,13,11,13,35,11,13,11,13,11,13,11,13,11,13,11,13,11,13,11,13,11,13,11,13,
13,11,13,11,13,11,13,11,13,11,13,11,33,11,11,13,11,13,11,2465,2449,2473,13,11,13,11,13,11,13,11,13,11,13,11,13,11,1,1,1,11,13,11,13,11,35,13,11,13,11,13,11,13,11,13,11,13,11,13,11,13,11,13,11,13,11,
11,13,11,13,11,13,11,13,11,13,11,13,33,13,13,11,11,11,11,2465,2449,2473,11,13,11,13,11,13,11,13,11,13,11,13,11,13,1,1,1,1,11,13,11,13,35,11,13,11,13,11,13,11,13,11,13,11,13,11,13,11,13,11,13,11,13,
13,11,13,11,13,11,13,11,13,11,13,11,28,11,13,11,13,11,11,2465,2449,2473,13,13,13,11,13,11,13,11,13,11,13,13,13,11,13,1,1,1,1,11,13,11,35,13,11,13,11,13,11,13,11,13,11,13,11,13,11,13,11,13,11,13,11,
11,13,11,13,11,13,11,13,11,13,11,13,23,13,13,13,11,13,1,2465,2449,2473,11,13,11,13,11,13,11,13,11,13,11,11,13,13,11,1,1,1,1,13,11,13,35,11,13,11,13,11,13,11,13,11,13,11,13,11,13,11,13,11,13,11,13,
13,11,13,11,13,11,13,11,13,11,13,11,59,11,13,11,11,1,1,2465,2449,2473,13,11,13,11,13,11,13,14,1,1,13,13,11,11,13,11,13,1,1,11,13,11,35,13,11,13,11,13,11,13,11,13,11,13,11,13,11,13,11,13,11,13,11,
11,13,11,13,11,13,11,13,11,13,11,13,59,13,11,13,13,1,1,2465,2449,2473,11,13,11,13,11,13,11,13,1,1,11,11,11,13,11,13,11,1,1,13,11,13,35,11,13,11,13,11,13,11,13,11,13,11,13,11,13,11,13,11,13,11,13,
13,11,13,11,13,11,13,11,13,11,13,11,59,11,13,11,1,1,1,2465,2449,2473,13,11,13,11,13,11,13,11,11,11,11,11,13,11,13,1,1,1,1,11,13,11,35,13,11,13,11,13,11,13,11,13,11,13,11,13,11,13,11,13,11,13,11,
11,13,11,13,11,13,11,13,11,13,11,13,59,13,11,13,1,1,1,2465,2449,2473,11,13,11,13,11,13,11,11,11,13,13,11,11,13,11,1,1,1,1,13,11,13,35,11,13,11,13,11,13,11,13,11,13,11,13,11,13,11,13,11,13,11,13,
13,11,13,11,13,11,13,11,13,11,13,11,59,11,13,11,13,13,13,2465,2449,2473,13,11,13,11,13,11,13,1,1,11,11,11,13,11,13,11,13,11,13,11,13,11,35,13,11,13,11,13,11,13,11,13,11,13,11,13,11,13,11,13,11,13,11,
11,13,11,13,11,13,11,13,11,13,11,13,59,13,11,13,13,13,11,2465,2449,2473,11,13,11,13,11,13,11,1,1,11,11,11,11,13,11,13,11,13,11,13,11,13,35,11,13,11,13,11,13,11,13,11,13,11,13,11,13,11,13,11,13,11,13,
13,11,13,11,13,11,13,11,13,11,13,11,59,11,13,11,13,11,13,2465,2449,2473,13,11,13,11,13,11,13,11,13,11,13,13,11,11,13,11,13,11,13,11,13,11,35,13,11,13,11,13,11,13,11,13,11,13,11,13,11,13,11,13,11,13,11,
11,13,11,13,11,13,11,13,11,13,11,13,59,13,11,13,11,13,11,2465,2449,2473,11,13,11,13,11,13,11,13,11,13,11,1,1,13,13,13,11,13,11,13,11,13,35,11,13,11,13,11,13,11,13,11,13,11,13,11,13,11,13,11,13,11,13,
13,11,13,11,13,11,13,11,13,11,13,11,59,11,13,11,13,11,13,2465,2449,2473,13,11,13,11,13,11,13,11,13,11,13,1,1,14,13,11,13,11,13,11,13,11,35,13,11,13,11,13,11,13,11,13,11,13,11,13,11,13,11,13,11,13,11,
11,13,11,13,11,13,11,13,11,13,11,13,59,13,11,13,11,13,11,2465,2449,2473,11,13,11,13,11,13,11,13,11,13,11,1,1,14,11,13,11,13,11,13,11,13,35,11,13,11,13,11,13,11,13,11,13,11,13,11,13,11,13,11,13,11,13,
13,11,13,11,13,11,13,11,13,11,13,11,59,11,13,11,13,11,13,2465,2449,2473,13,1,1,11,13,11,13,11,13,11,13,11,14,14,13,11,13,11,13,11,13,11,35,13,11,13,11,13,11,13,11,13,11,13,11,13,11,13,11,13,11,13,11,
11,13,11,13,11,13,11,13,11,13,11,13,59,13,11,13,11,13,11,2465,2449,2473,11,1,1,13,11,13,11,13,11,13,11,13,14,14,11,13,11,13,11,13,11,13,35,11,13,11,13,11,13,11,13,11,13,11,13,11,13,11,13,11,13,11,13,
13,11,13,11,13,11,13,11,13,11,13,11,59,11,13,11,13,11,13,2465,2449,2473,13,1,1,1,1,11,13,11,13,11,13,14,13,2483,2485,11,13,11,13,11,13,11,35,13,11,13,11,13,11,13,11,13,11,13,11,13,11,13,11,13,11,13,11,
11,13,11,13,11,13,11,13,11,13,11,13,59,13,11,13,11,13,11,2465,2449,2473,11,1,1,1,1,13,11,13,11,13,11,13,13,2465,2473,13,11,13,11,13,11,13,35,11,13,11,13,11,13,11,13,11,13,11,13,11,13,11,13,11,13,11,13,
13,11,13,11,13,11,13,11,13,11,13,11,59,11,13,11,13,11,13,2465,2449,2473,13,11,13,11,13,11,13,11,2483,2469,2469,2469,2469,2450,2473,11,13,11,13,11,13,11,35,13,11,13,11,13,11,13,11,13,11,13,11,13,11,13,11,13,11,13,11,
11,13,11,13,11,13,11,13,11,13,11,13,59,13,11,13,11,13,11,2465,2449,2473,11,13,11,13,11,13,11,13,2465,2449,2449,2449,2449,2449,2473,13,11,13,11,13,11,13,35,11,13,11,13,11,13,11,13,11,13,11,13,11,13,11,13,11,13,11,13,
13,11,13,11,13,11,13,11,13,11,13,11,59,11,13,11,13,11,13,2465,2449,2473,13,11,13,11,13,11,13,11,2465,2449,2453,2477,2477,2477,2487,11,13,11,13,11,13,11,35,13,11,13,11,13,11,13,11,13,11,13,11,13,11,13,11,13,11,13,11,
11,13,11,13,11,13,11,13,11,13,11,13,59,13,11,13,2483,2469,2469,2450,2449,2451,2469,2469,2469,2469,2469,2469,2469,2469,2450,2449,2473,1,1,1,1,1,1,13,11,13,11,13,35,11,13,11,13,11,13,11,13,11,13,11,13,11,13,11,13,11,13,11,13,
13,11,13,11,13,11,13,11,13,11,13,11,59,11,13,11,2465,2449,2449,2449,2449,2449,2449,2449,2449,2449,2449,2449,2449,2449,2449,2449,2473,1,1,1,1,1,1,11,13,11,13,11,35,13,11,13,11,13,11,13,11,13,11,13,11,13,11,13,11,13,11,13,11,
11,13,11,13,11,13,11,13,11,13,11,13,59,13,11,13,2465,2449,2453,2477,2477,2477,2477,2477,2477,2477,2477,2477,2477,2477,2477,2477,2487,1,1,1,1,1,1,13,11,13,11,13,35,11,13,11,13,11,13,11,13,11,13,11,13,11,13,11,13,11,13,11,13,
13,11,13,11,13,11,13,11,13,11,13,11,59,11,13,11,2465,2449,2473,11,13,13,13,11,13,13,13,1,1,1,1,13,11,1,1,11,13,11,13,11,13,11,13,11,29,26,26,26,26,26,26,26,26,26,26,26,26,26,26,26,26,26,26,26,26,
11,13,11,13,11,13,11,13,11,13,11,13,59,13,11,13,2465,2449,2473,11,13,13,13,11,13,13,13,1,1,1,1,11,11,1,1,13,11,13,11,13,11,13,11,58,11,13,11,13,11,13,11,13,11,13,11,13,11,13,11,13,11,13,11,13,11,
13,11,13,11,13,11,13,11,13,11,13,11,59,11,13,11,2465,2449,2473,11,13,13,13,11,13,13,13,13,11,13,13,11,13,1,1,11,13,11,13,11,13,11,58,11,13,11,13,11,13,11,13,11,13,11,13,11,13,11,13,11,13,11,13,11,13,
11,13,11,13,11,13,11,13,11,13,11,13,59,13,11,13,2465,2449,2473,11,13,13,11,11,11,11,298,13,11,13,13,11,11,1,1,13,11,13,11,13,11,13,11,13,11,13,11,13,11,13,11,13,11,13,11,13,11,13,11,13,11,13,11,13,11,
13,11,13,11,13,11,13,11,13,11,13,11,59,11,13,11,2465,2449,2473,11,11,11,11,11,11,11,11,13,11,13,13,13,11,2531,2517,2517,2533,11,13,11,13,11,13,11,13,11,13,11,13,11,13,11,13,11,13,11,13,11,13,11,13,11,13,11,13,
11,13,11,13,11,13,11,13,11,13,11,13,59,13,11,13,2465,2449,2473,11,13,13,11,11,11,11,11,13,11,13,13,11,11,2513,2497,2497,2521,13,11,13,11,13,11,13,11,13,11,13,11,13,11,13,11,13,11,13,11,13,11,13,11,13,11,13,11,
13,11,13,11,13,11,13,11,13,11,13,11,59,11,13,11,2465,2449,2451,2469,2469,2469,2469,2469,2469,2469,2469,2469,2469,2485,13,11,14,2513,2497,2497,2521,11,13,11,13,11,13,11,13,11,13,11,13,11,13,11,13,11,13,11,13,11,13,11,13,11,13,11,13,
11,13,11,13,11,13,11,13,11,13,11,13,59,13,11,13,2465,2449,2449,2449,2449,2449,2449,2449,2449,2449,2449,2449,2449,2473,11,13,11,2513,2497,2497,2521,13,11,13,11,13,11,13,11,13,11,13,11,13,11,13,11,13,11,13,11,13,11,13,11,13,11,13,11,
13,11,13,11,13,11,13,11,13,11,13,11,59,11,13,11,2489,2477,2477,2477,2477,2477,2477,2477,2477,2477,2477,2457,2449,2473,13,11,13,2513,2497,2497,2521,11,13,11,13,11,13,11,13,11,13,11,13,11,13,11,13,11,13,11,13,11,13,11,13,11,13,11,13,
11,13,11,13,11,13,11,13,11,13,11,13,59,13,11,13,11,13,11,13,11,13,11,13,11,13,11,2465,2449,2473,11,13,11,2513,2497,2497,2521,13,11,13,11,13,11,13,11,13,11,13,11,13,11,13,11,13,11,13,11,13,11,13,11,13,11,13,11,
13,11,13,11,13,11,13,11,13,11,13,11,59,11,13,11,13,11,13,11,13,11,13,14,13,11,13,2465,2449,2473,13,11,13,2537,2525,2525,2535,11,13,11,13,11,13,11,13,11,13,11,13,11,13,11,13,11,13,11,13,11,13,11,13,11,13,11,13,
11,13,11,13,11,13,11,13,11,13,11,13,59,13,11,13,11,13,11,13,11,13,11,14,11,13,13,2465,2449,2473,11,13,11,13,11,13,11,13,11,13,11,13,11,13,11,13,11,13,11,13,11,13,11,13,11,13,11,13,11,13,11,13,11,13,11,
13,11,13,11,13,11,13,11,13,11,13,11,45,11,13,11,13,11,13,11,13,11,2483,2469,2469,2469,2469,2450,2449,2473,13,11,13,11,13,11,13,11,13,11,13,11,13,11,13,11,13,11,13,11,13,11,13,11,13,11,13,11,13,11,13,11,13,11,13,
11,13,11,13,11,13,11,13,11,13,11,41,42,42,42,42,42,42,42,36,11,27,2465,2449,2449,2449,2449,2449,2449,2473,25,26,26,26,26,26,26,26,26,26,26,26,26,26,26,26,27,11,11,11,11,11,11,11,11,11,11,11,11,11,11,11,11,11,11,
13,11,13,11,13,11,13,11,13,11,13,11,13,11,13,11,13,11,13,11,13,11,2465,2449,2453,2477,2477,2477,2477,2487,13,11,13,11,13,11,13,11,13,11,13,11,13,11,13,11,35,11,13,11,13,11,13,11,13,11,13,11,13,11,13,11,13,11,13,
11,13,11,13,11,13,11,13,11,13,11,13,11,13,11,13,11,13,11,13,11,13,2465,2449,2473,13,11,13,11,13,11,13,11,13,11,13,11,13,11,13,11,13,11,13,11,13,11,13,11,13,11,13,11,13,11,13,11,13,11,13,11,13,11,13,11,
13,11,13,11,13,11,13,11,13,11,13,11,13,11,13,11,13,11,13,11,13,11,2465,2449,2473,11,13,11,13,11,11,1,1,11,13,11,13,11,13,11,13,11,13,11,13,11,13,11,13,11,13,11,13,11,13,11,13,11,13,11,13,11,13,11,13,
11,13,11,13,11,13,11,13,11,13,11,13,11,13,11,13,11,13,11,13,11,13,2465,2449,2473,11,13,11,11,11,13,1,1,13,11,13,11,13,11,13,11,13,11,13,11,13,11,13,11,13,11,13,11,13,11,13,11,13,11,13,11,13,11,13,11,
13,11,13,11,13,11,13,11,13,11,13,11,13,11,13,11,13,11,13,11,13,11,2465,2449,2473,1,1,1,1,1,1,1,1,11,13,11,13,11,13,11,13,11,13,11,13,11,58,11,13,11,13,11,13,11,13,11,13,11,13,11,13,11,13,11,13,
11,13,11,13,11,13,11,13,11,13,11,13,11,13,11,13,11,13,11,13,11,13,2465,2449,2473,1,1,1,1,1,1,1,1,13,11,13,11,13,13,13,13,13,13,13,13,13,13,13,13,13,11,13,11,13,11,13,11,13,11,13,11,13,11,13,11,
13,11,13,11,13,11,13,11,13,11,13,11,13,11,13,11,13,11,13,11,13,11,2465,2449,2473,11,13,11,13,11,13,11,13,11,13,11,13,2531,2517,2517,2517,2517,2517,2517,2517,2517,2517,2517,2533,11,13,11,13,11,13,11,13,11,13,11,13,11,13,11,13,
11,13,11,13,11,13,11,13,11,13,11,13,11,13,11,13,11,13,11,13,11,13,2465,2449,2473,13,11,13,11,13,11,13,11,13,11,13,11,2513,2497,2497,2497,2497,2497,2497,2497,2497,2497,2497,2521,13,11,13,11,13,11,13,11,13,11,13,11,13,11,13,11,
13,11,13,11,13,11,13,11,13,11,13,11,13,11,13,11,13,11,13,11,13,11,2465,2449,2473,11,13,11,13,11,13,11,13,11,13,11,13,2513,2497,2497,2497,2497,2497,2497,2497,2497,2497,2497,2521,11,13,11,13,11,13,11,13,11,13,11,13,11,13,11,13,
11,13,11,13,11,13,11,13,11,13,11,13,11,13,11,13,11,13,11,13,11,13,2465,2449,2473,13,11,13,11,13,11,13,11,13,11,13,11,2537,2525,2525,2525,2525,2525,2525,2525,2505,2497,2497,2521,13,11,13,11,13,11,13,11,13,11,13,11,13,11,13,11,
13,11,13,11,13,11,13,11,13,11,13,11,13,11,13,11,13,11,13,11,13,11,2465,2449,2473,11,13,11,13,11,13,11,13,11,13,11,13,11,13,11,13,11,13,11,13,2513,2497,2497,2521,11,13,11,13,11,13,11,13,11,13,11,13,11,13,11,13
  </data>
 </layer>
 <layer id="2" name="middle" width="65" height="61">
  <data encoding="csv">
0,0,0,0,0,0,0,0,0,0,0,0,57,57,0,0,0,0,0,0,0,0,0,0,0,0,0,0,0,0,0,0,0,0,0,0,0,0,0,0,0,0,0,0,0,0,0,0,0,0,0,0,0,0,0,0,0,0,0,0,0,0,0,0,0,
0,0,0,0,0,0,0,0,0,0,0,0,57,57,299,300,299,300,0,0,0,0,0,0,0,299,300,299,300,299,300,299,300,299,300,299,300,299,300,299,300,299,300,299,300,0,0,0,0,0,0,0,0,0,0,0,0,0,0,0,0,0,0,0,0,
0,0,0,0,0,0,0,0,0,0,0,0,0,65,66,66,66,66,66,66,66,66,66,66,66,66,66,66,66,66,66,66,66,66,66,66,66,66,66,66,66,66,66,24,0,0,0,0,0,0,0,0,0,0,0,0,0,0,0,0,0,0,0,0,0,
0,0,0,0,0,0,0,0,0,0,0,0,65,66,66,66,66,66,0,66,66,66,66,66,66,66,66,66,66,66,66,66,66,66,66,66,66,66,66,66,66,66,24,57,0,0,0,0,0,0,0,0,0,0,0,0,0,0,0,0,0,0,0,0,0,
0,0,0,0,0,0,0,0,0,0,0,0,0,0,0,0,0,0,0,0,0,0,0,0,23,66,66,66,66,66,66,66,66,66,66,66,66,66,66,66,66,24,57,57,0,0,0,0,0,0,0,0,0,0,0,0,0,0,0,0,0,0,0,0,0,
0,0,0,0,0,0,0,0,0,0,0,0,299,300,299,300,299,300,0,0,0,0,0,0,59,0,0,0,0,0,0,0,0,0,1017,1018,1019,1020,735,0,0,57,57,57,0,0,0,0,0,0,0,0,0,0,0,0,0,0,0,0,0,0,0,0,0,
0,0,0,0,0,0,0,0,0,0,0,0,0,23,66,66,66,66,66,0,0,0,66,66,67,0,0,0,0,0,0,0,0,0,1025,1026,1027,1028,736,0,0,57,57,57,0,0,0,0,0,0,0,0,0,0,0,0,0,0,0,0,0,0,0,0,0,
0,0,0,0,0,0,0,0,0,0,299,300,0,59,0,0,0,0,0,0,0,0,0,0,0,0,0,0,0,0,0,254,0,0,742,743,743,743,744,0,0,57,57,57,0,0,0,0,0,0,0,0,0,0,0,0,0,0,0,0,0,0,0,0,0,
0,0,0,0,0,0,0,0,0,0,0,0,0,59,0,0,0,0,0,0,0,0,0,0,0,0,0,0,0,0,0,0,0,0,0,0,0,0,0,0,0,57,57,57,0,0,0,0,0,0,0,0,0,0,0,0,0,0,0,0,0,0,0,0,0,
0,0,0,0,0,0,0,0,0,0,0,0,0,59,0,0,0,0,0,0,0,0,0,0,0,0,0,0,0,0,0,0,0,0,0,0,0,0,0,0,0,57,57,57,0,0,0,0,0,0,0,0,0,0,0,0,0,0,0,0,0,0,0,0,0,
0,0,0,0,0,0,0,0,0,0,0,0,0,59,0,0,0,0,0,0,0,0,0,0,0,0,0,0,0,0,0,0,0,0,0,0,0,0,0,0,0,57,57,57,0,0,0,0,0,0,0,0,0,0,0,0,0,0,0,0,0,0,0,0,0,
0,0,0,0,0,0,0,0,0,0,0,0,0,59,0,0,21,19,19,19,19,19,22,0,0,0,0,0,0,0,0,0,0,0,0,0,0,0,0,0,0,57,57,57,0,0,0,0,0,0,0,0,0,0,0,0,0,0,0,0,0,0,0,0,0,
0,0,0,0,0,0,0,0,0,0,0,0,0,59,0,0,0,0,0,0,0,0,0,0,0,0,0,0,0,0,0,0,0,0,0,0,0,0,0,299,300,57,57,57,0,0,0,0,0,0,0,0,0,0,0,0,0,0,0,0,0,0,0,0,0,
0,0,0,0,0,0,0,0,0,0,0,0,0,59,0,0,0,0,0,0,0,0,0,299,300,0,0,0,0,0,0,0,0,0,0,0,0,0,0,0,0,57,57,57,0,0,0,0,0,0,0,0,0,0,0,0,0,0,0,0,0,0,0,0,0,
0,0,0,0,0,0,0,0,0,0,0,0,0,59,0,0,0,0,0,0,0,0,0,0,0,0,0,0,0,0,0,0,0,0,0,0,0,0,0,0,0,57,57,57,0,0,0,0,0,0,0,0,0,0,0,0,0,0,0,0,0,0,0,0,0,
0,0,0,0,0,0,0,0,0,0,0,0,0,67,0,0,0,0,0,0,0,0,0,0,0,0,0,0,0,299,300,299,300,0,0,0,0,0,0,0,0,57,57,57,0,0,0,0,0,0,0,0,0,0,0,0,0,0,0,0,0,0,0,0,0,
0,0,0,0,0,0,0,0,0,0,0,0,0,0,0,0,0,0,0,0,0,0,0,0,0,0,0,0,0,0,0,0,0,0,0,0,0,0,0,0,0,57,57,57,0,0,0,0,0,0,0,0,0,0,0,0,0,0,0,0,0,0,0,0,0,
0,0,0,0,0,0,0,0,0,0,0,0,0,0,0,0,0,0,0,21,19,19,19,19,22,0,0,0,0,0,0,0,0,0,0,0,0,299,300,0,0,57,57,57,0,0,0,0,0,0,0,0,0,0,0,0,0,0,0,0,0,0,0,0,0,
0,0,0,0,0,0,0,0,0,0,0,0,0,0,0,0,0,0,0,0,0,0,0,0,0,0,0,0,0,0,0,0,0,0,0,0,0,0,0,0,0,57,57,57,0,0,0,0,0,0,0,0,0,0,0,0,0,0,0,0,0,0,0,0,0,
0,0,0,0,0,0,0,0,0,0,0,0,0,0,0,0,0,0,0,0,0,0,0,0,0,0,0,0,0,0,0,0,0,0,0,299,300,0,0,0,0,57,57,57,0,0,0,0,0,0,0,0,0,0,0,0,0,0,0,0,0,0,0,0,0,
0,0,0,0,0,0,0,0,0,0,0,0,0,0,0,0,0,0,0,0,0,0,0,0,0,0,0,0,0,0,0,0,0,0,0,0,0,0,0,0,0,57,57,57,0,0,0,0,0,0,0,0,0,0,0,0,0,0,0,0,0,0,0,0,0,
0,0,0,0,0,0,0,0,0,0,0,0,0,0,0,0,0,0,2,0,0,0,0,0,0,0,0,0,0,0,0,0,0,299,300,0,0,0,0,0,0,57,57,57,0,0,0,0,0,0,0,0,0,0,0,0,0,0,0,0,0,0,0,0,0,
0,0,0,0,0,0,0,0,0,0,0,0,0,0,0,0,0,0,0,0,0,0,0,0,0,0,0,0,0,0,0,0,0,0,0,0,0,0,0,0,0,57,57,57,0,0,0,0,0,0,0,0,0,0,0,0,0,0,0,0,0,0,0,0,0,
0,0,0,0,0,0,0,0,0,0,0,0,0,0,0,0,0,0,0,0,0,0,0,0,0,0,0,0,0,0,0,0,0,0,0,0,0,0,0,0,0,57,57,57,0,0,0,0,0,0,0,0,0,0,0,0,0,0,0,0,0,0,0,0,0,
0,0,0,0,0,0,0,0,0,0,0,0,0,0,0,0,0,0,0,0,0,0,0,0,0,0,0,0,0,0,0,0,0,0,0,0,0,0,0,0,0,57,57,57,0,0,0,0,0,0,0,0,0,0,0,0,0,0,0,0,0,0,0,0,0,
0,0,0,0,0,0,0,0,0,0,0,0,0,0,0,19,19,19,19,19,22,0,0,299,300,0,0,0,0,0,0,0,0,0,0,0,0,0,0,0,0,57,57,57,0,0,0,0,0,0,0,0,0,0,0,0,0,0,0,0,0,0,0,0,0,
0,0,0,0,0,0,0,0,0,0,0,0,0,0,0,0,0,0,0,0,0,0,0,0,0,0,0,0,0,0,0,0,0,0,0,0,0,0,0,0,0,57,57,57,0,0,0,0,0,0,0,0,0,0,0,0,0,0,0,0,0,0,0,0,0,
0,0,0,0,0,0,0,0,0,0,0,0,0,0,0,0,0,0,0,0,0,0,0,0,0,299,300,0,0,0,0,0,0,299,300,0,0,0,0,0,0,57,57,57,0,0,0,0,0,0,0,0,0,0,0,0,0,0,0,0,0,0,0,0,0,
0,0,0,0,0,0,0,0,0,0,0,0,0,0,0,0,0,0,0,0,0,0,0,0,0,0,0,0,0,0,0,0,0,0,0,0,0,0,0,0,0,57,57,57,0,0,0,0,0,0,0,0,0,0,0,0,0,0,0,0,0,0,0,0,0,
0,0,0,0,0,0,0,0,0,0,0,0,0,0,0,0,0,0,0,0,0,0,0,0,0,0,0,299,300,299,300,299,300,0,0,0,0,0,0,0,0,57,57,57,0,0,0,0,0,0,0,0,0,0,0,0,0,0,0,0,0,0,0,0,0,
0,0,0,0,0,0,0,0,0,0,0,0,0,0,0,0,0,0,0,0,0,0,0,0,0,0,0,0,0,0,0,0,0,0,0,0,0,0,0,0,0,57,57,57,0,0,0,0,0,0,0,0,0,0,0,0,0,0,0,0,0,0,0,0,0,
0,0,0,0,0,0,0,0,0,0,0,0,0,0,0,0,0,0,0,0,0,0,0,0,0,0,0,0,0,0,0,0,0,0,0,0,0,299,300,0,0,57,57,57,0,0,0,0,0,0,0,0,0,0,0,0,0,0,0,0,0,0,0,0,0,
0,0,0,0,0,0,0,0,0,0,0,0,0,0,0,0,0,0,0,0,0,0,0,0,0,0,0,0,0,0,0,0,0,0,0,0,0,0,0,0,0,57,57,57,0,0,0,0,0,0,0,0,0,0,0,0,0,0,0,0,0,0,0,0,0,
0,0,0,0,0,0,0,0,0,0,0,0,0,0,0,0,0,0,0,0,0,0,0,0,0,0,0,0,0,0,0,0,0,0,0,0,0,0,0,0,0,57,57,57,0,0,0,0,0,0,0,0,0,0,0,0,0,0,0,0,0,0,0,0,0,
0,0,0,0,0,0,0,0,0,0,0,0,0,0,0,0,0,0,0,0,0,0,0,0,0,0,0,0,0,0,0,0,0,0,0,0,0,0,0,0,0,57,57,57,0,0,0,0,0,0,0,0,0,0,0,0,0,0,0,0,0,0,0,0,0,
0,0,0,0,0,0,0,0,0,0,0,0,0,0,0,0,0,0,0,0,0,0,0,0,0,0,0,0,0,0,0,0,0,0,0,0,0,0,0,0,0,57,57,57,0,299,300,299,300,299,300,299,300,299,300,299,300,299,300,299,300,299,300,299,300,
0,0,0,0,0,0,0,0,0,0,0,0,0,0,0,0,0,0,0,0,0,0,0,0,0,0,0,0,0,0,0,0,0,0,0,0,0,0,0,0,0,57,57,57,0,0,0,0,0,0,0,0,0,0,0,0,0,0,0,0,0,0,0,0,0,
0,0,0,0,0,0,0,0,0,0,0,0,0,0,0,0,0,0,0,0,0,0,0,0,0,0,0,0,0,0,0,0,0,0,0,0,0,0,0,0,0,57,57,65,66,66,66,66,66,66,66,66,66,66,66,66,66,66,66,66,66,66,66,66,66,
0,0,0,0,0,0,0,0,0,0,0,0,0,0,0,0,0,0,0,0,0,0,0,0,0,0,0,0,0,0,0,0,0,0,0,0,0,0,0,0,0,57,65,66,66,66,66,66,66,66,66,66,66,66,66,66,66,66,66,66,66,66,66,66,66,
0,0,0,0,0,0,0,0,0,0,0,0,0,0,0,21,19,19,22,299,300,299,300,299,300,299,0,0,0,0,0,0,0,0,0,299,300,0,0,0,0,65,66,66,66,66,66,66,66,66,66,66,66,66,66,66,66,66,66,66,66,66,66,66,66,
0,0,0,0,0,0,0,0,0,0,0,0,0,0,0,0,0,0,0,0,0,0,0,0,0,0,0,0,0,0,0,0,0,0,0,0,0,0,0,0,0,0,0,0,0,0,0,0,0,0,0,0,0,0,0,0,0,0,0,0,0,0,0,0,0,
0,0,0,0,0,0,0,0,0,0,0,0,0,0,0,0,0,0,0,0,254,0,0,0,0,0,736,299,300,299,300,0,0,0,0,0,0,0,0,0,0,0,0,0,0,0,0,0,0,0,0,0,0,0,0,0,0,0,0,0,0,0,0,0,0,
0,0,0,0,0,0,0,0,0,0,0,0,0,0,0,0,0,0,0,0,0,0,742,743,743,743,744,0,0,0,0,0,0,0,0,0,0,0,0,0,0,0,0,0,0,0,0,0,0,0,0,0,0,0,0,0,0,0,0,0,0,0,0,0,0,
0,0,0,0,0,0,0,0,0,0,0,0,0,0,0,0,0,0,0,0,0,0,0,0,0,0,0,0,0,0,0,0,0,0,0,0,0,0,0,0,0,0,0,0,0,0,0,0,0,0,0,0,0,0,0,0,0,0,0,0,0,0,0,0,0,
0,0,0,0,0,0,0,0,0,0,0,0,0,0,0,0,0,0,0,0,0,0,0,0,0,0,0,0,0,0,0,0,0,0,0,0,0,0,0,0,0,0,0,0,0,0,0,0,0,0,0,0,0,0,0,0,0,0,0,0,0,0,0,0,0,
0,0,0,0,0,0,0,0,0,0,0,0,0,0,0,0,0,0,0,0,0,0,0,0,0,0,0,0,0,0,0,0,0,0,0,0,0,0,0,0,0,0,0,0,0,0,0,0,0,0,0,0,0,0,0,0,0,0,0,0,0,0,0,0,0,
0,0,0,0,0,0,0,0,0,0,0,0,0,0,0,0,0,0,0,0,0,0,0,0,0,0,0,0,0,0,0,0,0,0,0,0,0,0,0,0,0,0,0,0,0,0,0,0,0,0,0,0,0,0,0,0,0,0,0,0,0,0,0,0,0,
0,0,0,0,0,0,0,0,0,0,0,0,0,299,300,299,300,299,300,0,0,0,0,0,0,0,0,0,0,0,0,0,0,0,0,0,0,0,0,0,0,0,0,0,0,0,0,0,0,0,0,0,0,0,0,0,0,0,0,0,0,0,0,0,0,
0,0,0,0,0,0,0,0,0,0,0,0,0,50,50,50,50,50,50,50,51,0,0,0,0,0,0,0,0,0,0,0,0,0,0,0,0,0,0,0,0,0,0,0,0,0,0,0,0,0,0,0,0,0,0,0,0,0,0,0,0,0,0,0,0,
0,0,0,0,0,0,0,0,0,0,0,0,0,0,0,0,0,0,0,0,59,0,0,0,0,0,0,0,0,0,0,0,0,299,300,299,300,299,300,299,300,299,300,299,300,299,300,299,300,299,300,299,300,299,300,299,300,299,300,299,300,299,300,299,300,
0,0,0,0,0,0,0,0,0,0,0,0,0,0,0,0,0,0,0,0,59,23,0,0,0,66,66,66,66,66,66,66,66,66,66,66,66,66,66,66,66,66,66,66,66,24,49,50,50,50,50,50,50,50,50,50,50,50,50,50,50,50,50,50,50,
0,0,0,0,0,0,0,0,0,0,0,0,0,0,0,0,0,0,0,0,59,59,0,0,0,0,0,0,0,0,0,0,0,0,0,0,0,0,0,0,0,0,0,0,0,57,57,58,58,58,58,58,58,58,58,58,58,58,58,58,58,58,58,58,58,
0,0,0,0,0,0,0,0,0,0,0,0,0,0,0,0,0,0,0,0,59,59,21,19,19,19,19,19,22,0,0,0,0,0,0,0,0,0,0,0,0,0,0,0,0,57,57,58,58,58,58,58,58,58,58,58,58,58,58,58,58,58,58,58,58,
0,0,0,0,0,0,0,0,0,0,0,0,0,0,0,0,0,0,0,0,59,59,0,0,0,0,0,0,0,0,0,0,0,0,0,0,0,0,0,0,0,0,0,0,0,57,57,58,58,58,58,58,58,58,58,58,58,58,58,58,58,58,58,58,58,
0,0,0,0,0,0,0,0,0,0,0,0,0,0,0,0,0,0,0,0,59,59,0,0,0,0,0,0,0,0,0,0,0,0,0,0,0,0,0,0,0,0,0,0,0,57,65,66,66,66,66,66,66,66,66,66,66,66,66,66,66,66,66,66,66,
0,0,0,0,0,0,0,0,0,0,0,0,0,0,0,0,0,0,0,0,59,59,0,0,0,0,0,0,0,0,0,0,0,0,0,0,0,299,300,299,300,0,0,299,300,65,66,66,66,66,66,66,66,66,66,66,66,66,66,66,66,66,66,66,66,
0,0,0,0,0,0,0,0,0,0,0,0,0,0,0,0,0,0,0,0,59,59,0,0,0,0,0,0,0,0,0,0,0,0,0,0,0,0,0,0,0,0,0,0,0,0,0,0,0,0,0,0,0,0,0,0,0,0,0,0,0,0,0,0,0,
0,0,0,0,0,0,0,0,0,0,0,0,0,0,0,0,0,0,0,0,59,59,0,0,0,0,0,0,0,0,0,0,0,0,0,0,0,0,0,0,0,0,0,0,0,0,0,0,0,0,0,0,0,0,0,0,0,0,0,0,0,0,0,0,0,
0,0,0,0,0,0,0,0,0,0,0,0,0,0,0,0,0,0,0,0,59,59,0,0,0,0,0,0,0,0,0,0,0,0,0,0,0,0,0,0,0,0,0,0,0,0,0,0,0,0,0,0,0,0,0,0,0,0,0,0,0,0,0,0,0,
0,0,0,0,0,0,0,0,0,0,0,0,0,0,0,0,0,0,0,0,59,59,0,0,0,0,0,0,0,0,0,0,0,299,300,299,300,0,0,0,0,0,0,0,0,0,0,0,0,0,0,0,0,0,0,0,0,0,0,0,0,0,0,0,0,
0,0,0,0,0,0,0,0,0,0,0,0,0,0,0,0,0,0,0,0,59,59,0,0,0,0,0,0,0,0,0,0,0,0,0,0,0,0,0,0,0,0,0,0,0,0,0,0,0,0,0,0,0,0,0,0,0,0,0,0,0,0,0,0,0
  </data>
 </layer>
 <layer id="3" name="upper" width="65" height="61">
  <data encoding="csv">
0,0,0,0,0,0,0,0,0,0,0,0,0,0,0,0,0,0,0,0,0,0,0,0,0,0,0,0,0,0,0,0,0,0,0,0,0,0,0,0,0,0,0,0,0,0,0,0,0,0,0,0,0,0,0,0,0,0,0,0,0,0,0,0,0,
0,0,0,0,0,0,0,0,0,0,0,0,0,0,0,0,0,0,0,0,0,0,0,0,0,0,0,0,0,0,0,0,0,0,0,0,0,0,0,0,0,0,0,0,0,0,0,0,0,0,0,0,0,0,0,0,0,0,0,0,0,0,0,0,0,
0,0,0,0,0,0,0,0,0,0,0,0,0,0,0,0,0,0,325,326,327,328,319,0,0,0,0,0,0,0,0,0,0,0,0,0,0,0,0,0,0,0,0,0,0,0,0,0,0,0,0,0,0,0,0,0,0,0,0,0,0,0,0,0,0,
0,0,0,0,0,0,0,0,0,0,0,0,0,0,0,0,0,0,325,326,327,328,319,0,0,0,0,0,0,0,0,0,0,0,0,0,0,0,0,0,0,0,0,0,0,0,0,0,0,0,0,0,0,0,0,0,0,0,0,0,0,0,0,0,0,
0,0,0,0,0,0,0,0,0,0,0,0,0,0,0,0,0,0,0,0,0,0,0,0,0,0,0,0,0,0,0,0,0,0,1009,1010,1011,1012,0,0,0,0,0,0,0,0,0,0,0,0,0,0,0,0,0,0,0,0,0,0,0,0,0,0,0,
0,0,0,0,0,0,0,0,0,0,0,0,0,0,0,0,0,0,0,0,0,0,0,0,0,0,0,0,0,0,0,0,0,0,0,0,0,0,0,0,0,0,0,0,0,0,0,0,0,0,0,0,0,0,0,0,0,0,0,0,0,0,0,0,0,
0,0,0,0,0,0,0,0,0,0,0,0,0,0,0,0,0,0,325,326,327,328,319,0,0,0,0,0,0,0,0,0,0,0,0,0,0,0,0,0,0,0,0,0,0,0,0,0,0,0,0,0,0,0,0,0,0,0,0,0,0,0,0,0,0,
0,0,0,0,0,0,0,0,0,0,0,0,0,0,0,0,0,0,0,0,0,0,0,0,0,0,0,0,0,0,0,0,0,0,0,0,0,0,0,0,0,0,0,0,0,0,0,0,0,0,0,0,0,0,0,0,0,0,0,0,0,0,0,0,0,
0,0,0,0,0,0,0,0,0,0,0,0,0,0,0,0,0,0,0,0,0,0,0,0,0,0,0,0,0,0,0,0,0,0,0,0,0,0,0,0,0,0,0,0,0,0,0,0,0,0,0,0,0,0,0,0,0,0,0,0,0,0,0,0,0,
0,0,0,0,0,0,0,0,0,0,0,0,0,0,0,0,0,0,0,0,0,0,0,0,0,0,0,0,0,0,0,0,0,0,0,0,0,0,0,0,0,0,0,0,0,0,0,0,0,0,0,0,0,0,0,0,0,0,0,0,0,0,0,0,0,
0,0,0,0,0,0,0,0,0,0,0,0,0,0,0,0,0,0,0,0,0,0,0,0,0,0,0,0,0,0,0,0,0,0,0,0,0,0,0,0,0,0,0,0,0,0,0,0,0,0,0,0,0,0,0,0,0,0,0,0,0,0,0,0,0,
0,0,0,0,0,0,0,0,0,0,0,0,0,0,0,0,0,0,0,0,0,0,0,0,0,0,0,0,0,0,0,0,0,0,0,0,0,0,0,0,0,0,0,0,0,0,0,0,0,0,0,0,0,0,0,0,0,0,0,0,0,0,0,0,0,
0,0,0,0,0,0,0,0,0,0,0,0,0,0,0,0,0,0,0,0,0,0,0,0,0,0,0,0,0,0,0,0,0,0,0,0,0,0,0,0,0,0,0,0,0,0,0,0,0,0,0,0,0,0,0,0,0,0,0,0,0,0,0,0,0,
0,0,0,0,0,0,0,0,0,0,0,0,0,0,0,0,0,0,0,0,0,0,0,0,0,0,0,0,0,0,0,0,0,0,0,0,0,0,0,0,0,0,0,0,0,0,0,0,0,0,0,0,0,0,0,0,0,0,0,0,0,0,0,0,0,
0,0,0,0,0,0,0,0,0,0,0,0,0,0,0,0,0,0,0,0,0,0,0,0,0,0,0,0,0,0,0,0,0,0,0,0,0,0,0,0,0,0,0,0,0,0,0,0,0,0,0,0,0,0,0,0,0,0,0,0,0,0,0,0,0,
0,0,0,0,0,0,0,0,0,0,0,0,0,0,0,0,0,0,0,0,0,0,0,0,0,0,0,0,0,0,0,0,0,0,0,0,0,0,0,0,0,0,0,0,0,0,0,0,0,0,0,0,0,0,0,0,0,0,0,0,0,0,0,0,0,
0,0,0,0,0,0,0,0,0,0,0,0,0,0,0,0,0,0,0,0,0,0,0,0,0,0,0,0,0,0,0,0,0,0,0,0,0,0,0,0,0,0,0,0,0,0,0,0,0,0,0,0,0,0,0,0,0,0,0,0,0,0,0,0,0,
0,0,0,0,0,0,0,0,0,0,0,0,0,0,0,0,0,0,0,0,0,0,0,0,0,0,0,0,0,0,0,0,0,0,0,0,0,0,0,0,0,0,0,0,0,0,0,0,0,0,0,0,0,0,0,0,0,0,0,0,0,0,0,0,0,
0,0,0,0,0,0,0,0,0,0,0,0,0,0,0,0,0,0,0,0,0,0,0,0,0,0,0,0,0,0,0,0,0,0,0,0,0,0,0,0,0,0,0,0,0,0,0,0,0,0,0,0,0,0,0,0,0,0,0,0,0,0,0,0,0,
0,0,0,0,0,0,0,0,0,0,0,0,0,0,0,0,0,0,0,0,0,0,0,0,0,0,0,0,0,0,0,0,0,0,0,0,0,0,0,0,0,0,0,0,0,0,0,0,0,0,0,0,0,0,0,0,0,0,0,0,0,0,0,0,0,
0,0,0,0,0,0,0,0,0,0,0,0,0,0,0,0,0,0,0,0,0,0,0,0,0,0,0,0,0,0,0,0,0,0,0,0,0,0,0,0,0,0,0,0,0,0,0,0,0,0,0,0,0,0,0,0,0,0,0,0,0,0,0,0,0,
0,0,0,0,0,0,0,0,0,0,0,0,0,0,0,0,0,0,0,0,0,0,0,0,0,0,0,0,0,0,0,0,0,0,0,0,0,0,0,0,0,0,0,0,0,0,0,0,0,0,0,0,0,0,0,0,0,0,0,0,0,0,0,0,0,
0,0,0,0,0,0,0,0,0,0,0,0,0,0,0,0,0,0,0,0,0,0,0,0,0,0,0,0,0,0,0,0,0,0,0,0,0,0,0,0,0,0,0,0,0,0,0,0,0,0,0,0,0,0,0,0,0,0,0,0,0,0,0,0,0,
0,0,0,0,0,0,0,0,0,0,0,0,0,0,0,0,0,0,0,0,0,0,0,0,0,0,0,0,0,0,0,0,0,0,0,0,0,0,0,0,0,0,0,0,0,0,0,0,0,0,0,0,0,0,0,0,0,0,0,0,0,0,0,0,0,
0,0,0,0,0,0,0,0,0,0,0,0,0,0,0,0,0,0,0,0,0,0,0,0,0,0,0,0,0,0,0,0,0,0,0,0,0,0,0,0,0,0,0,0,0,0,0,0,0,0,0,0,0,0,0,0,0,0,0,0,0,0,0,0,0,
0,0,0,0,0,0,0,0,0,0,0,0,0,0,0,0,0,0,0,0,0,0,0,0,0,0,0,0,0,0,0,0,0,0,0,0,0,0,0,0,0,0,0,0,0,0,0,0,0,0,0,0,0,0,0,0,0,0,0,0,0,0,0,0,0,
0,0,0,0,0,0,0,0,0,0,0,0,0,0,0,0,0,0,0,0,0,0,0,0,0,0,0,0,0,0,0,0,0,0,0,0,0,0,0,0,0,0,0,0,0,0,0,0,0,0,0,0,0,0,0,0,0,0,0,0,0,0,0,0,0,
0,0,0,0,0,0,0,0,0,0,0,0,0,0,0,0,0,0,0,0,0,0,0,0,0,0,0,0,0,0,0,0,0,0,0,0,0,0,0,0,0,0,0,0,0,0,0,0,0,0,0,0,0,0,0,0,0,0,0,0,0,0,0,0,0,
0,0,0,0,0,0,0,0,0,0,0,0,0,0,0,0,0,0,0,0,0,0,0,0,0,0,0,0,0,0,0,0,0,0,0,0,0,0,0,0,0,0,0,0,0,0,0,0,0,0,0,0,0,0,0,0,0,0,0,0,0,0,0,0,0,
0,0,0,0,0,0,0,0,0,0,0,0,0,0,0,0,0,0,0,0,0,0,0,0,0,0,0,0,0,0,0,0,0,0,0,0,0,0,0,0,0,0,0,0,0,0,0,0,0,0,0,0,0,0,0,0,0,0,0,0,0,0,0,0,0,
0,0,0,0,0,0,0,0,0,0,0,0,0,0,0,0,0,0,0,0,0,0,0,0,0,0,0,0,0,0,0,0,0,0,0,0,0,0,0,0,0,0,0,0,0,0,0,0,0,0,0,0,0,0,0,0,0,0,0,0,0,0,0,0,0,
0,0,0,0,0,0,0,0,0,0,0,0,0,0,0,0,0,0,0,0,0,0,0,0,0,0,0,0,0,0,0,0,0,0,0,0,0,0,0,0,0,0,0,0,0,0,0,0,0,0,0,0,0,0,0,0,0,0,0,0,0,0,0,0,0,
0,0,0,0,0,0,0,0,0,0,0,0,0,0,0,0,0,0,0,0,0,0,0,0,0,0,0,0,0,0,0,0,0,0,0,0,0,0,0,0,0,0,0,0,0,0,0,0,0,0,0,0,0,0,0,0,0,0,0,0,0,0,0,0,0,
0,0,0,0,0,0,0,0,0,0,0,0,0,0,0,0,0,0,0,0,0,0,0,0,0,0,0,0,0,0,0,0,0,0,0,0,0,0,0,0,0,0,0,0,0,0,0,0,0,0,0,0,0,0,0,0,0,0,0,0,0,0,0,0,0,
0,0,0,0,0,0,0,0,0,0,0,0,0,0,0,0,0,0,0,0,0,0,0,0,0,0,0,0,0,0,0,0,0,0,0,0,0,0,0,0,0,0,0,0,0,0,0,0,0,0,0,0,0,0,0,0,0,0,0,0,0,0,0,0,0,
0,0,0,0,0,0,0,0,0,0,0,0,0,0,0,0,0,0,0,0,0,0,0,0,0,0,0,0,0,0,0,0,0,0,0,0,0,0,0,0,0,0,0,0,0,0,0,0,0,0,0,0,0,0,0,0,0,0,0,0,0,0,0,0,0,
0,0,0,0,0,0,0,0,0,0,0,0,0,0,0,0,0,0,0,0,0,0,0,0,0,0,0,0,0,0,0,0,0,0,0,0,0,0,0,0,0,0,0,0,0,0,0,0,0,0,0,0,0,0,0,0,0,0,0,0,0,0,0,0,0,
0,0,0,0,0,0,0,0,0,0,0,0,0,0,0,0,0,0,0,0,0,0,0,0,0,0,0,0,0,0,0,0,0,0,0,0,0,0,0,0,0,0,0,0,0,0,0,0,0,0,0,0,0,0,0,0,0,0,0,0,0,0,0,0,0,
0,0,0,0,0,0,0,0,0,0,0,0,0,0,0,0,0,0,0,0,0,0,0,0,0,0,0,0,0,0,0,0,0,0,0,0,0,0,0,0,0,0,0,0,0,0,0,0,0,0,0,0,0,0,0,0,0,0,0,0,0,0,0,0,0,
0,0,0,0,0,0,0,0,0,0,0,0,0,0,0,0,0,0,0,0,0,0,714,715,716,717,0,0,0,0,0,0,0,0,0,0,0,0,0,0,0,0,0,0,0,0,0,0,0,0,0,0,0,0,0,0,0,0,0,0,0,0,0,0,0,
0,0,0,0,0,0,0,0,0,0,0,0,0,0,0,0,0,0,0,0,0,0,722,723,724,725,0,0,0,0,0,0,0,0,0,0,0,0,0,0,0,0,0,0,0,0,0,0,0,0,0,0,0,0,0,0,0,0,0,0,0,0,0,0,0,
0,0,0,0,0,0,0,0,0,0,0,0,0,0,0,0,0,0,0,0,0,729,730,0,732,733,734,0,0,0,0,0,0,0,0,0,0,0,0,0,0,0,0,0,0,0,0,0,0,0,0,0,0,0,0,0,0,0,0,0,0,0,0,0,0,
0,0,0,0,0,0,0,0,0,0,0,0,0,0,0,0,0,0,0,0,0,0,0,0,0,0,0,0,0,0,0,0,0,0,0,0,0,0,0,0,0,0,0,0,0,0,0,0,0,0,0,0,0,0,0,0,0,0,0,0,0,0,0,0,0,
0,0,0,0,0,0,0,0,0,0,0,0,0,0,0,0,0,0,0,0,0,0,0,0,0,0,0,0,0,0,0,0,0,0,0,0,0,0,0,0,0,0,0,0,0,0,0,0,0,0,0,0,0,0,0,0,0,0,0,0,0,0,0,0,0,
0,0,0,0,0,0,0,0,0,0,0,0,0,0,0,0,0,0,0,0,0,0,0,0,0,0,0,0,0,0,0,0,0,0,0,0,0,0,0,0,0,0,0,0,0,0,0,0,0,0,0,0,0,0,0,0,0,0,0,0,0,0,0,0,0,
0,0,0,0,0,0,0,0,0,0,0,0,0,0,0,0,0,0,0,0,0,0,0,0,0,0,0,0,0,0,0,0,0,0,0,0,0,0,0,0,0,0,0,0,0,0,0,0,0,0,0,0,0,0,0,0,0,0,0,0,0,0,0,0,0,
0,0,0,0,0,0,0,0,0,0,0,0,0,0,0,0,0,0,0,0,0,0,0,0,0,0,0,0,0,0,0,0,0,0,0,0,0,0,0,0,0,0,0,0,0,0,0,0,0,0,0,0,0,0,0,0,0,0,0,0,0,0,0,0,0,
0,0,0,0,0,0,0,0,0,0,0,0,0,0,0,0,0,0,0,0,0,0,0,0,0,0,0,0,0,0,0,0,0,0,0,0,0,0,0,0,0,0,0,0,0,0,0,0,0,0,0,0,0,0,0,0,0,0,0,0,0,0,0,0,0,
0,0,0,0,0,0,0,0,0,0,0,0,0,0,0,0,0,0,0,0,0,0,0,0,0,0,0,0,0,0,0,0,0,0,0,0,0,0,0,0,0,0,0,0,0,0,0,0,0,0,0,0,0,0,0,0,0,0,0,0,0,0,0,0,0,
0,0,0,0,0,0,0,0,0,0,0,0,0,0,0,0,0,0,0,0,0,0,0,0,0,0,0,0,0,0,0,0,0,0,0,0,0,0,0,0,0,0,0,0,0,0,0,0,0,0,0,0,0,0,0,0,0,0,0,0,0,0,0,0,0,
0,0,0,0,0,0,0,0,0,0,0,0,0,0,0,0,0,0,0,0,0,325,326,327,328,319,0,0,0,0,0,0,0,0,0,0,0,0,0,0,0,0,0,0,0,0,0,0,0,0,0,0,0,0,0,0,0,0,0,0,0,0,0,0,0,
0,0,0,0,0,0,0,0,0,0,0,0,0,0,0,0,0,0,0,0,0,0,0,0,0,0,0,0,0,0,0,0,0,0,0,0,0,0,0,0,0,0,0,0,364,0,0,0,0,0,0,0,0,0,0,0,0,0,0,0,0,0,0,0,0,
0,0,0,0,0,0,0,0,0,0,0,0,0,0,0,0,0,0,0,0,0,0,0,0,0,0,0,0,0,0,0,0,0,0,0,0,0,0,0,0,0,0,0,0,0,0,0,0,0,0,0,0,0,0,0,0,0,0,0,0,0,0,0,0,0,
0,0,0,0,0,0,0,0,0,0,0,0,0,0,0,0,0,0,0,0,0,0,0,0,0,0,0,0,0,0,0,0,0,0,0,0,0,0,0,0,0,0,0,0,0,0,0,0,0,0,0,0,0,0,0,0,0,0,0,0,0,0,0,0,0,
0,0,0,0,0,0,0,0,0,0,0,0,0,0,0,0,0,0,0,0,0,0,0,0,0,0,0,0,0,0,0,0,0,0,0,0,0,0,0,0,0,0,0,0,0,0,0,0,0,0,0,0,0,0,0,0,0,0,0,0,0,0,0,0,0,
0,0,0,0,0,0,0,0,0,0,0,0,0,0,0,0,0,0,0,0,0,0,0,0,0,0,0,0,0,0,0,0,0,0,0,0,0,0,0,0,0,0,0,0,0,0,0,0,0,0,0,0,0,0,0,0,0,0,0,0,0,0,0,0,0,
0,0,0,0,0,0,0,0,0,0,0,0,0,0,0,0,0,0,0,0,0,0,0,0,0,0,0,0,0,0,0,0,0,0,0,0,0,0,0,0,0,0,0,0,0,0,0,0,0,0,0,0,0,0,0,0,0,0,0,0,0,0,0,0,0,
0,0,0,0,0,0,0,0,0,0,0,0,0,0,0,0,0,0,0,0,0,0,0,0,0,0,0,0,0,0,0,0,0,0,0,0,0,0,0,0,0,0,0,0,0,0,0,0,0,0,0,0,0,0,0,0,0,0,0,0,0,0,0,0,0,
0,0,0,0,0,0,0,0,0,0,0,0,0,0,0,0,0,0,0,0,0,0,0,0,0,0,0,0,0,0,0,0,0,0,0,0,0,0,0,0,0,0,0,0,0,0,0,0,0,0,0,0,0,0,0,0,0,0,0,0,0,0,0,0,0,
0,0,0,0,0,0,0,0,0,0,0,0,0,0,0,0,0,0,0,0,0,0,0,0,0,0,0,0,0,0,0,0,0,0,0,0,0,0,0,0,0,0,0,0,0,0,0,0,0,0,0,0,0,0,0,0,0,0,0,0,0,0,0,0,0,
0,0,0,0,0,0,0,0,0,0,0,0,0,0,0,0,0,0,0,0,0,0,0,0,0,0,0,0,0,0,0,0,0,0,0,0,0,0,0,0,0,0,0,0,0,0,0,0,0,0,0,0,0,0,0,0,0,0,0,0,0,0,0,0,0
  </data>
 </layer>
 <objectgroup id="4" name="events"/>
 <group id="7" name="above">
 <layer id="5" name="middle_above" width="65" height="61">
  <data encoding="csv">
275,274,275,274,275,274,275,274,273,274,273,276,0,0,289,290,289,292,0,0,0,0,0,0,0,289,290,289,290,289,290,289,290,289,290,289,290,289,290,289,290,289,290,289,290,273,274,273,274,273,274,273,274,273,274,273,274,273,274,273,274,273,274,273,274,
283,282,283,282,283,282,283,282,281,282,281,284,0,0,0,0,0,0,0,0,0,0,0,0,0,0,0,0,0,0,0,0,0,0,0,0,0,0,0,0,0,0,0,0,0,281,282,281,282,281,282,281,282,281,282,281,282,281,282,281,282,281,282,281,282,
275,274,275,274,275,274,275,274,273,274,273,276,287,0,0,0,0,0,0,0,0,0,0,0,0,0,0,0,0,0,0,0,0,0,0,0,0,0,0,0,0,0,0,0,0,273,274,273,274,273,274,273,274,273,274,273,274,273,274,273,274,273,274,273,274,
283,282,283,282,283,282,283,282,281,282,281,284,0,0,0,0,0,0,285,0,0,0,0,0,0,0,0,0,0,0,0,0,0,0,0,0,0,0,0,0,0,0,0,0,0,281,282,281,282,281,282,281,282,281,282,281,282,281,282,281,282,281,282,281,282,
275,274,275,274,275,274,275,274,273,274,273,274,289,290,289,290,289,292,0,0,0,0,0,0,0,0,0,0,0,0,0,0,0,0,0,0,0,0,0,0,0,0,0,0,0,273,274,273,274,273,274,273,274,273,274,273,274,273,274,273,274,273,274,273,274,
283,282,283,282,283,282,283,282,281,282,281,284,0,0,0,0,0,0,0,0,0,0,0,0,0,0,0,0,0,0,0,0,0,0,0,0,0,0,0,275,276,0,0,0,0,281,282,281,282,281,282,281,282,281,282,281,282,281,282,281,282,281,282,281,282,
275,274,275,274,275,274,275,274,273,274,289,292,0,0,0,0,0,0,0,0,0,0,0,0,0,275,274,273,276,0,0,246,0,0,0,0,0,0,0,283,284,0,0,0,0,273,274,273,274,273,274,273,274,273,274,273,274,273,274,273,274,273,274,273,274,
283,282,283,282,283,282,283,282,281,284,0,0,0,0,0,0,0,0,0,0,0,0,0,0,0,283,282,281,284,0,0,0,0,0,0,0,0,0,0,275,276,0,0,0,0,281,282,281,282,281,282,281,282,281,282,281,282,281,282,281,282,281,282,281,282,
275,274,275,274,275,274,275,274,273,276,0,0,0,0,0,0,0,0,0,0,0,0,0,287,288,273,274,273,276,287,288,287,288,0,0,0,0,0,0,283,284,0,0,0,0,273,274,273,274,273,274,273,274,273,274,273,274,273,274,273,274,273,274,273,274,
283,282,283,282,283,282,283,282,281,284,0,0,0,0,0,0,0,0,0,0,0,0,0,295,296,281,282,281,282,295,296,295,296,0,0,0,0,0,0,275,276,0,0,0,0,281,282,281,282,281,282,281,282,281,282,281,282,281,282,281,282,281,282,281,282,
275,274,275,274,275,274,275,274,273,276,0,0,0,0,0,0,0,0,0,0,0,0,0,273,274,273,274,273,274,273,274,273,276,0,0,287,288,0,0,283,284,0,0,0,0,273,274,273,274,273,274,273,274,273,274,273,274,273,274,273,274,273,274,273,274,
283,282,283,282,283,282,283,282,281,284,0,0,0,0,0,0,0,0,0,0,0,0,0,281,282,281,282,281,282,281,282,281,284,0,0,295,296,0,0,289,292,0,0,0,0,281,282,281,282,281,282,281,282,281,282,281,282,281,282,281,282,281,282,281,282,
275,274,275,274,275,274,275,274,273,276,287,288,0,0,0,0,0,0,0,0,0,0,0,289,290,273,274,273,274,273,274,273,276,0,0,273,276,0,0,0,0,0,0,0,0,273,274,273,274,273,274,273,274,273,274,273,274,273,274,273,274,273,274,273,274,
283,282,283,282,283,282,283,282,281,282,295,296,0,0,0,0,0,0,0,0,0,0,0,0,0,281,282,281,282,281,282,283,284,0,0,281,284,0,0,0,0,0,0,0,0,281,282,281,282,281,282,281,282,281,282,281,282,281,282,281,282,281,282,281,282,
275,274,275,274,275,274,275,274,289,274,289,276,0,0,288,0,0,0,0,0,0,0,0,0,0,273,274,273,274,289,290,291,292,0,0,273,276,287,288,0,0,0,0,0,0,273,274,273,274,273,274,273,274,273,274,273,274,273,274,273,274,273,274,273,274,
283,282,283,282,283,282,283,282,281,282,281,284,285,0,0,0,0,0,0,0,0,0,0,0,0,281,282,281,284,0,0,0,0,0,0,281,282,295,296,0,0,0,0,0,0,281,282,281,282,281,282,281,282,281,282,281,282,281,282,281,282,281,282,281,282,
275,274,275,274,275,274,275,274,273,274,273,276,293,273,276,0,0,0,0,0,0,0,0,0,0,273,274,273,276,0,0,0,0,287,288,273,274,291,292,0,0,0,0,0,0,273,274,273,274,273,274,273,274,273,274,273,274,273,274,273,274,273,274,273,274,
283,282,283,282,283,282,283,282,281,282,281,284,285,281,284,0,0,0,0,0,0,0,0,0,0,281,282,281,284,0,0,0,0,295,296,283,284,0,0,0,0,0,0,0,0,281,282,281,282,281,282,281,282,281,282,281,282,281,282,281,282,281,282,281,282,
275,274,275,274,275,274,275,274,273,274,273,276,293,273,276,0,0,0,0,0,0,0,0,0,0,273,274,273,276,0,0,0,0,273,274,291,292,0,0,287,288,0,0,0,0,273,274,273,274,273,274,273,274,273,274,273,274,273,274,273,274,273,274,273,274,
283,282,283,282,283,282,283,282,281,282,281,284,285,281,284,0,0,0,0,0,0,0,0,0,0,281,282,281,284,0,0,0,0,283,284,0,0,0,0,295,296,0,0,0,0,281,282,281,282,281,282,281,282,281,282,281,282,281,282,281,282,281,282,281,282,
275,274,275,274,275,274,275,274,273,274,273,276,293,273,276,0,0,0,0,0,0,0,0,287,288,273,274,273,276,0,0,0,0,291,292,0,0,287,288,275,276,0,0,0,0,273,274,273,274,273,274,273,274,273,274,273,274,273,274,273,274,273,274,273,274,
283,282,283,282,283,282,283,282,281,282,281,284,285,281,284,0,0,0,0,0,0,0,0,295,296,281,282,281,284,0,0,0,0,0,0,0,0,295,296,283,284,0,0,0,0,281,282,281,282,281,282,281,282,281,282,281,282,281,282,281,282,281,282,281,282,
275,274,275,274,275,274,275,274,273,274,273,276,293,273,276,0,0,0,0,0,0,0,0,273,274,273,274,273,276,287,288,287,288,0,0,0,0,273,274,275,276,0,0,0,0,273,274,273,274,273,274,273,274,273,274,273,274,273,274,273,274,273,274,273,274,
283,282,283,282,283,282,283,282,281,282,281,284,285,281,284,0,0,0,0,0,0,0,0,281,282,281,282,281,282,295,296,295,296,0,0,0,0,281,282,281,284,0,0,0,0,281,282,281,282,281,282,281,282,281,282,281,282,281,282,281,282,281,282,281,282,
275,274,275,274,275,274,275,274,273,274,273,276,293,273,276,0,0,0,0,0,0,0,0,289,290,273,274,273,274,273,274,273,276,287,288,0,0,275,274,273,276,0,0,0,0,273,274,273,274,273,274,273,274,273,274,273,274,273,274,273,274,273,274,273,274,
283,282,283,282,283,282,283,282,281,282,281,284,285,281,284,0,0,0,0,0,0,0,0,0,0,281,282,281,282,281,282,281,282,295,296,0,0,283,282,281,284,0,0,0,0,281,282,281,282,281,282,281,282,281,282,281,282,281,282,281,282,281,282,281,282,
275,274,275,274,275,274,275,274,273,274,273,276,293,273,276,0,0,0,0,0,0,0,0,0,0,289,290,273,274,273,274,273,274,291,292,0,0,275,274,273,276,0,0,0,0,273,274,273,274,273,274,273,274,273,274,273,274,273,274,273,274,273,274,273,274,
283,282,283,282,283,282,283,282,281,282,281,284,285,281,284,0,0,0,0,0,0,0,0,0,0,0,0,281,282,281,282,281,284,0,0,0,0,283,282,281,284,0,0,0,0,281,282,281,282,281,282,281,282,281,282,281,282,281,282,281,282,281,282,281,282,
275,274,275,274,275,274,275,274,273,274,273,276,293,273,276,0,0,0,0,0,0,0,0,0,0,0,0,289,290,289,290,289,292,0,0,0,0,275,274,273,276,0,0,0,0,273,274,273,274,273,274,273,274,273,274,273,274,273,274,273,274,273,274,273,274,
283,282,283,282,283,282,283,282,281,282,281,284,285,281,284,0,0,0,0,0,0,0,0,0,0,0,0,0,0,0,0,0,0,0,0,0,0,283,282,281,284,0,0,0,0,281,282,281,282,281,282,281,282,281,282,281,282,281,282,281,282,281,282,281,282,
275,274,275,274,275,274,275,274,273,274,273,276,293,273,276,0,0,0,0,0,0,0,0,0,0,0,0,0,0,0,0,0,0,0,0,0,0,289,290,275,276,0,0,0,0,273,274,273,274,273,274,273,274,273,274,273,274,273,274,273,274,273,274,273,274,
283,282,283,282,283,282,283,282,281,282,281,284,285,281,284,0,0,0,0,0,0,0,0,0,0,0,0,0,0,0,0,0,0,0,0,0,0,0,0,283,284,0,0,0,0,281,282,281,282,281,282,281,282,281,282,281,282,281,282,281,282,281,282,281,282,
275,274,275,274,275,274,275,274,273,274,273,276,293,273,276,0,0,0,0,0,0,0,0,0,0,0,0,0,0,0,0,0,0,0,0,0,0,0,0,275,276,0,0,0,0,273,274,273,274,273,274,273,274,273,274,273,274,273,274,273,274,273,274,273,274,
283,282,283,282,283,282,283,282,281,282,281,284,285,281,284,0,0,0,0,0,0,0,0,0,0,0,0,0,0,0,0,0,0,0,0,0,0,0,0,283,284,0,0,0,0,281,282,281,282,281,282,281,282,281,282,281,282,281,282,281,282,281,282,281,282,
275,274,275,274,275,274,275,274,273,274,273,276,293,273,276,0,0,0,0,287,288,287,288,287,288,287,288,0,0,0,0,0,0,0,0,287,288,287,288,275,276,0,0,0,0,291,290,291,290,291,290,291,290,291,290,291,290,291,290,291,290,291,290,291,290,
283,282,283,282,283,282,283,282,281,282,281,284,285,281,284,0,0,0,0,295,296,295,296,295,296,295,296,0,0,0,0,0,0,0,0,295,296,295,296,283,284,0,0,0,0,0,0,0,0,0,0,0,0,0,0,0,0,0,0,0,0,0,0,0,0,
275,274,275,274,275,274,275,274,273,274,273,276,293,273,276,0,0,0,0,273,274,273,274,273,274,273,276,287,288,287,288,0,0,0,0,275,274,273,274,273,276,0,0,0,0,0,0,0,0,0,0,0,0,0,0,0,0,0,0,0,0,0,0,0,0,
283,282,283,282,283,282,283,282,281,282,281,284,285,281,284,0,0,0,0,281,282,281,282,281,282,281,282,295,296,295,296,0,0,0,0,283,282,281,282,281,284,0,0,0,0,0,0,0,0,0,0,0,0,0,0,0,0,0,0,0,0,0,0,0,0,
275,274,275,274,275,274,275,274,273,274,273,276,293,273,276,0,0,0,0,289,290,289,290,289,290,289,290,273,274,273,276,0,0,0,0,289,290,273,274,273,276,0,0,0,0,0,0,0,0,0,0,0,0,0,0,0,0,0,0,0,0,0,0,0,0,
281,282,281,282,281,282,281,282,281,282,281,284,285,281,284,0,0,0,0,0,0,0,0,0,0,0,286,281,282,281,284,0,0,0,0,0,0,281,282,281,282,0,0,0,0,0,0,0,0,0,0,0,0,0,0,0,0,0,0,0,0,0,0,0,0,
273,274,273,274,273,274,273,274,273,274,273,276,293,273,276,0,0,0,0,0,246,0,0,0,0,0,294,289,290,291,292,0,0,0,0,0,0,275,274,273,274,273,274,273,274,273,274,273,274,273,274,273,274,273,274,273,274,273,274,273,274,273,274,273,274,
281,282,281,282,281,282,281,282,281,282,281,284,285,281,284,0,0,0,0,0,0,0,0,0,0,0,0,0,0,0,0,0,0,0,0,0,0,283,282,281,282,281,282,281,282,281,282,281,282,281,282,281,282,281,282,281,282,281,282,281,282,281,282,281,282,
273,274,273,274,273,274,273,274,273,274,273,276,293,273,276,0,0,0,0,0,0,0,0,0,0,0,0,0,0,0,0,0,0,0,0,0,0,275,274,273,274,273,274,273,274,273,274,273,274,273,274,273,274,273,274,273,274,273,274,273,274,273,274,273,274,
281,282,281,282,281,282,281,282,281,282,281,284,285,281,284,0,0,0,0,0,0,0,0,0,0,0,0,0,0,0,0,0,0,0,0,0,0,283,282,281,282,281,282,281,282,281,282,281,282,281,282,281,282,281,282,281,282,281,282,281,282,281,282,281,282,
273,274,273,274,273,274,273,274,273,274,273,276,293,273,276,287,288,287,288,0,0,0,0,0,0,0,0,0,0,0,0,0,0,0,0,0,0,275,274,273,274,273,274,273,274,273,274,273,274,273,274,273,274,273,274,273,274,273,274,273,274,273,274,273,274,
281,282,281,282,281,282,281,282,281,282,281,284,285,281,282,295,296,295,296,0,0,0,0,0,0,0,0,0,0,0,0,0,0,0,0,0,0,283,282,281,282,281,282,281,282,281,282,281,282,281,282,281,282,281,282,281,282,281,282,281,282,281,282,281,282,
273,274,273,274,273,274,273,274,273,274,273,276,293,291,290,291,290,291,292,0,0,0,0,0,0,0,0,0,0,0,0,0,0,287,288,287,288,275,274,273,274,273,274,273,274,273,274,273,274,273,274,273,274,273,274,273,274,273,274,273,274,273,274,273,274,
281,282,281,282,281,282,281,282,281,282,281,284,285,0,0,0,0,0,0,0,0,0,0,0,0,0,0,0,0,0,0,0,0,295,296,295,296,283,282,281,282,281,282,281,282,281,282,281,282,281,282,281,282,281,282,281,282,281,282,281,282,281,282,281,282,
273,274,273,274,273,274,273,274,273,274,273,276,293,0,0,0,0,0,0,0,0,0,0,0,0,0,0,0,0,0,0,0,0,289,290,291,290,291,290,291,290,291,290,291,290,291,290,291,290,291,290,291,290,291,290,291,290,291,290,291,290,291,290,291,290,
281,282,281,282,281,282,281,282,281,282,281,282,295,296,295,296,295,296,295,296,0,0,0,0,0,0,0,0,0,0,0,0,0,0,0,0,0,0,0,0,0,0,0,0,0,0,0,0,0,0,0,0,0,0,0,0,0,0,0,0,0,0,0,0,0,
273,274,273,274,273,274,273,274,273,274,273,274,273,274,273,274,273,274,273,276,0,0,0,0,0,0,0,0,0,0,0,0,0,0,0,0,0,0,0,0,0,0,0,0,0,0,0,0,0,0,0,0,0,0,0,0,0,0,0,0,0,0,0,0,0,
281,282,281,282,281,282,281,282,281,282,281,282,281,282,281,282,281,282,281,284,0,0,0,0,0,0,0,0,0,0,0,0,0,0,0,0,0,0,0,0,0,0,0,0,0,0,0,0,0,0,0,0,0,0,0,0,0,0,0,0,0,0,0,0,0,
275,274,275,274,275,274,275,274,273,274,273,274,273,274,273,274,273,274,273,276,0,0,0,0,0,0,0,0,0,0,0,0,0,275,274,273,274,273,274,273,276,0,0,287,288,0,0,0,0,0,0,0,0,0,0,0,0,0,0,0,0,0,0,0,0,
283,282,283,282,283,282,283,282,281,282,281,282,281,282,281,282,281,282,281,284,0,0,0,0,0,0,0,0,0,0,0,0,0,283,282,281,282,281,282,281,284,0,0,295,296,0,0,0,0,0,0,0,0,0,0,0,0,0,0,0,0,0,0,0,0,
275,274,275,274,275,274,275,274,273,274,273,274,273,274,273,274,273,274,273,276,0,0,0,0,0,287,288,287,288,287,288,287,288,275,274,273,274,291,290,291,292,0,0,291,292,0,0,0,0,0,0,0,0,0,0,0,0,0,0,0,0,0,0,0,0,
283,282,283,282,283,282,283,282,281,282,281,282,281,282,281,282,281,282,281,284,0,0,0,0,0,295,296,295,296,295,296,295,296,283,282,281,284,0,0,0,0,0,0,0,0,0,0,0,0,0,0,0,0,0,0,0,0,0,0,0,0,0,0,0,0,
275,274,275,274,275,274,275,274,273,274,273,274,273,274,273,274,273,274,273,276,0,0,0,0,0,275,274,273,274,273,274,273,274,273,274,273,292,0,0,0,0,0,0,0,0,0,0,0,0,273,274,273,274,273,274,273,274,273,274,273,274,273,274,273,274,
283,282,283,282,283,282,283,282,281,282,281,282,281,282,281,282,281,282,281,284,0,0,0,0,0,283,282,283,282,283,282,283,282,283,282,281,284,0,0,0,0,0,0,0,0,0,0,0,0,281,282,281,282,281,282,281,282,281,282,281,282,281,282,281,282,
275,274,275,274,275,274,275,274,273,274,273,274,273,274,273,274,273,274,273,276,0,0,0,0,0,275,274,273,274,273,274,273,274,289,290,291,292,293,0,0,0,0,0,0,0,0,0,0,0,273,274,273,274,273,274,273,274,273,274,273,274,273,274,273,274,
283,282,283,282,283,282,283,282,281,282,281,282,281,282,281,282,281,282,281,284,0,0,0,0,0,283,282,283,282,283,282,283,284,0,0,0,0,0,0,0,0,0,0,0,0,0,0,0,0,281,282,281,282,281,282,281,282,281,282,281,282,281,282,281,282,
275,274,275,274,275,274,275,274,273,274,273,274,273,274,273,274,273,274,273,276,0,0,0,0,0,275,274,273,274,273,274,273,276,0,0,0,0,0,0,0,0,0,0,0,0,0,0,0,0,273,274,273,274,273,274,273,274,273,274,273,274,273,274,273,274
  </data>
 </layer>
 <layer id="6" name="upper_above" width="65" height="61">
  <data encoding="csv">
0,0,0,0,0,0,0,0,0,0,0,0,293,294,0,0,0,0,293,0,0,0,0,0,294,0,0,0,0,0,0,0,0,0,0,0,0,0,0,0,0,0,0,0,0,0,0,0,0,0,0,0,0,0,0,0,0,0,0,0,0,0,0,0,0,
0,0,0,0,0,0,0,0,0,0,0,0,285,0,0,0,0,0,0,0,0,0,0,0,0,0,0,0,0,0,0,0,0,0,0,0,0,0,0,0,0,0,0,0,286,0,0,0,0,0,0,0,0,0,0,0,0,0,0,0,0,0,0,0,0,
0,0,0,0,0,0,0,0,0,0,0,0,293,288,287,288,287,288,0,0,0,0,0,0,0,0,0,0,0,0,0,0,0,0,0,0,0,0,0,0,0,0,0,0,294,0,0,0,0,0,0,0,0,0,0,0,0,0,0,0,0,0,0,0,0,
0,0,0,0,0,0,0,0,0,0,0,0,295,296,295,296,295,296,0,0,0,0,0,0,0,0,0,0,0,0,0,0,0,0,1001,1002,1003,1004,0,287,288,0,0,0,286,0,0,0,0,0,0,0,0,0,0,0,0,0,0,0,0,0,0,0,0,
0,0,0,0,0,0,0,0,0,0,0,0,0,0,0,0,0,0,293,0,0,0,0,0,0,287,288,287,288,0,0,0,0,0,0,0,0,0,286,295,296,285,0,0,294,0,0,0,0,0,0,0,0,0,0,0,0,0,0,0,0,0,0,0,0,
0,0,0,0,0,0,0,0,0,0,0,0,285,0,0,0,0,0,0,0,0,0,0,0,286,295,296,295,296,285,0,0,0,0,0,0,0,0,294,0,286,293,0,0,286,0,0,0,0,0,0,0,0,0,0,0,0,0,0,0,0,0,0,0,0,
0,0,0,0,0,0,0,0,0,0,0,0,293,0,0,0,0,0,0,0,0,0,0,0,294,0,0,0,0,293,0,0,0,0,0,0,0,0,286,0,0,285,0,0,294,0,0,0,0,0,0,0,0,0,0,0,0,0,0,0,0,0,0,0,0,
0,0,0,0,0,0,0,0,0,0,285,0,0,0,0,0,0,0,0,0,0,0,0,0,286,0,0,0,0,285,0,0,0,0,0,0,0,0,294,0,0,293,0,0,286,0,0,0,0,0,0,0,0,0,0,0,0,0,0,0,0,0,0,0,0,
0,0,0,0,0,0,0,0,0,0,293,0,0,0,0,0,0,0,0,0,0,0,0,0,294,0,0,0,0,293,0,0,0,0,0,0,0,0,286,0,0,285,0,0,294,0,0,0,0,0,0,0,0,0,0,0,0,0,0,0,0,0,0,0,0,
0,0,0,0,0,0,0,0,0,0,285,0,0,0,0,0,0,0,0,0,0,0,286,0,0,0,0,0,0,0,0,0,0,285,0,0,0,0,294,0,0,293,0,0,286,0,0,0,0,0,0,0,0,0,0,0,0,0,0,0,0,0,0,0,0,
0,0,0,0,0,0,0,0,0,0,293,0,0,0,0,0,0,0,0,0,0,0,294,0,0,0,0,0,0,0,0,0,0,293,0,0,0,0,286,0,0,285,0,0,294,0,0,0,0,0,0,0,0,0,0,0,0,0,0,0,0,0,0,0,0,
0,0,0,0,0,0,0,0,0,0,285,0,0,0,0,0,0,0,0,0,0,0,286,0,0,0,0,0,0,0,0,0,0,285,286,0,0,285,294,0,0,293,0,0,286,0,0,0,0,0,0,0,0,0,0,0,0,0,0,0,0,0,0,0,0,
0,0,0,0,0,0,0,0,0,0,293,0,0,0,0,0,0,0,0,0,0,0,294,0,0,0,0,0,0,0,0,0,0,293,294,0,0,293,0,0,0,0,0,0,294,0,0,0,0,0,0,0,0,0,0,0,0,0,0,0,0,0,0,0,0,
0,0,0,0,0,0,0,0,0,0,0,0,285,0,0,0,0,0,0,0,0,0,0,0,286,0,0,0,0,0,0,0,0,285,286,0,0,285,0,0,0,0,0,0,286,0,0,0,0,0,0,0,0,0,0,0,0,0,0,0,0,0,0,0,0,
0,0,0,0,0,0,0,0,0,0,0,0,293,287,0,0,0,0,0,0,0,0,0,0,294,0,0,0,0,0,0,0,0,293,294,0,0,293,0,0,0,0,0,0,294,0,0,0,0,0,0,0,0,0,0,0,0,0,0,0,0,0,0,0,0,
0,0,0,0,0,0,0,0,0,0,0,0,286,295,296,285,0,0,0,0,0,0,0,0,286,0,0,0,0,285,0,0,0,0,286,0,0,0,0,285,0,0,0,0,286,0,0,0,0,0,0,0,0,0,0,0,0,0,0,0,0,0,0,0,0,
0,0,0,0,0,0,0,0,0,0,0,0,294,0,0,293,0,0,0,0,0,0,0,0,294,0,0,0,0,293,0,0,0,0,294,0,0,0,0,293,0,0,0,0,294,0,0,0,0,0,0,0,0,0,0,0,0,0,0,0,0,0,0,0,0,
0,0,0,0,0,0,0,0,0,0,0,0,286,0,0,285,0,0,0,0,0,0,0,0,286,0,0,0,0,285,0,0,286,0,0,0,0,285,0,0,0,0,0,0,286,0,0,0,0,0,0,0,0,0,0,0,0,0,0,0,0,0,0,0,0,
0,0,0,0,0,0,0,0,0,0,0,0,294,0,0,293,0,0,0,0,0,0,0,0,294,0,0,0,0,293,0,0,294,0,0,0,0,293,0,0,0,0,0,0,294,0,0,0,0,0,0,0,0,0,0,0,0,0,0,0,0,0,0,0,0,
0,0,0,0,0,0,0,0,0,0,0,0,286,0,0,285,0,0,0,0,0,0,0,0,286,0,0,0,0,285,0,0,286,0,0,285,0,0,286,0,0,285,0,0,286,0,0,0,0,0,0,0,0,0,0,0,0,0,0,0,0,0,0,0,0,
0,0,0,0,0,0,0,0,0,0,0,0,294,0,0,293,0,0,0,0,0,0,0,0,294,0,0,0,0,293,0,0,294,0,0,293,0,0,294,0,0,293,0,0,294,0,0,0,0,0,0,0,0,0,0,0,0,0,0,0,0,0,0,0,0,
0,0,0,0,0,0,0,0,0,0,0,0,286,0,0,285,0,0,0,0,0,0,286,0,0,0,0,0,0,285,0,0,0,0,0,0,286,0,0,0,0,285,0,0,286,0,0,0,0,0,0,0,0,0,0,0,0,0,0,0,0,0,0,0,0,
0,0,0,0,0,0,0,0,0,0,0,0,294,0,0,293,0,0,0,0,0,0,294,0,0,0,0,0,0,293,0,0,0,0,0,0,294,0,0,0,0,293,0,0,294,0,0,0,0,0,0,0,0,0,0,0,0,0,0,0,0,0,0,0,0,
0,0,0,0,0,0,0,0,0,0,0,0,286,0,0,285,0,0,0,0,0,0,286,0,0,0,0,0,0,0,0,0,0,285,0,0,286,0,0,0,0,285,0,0,286,0,0,0,0,0,0,0,0,0,0,0,0,0,0,0,0,0,0,0,0,
0,0,0,0,0,0,0,0,0,0,0,0,294,0,0,293,0,0,0,0,0,0,294,0,0,0,0,0,0,0,0,0,0,293,0,0,294,0,0,0,0,293,0,0,294,0,0,0,0,0,0,0,0,0,0,0,0,0,0,0,0,0,0,0,0,
0,0,0,0,0,0,0,0,0,0,0,0,286,0,0,285,0,0,0,0,0,0,0,0,286,0,0,0,0,0,0,0,0,0,0,285,286,0,0,0,0,285,0,0,286,0,0,0,0,0,0,0,0,0,0,0,0,0,0,0,0,0,0,0,0,
0,0,0,0,0,0,0,0,0,0,0,0,294,0,0,293,0,0,0,0,0,0,0,0,294,0,0,0,0,0,0,0,0,0,0,293,294,0,0,0,0,293,0,0,294,0,0,0,0,0,0,0,0,0,0,0,0,0,0,0,0,0,0,0,0,
0,0,0,0,0,0,0,0,0,0,0,0,286,0,0,285,0,0,0,0,0,0,0,0,0,0,286,0,0,0,0,0,0,285,0,0,286,0,0,0,0,285,0,0,286,0,0,0,0,0,0,0,0,0,0,0,0,0,0,0,0,0,0,0,0,
0,0,0,0,0,0,0,0,0,0,0,0,294,0,0,293,0,0,0,0,0,0,0,0,0,0,294,0,0,0,0,0,0,293,0,0,294,0,0,0,0,293,0,0,294,0,0,0,0,0,0,0,0,0,0,0,0,0,0,0,0,0,0,0,0,
0,0,0,0,0,0,0,0,0,0,0,0,286,0,0,285,0,0,0,0,0,0,0,0,0,0,0,0,0,0,0,0,0,0,0,0,286,0,0,0,0,285,0,0,286,0,0,0,0,0,0,0,0,0,0,0,0,0,0,0,0,0,0,0,0,
0,0,0,0,0,0,0,0,0,0,0,0,294,0,0,293,0,0,0,0,0,0,0,0,0,0,0,0,0,0,0,0,0,0,0,0,294,0,0,0,0,293,0,0,294,0,0,0,0,0,0,0,0,0,0,0,0,0,0,0,0,0,0,0,0,
0,0,0,0,0,0,0,0,0,0,0,0,286,0,0,285,0,0,0,0,0,0,0,0,0,0,0,0,0,0,0,0,0,0,0,0,0,0,286,0,0,285,0,0,286,0,0,0,0,0,0,0,0,0,0,0,0,0,0,0,0,0,0,0,0,
0,0,0,0,0,0,0,0,0,0,0,0,294,0,0,293,0,0,0,0,0,0,0,0,0,0,0,0,0,0,0,0,0,0,0,0,0,0,294,0,0,293,0,0,294,0,0,0,0,0,0,0,0,0,0,0,0,0,0,0,0,0,0,0,0,
0,0,0,0,0,0,0,0,0,0,0,0,286,0,0,285,0,0,0,0,0,0,0,0,0,0,0,0,0,0,0,0,0,0,0,0,0,0,286,0,0,285,0,0,286,0,0,0,0,0,0,0,0,0,0,0,0,0,0,0,0,0,0,0,0,
0,0,0,0,0,0,0,0,0,0,0,0,294,0,0,293,0,0,0,0,0,0,0,0,0,0,0,0,0,0,0,0,0,0,0,0,0,0,294,0,0,293,0,0,294,0,0,0,0,0,0,0,0,0,0,0,0,0,0,0,0,0,0,0,0,
0,0,0,0,0,0,0,0,0,0,0,0,286,0,0,285,0,0,286,0,0,0,0,0,0,0,0,285,0,0,0,0,0,0,286,0,0,0,0,0,0,285,0,0,0,0,0,0,0,0,0,0,0,0,0,0,0,0,0,0,0,0,0,0,0,
0,0,0,0,0,0,0,0,0,0,0,0,294,0,0,293,0,0,294,0,0,0,0,0,0,0,0,293,0,0,0,0,0,0,294,0,0,0,0,0,0,293,0,0,0,0,0,0,0,0,0,0,0,0,0,0,0,0,0,0,0,0,0,0,0,
0,0,0,0,0,0,0,0,0,0,0,0,286,0,0,285,0,0,286,0,0,0,0,699,700,0,0,0,0,0,0,285,0,0,286,0,0,0,0,0,0,285,0,0,0,0,0,0,0,0,0,0,0,0,0,0,0,0,0,0,0,0,0,0,0,
0,0,0,0,0,0,0,0,0,0,0,0,294,0,0,293,0,0,294,0,0,705,706,707,708,709,710,0,0,0,0,293,0,0,294,0,0,0,0,0,0,287,288,287,288,287,288,287,288,287,288,287,288,287,288,287,288,287,288,287,288,287,288,287,288,
0,0,0,0,0,0,0,0,0,0,0,0,286,0,0,285,0,0,0,0,0,713,0,0,0,0,718,0,0,0,0,285,0,0,0,0,286,0,0,0,0,295,296,295,296,295,296,295,296,295,296,295,296,295,296,295,296,295,296,295,296,295,296,295,296,
0,0,0,0,0,0,0,0,0,0,0,0,294,0,0,293,0,0,0,0,0,721,0,0,0,0,726,0,0,0,0,293,0,0,0,0,294,0,0,0,0,0,0,0,0,0,0,0,0,0,0,0,0,0,0,0,0,0,0,0,0,0,0,0,0,
0,0,0,0,0,0,0,0,0,0,0,0,286,0,0,285,0,0,0,0,0,0,0,0,0,0,0,0,0,0,0,0,0,0,0,0,286,0,0,0,0,0,0,0,0,0,0,0,0,0,0,0,0,0,0,0,0,0,0,0,0,0,0,0,0,
0,0,0,0,0,0,0,0,0,0,0,0,294,0,0,293,0,0,0,0,0,0,0,0,0,0,0,0,0,0,0,0,0,0,0,0,294,0,0,0,0,0,0,0,0,0,0,0,0,0,0,0,0,0,0,0,0,0,0,0,0,0,0,0,0,
0,0,0,0,0,0,0,0,0,0,0,0,286,0,0,285,0,0,0,0,0,0,0,0,0,0,0,0,0,0,0,0,0,0,0,0,286,0,0,0,0,0,0,0,0,0,0,0,0,0,0,0,0,0,0,0,0,0,0,0,0,0,0,0,0,
0,0,0,0,0,0,0,0,0,0,0,0,294,0,0,293,0,0,0,0,0,0,0,0,0,0,0,0,0,0,0,0,0,0,0,0,294,0,0,0,0,0,0,0,0,0,0,0,0,0,0,0,0,0,0,0,0,0,0,0,0,0,0,0,0,
0,0,0,0,0,0,0,0,0,0,0,0,286,0,0,0,0,0,0,285,0,0,0,0,0,0,0,0,0,0,0,0,0,0,0,0,286,0,0,0,0,0,0,0,0,0,0,0,0,0,0,0,0,0,0,0,0,0,0,0,0,0,0,0,0,
0,0,0,0,0,0,0,0,0,0,0,0,294,0,0,0,0,0,0,293,0,0,0,0,0,0,0,0,0,0,0,0,0,0,0,0,294,0,0,0,0,0,0,0,0,0,0,0,0,0,0,0,0,0,0,0,0,0,0,0,0,0,0,0,0,
0,0,0,0,0,0,0,0,0,0,0,0,0,0,0,0,0,0,0,0,0,0,0,0,0,0,0,0,0,0,0,0,286,0,0,0,0,0,0,0,0,0,0,0,0,0,0,0,0,0,0,0,0,0,0,0,0,0,0,0,0,0,0,0,0,
0,0,0,0,0,0,0,0,0,0,0,0,287,288,287,288,287,288,287,288,0,0,0,0,0,0,0,0,0,0,0,0,294,0,0,0,0,0,0,0,0,0,0,0,0,0,0,0,0,0,0,0,0,0,0,0,0,0,0,0,0,0,0,0,0,
0,0,0,0,0,0,0,0,0,0,0,0,0,0,0,0,0,0,0,0,285,0,0,0,0,0,0,0,0,0,0,0,0,0,0,0,0,0,0,0,0,0,0,0,0,0,0,0,0,0,0,0,0,0,0,0,0,0,0,0,0,0,0,0,0,
0,0,0,0,0,0,0,0,0,0,0,0,0,0,0,0,0,0,0,0,293,0,0,0,0,0,0,0,0,0,0,0,0,287,288,287,288,287,288,287,288,0,0,0,0,0,0,0,0,0,0,0,0,0,0,0,0,0,0,0,0,0,0,0,0,
0,0,0,0,0,0,0,0,0,0,0,0,0,0,0,0,0,0,0,0,285,0,0,0,0,0,0,0,0,0,0,0,286,295,296,295,296,295,296,295,296,285,0,0,0,0,0,0,0,0,0,0,0,0,0,0,0,0,0,0,0,0,0,0,0,
0,0,0,0,0,0,0,0,0,0,0,0,0,0,0,0,0,0,0,0,293,0,0,0,0,0,0,0,0,0,0,0,294,0,0,0,0,0,0,0,0,293,0,0,0,0,0,0,0,0,0,0,0,0,0,0,0,0,0,0,0,0,0,0,0,
0,0,0,0,0,0,0,0,0,0,0,0,0,0,0,0,0,0,0,0,285,0,0,0,0,0,0,0,0,0,0,0,286,0,0,0,0,0,0,0,0,285,286,0,0,285,0,0,0,0,0,0,0,0,0,0,0,0,0,0,0,0,0,0,0,
0,0,0,0,0,0,0,0,0,0,0,0,0,0,0,0,0,0,0,0,293,0,0,0,0,0,0,0,0,0,0,0,294,0,0,0,0,0,0,0,0,293,294,0,0,293,0,0,0,287,288,287,288,287,288,287,288,287,288,287,288,287,288,287,288,
0,0,0,0,0,0,0,0,0,0,0,0,0,0,0,0,0,0,0,0,285,0,0,0,286,0,0,0,0,0,0,0,0,0,0,0,0,285,0,0,0,0,0,0,0,0,0,0,286,295,296,295,296,295,296,295,296,295,296,295,296,295,296,295,296,
0,0,0,0,0,0,0,0,0,0,0,0,0,0,0,0,0,0,0,0,293,0,0,0,294,0,0,0,0,0,0,0,0,0,0,0,0,293,0,0,0,0,0,0,0,0,0,0,294,0,0,0,0,0,0,0,0,0,0,0,0,0,0,0,0,
0,0,0,0,0,0,0,0,0,0,0,0,0,0,0,0,0,0,0,0,285,0,0,0,286,0,0,0,0,0,0,0,0,0,0,0,0,285,0,0,0,0,0,0,0,0,0,0,286,0,0,0,0,0,0,0,0,0,0,0,0,0,0,0,0,
0,0,0,0,0,0,0,0,0,0,0,0,0,0,0,0,0,0,0,0,293,0,0,0,294,0,0,0,0,0,0,0,0,0,0,0,0,287,288,287,288,287,288,287,288,0,0,0,294,0,0,0,0,0,0,0,0,0,0,0,0,0,0,0,0,
0,0,0,0,0,0,0,0,0,0,0,0,0,0,0,0,0,0,0,0,285,0,0,0,286,0,0,0,0,0,0,0,0,285,0,0,286,295,296,295,296,295,296,295,296,285,0,0,286,0,0,0,0,0,0,0,0,0,0,0,0,0,0,0,0,
0,0,0,0,0,0,0,0,0,0,0,0,0,0,0,0,0,0,0,0,293,0,0,0,294,0,0,0,0,1361,1362,1363,1361,1362,1363,0,294,273,274,275,274,275,274,275,276,293,0,0,294,0,0,0,0,0,0,0,0,0,0,0,0,0,0,0,0
  </data>
 </layer>
 </group>
</map>
