<?xml version="1.0" encoding="UTF-8"?>
<map version="1.10" tiledversion="1.10.2" orientation="orthogonal" renderorder="right-down" compressionlevel="0" width="60" height="62" tilewidth="32" tileheight="32" infinite="0" nextlayerid="4" nextobjectid="1">
 <tileset firstgid="1" source="RMXP-JohtoCompactExterior.tsx"/>
 <tileset firstgid="2401" source="RMXP-auto-tfj-waterfall.tsx"/>
 <tileset firstgid="2449" source="RMXP-auto-sand.tsx"/>
 <tileset firstgid="2497" source="RMXP-auto-still.tsx"/>
 <tileset firstgid="2545" source="RMXP-auto-noanimsea.tsx"/>
 <tileset firstgid="2593" source="RMXP-auto-hgss-sea.tsx"/>
 <tileset firstgid="2641" source="RMXP-auto-lake.tsx"/>
 <tileset firstgid="2689" source="RMXP-auto-r49water.tsx"/>
 <layer id="1" name="lower" width="60" height="62">
  <data encoding="csv">
0,0,0,0,0,0,0,0,0,0,0,0,0,0,0,0,0,0,0,0,0,0,0,0,0,0,0,0,0,0,0,0,0,0,0,0,0,0,0,0,0,0,0,0,0,0,0,0,0,0,0,0,0,0,0,0,0,0,0,0,
0,0,0,0,0,0,0,0,0,0,0,0,0,0,0,0,0,0,0,0,0,0,0,0,0,0,0,0,0,0,0,0,0,0,0,0,0,0,0,0,0,0,0,0,0,0,0,0,0,0,0,0,0,0,0,0,0,0,0,0,
0,0,0,0,0,0,0,0,0,0,0,0,0,0,0,0,0,0,0,0,0,0,0,0,0,0,0,0,0,0,0,0,0,0,0,0,0,0,0,0,0,0,0,0,0,0,0,0,0,0,0,0,0,0,0,0,0,0,0,0,
0,0,0,0,0,0,0,0,0,0,0,0,0,0,0,0,0,0,0,0,0,0,0,0,0,0,0,0,0,0,0,0,0,0,0,0,0,0,0,0,0,0,0,0,0,0,0,0,0,0,0,0,0,0,0,0,0,0,0,0,
0,0,0,0,0,0,0,0,0,0,0,0,0,0,0,0,0,0,0,0,0,0,0,0,0,0,0,0,13,11,13,11,13,11,13,11,13,11,13,11,13,11,13,11,13,11,13,11,13,11,13,11,13,11,13,11,13,11,11,11,
0,0,0,0,0,0,0,0,0,0,0,0,0,0,0,0,0,0,0,0,0,0,0,0,0,0,0,0,11,13,11,13,11,13,11,13,11,13,11,13,11,13,11,13,11,13,11,13,11,13,11,13,11,13,11,13,11,13,11,11,
0,0,0,0,0,0,0,0,0,0,0,0,0,0,0,0,0,0,0,0,0,0,0,0,0,0,0,0,13,11,13,11,13,11,13,11,13,11,13,11,13,11,13,11,13,11,13,11,13,11,13,11,13,11,13,11,13,11,11,11,
0,0,0,0,0,0,0,0,0,0,0,0,0,0,0,0,0,0,0,0,0,0,0,0,0,0,0,0,11,13,11,13,11,13,11,13,11,13,11,13,11,13,11,13,11,13,11,13,11,13,11,2495,11,13,11,13,11,13,11,11,
0,0,0,0,0,0,0,0,0,0,0,0,0,0,0,0,0,0,0,0,0,0,0,0,0,0,0,0,13,11,13,11,13,11,13,11,13,11,13,11,13,11,13,11,13,11,13,11,13,11,13,11,13,11,13,11,13,11,11,11,
0,0,0,0,0,0,0,0,0,0,0,0,0,0,0,0,0,0,0,0,0,0,0,0,0,0,0,0,11,13,11,13,11,13,11,13,11,13,11,13,11,13,11,13,11,13,11,13,11,13,11,11,11,13,11,13,11,13,11,11,
0,0,0,0,0,0,0,0,0,0,0,0,0,0,0,0,0,0,0,0,0,0,0,0,0,0,0,0,13,11,13,11,13,11,13,11,13,11,13,11,13,11,13,11,13,11,13,11,13,11,11,11,13,11,13,11,13,11,11,11,
0,0,0,0,0,0,0,0,0,0,0,0,0,0,0,0,0,0,0,0,0,0,0,0,0,0,0,0,11,13,11,13,11,13,11,13,11,13,11,13,11,13,11,13,11,13,11,13,11,13,11,11,2483,2469,2469,2485,11,13,11,11,
0,0,0,0,0,0,0,0,0,0,0,0,0,0,0,0,0,0,0,0,0,0,0,0,0,0,0,0,13,11,13,11,13,11,13,11,13,11,13,11,13,11,58,58,58,58,58,58,58,11,11,11,2465,2453,2477,2487,13,11,11,11,
0,0,0,0,0,0,0,0,0,0,0,0,0,0,0,0,0,0,0,0,0,0,0,0,0,0,0,0,11,13,11,13,11,13,11,13,11,13,11,13,11,13,58,58,58,58,58,58,58,13,11,13,2465,2473,11,13,11,13,11,11,
0,0,0,0,0,0,0,0,0,0,0,0,0,0,0,0,0,0,0,0,0,0,0,0,0,0,0,0,13,11,13,11,13,11,13,11,13,11,13,11,13,11,58,58,58,58,58,58,58,58,58,11,2465,2473,13,11,13,11,11,11,
13,13,13,13,13,13,13,13,13,58,58,58,58,58,58,58,13,13,13,13,13,13,0,0,0,0,0,0,11,13,11,13,11,13,11,13,11,13,11,13,11,58,58,58,58,58,58,58,58,58,58,13,2465,2473,11,13,11,13,11,11,
13,13,13,13,13,13,13,13,13,58,58,58,58,58,58,58,13,13,13,13,13,13,0,0,0,0,0,0,13,11,13,11,13,11,13,11,13,11,13,11,13,58,58,58,58,58,58,11,13,11,13,11,2465,2473,13,11,13,11,13,11,
13,13,13,13,13,13,13,13,13,58,58,58,58,58,58,58,13,13,13,13,13,13,0,0,0,0,0,0,11,13,11,13,11,13,11,13,11,13,11,13,11,58,58,58,58,58,58,13,11,13,11,13,2465,2451,2469,2469,2469,2469,2469,2469,
13,13,13,13,13,13,13,13,13,58,58,58,58,58,58,58,13,13,13,13,13,13,0,0,0,0,0,0,11,58,58,58,58,58,58,58,58,58,58,58,58,58,58,58,58,58,58,11,2483,2469,2469,2469,2450,2449,2449,2449,2449,2449,2449,2449,
13,13,13,13,13,13,13,13,13,58,58,58,58,58,58,58,13,13,13,13,13,13,0,0,0,0,0,0,11,58,11,13,11,13,11,13,11,13,11,13,11,13,11,13,11,13,11,13,2465,2449,2449,2449,2449,2449,2449,2449,2449,2449,2449,2449,
13,13,13,13,13,13,13,13,13,58,58,58,58,58,58,58,13,13,13,13,13,13,0,0,0,0,0,0,13,11,13,11,13,11,13,11,13,11,13,11,13,11,13,11,13,11,13,11,2489,2477,2457,2449,2449,2449,2449,2453,2477,2477,2477,2477,
13,13,13,13,13,13,13,13,13,58,58,58,58,58,58,58,13,13,13,13,13,13,0,0,0,0,0,0,11,13,11,13,11,13,11,13,11,13,11,13,11,13,11,13,11,13,11,13,11,13,2465,2449,2449,2449,2449,2473,11,13,11,13,
13,13,13,13,13,13,13,13,13,58,58,58,58,58,58,58,13,13,13,13,13,13,0,0,0,0,0,0,13,11,13,11,13,58,58,58,58,58,58,58,58,58,13,11,13,11,13,11,13,11,2489,2477,2477,2477,2477,2487,13,11,13,11,
13,13,13,13,13,13,13,13,13,58,58,58,58,58,58,58,13,13,13,13,13,13,0,0,0,0,0,0,11,13,11,13,11,58,58,58,58,58,58,58,58,58,11,13,11,13,11,13,11,13,11,13,11,13,11,13,11,13,11,13,
13,13,13,13,13,13,13,13,13,58,58,58,58,58,58,58,13,13,13,13,13,13,0,0,0,0,0,0,13,11,13,11,13,58,58,58,58,58,58,58,58,58,13,11,13,11,13,11,13,11,13,11,13,11,13,11,13,11,13,11,
13,13,13,13,13,13,13,13,13,13,13,13,13,13,13,13,13,13,13,13,13,13,0,0,0,0,0,0,11,13,11,13,11,58,58,58,58,58,58,58,58,58,11,13,11,13,11,13,13,13,13,13,13,13,13,13,13,13,13,13,
13,13,13,13,13,13,13,13,13,13,13,13,13,13,13,13,13,13,13,13,13,13,0,0,0,0,0,0,13,11,13,11,13,58,58,58,58,58,58,58,58,58,13,11,13,11,13,13,13,13,13,13,13,13,13,13,13,13,13,13,
13,13,13,13,13,13,13,13,13,13,13,13,13,13,13,13,13,13,13,13,13,13,0,0,0,0,0,0,11,13,11,13,11,58,58,58,58,58,58,58,58,58,11,13,11,13,11,13,13,13,13,13,13,13,13,13,13,13,13,13,
13,13,13,13,13,13,13,13,13,13,13,13,13,13,13,13,13,13,13,13,13,13,0,0,0,0,0,0,0,0,0,0,0,58,58,58,58,58,58,58,58,58,13,0,0,0,0,58,13,13,13,13,13,13,13,13,13,13,13,13,
13,13,13,13,13,13,13,13,13,58,13,13,13,13,13,58,13,13,13,13,13,13,0,0,0,0,0,0,0,0,0,0,0,58,58,58,58,58,58,58,58,58,0,0,0,0,0,0,0,0,0,0,0,0,0,0,0,0,0,0,
13,13,13,13,13,13,13,13,13,13,13,13,13,13,13,13,13,13,13,13,13,13,0,0,0,0,0,0,0,0,0,0,0,58,58,58,58,58,58,58,58,58,0,0,0,0,0,0,0,0,0,0,0,0,0,0,0,0,0,0,
13,13,13,13,13,15,15,13,13,15,13,13,13,15,13,13,13,13,13,13,13,13,0,0,0,0,0,0,0,0,0,0,0,0,0,0,0,0,0,0,0,0,0,0,0,0,0,0,0,0,0,0,0,0,0,0,0,0,0,0,
13,13,13,13,15,13,15,13,15,13,11,13,15,13,13,13,13,13,13,13,13,13,0,0,0,0,0,0,0,0,58,58,58,58,58,58,58,58,58,58,58,58,58,58,58,58,58,0,0,0,0,0,0,0,0,0,0,0,0,0,
13,13,13,13,13,11,13,11,13,11,13,13,13,11,13,13,13,13,13,13,13,13,0,0,0,0,0,0,0,0,0,0,0,0,0,0,58,58,58,58,58,58,58,58,58,58,58,0,0,0,0,0,0,0,0,0,0,0,0,0,
13,13,13,13,2483,2469,2469,2469,2469,2485,13,13,13,13,13,13,13,13,13,13,13,13,0,0,0,0,0,0,0,0,0,0,0,0,0,0,0,0,0,0,0,0,0,0,0,0,0,0,0,0,0,0,0,0,0,0,0,0,0,0,
2469,2469,2469,2469,2450,2449,2449,2449,2449,2473,13,15,13,15,1,1,13,13,13,13,13,13,0,0,0,0,0,0,0,0,0,0,0,0,0,0,0,0,0,0,0,0,0,0,0,0,0,0,0,0,0,0,0,0,0,0,0,0,0,0,
2449,2449,2449,2449,2449,2453,2477,2477,2477,2487,13,13,15,1,1,1,13,13,13,13,13,13,0,0,0,0,0,0,0,0,58,58,58,58,58,58,58,58,58,58,58,58,58,58,58,58,58,0,0,0,0,0,0,0,0,0,0,0,0,0,
2477,2477,2477,2477,2477,2487,13,13,13,15,1,1,1,1,1,1,13,13,13,59,13,13,0,0,0,0,0,0,0,0,0,0,0,0,0,0,0,0,0,0,0,0,0,0,0,0,0,0,0,0,0,0,0,0,0,0,0,0,0,0,
13,13,13,13,13,15,1,1,1,1,1,1,1,1,1,1,13,13,13,13,13,13,0,0,0,0,0,0,0,0,0,0,0,0,0,0,0,0,0,0,0,0,0,0,0,0,0,0,0,0,0,0,0,0,0,0,0,0,0,0,
0,0,0,0,15,1,1,1,1,1,1,1,15,1,1,1,0,0,0,0,0,0,0,0,0,0,0,0,0,0,0,0,0,0,0,0,0,0,0,0,0,0,0,0,0,0,0,0,0,0,0,0,0,0,0,0,0,0,0,0,
0,0,0,0,1,1,1,1,1,1,1,1,1,1,1,1,0,0,0,0,0,0,0,0,0,0,0,0,0,0,0,0,0,0,0,0,0,0,0,0,0,0,0,0,0,0,0,0,0,0,0,0,0,0,0,0,0,0,0,0,
0,0,0,0,0,0,0,0,0,0,0,0,0,0,0,0,0,0,0,0,0,0,0,0,0,0,0,0,0,0,0,0,0,0,0,0,0,0,0,0,0,0,0,0,0,0,0,0,0,0,0,0,0,0,0,0,0,0,0,0,
0,0,0,0,0,0,0,0,0,0,0,0,0,0,0,0,0,0,0,0,0,0,0,0,0,0,0,0,0,0,0,0,0,0,0,0,0,0,0,0,0,0,0,0,0,0,0,0,0,0,0,0,0,0,0,0,0,0,0,0,
0,0,0,0,0,0,0,0,0,0,0,0,0,0,0,0,0,0,0,0,0,0,0,0,0,0,0,0,0,0,0,0,0,0,0,0,0,0,0,0,0,0,0,0,0,0,0,0,0,0,0,0,0,0,0,0,0,0,0,0,
0,0,0,0,0,0,0,0,0,0,0,0,0,0,0,0,0,0,0,0,0,0,0,0,0,0,0,0,0,0,0,0,0,0,0,0,0,0,0,0,0,0,0,0,0,0,0,0,0,0,0,0,0,0,0,0,0,0,0,0,
0,0,0,0,0,0,0,0,0,0,0,0,0,0,0,0,0,0,0,0,0,0,0,0,0,0,0,0,0,0,0,0,0,0,0,0,0,0,0,0,0,0,0,0,0,0,0,0,0,0,0,0,0,0,0,0,0,0,0,0,
0,0,0,0,0,0,0,0,0,0,0,0,0,0,0,0,0,0,0,0,0,0,0,0,0,0,0,0,0,0,0,0,0,0,0,0,0,0,0,0,0,0,0,0,0,0,0,0,0,0,0,0,0,0,0,0,0,0,0,0,
0,0,0,0,0,0,0,0,0,0,0,0,0,0,0,0,0,0,0,0,0,0,0,0,0,0,0,0,0,0,0,58,58,58,58,58,58,58,58,58,58,58,58,58,58,58,0,0,0,0,0,0,0,0,0,0,0,0,0,0,
0,0,0,0,0,0,0,0,0,0,0,0,0,0,0,0,0,0,0,0,0,0,0,0,0,0,0,0,0,0,0,0,0,0,0,0,0,0,0,0,0,0,0,0,0,0,0,0,0,0,0,0,0,0,0,0,0,0,0,0,
0,0,0,0,0,0,0,0,0,0,0,0,0,0,0,0,0,0,0,0,0,0,0,0,0,0,0,0,0,0,0,0,0,0,0,0,0,0,0,0,0,0,0,0,0,0,0,0,0,0,0,0,0,0,0,0,0,0,0,0,
0,0,0,0,0,0,0,0,0,0,0,0,0,0,0,0,0,0,0,0,0,0,0,0,0,0,0,0,0,0,0,0,0,0,0,0,0,0,0,0,0,0,0,0,0,0,0,0,0,0,0,0,0,0,0,0,0,0,0,0,
0,0,0,0,0,0,0,0,0,0,0,0,0,0,0,0,0,0,0,0,0,0,0,0,0,0,0,0,0,0,0,0,0,0,0,0,0,0,0,0,0,0,0,0,0,0,0,0,0,0,0,0,0,0,0,0,0,0,0,0,
0,0,0,0,0,0,0,0,0,0,0,0,0,0,0,0,0,0,0,0,0,0,0,0,0,0,0,0,0,0,0,0,0,0,0,0,0,0,0,0,0,0,0,0,0,0,0,0,0,0,0,0,0,0,0,0,0,0,0,0,
0,0,0,0,0,0,0,0,0,0,0,0,0,0,0,0,0,0,0,0,0,0,0,0,0,0,0,0,0,0,0,0,0,0,0,0,0,0,0,0,0,0,0,0,0,0,0,0,0,0,0,0,0,0,0,0,0,0,0,0,
0,0,0,0,0,0,0,0,0,0,0,0,0,0,0,0,0,0,0,0,0,0,0,0,0,0,0,0,0,0,0,0,0,0,0,0,0,0,0,0,0,0,0,0,0,0,0,0,0,0,0,0,0,0,0,0,0,0,0,0,
0,0,0,0,0,0,0,0,0,0,0,0,0,0,0,0,0,0,0,0,0,0,0,0,0,0,0,0,0,0,0,0,0,0,0,0,0,0,0,0,0,0,0,0,0,0,0,0,0,0,0,0,0,0,0,0,0,0,0,0,
0,0,0,0,0,0,0,0,0,0,0,0,0,0,0,0,0,0,0,0,0,0,0,0,0,0,0,0,0,0,0,0,0,0,0,0,0,0,0,0,0,0,0,0,0,0,0,0,0,0,0,0,0,0,0,0,0,0,0,0,
0,0,0,0,0,0,0,0,0,0,0,0,0,0,0,0,0,0,0,0,0,0,0,0,0,0,0,0,0,0,0,0,0,0,0,0,0,0,0,0,0,0,0,0,0,0,0,0,0,0,0,0,0,0,0,0,0,0,0,0,
0,0,0,0,0,0,0,0,0,0,0,0,0,0,0,0,0,0,0,0,0,0,0,0,0,0,0,0,0,0,0,0,0,0,0,0,0,0,0,0,0,0,0,0,0,0,0,0,0,0,0,0,0,0,0,0,0,0,0,0,
0,0,0,0,0,0,0,0,0,0,0,0,0,0,0,0,0,0,0,0,0,0,0,0,0,0,0,0,0,0,0,0,0,0,0,0,0,0,0,0,0,0,0,0,0,0,0,0,0,0,0,0,0,0,0,0,0,0,0,0,
0,0,0,0,0,0,0,0,0,0,0,0,0,0,0,0,0,0,0,0,0,0,0,0,0,0,0,0,0,0,0,0,0,0,0,0,0,0,0,0,0,0,0,0,0,0,0,0,0,0,0,0,0,0,0,0,0,0,0,0,
0,0,0,0,0,0,0,0,0,0,0,0,0,0,0,0,0,0,0,0,0,0,0,0,0,0,0,0,0,0,0,0,0,0,0,0,0,0,0,0,0,0,0,0,0,0,0,0,0,0,0,0,0,0,0,0,0,0,0,0
  </data>
 </layer>
 <layer id="2" name="middle" width="60" height="62">
  <data encoding="csv">
58,58,58,58,58,58,58,58,58,57,58,58,58,58,58,59,58,59,281,282,281,282,281,282,281,282,281,282,281,282,281,282,281,282,281,282,281,282,281,282,281,282,281,282,281,282,281,282,281,282,281,282,281,282,281,282,281,282,281,282,
58,58,58,58,58,58,58,58,58,57,58,58,58,58,58,59,58,59,273,274,273,274,273,274,273,274,273,274,273,274,273,274,273,274,273,274,273,274,273,274,273,274,273,274,273,274,273,274,273,274,273,274,273,274,273,274,273,274,273,274,
58,58,58,58,58,58,58,58,58,57,58,58,58,58,58,59,58,59,281,282,281,282,281,282,281,282,281,282,281,282,281,282,281,282,281,282,281,282,281,282,281,282,281,282,281,282,281,282,281,282,281,282,281,282,281,282,281,282,281,282,
58,58,58,58,58,58,58,58,58,57,58,58,58,58,58,59,58,59,273,274,273,274,273,274,273,274,273,274,273,274,273,274,273,274,273,274,273,274,273,274,273,274,273,274,273,274,273,274,273,274,273,274,273,274,273,274,273,274,273,274,
58,58,58,58,58,58,58,58,58,57,58,58,58,58,58,59,58,59,281,282,281,282,281,282,281,282,281,282,281,282,281,282,281,282,281,282,281,282,281,282,281,282,281,282,281,282,281,282,281,282,281,282,281,282,281,282,281,282,281,282,
58,58,58,58,58,58,58,58,58,57,58,58,58,58,58,59,58,59,289,290,289,290,289,290,289,290,289,290,289,290,289,290,289,290,289,290,289,290,289,290,289,290,289,290,289,290,289,290,289,290,289,290,289,290,289,290,289,290,289,290,
58,58,58,58,58,58,58,58,58,57,58,58,58,58,58,59,58,59,297,298,297,298,297,298,297,298,297,298,297,298,297,298,297,298,297,298,297,298,297,298,297,298,297,298,297,298,297,298,297,298,297,298,297,298,297,298,297,298,297,298,
58,58,58,58,58,58,58,58,58,57,58,58,58,58,58,59,58,59,66,66,66,66,66,66,66,66,66,66,66,66,66,66,66,66,66,66,66,66,66,66,66,66,66,66,66,66,66,66,66,66,66,66,66,66,66,66,66,66,66,66,
58,58,58,58,58,58,58,58,58,57,58,58,58,58,58,59,58,59,66,66,66,66,66,66,66,66,66,66,66,66,66,66,66,66,66,66,66,66,66,66,66,66,66,66,66,66,66,66,66,66,66,66,66,66,66,66,66,66,66,66,
58,58,58,58,58,58,58,58,58,57,58,58,58,58,58,59,58,59,273,274,273,274,273,274,273,274,273,274,273,274,273,274,273,274,273,274,273,274,273,274,273,274,291,290,291,290,291,290,291,290,275,274,291,290,291,290,273,274,273,274,
58,58,58,58,58,58,58,58,58,57,58,58,58,58,58,59,58,59,281,282,281,282,281,282,281,282,281,282,281,282,281,282,281,282,281,282,281,282,281,282,281,284,299,300,299,300,299,300,299,300,283,284,299,300,299,300,281,282,281,282,
58,58,58,58,58,58,58,58,58,57,58,58,58,58,58,59,58,59,273,274,273,274,273,274,273,274,273,274,273,274,273,274,273,274,273,274,273,274,273,274,291,292,49,50,50,50,50,50,50,51,291,292,0,0,0,0,273,274,273,274,
58,58,58,58,58,58,58,58,58,57,58,58,58,58,58,59,58,59,281,282,281,282,281,282,281,282,281,282,281,282,281,282,281,282,281,282,281,282,281,284,299,300,57,49,50,50,50,50,51,59,299,300,0,0,0,0,281,282,281,282,
58,58,58,58,58,58,58,58,58,57,58,58,58,58,58,59,58,59,273,274,273,274,273,274,273,274,273,274,273,274,273,274,273,274,273,274,273,274,291,292,49,50,46,57,58,58,58,58,59,45,50,51,0,0,287,288,273,274,273,274,
58,58,58,58,58,58,58,58,58,57,58,58,58,58,58,59,58,59,281,282,281,282,281,282,281,282,281,282,281,282,281,282,281,282,281,282,281,284,299,300,57,58,49,46,58,58,58,58,45,50,51,59,0,0,295,296,281,282,281,282,
58,58,58,58,58,58,58,58,58,57,58,58,58,58,58,59,58,59,273,274,273,274,273,274,273,274,273,274,291,290,291,290,291,290,291,290,291,292,49,50,46,49,46,58,58,58,23,66,66,66,67,59,0,0,291,290,291,290,291,290,
58,58,58,58,58,58,58,58,58,57,58,58,58,58,58,59,58,59,281,282,281,282,281,282,281,282,281,284,299,300,299,300,299,300,299,300,299,300,57,58,58,57,58,58,58,58,59,23,66,0,66,67,0,0,299,300,299,300,299,300,
58,58,58,58,58,58,58,58,58,57,58,58,58,58,58,59,58,59,273,274,273,274,273,274,273,274,273,276,49,50,50,50,50,50,50,50,50,50,46,58,58,57,58,58,58,58,59,59,0,0,0,0,0,0,63,64,0,0,0,0,
58,58,58,58,58,58,58,58,58,57,58,58,58,58,58,59,58,59,281,282,281,282,281,282,281,282,281,284,57,49,50,50,50,50,50,50,50,50,50,50,50,46,58,58,58,58,59,59,19,19,19,22,0,0,71,72,0,0,0,0,
58,58,58,58,58,58,58,58,58,57,58,58,58,58,58,59,58,59,291,290,273,274,273,274,273,274,273,276,57,57,58,58,58,58,58,58,58,58,58,58,58,58,58,58,58,58,59,59,0,0,0,0,0,0,0,0,287,288,287,288,
58,58,58,58,58,58,58,58,58,57,58,58,58,58,58,59,58,59,299,300,281,282,281,282,281,282,281,284,57,57,58,58,58,58,58,58,58,58,58,58,58,58,58,58,58,58,59,59,0,0,0,0,0,0,0,0,295,296,295,296,
58,58,58,58,58,58,58,58,58,57,58,58,58,58,58,59,58,45,50,51,273,274,273,274,273,274,273,276,57,57,58,58,23,66,66,66,66,66,66,66,24,58,58,58,58,58,59,45,50,51,0,0,2,0,0,0,273,274,273,274,
58,58,58,58,58,58,58,58,58,57,58,58,58,58,58,59,58,58,58,59,281,282,281,282,281,282,281,284,57,57,58,58,59,23,66,66,66,66,24,58,57,58,58,58,58,58,59,58,58,59,0,0,0,0,0,0,281,282,281,282,
58,58,58,58,58,58,58,58,58,57,58,58,58,58,58,59,58,58,58,59,273,274,273,274,273,274,273,276,57,57,58,58,59,59,0,0,0,0,65,24,65,66,24,58,58,58,59,58,58,45,50,50,50,50,50,51,273,274,273,274,
66,66,66,66,66,66,66,66,24,57,58,58,58,58,58,59,58,58,58,59,281,282,281,282,281,282,281,284,57,57,58,58,59,59,0,0,0,0,0,65,66,24,57,58,58,58,59,58,58,58,58,58,58,58,58,59,281,282,281,282,
273,274,273,274,273,274,273,276,57,57,58,58,58,58,58,59,58,58,58,59,273,274,273,274,273,274,273,276,57,57,58,58,59,0,0,0,0,0,0,0,0,57,57,58,58,58,59,58,58,58,58,58,58,58,58,59,273,274,273,274,
281,282,281,282,281,282,281,284,57,57,58,58,58,58,58,59,58,58,58,59,281,282,281,282,281,282,281,284,57,57,58,58,59,59,0,0,0,0,0,0,0,57,57,58,58,58,59,58,58,23,66,66,66,66,66,67,281,282,281,282,
273,274,273,274,273,274,273,276,57,57,58,58,58,58,58,59,58,58,58,59,273,274,273,274,273,274,273,276,57,57,58,58,59,59,0,0,0,0,0,0,0,57,57,58,58,58,59,58,58,59,273,274,273,274,273,274,273,274,273,274,
281,282,281,282,281,282,281,284,57,57,58,58,58,58,58,59,58,58,58,59,281,282,281,282,281,282,281,284,57,57,58,58,59,45,50,50,50,50,50,50,50,46,57,58,58,58,45,51,58,59,281,282,281,282,281,282,281,282,281,282,
273,274,273,274,291,290,291,292,57,65,66,66,66,66,66,67,58,58,58,59,273,274,273,274,273,274,273,276,57,57,58,58,45,51,0,0,0,0,0,0,0,58,57,58,58,58,58,59,58,59,273,274,273,274,273,274,273,274,273,274,
281,282,281,284,299,300,299,300,65,66,66,66,0,66,24,58,58,58,58,59,281,282,281,282,281,282,281,284,57,57,58,58,58,45,50,50,50,50,50,50,50,50,46,58,58,58,58,59,58,59,281,282,281,282,281,282,281,282,281,282,
273,274,291,292,0,246,0,0,0,0,0,0,0,0,57,58,58,58,58,59,273,274,273,274,273,274,273,276,57,57,58,58,58,58,58,58,58,58,58,58,58,58,58,58,58,58,58,59,58,59,273,274,273,274,273,274,273,274,273,274,
281,284,299,300,0,254,0,0,0,0,0,2,0,0,57,58,58,58,58,59,281,282,281,282,281,282,281,284,57,57,58,58,58,58,58,58,58,58,58,58,58,58,58,58,58,58,58,59,58,59,281,282,281,282,281,282,281,282,281,282,
291,292,63,64,0,0,0,0,0,0,0,0,0,0,57,58,58,58,58,59,273,274,273,274,273,274,273,276,57,57,58,58,58,58,58,58,49,50,50,50,50,50,50,50,50,50,51,59,58,59,273,274,273,274,273,274,273,274,273,274,
299,300,71,72,0,0,0,0,21,19,19,19,19,22,65,66,24,58,58,59,281,282,281,282,281,282,281,284,57,57,58,58,58,58,58,58,57,58,58,58,58,58,58,58,58,58,59,59,58,59,281,282,281,282,281,282,281,282,281,282,
0,0,0,0,0,0,0,0,0,0,0,0,0,0,0,0,57,58,58,59,273,274,273,274,273,274,273,276,57,57,58,58,58,58,58,58,57,58,58,58,58,58,58,58,58,58,59,59,58,59,273,274,273,274,273,274,273,274,273,274,
0,0,0,0,0,0,0,0,0,0,0,0,0,0,0,0,57,58,58,59,281,282,281,282,281,282,281,284,57,57,49,50,50,50,50,50,46,58,58,58,58,58,58,58,58,58,59,59,58,59,281,282,281,282,281,282,281,282,281,282,
287,288,287,288,0,0,0,0,0,0,0,0,0,0,0,0,57,58,58,288,273,274,273,274,273,274,273,276,57,57,57,58,58,58,58,58,58,58,58,58,58,58,58,58,58,58,59,59,58,59,273,274,273,274,273,274,273,274,273,274,
295,296,295,296,0,0,0,0,0,0,0,0,0,0,0,0,65,66,66,67,281,282,281,282,281,282,281,284,57,57,57,58,58,58,58,58,58,58,58,58,58,58,58,58,58,58,59,59,58,59,281,282,281,282,281,282,281,282,281,282,
273,274,273,276,287,288,287,288,287,288,287,288,287,288,287,288,273,274,273,274,273,274,273,274,273,274,273,276,57,57,57,58,58,58,58,58,58,58,58,58,58,58,58,58,58,58,59,59,58,59,273,274,273,274,273,274,273,274,273,274,
281,282,281,282,295,296,295,296,295,296,295,296,295,296,295,296,281,282,281,282,281,282,281,282,281,282,281,284,57,57,57,58,58,58,58,58,58,58,58,58,58,58,58,58,58,58,59,59,58,59,281,282,281,282,281,282,281,282,281,282,
273,274,273,274,273,274,273,274,273,274,273,274,273,274,273,274,273,274,273,274,273,274,273,274,273,274,273,276,57,57,57,58,58,58,58,58,58,58,58,58,58,58,58,58,58,58,59,59,58,59,273,274,273,274,273,274,273,274,273,274,
281,282,281,282,281,282,281,282,281,282,281,282,281,282,281,282,281,282,281,282,281,282,281,282,281,282,281,284,57,57,57,58,58,58,58,58,58,58,58,58,58,58,58,58,58,58,59,59,58,59,281,282,281,282,281,282,281,282,281,282,
273,274,273,274,273,274,273,274,273,274,273,274,273,274,273,274,273,274,273,274,273,274,273,274,273,274,273,276,57,57,57,58,58,58,58,58,58,58,58,58,58,58,58,58,58,58,59,59,58,59,273,274,273,274,273,274,273,274,273,274,
281,282,281,282,281,282,281,282,281,282,281,282,281,282,281,282,281,282,281,282,281,282,281,282,281,282,281,284,57,57,57,58,58,58,58,58,58,58,58,58,58,58,58,58,58,58,59,59,58,59,281,282,281,282,281,282,281,282,281,282,
273,274,273,274,273,274,273,274,273,274,273,274,273,274,273,274,273,274,273,274,273,274,273,274,273,274,273,276,57,57,57,58,58,58,58,58,58,58,58,58,58,58,58,58,58,58,59,59,58,59,273,274,273,274,273,274,273,274,273,274,
281,282,281,282,281,282,281,282,281,282,281,282,281,282,281,282,281,282,281,282,281,282,281,282,281,282,281,284,57,57,57,58,58,58,58,58,58,58,58,58,58,58,58,58,58,58,59,59,58,59,281,282,281,282,281,282,281,282,281,282,
273,274,273,274,273,274,273,274,273,274,273,274,273,274,273,274,273,274,273,274,273,274,273,274,273,274,273,276,57,57,57,49,50,50,50,50,50,50,50,50,50,50,50,50,50,51,59,59,58,59,273,274,273,274,273,274,273,274,273,274,
281,282,281,282,281,282,281,282,281,282,281,282,281,282,281,282,281,282,281,282,281,282,281,282,281,282,281,284,57,57,57,57,58,58,58,58,58,58,58,58,58,58,58,58,58,59,59,59,58,59,281,282,281,282,281,282,281,282,281,282,
273,274,273,274,273,274,273,274,273,274,273,274,273,274,273,274,273,274,273,274,273,274,273,274,273,274,273,276,57,57,57,57,58,58,58,58,58,58,58,58,58,58,58,58,58,59,59,59,58,59,273,274,273,274,273,274,273,274,273,274,
281,282,281,282,281,282,281,282,281,282,281,282,281,282,281,282,281,282,281,282,281,282,281,282,281,282,281,284,57,57,57,57,58,58,58,58,58,58,58,58,58,58,58,58,58,59,59,59,58,59,281,282,281,282,281,282,281,282,281,282,
273,274,273,274,273,274,273,274,273,274,273,274,273,274,273,274,273,274,273,274,273,274,273,274,273,274,273,276,57,57,57,57,58,58,58,58,58,58,58,58,58,58,58,58,58,59,59,59,58,59,273,274,273,274,273,274,273,274,273,274,
281,282,281,282,281,282,281,282,281,282,281,282,281,282,281,282,281,282,281,282,281,282,281,282,281,282,281,284,57,57,57,57,58,58,58,58,58,58,58,58,58,58,58,58,58,59,59,59,58,59,281,282,281,282,281,282,281,282,281,282,
273,274,273,274,273,274,273,274,273,274,273,274,273,274,273,274,273,274,273,274,273,274,273,274,273,274,273,276,57,57,57,57,58,58,58,58,58,58,58,58,58,58,58,58,58,59,59,59,58,59,273,274,273,274,273,274,273,274,273,274,
281,282,281,282,281,282,281,282,281,282,281,282,281,282,281,282,281,282,281,282,281,282,281,282,281,282,281,284,57,57,57,57,58,58,58,58,58,58,58,58,58,58,58,58,58,59,59,59,58,59,281,282,281,282,281,282,281,282,281,282,
273,274,273,274,273,274,273,274,273,274,273,274,273,274,273,274,273,274,273,274,273,274,273,274,273,274,273,276,57,57,57,57,58,58,58,58,58,58,58,58,58,58,58,58,58,59,59,59,58,59,273,274,273,274,273,274,273,274,273,274,
281,282,281,282,281,282,281,282,281,282,281,282,281,282,281,282,281,282,281,282,281,282,281,282,281,282,281,284,57,57,57,57,58,58,58,58,58,58,58,58,58,58,58,58,58,59,59,59,58,59,281,282,281,282,281,282,281,282,281,282,
273,274,273,274,273,274,273,274,273,274,273,274,273,274,273,274,273,274,273,274,273,274,273,274,273,274,273,276,57,57,57,57,58,58,58,58,58,58,58,58,58,58,58,58,58,59,59,59,58,59,273,274,273,274,273,274,273,274,273,274,
281,282,281,282,281,282,281,282,281,282,281,282,281,282,281,282,281,282,281,282,281,282,281,282,281,282,281,284,57,57,57,57,58,58,58,58,58,58,58,58,58,58,58,58,58,59,59,59,58,59,281,282,281,282,281,282,281,282,281,282,
273,274,273,274,273,274,273,274,273,274,273,274,273,274,273,274,273,274,273,274,273,274,273,274,273,274,273,276,57,57,57,57,58,58,58,58,58,58,58,58,58,58,58,58,58,59,59,59,58,59,273,274,273,274,273,274,273,274,273,274,
281,282,281,282,281,282,281,282,281,282,281,282,281,282,281,282,281,282,281,282,281,282,281,282,281,282,281,284,57,57,57,57,58,58,58,58,58,58,58,58,58,58,58,58,58,59,59,59,58,59,281,282,281,282,281,282,281,282,281,282,
273,274,273,274,273,274,273,274,273,274,273,274,273,274,273,274,273,274,273,274,273,274,273,274,273,274,273,276,57,57,57,57,58,58,58,58,58,58,58,58,58,58,58,58,58,59,59,59,58,59,273,274,273,274,273,274,273,274,273,274
  </data>
 </layer>
 <layer id="3" name="upper" width="60" height="62">
  <data encoding="csv">
0,0,0,0,0,0,0,0,0,0,0,0,0,0,0,0,0,286,0,0,0,0,0,0,0,0,0,0,0,0,0,0,0,0,0,0,0,0,0,0,0,0,0,0,0,0,0,0,0,0,0,0,0,0,0,0,0,0,0,0,
0,0,0,0,0,0,0,0,0,0,0,0,0,0,0,0,0,294,0,0,0,0,0,0,0,0,0,0,0,0,0,0,0,0,0,0,0,0,0,0,0,0,0,0,0,0,0,0,0,0,0,0,0,0,0,0,0,0,0,0,
0,0,0,0,0,0,0,0,0,0,0,0,0,0,0,0,0,286,0,0,0,0,0,0,0,0,0,0,0,0,0,0,0,0,0,0,0,0,0,0,0,0,0,0,0,0,0,0,0,0,0,0,0,0,0,0,0,0,0,0,
0,0,0,0,0,0,0,0,0,0,0,0,0,0,0,0,0,294,0,0,0,0,0,0,0,0,0,0,0,0,0,0,0,0,0,0,0,0,0,0,0,0,0,0,0,0,0,0,0,0,0,0,0,0,0,0,0,0,0,0,
0,0,0,0,0,0,0,0,0,0,0,0,0,0,0,0,0,286,0,0,0,0,0,0,0,0,0,0,0,0,0,0,0,0,0,0,0,0,0,0,0,0,0,0,0,0,0,0,0,0,0,0,0,0,0,0,0,0,0,0,
0,0,0,0,0,0,0,0,0,0,0,0,0,0,0,0,0,294,0,0,0,0,0,0,0,0,0,0,0,0,0,0,0,0,0,0,0,0,0,0,0,0,0,0,0,0,0,0,0,0,0,0,0,0,0,0,0,0,0,0,
0,0,0,0,0,0,0,0,0,0,0,0,0,0,0,0,0,0,0,0,0,0,0,0,0,0,0,0,0,0,0,0,0,0,0,0,0,0,0,0,0,0,0,0,0,0,0,0,0,0,0,0,0,0,0,0,0,0,0,0,
0,0,0,0,0,0,0,0,0,0,0,0,0,0,0,0,0,0,287,288,287,288,287,288,287,288,287,288,287,288,287,288,287,288,287,288,287,288,287,288,287,288,287,288,287,288,287,288,287,288,287,288,287,288,287,288,287,288,287,288,
0,0,0,0,0,0,0,0,0,0,0,0,0,0,0,0,0,286,295,296,295,296,295,296,295,296,295,296,295,296,295,296,295,296,295,296,295,296,295,296,295,296,295,296,295,296,295,296,295,296,295,296,295,296,295,296,295,296,295,296,
0,0,0,0,0,0,0,0,0,0,0,0,0,0,0,0,0,294,0,0,0,0,0,0,0,0,0,0,0,0,0,0,0,0,0,0,0,0,0,0,0,0,0,0,0,0,0,0,0,0,0,0,0,0,0,0,0,0,0,0,
0,0,0,0,0,0,0,0,0,0,0,0,0,0,0,0,0,286,0,0,0,0,0,0,0,0,0,0,0,0,0,0,0,0,0,0,0,0,0,0,0,0,285,0,0,0,0,0,0,286,0,0,285,0,0,286,0,0,0,0,
0,0,0,0,0,0,0,0,0,0,0,0,0,0,0,0,0,294,0,0,0,0,0,0,0,0,0,0,0,0,0,0,0,0,0,0,0,0,0,0,0,0,293,0,0,0,0,0,0,294,0,0,293,0,0,294,0,0,0,0,
0,0,0,0,0,0,0,0,0,0,0,0,0,0,0,0,0,286,0,0,0,0,0,0,0,0,0,0,0,0,0,0,0,0,0,0,0,0,0,0,285,0,0,0,0,0,0,0,0,0,0,0,0,0,0,286,0,0,0,0,
0,0,0,0,0,0,0,0,0,0,0,0,0,0,0,0,0,294,0,0,0,0,0,0,0,0,0,0,0,0,0,0,0,0,0,0,0,0,0,0,293,0,0,0,0,0,0,0,0,0,0,0,0,0,0,294,0,0,0,0,
0,0,0,0,0,0,0,0,0,0,0,0,0,0,0,0,0,286,0,0,0,0,0,0,0,0,0,0,0,0,0,0,0,0,0,0,0,0,285,0,0,0,0,0,0,0,0,0,0,0,0,0,0,286,0,0,0,0,0,0,
0,0,0,0,0,0,0,0,0,0,0,0,0,0,0,0,0,294,0,0,0,0,0,0,0,0,0,0,0,0,0,0,0,0,0,0,0,0,293,0,0,0,0,0,0,0,0,0,446,447,448,0,0,294,0,0,0,0,0,0,
0,0,0,0,0,0,0,0,0,0,0,0,0,0,0,0,0,286,0,0,0,0,0,0,0,0,0,0,285,0,0,0,0,0,0,0,0,0,0,0,0,0,0,0,0,0,0,0,454,455,456,0,0,0,0,0,0,0,0,0,
0,0,0,0,0,0,0,0,0,0,0,0,0,0,0,0,0,294,0,0,0,0,0,0,0,0,0,0,293,0,0,0,0,0,0,0,0,0,0,0,0,0,0,0,0,0,0,0,0,0,0,0,0,0,0,0,0,0,0,0,
0,0,0,0,0,0,0,0,0,0,0,0,0,0,0,0,0,286,0,0,0,0,0,0,0,0,0,0,285,0,0,0,0,0,0,0,0,0,0,0,0,0,0,0,0,0,0,0,0,0,0,0,0,0,0,0,0,0,0,0,
0,0,0,0,0,0,0,0,0,0,0,0,0,0,0,0,0,294,0,0,0,0,0,0,0,0,0,0,293,0,0,0,0,0,0,0,0,0,0,0,0,0,0,0,0,0,0,0,0,0,0,0,0,0,0,0,0,0,0,0,
0,0,0,0,0,0,0,0,0,0,0,0,0,0,0,0,0,0,0,286,0,0,0,0,0,0,0,0,285,0,0,0,0,0,0,0,0,0,0,0,0,0,0,0,0,0,0,0,0,0,0,0,0,0,0,286,0,0,0,0,
0,0,0,0,0,0,0,0,0,0,0,0,0,0,0,0,0,0,0,294,0,0,0,0,0,0,0,0,293,0,0,0,0,0,0,0,0,1086,0,0,0,0,0,0,0,0,0,0,0,0,0,0,0,0,0,294,0,0,0,0,
0,0,0,0,0,0,0,0,0,0,0,0,0,0,0,0,0,0,0,286,0,0,0,0,0,0,0,0,285,0,0,0,0,0,63,64,0,1086,0,0,0,0,0,0,0,0,0,0,0,0,0,0,0,0,0,286,0,0,0,0,
287,288,287,288,287,288,287,288,0,0,0,0,0,0,0,0,0,0,0,294,0,0,0,0,0,0,0,0,293,0,0,0,0,0,71,72,0,0,0,0,0,0,0,0,0,0,0,0,0,0,0,0,0,0,0,294,0,0,0,0,
295,296,295,296,295,296,295,296,285,0,0,0,0,0,0,0,0,0,0,286,0,0,0,0,0,0,0,0,285,0,0,0,370,371,0,0,0,0,0,0,0,0,0,0,0,0,0,0,0,0,0,0,0,0,0,286,0,0,0,0,
0,0,0,0,0,0,0,0,293,0,0,0,0,0,0,0,0,0,0,294,0,0,0,0,0,0,0,0,293,0,0,0,378,379,0,0,0,0,0,0,0,0,0,0,0,0,0,0,0,0,287,288,287,288,287,294,0,0,0,0,
0,0,0,0,0,0,0,0,285,0,0,0,0,0,0,0,0,0,0,286,0,0,0,0,0,0,0,0,285,0,0,0,386,387,0,0,475,0,0,63,64,0,0,0,0,0,0,0,0,286,295,296,295,296,295,296,0,0,0,0,
0,0,0,0,0,0,0,0,293,0,0,0,0,0,0,0,0,0,0,294,0,0,0,0,0,0,0,0,293,0,0,0,0,0,475,0,0,0,0,71,72,0,0,0,0,0,0,0,0,294,0,0,0,0,0,0,0,0,0,0,
0,0,0,0,0,0,0,0,285,0,0,0,0,0,0,0,0,0,0,286,0,0,0,0,0,0,0,0,285,0,0,0,0,0,0,0,0,0,0,0,0,0,0,0,0,0,0,0,0,286,0,0,0,0,0,0,0,0,0,0,
0,0,0,0,0,0,0,0,293,0,0,446,447,448,0,0,0,0,0,294,0,0,0,0,0,0,0,0,293,0,0,0,0,0,0,0,0,0,0,0,0,0,0,0,0,0,0,0,0,294,0,0,0,0,0,0,0,0,0,0,
0,0,0,0,285,0,0,0,0,0,0,454,455,456,0,0,0,0,0,286,0,0,0,0,0,0,0,0,285,0,0,0,0,0,0,0,0,0,0,0,0,0,0,0,0,0,0,0,0,286,0,0,0,0,0,0,0,0,0,0,
0,0,0,0,293,0,0,0,0,0,0,0,0,0,0,0,63,64,0,294,0,0,0,0,0,0,0,0,293,0,0,0,0,0,0,0,0,0,0,0,0,0,0,0,0,0,0,0,0,294,0,0,0,0,0,0,0,0,0,0,
0,0,285,0,0,0,0,0,0,0,0,0,0,0,0,0,71,72,0,286,0,0,0,0,0,0,0,0,285,0,0,0,0,0,0,0,0,0,0,0,0,0,0,0,0,0,0,0,0,286,0,0,0,0,0,0,0,0,0,0,
0,0,293,0,0,0,0,0,0,0,0,0,0,0,0,0,0,0,0,294,0,0,0,0,0,0,0,0,293,0,0,0,0,0,0,0,0,0,0,0,0,0,0,0,0,0,0,0,0,294,0,0,0,0,0,0,0,0,0,0,
0,0,0,0,0,0,0,0,0,0,0,0,0,0,0,0,0,0,0,286,0,0,0,0,0,0,0,0,285,0,0,0,0,0,0,0,0,0,0,0,0,0,0,0,0,0,0,0,0,286,0,0,0,0,0,0,0,0,0,0,
0,0,0,0,0,0,0,0,0,0,0,0,0,0,0,0,0,0,0,294,0,0,0,0,0,0,0,0,293,0,0,0,0,0,0,0,0,0,0,0,0,0,0,0,0,0,0,0,0,294,0,0,0,0,0,0,0,0,0,0,
0,0,0,0,0,0,0,0,0,0,0,0,0,0,0,0,0,0,0,286,0,0,0,0,0,0,0,0,285,0,0,0,0,0,0,0,0,0,0,0,0,0,0,0,0,0,0,0,0,286,0,0,0,0,0,0,0,0,0,0,
0,0,0,0,0,0,0,0,0,0,0,0,0,0,0,0,287,288,287,294,0,0,0,0,0,0,0,0,293,0,0,0,0,0,0,0,0,0,0,0,0,0,0,0,0,0,0,0,0,294,0,0,0,0,0,0,0,0,0,0,
0,0,0,0,285,0,0,0,0,0,0,0,0,0,0,286,295,296,295,296,0,0,0,0,0,0,0,0,285,0,0,0,0,0,0,0,0,0,0,0,0,0,0,0,0,0,0,0,0,286,0,0,0,0,0,0,0,0,0,0,
0,0,0,0,293,0,0,0,0,0,0,0,0,0,0,294,0,0,0,0,0,0,0,0,0,0,0,0,293,0,0,0,0,0,0,0,0,0,0,0,0,0,0,0,0,0,0,0,0,294,0,0,0,0,0,0,0,0,0,0,
0,0,0,0,0,0,0,0,0,0,0,0,0,0,0,0,0,0,0,0,0,0,0,0,0,0,0,0,285,0,0,0,0,0,0,0,0,0,0,0,0,0,0,0,0,0,0,0,0,286,0,0,0,0,0,0,0,0,0,0,
0,0,0,0,0,0,0,0,0,0,0,0,0,0,0,0,0,0,0,0,0,0,0,0,0,0,0,0,293,0,0,0,0,0,0,0,0,0,0,0,0,0,0,0,0,0,0,0,0,294,0,0,0,0,0,0,0,0,0,0,
0,0,0,0,0,0,0,0,0,0,0,0,0,0,0,0,0,0,0,0,0,0,0,0,0,0,0,0,285,0,0,0,0,0,0,0,0,0,0,0,0,0,0,0,0,0,0,0,0,286,0,0,0,0,0,0,0,0,0,0,
0,0,0,0,0,0,0,0,0,0,0,0,0,0,0,0,0,0,0,0,0,0,0,0,0,0,0,0,293,0,0,0,0,0,0,0,0,0,0,0,0,0,0,0,0,0,0,0,0,294,0,0,0,0,0,0,0,0,0,0,
0,0,0,0,0,0,0,0,0,0,0,0,0,0,0,0,0,0,0,0,0,0,0,0,0,0,0,0,285,0,0,0,0,0,0,0,0,0,0,0,0,0,0,0,0,0,0,0,0,286,0,0,0,0,0,0,0,0,0,0,
0,0,0,0,0,0,0,0,0,0,0,0,0,0,0,0,0,0,0,0,0,0,0,0,0,0,0,0,293,0,0,0,0,0,0,0,0,0,0,0,0,0,0,0,0,0,0,0,0,294,0,0,0,0,0,0,0,0,0,0,
0,0,0,0,0,0,0,0,0,0,0,0,0,0,0,0,0,0,0,0,0,0,0,0,0,0,0,0,285,0,0,0,0,0,0,0,0,0,0,0,0,0,0,0,0,0,0,0,0,286,0,0,0,0,0,0,0,0,0,0,
0,0,0,0,0,0,0,0,0,0,0,0,0,0,0,0,0,0,0,0,0,0,0,0,0,0,0,0,293,0,0,0,0,0,0,0,0,0,0,0,0,0,0,0,0,0,0,0,0,294,0,0,0,0,0,0,0,0,0,0,
0,0,0,0,0,0,0,0,0,0,0,0,0,0,0,0,0,0,0,0,0,0,0,0,0,0,0,0,285,0,0,0,0,0,0,0,0,0,0,0,0,0,0,0,0,0,0,0,0,286,0,0,0,0,0,0,0,0,0,0,
0,0,0,0,0,0,0,0,0,0,0,0,0,0,0,0,0,0,0,0,0,0,0,0,0,0,0,0,293,0,0,0,0,0,0,0,0,0,0,0,0,0,0,0,0,0,0,0,0,294,0,0,0,0,0,0,0,0,0,0,
0,0,0,0,0,0,0,0,0,0,0,0,0,0,0,0,0,0,0,0,0,0,0,0,0,0,0,0,285,0,0,0,0,0,0,0,0,0,0,0,0,0,0,0,0,0,0,0,0,286,0,0,0,0,0,0,0,0,0,0,
0,0,0,0,0,0,0,0,0,0,0,0,0,0,0,0,0,0,0,0,0,0,0,0,0,0,0,0,293,0,0,0,0,0,0,0,0,0,0,0,0,0,0,0,0,0,0,0,0,294,0,0,0,0,0,0,0,0,0,0,
0,0,0,0,0,0,0,0,0,0,0,0,0,0,0,0,0,0,0,0,0,0,0,0,0,0,0,0,285,0,0,0,0,0,0,0,0,0,0,0,0,0,0,0,0,0,0,0,0,286,0,0,0,0,0,0,0,0,0,0,
0,0,0,0,0,0,0,0,0,0,0,0,0,0,0,0,0,0,0,0,0,0,0,0,0,0,0,0,293,0,0,0,0,0,0,0,0,0,0,0,0,0,0,0,0,0,0,0,0,294,0,0,0,0,0,0,0,0,0,0,
0,0,0,0,0,0,0,0,0,0,0,0,0,0,0,0,0,0,0,0,0,0,0,0,0,0,0,0,285,0,0,0,0,0,0,0,0,0,0,0,0,0,0,0,0,0,0,0,0,286,0,0,0,0,0,0,0,0,0,0,
0,0,0,0,0,0,0,0,0,0,0,0,0,0,0,0,0,0,0,0,0,0,0,0,0,0,0,0,293,0,0,0,0,0,0,0,0,0,0,0,0,0,0,0,0,0,0,0,0,294,0,0,0,0,0,0,0,0,0,0,
0,0,0,0,0,0,0,0,0,0,0,0,0,0,0,0,0,0,0,0,0,0,0,0,0,0,0,0,285,0,0,0,0,0,0,0,0,0,0,0,0,0,0,0,0,0,0,0,0,286,0,0,0,0,0,0,0,0,0,0,
0,0,0,0,0,0,0,0,0,0,0,0,0,0,0,0,0,0,0,0,0,0,0,0,0,0,0,0,293,0,0,0,0,0,0,0,0,0,0,0,0,0,0,0,0,0,0,0,0,294,0,0,0,0,0,0,0,0,0,0,
0,0,0,0,0,0,0,0,0,0,0,0,0,0,0,0,0,0,0,0,0,0,0,0,0,0,0,0,285,0,0,0,0,0,0,0,0,0,0,0,0,0,0,0,0,0,0,0,0,286,0,0,0,0,0,0,0,0,0,0,
0,0,0,0,0,0,0,0,0,0,0,0,0,0,0,0,0,0,0,0,0,0,0,0,0,0,0,0,293,0,0,0,0,0,0,0,0,0,0,0,0,0,0,0,0,0,0,0,0,294,0,0,0,0,0,0,0,0,0,0,
0,0,0,0,0,0,0,0,0,0,0,0,0,0,0,0,0,0,0,0,0,0,0,0,0,0,0,0,285,0,0,0,0,0,0,0,0,0,0,0,0,0,0,0,0,0,0,0,0,286,0,0,0,0,0,0,0,0,0,0,
0,0,0,0,0,0,0,0,0,0,0,0,0,0,0,0,0,0,0,0,0,0,0,0,0,0,0,0,293,0,0,0,0,0,0,0,0,0,0,0,0,0,0,0,0,0,0,0,0,294,0,0,0,0,0,0,0,0,0,0
  </data>
 </layer>
 <objectgroup id="4" name="events"/>
</map>
