<?xml version="1.0" encoding="UTF-8"?>
<map version="1.10" tiledversion="1.10.2" orientation="orthogonal" renderorder="right-down" compressionlevel="0" width="56" height="34" tilewidth="32" tileheight="32" infinite="0" nextlayerid="8" nextobjectid="1">
 <tileset firstgid="1" source="RMXP-JohtoCompactExterior.tsx"/>
 <tileset firstgid="2401" source="RMXP-auto-tfj-waterfall.tsx"/>
 <tileset firstgid="2449" source="RMXP-auto-sand.tsx"/>
 <tileset firstgid="2497" source="RMXP-auto-still.tsx"/>
 <tileset firstgid="2545" source="RMXP-auto-noanimsea.tsx"/>
 <tileset firstgid="2593" source="RMXP-auto-hgss-sea.tsx"/>
 <tileset firstgid="2641" source="RMXP-auto-lake.tsx"/>
 <tileset firstgid="2689" source="RMXP-auto-r49water.tsx"/>
 <layer id="1" name="lower" width="56" height="34">
  <data encoding="csv">
13,13,13,13,13,13,13,13,13,13,13,13,13,13,13,13,13,13,13,13,13,13,11,11,11,11,13,13,11,11,13,11,13,13,13,13,13,13,13,13,13,13,13,13,13,13,13,13,13,13,13,13,13,13,13,13,
13,13,13,13,13,13,13,13,13,13,13,13,13,13,13,13,13,13,13,13,13,13,13,13,11,11,13,11,13,13,11,13,13,13,13,13,13,13,13,13,13,13,13,13,13,13,13,13,13,13,13,13,13,13,13,13,
13,13,13,13,13,13,13,13,13,13,13,13,13,13,13,13,13,13,13,13,13,13,13,11,13,13,13,13,11,11,11,13,13,13,13,13,13,13,13,13,13,13,13,13,13,13,13,13,13,13,13,13,13,13,13,13,
13,13,13,13,13,13,13,13,13,13,13,13,13,13,13,13,13,13,13,13,13,13,13,11,11,13,13,11,11,11,13,13,13,13,13,13,13,13,13,13,13,13,13,13,13,13,13,13,13,13,13,13,13,13,13,13,
13,13,13,13,13,13,13,13,13,13,13,13,13,13,13,13,13,13,13,13,13,13,13,13,13,11,13,13,11,11,13,13,13,13,13,13,13,13,13,13,13,13,13,13,13,13,13,13,13,13,13,13,13,13,13,13,
13,13,13,13,13,13,13,13,13,13,13,13,13,13,13,13,13,13,13,13,13,13,13,13,11,13,13,13,11,11,13,13,13,13,13,13,13,13,13,13,13,13,13,13,13,13,13,13,13,13,13,13,13,13,13,13,
13,13,13,13,13,13,13,13,13,13,13,13,13,13,13,13,13,13,13,13,13,13,13,13,13,13,11,13,11,13,13,13,13,13,13,13,13,13,13,13,13,58,58,58,58,58,58,58,58,58,58,58,58,58,58,58,
13,13,13,13,13,13,13,13,13,13,13,13,13,13,13,13,13,13,13,13,13,13,13,13,13,11,13,11,13,13,13,13,13,13,13,13,13,13,13,13,13,58,58,58,58,58,58,58,58,58,58,58,58,58,58,58,
26,26,26,26,26,26,26,26,26,26,26,26,26,26,26,26,26,26,26,26,26,26,26,26,26,26,26,26,26,26,26,26,26,26,26,26,26,26,26,27,13,58,58,58,58,58,58,58,58,58,58,58,58,58,58,58,
13,13,13,13,13,13,13,13,13,13,13,13,13,13,13,13,13,13,13,13,13,13,13,13,13,13,13,13,13,13,13,13,13,13,13,13,13,13,13,35,13,58,58,58,58,58,58,58,58,58,58,58,58,58,58,58,
13,13,13,13,13,13,13,13,13,13,13,13,13,13,13,13,13,13,13,13,13,13,13,13,13,13,13,13,13,13,13,13,13,13,13,13,13,13,13,13,58,58,58,58,58,58,58,58,58,58,58,58,58,58,58,58,
2565,2565,2565,2565,2565,2565,2565,2565,2565,2565,2565,2565,2565,2565,2565,2565,2565,2565,2565,2565,2565,2565,2565,2565,2565,11,11,11,11,2565,2565,2565,2565,2565,2565,2565,2581,0,0,58,58,58,58,58,58,58,58,58,58,58,58,58,58,58,58,58,
2545,2545,2545,2545,2545,2545,2545,2545,2545,2545,2545,2545,2545,2545,2545,2545,2545,2545,2545,2545,2545,2545,2545,2545,2545,11,11,11,11,2545,2545,2545,2545,2545,2545,2545,2569,0,0,58,58,58,58,58,58,58,58,58,58,58,58,58,58,58,58,58,
2573,2573,2573,2573,2573,2573,2573,2573,2573,2573,2573,2573,2573,2573,2573,2573,2573,2573,2573,2573,2573,2573,2573,2573,2573,11,11,11,11,2573,2573,2573,2553,2545,2545,2545,2569,0,0,58,58,58,58,58,58,58,58,58,58,58,58,58,58,58,58,58,
58,58,58,58,58,58,58,58,58,58,58,58,58,58,58,58,58,58,58,58,58,58,58,58,58,58,58,58,58,58,58,58,2561,2545,2545,2545,2569,0,0,58,58,58,58,58,58,58,58,58,58,58,58,58,58,58,58,58,
58,58,58,58,58,58,58,58,58,58,58,58,58,58,58,58,58,58,58,58,58,58,58,58,58,58,58,58,58,58,58,58,2561,2545,2545,2545,2569,0,0,58,58,58,58,58,58,58,58,58,58,58,58,58,58,58,58,58,
13,13,42,42,42,42,42,42,42,42,42,42,42,42,42,42,42,42,42,42,42,42,42,42,42,42,42,42,42,36,0,0,2561,2545,2545,2545,2569,0,0,58,58,58,58,58,58,58,58,58,58,58,58,58,58,58,58,58,
58,58,58,58,58,58,58,58,58,58,58,58,58,58,13,13,13,13,13,13,13,13,1,1,1,1,1,1,1,33,0,0,2561,2545,2545,2545,2569,0,0,37,42,42,42,42,42,42,42,42,58,58,58,58,58,58,58,58,
58,58,58,58,58,58,58,58,58,58,58,58,58,58,11,11,11,13,13,13,1,1,1,1,1,1,1,1,1,33,0,0,2561,2545,2545,2545,2569,0,0,35,11,13,13,13,13,13,13,13,58,58,58,58,58,58,58,58,
58,58,58,58,58,58,58,58,58,58,58,58,58,58,13,13,13,11,13,13,1,1,1,1,1,1,1,1,1,33,0,0,11,11,11,11,11,0,0,35,13,11,13,13,13,13,13,13,58,58,58,58,58,58,58,58,
58,58,58,58,58,58,58,58,58,58,58,58,58,58,58,58,13,11,13,13,1,1,1,1,1,1,1,1,1,33,0,0,11,11,11,11,11,0,0,35,13,11,13,13,13,13,13,13,58,58,58,58,58,58,58,58,
58,58,58,58,58,58,58,58,58,58,58,58,58,58,58,58,13,11,13,13,1,1,1,1,1,1,1,1,1,33,0,0,2561,2545,2545,2545,2569,0,0,35,11,13,11,13,13,13,13,13,58,58,58,58,58,58,58,58,
58,58,58,58,58,58,58,58,58,58,58,58,58,58,58,58,13,11,13,13,1,1,1,1,1,1,1,1,1,33,0,0,2561,2545,2545,2545,2569,0,0,35,13,11,11,13,13,13,13,13,58,58,58,58,58,58,58,58,
58,58,58,58,58,58,58,58,58,58,58,58,58,58,58,58,13,11,13,13,1,1,1,1,1,1,1,1,1,33,0,0,2561,2545,2545,2545,2569,0,0,35,11,11,13,13,13,13,13,13,58,58,58,58,58,58,58,58,
58,58,58,58,58,58,58,58,58,58,58,58,58,58,58,58,13,11,11,13,1,1,1,1,1,1,1,1,11,33,0,0,2561,2545,2545,2545,2569,0,0,35,11,11,13,13,13,13,13,13,58,58,58,58,58,58,58,58,
58,58,58,58,58,58,58,58,58,58,58,58,58,58,58,58,13,13,13,13,13,13,13,13,13,13,26,26,26,28,0,0,2561,2545,2545,2545,2569,0,0,35,13,11,11,13,13,13,13,13,58,58,58,58,58,58,58,58,
58,58,58,58,58,58,58,58,58,58,58,58,58,58,58,58,58,58,58,58,58,58,58,58,58,58,58,0,0,0,58,0,2561,2545,2545,2545,2569,0,0,35,13,13,11,13,13,13,13,13,58,58,58,58,58,58,58,58,
58,58,58,58,58,58,58,58,58,58,58,58,58,58,58,58,58,58,58,58,58,58,58,58,58,58,58,0,0,0,0,58,2561,2545,2545,2545,2569,0,0,35,13,11,13,13,13,13,13,13,58,58,58,58,58,58,58,58,
58,58,58,58,58,58,58,58,58,58,58,58,58,58,58,58,58,58,58,58,58,58,58,58,58,58,58,0,0,2579,2565,2565,2546,2545,2545,2545,2569,0,0,35,13,11,13,13,13,13,13,13,58,58,58,58,58,58,58,58,
58,58,58,58,58,58,58,58,58,58,58,58,58,58,58,58,58,58,58,58,58,58,58,58,58,58,58,0,0,2561,2545,2545,2545,2545,2545,2545,2569,0,0,35,11,13,13,13,13,13,13,13,58,58,58,58,58,58,58,58,
58,58,58,58,58,58,58,58,58,58,58,58,58,58,58,58,58,58,58,58,58,58,58,58,58,58,58,0,0,2561,2545,2545,2549,2573,2573,2573,2583,0,0,35,13,11,11,13,13,13,13,13,58,58,58,58,58,58,58,58,
58,58,58,58,58,58,58,58,58,58,58,58,58,58,58,58,58,58,58,58,58,58,58,58,58,58,58,0,0,2561,2545,2545,2569,58,58,58,58,58,58,35,11,13,11,13,13,13,13,13,58,58,58,58,58,58,58,58,
58,58,58,58,58,58,58,58,58,58,58,58,58,58,58,58,58,58,58,58,58,58,58,58,58,58,58,0,0,2561,2545,2545,2569,0,58,58,58,58,58,35,13,11,13,13,13,13,13,13,58,58,58,58,58,58,58,58,
58,58,58,58,58,58,58,58,58,58,58,58,58,58,58,58,58,58,58,58,58,58,58,58,58,58,58,0,0,2561,2545,2545,2569,0,0,37,42,42,42,43,11,11,13,13,13,13,13,13,58,58,58,58,58,58,58,58
  </data>
 </layer>
 <layer id="2" name="middle" width="56" height="34">
  <data encoding="csv">
0,0,0,0,0,0,0,0,0,0,0,0,0,0,0,0,0,0,0,0,0,0,17,0,0,0,0,0,0,0,0,17,0,0,0,0,0,0,0,0,0,0,0,0,0,0,0,0,0,0,0,0,0,0,0,0,
0,0,0,0,0,0,0,0,0,0,0,0,0,0,0,0,0,0,0,0,0,0,0,0,0,0,0,0,0,0,0,0,0,0,0,0,0,0,0,0,0,0,0,0,0,0,0,0,0,0,0,0,0,0,0,0,
0,0,0,0,0,0,0,0,0,0,0,0,0,0,0,0,0,0,0,0,0,0,0,0,0,0,0,0,0,0,0,0,0,0,0,0,0,0,0,0,0,0,0,0,0,0,0,0,0,0,0,0,0,0,0,0,
0,0,0,0,0,0,0,0,0,0,0,0,0,0,0,0,0,0,0,0,0,0,0,0,0,0,0,0,0,0,0,0,0,0,0,0,0,0,0,0,0,0,0,0,0,0,0,0,0,0,0,0,0,0,0,0,
0,0,0,0,0,0,0,0,0,0,0,0,0,0,0,0,0,0,0,0,0,0,0,0,0,0,0,0,0,0,0,0,0,0,0,0,0,0,0,0,297,298,297,298,297,298,297,298,297,298,297,298,297,298,297,298,
0,0,0,0,0,0,0,0,0,0,0,0,0,0,0,0,0,0,0,0,0,0,10,0,0,0,0,0,0,0,0,14,0,0,0,0,0,0,0,0,49,50,50,50,50,50,50,50,50,50,50,50,50,50,50,50,
0,0,0,0,0,0,0,0,0,0,0,0,0,0,0,0,0,0,0,0,0,0,14,10,0,0,0,0,0,0,10,14,0,0,0,0,0,0,0,0,57,49,50,50,50,50,50,50,50,50,50,50,50,50,50,50,
0,0,0,0,0,0,0,0,0,0,0,0,0,0,0,0,0,0,0,0,0,0,14,10,10,0,0,0,0,10,14,10,0,0,0,0,0,0,0,0,57,57,0,0,0,0,0,0,0,0,0,0,0,0,0,0,
0,0,0,0,0,0,0,0,0,0,0,0,0,0,0,0,0,0,0,0,0,0,0,0,0,0,0,0,0,0,0,0,299,300,299,300,299,300,299,300,57,57,0,0,0,0,0,0,0,0,0,0,0,0,0,0,
66,66,66,66,66,66,66,66,66,66,66,66,66,66,66,66,66,66,66,66,66,66,66,66,66,66,66,66,66,66,66,66,66,66,66,66,66,66,24,49,46,57,0,0,0,0,0,0,0,0,0,0,0,0,0,0,
66,66,66,66,66,66,66,66,66,66,66,66,66,66,66,66,66,66,66,66,66,66,66,66,66,66,66,66,66,66,66,66,66,66,66,66,66,24,57,57,49,46,0,0,0,0,0,0,0,0,0,0,0,0,0,0,
0,0,0,0,0,0,0,0,0,0,0,0,0,0,0,0,0,0,0,0,0,0,0,0,0,0,0,0,0,0,0,0,0,0,0,0,0,57,57,57,57,0,0,0,0,0,0,0,0,0,0,0,0,0,0,0,
0,0,0,0,0,0,0,0,0,0,0,0,0,0,0,0,0,0,0,0,0,0,0,0,0,0,0,0,0,0,0,0,0,0,0,0,0,57,57,57,57,0,0,0,0,0,0,0,0,0,0,0,0,0,0,0,
0,0,0,0,0,0,0,0,0,0,0,0,0,0,0,0,0,0,0,0,0,0,0,0,0,0,0,0,0,0,0,0,0,0,0,0,0,57,57,57,57,0,0,0,0,0,0,0,0,0,0,0,0,0,0,0,
50,50,50,50,50,50,50,50,50,50,50,50,50,50,50,50,50,50,50,50,50,50,50,50,50,50,50,50,50,50,50,51,0,0,0,0,0,57,57,57,57,0,0,0,0,0,0,0,0,0,0,0,0,0,0,0,
50,50,50,50,50,50,50,50,50,50,50,50,50,50,50,50,50,50,50,50,50,50,50,50,50,50,50,50,50,50,51,59,0,0,0,0,0,57,57,57,65,66,66,66,66,66,66,66,66,66,66,66,66,66,66,66,
50,50,50,50,50,50,50,50,50,50,50,50,50,51,0,0,0,0,0,0,0,0,70,70,70,0,0,0,0,0,59,59,0,0,0,0,0,57,57,65,66,66,66,66,66,66,66,24,0,0,0,0,0,0,0,0,
0,0,0,0,0,0,0,0,0,0,0,0,0,59,0,0,0,298,0,0,297,0,0,0,0,0,0,0,0,0,59,59,0,0,0,0,0,57,57,0,0,0,0,0,0,0,0,57,0,0,0,0,0,0,0,0,
0,0,0,0,0,0,0,0,0,0,0,0,0,59,0,0,0,0,0,0,0,0,0,0,0,0,0,0,0,0,59,59,0,0,0,0,0,57,57,0,0,0,0,0,0,0,0,57,0,0,0,0,0,0,0,0,
0,0,0,0,0,0,0,0,0,0,0,0,0,45,50,50,51,0,0,0,0,0,0,0,0,0,0,0,0,0,640,640,640,640,640,640,640,640,640,0,0,0,0,0,0,0,0,57,0,0,0,0,0,0,0,0,
0,0,0,0,0,0,0,0,0,0,0,0,0,0,0,0,59,0,0,0,0,0,0,0,0,0,0,0,0,0,656,656,656,656,656,656,656,656,656,0,0,0,0,0,0,0,0,57,0,0,0,0,0,0,0,0,
0,0,0,0,0,0,0,0,0,0,0,0,0,0,0,0,59,0,0,0,0,0,0,0,0,0,0,0,0,0,59,59,0,0,0,0,0,57,57,0,0,0,0,0,0,0,0,57,0,0,0,0,0,0,0,0,
0,0,0,0,0,0,0,0,0,0,0,0,0,0,0,0,59,0,0,0,0,0,0,0,0,0,0,0,0,0,59,59,0,0,0,0,0,57,57,0,0,0,0,0,0,0,0,57,0,0,0,0,0,0,0,0,
0,0,0,0,0,0,0,0,0,0,0,0,0,0,0,0,59,0,0,0,0,0,0,0,0,0,0,0,0,0,59,59,0,0,0,0,0,57,57,0,0,0,0,0,0,0,0,57,0,0,0,0,0,0,0,0,
0,0,0,0,0,0,0,0,0,0,0,0,0,0,0,0,59,0,0,0,0,0,0,0,0,0,0,0,0,0,59,59,0,0,0,0,0,57,57,0,0,0,0,0,0,0,0,57,0,0,0,0,0,0,0,0,
0,0,0,0,0,0,0,0,0,0,0,0,0,0,0,0,45,50,50,50,50,50,50,50,50,50,51,0,0,0,59,59,0,0,0,0,0,57,57,0,0,0,0,0,0,0,0,57,0,0,0,0,0,0,0,0,
0,0,0,0,0,0,0,0,0,0,0,0,0,0,0,0,0,0,0,0,0,0,0,0,0,0,59,23,66,66,67,59,0,0,0,0,0,57,57,0,0,0,0,0,0,0,0,57,0,0,0,0,0,0,0,0,
0,0,0,0,0,0,0,0,0,0,0,0,0,0,0,0,0,0,0,0,0,0,0,0,0,0,59,59,23,66,66,67,0,0,0,0,0,57,57,0,0,0,0,0,0,0,0,57,0,0,0,0,0,0,0,0,
0,0,0,0,0,0,0,0,0,0,0,0,0,0,0,0,0,0,0,0,0,0,0,0,0,0,59,59,59,0,0,0,0,0,0,0,0,57,57,0,0,0,0,0,0,0,0,57,0,0,0,0,0,0,0,0,
0,0,0,0,0,0,0,0,0,0,0,0,0,0,0,0,0,0,0,0,0,0,0,0,0,0,59,59,59,0,0,0,0,0,0,0,0,57,57,0,0,0,0,0,0,0,0,57,0,0,0,0,0,0,0,0,
0,0,0,0,0,0,0,0,0,0,0,0,0,0,0,0,0,0,0,0,0,0,0,0,0,0,59,59,59,0,0,0,0,0,0,0,0,57,57,0,0,0,0,0,0,0,0,57,0,0,0,0,0,0,0,0,
0,0,0,0,0,0,0,0,0,0,0,0,0,0,0,0,0,0,0,0,0,0,0,0,0,0,59,59,59,0,0,0,0,49,50,50,50,46,57,0,0,0,0,0,0,0,0,57,0,0,0,0,0,0,0,0,
0,0,0,0,0,0,0,0,0,0,0,0,0,0,0,0,0,0,0,0,0,0,0,0,0,0,59,59,59,0,0,0,0,57,49,50,50,50,46,0,0,0,0,0,0,0,0,57,0,0,0,0,0,0,0,0,
58,58,58,58,58,58,58,58,58,58,58,58,58,58,58,58,58,58,58,58,58,58,58,58,58,58,59,59,59,0,0,0,0,57,57,0,0,0,0,0,0,0,0,0,0,0,0,57,0,0,0,0,0,0,0,0
  </data>
 </layer>
 <layer id="3" name="upper" width="56" height="34">
  <data encoding="csv">
0,0,0,0,0,0,0,0,0,0,0,0,0,0,0,0,0,0,0,0,0,0,0,0,0,0,0,0,0,0,0,0,0,0,0,0,0,0,0,0,0,0,0,0,0,0,0,0,0,0,0,0,0,0,0,0,
0,0,0,0,0,0,0,0,0,0,0,0,0,0,0,0,0,0,0,0,0,0,0,0,0,0,0,0,0,0,0,0,0,0,0,0,0,0,0,0,0,0,0,0,0,0,0,0,0,0,0,0,0,0,0,0,
0,0,0,0,0,0,0,0,0,0,0,0,0,0,0,0,0,0,0,0,0,0,0,0,0,0,0,0,0,0,0,0,0,0,0,0,0,0,0,0,0,0,0,0,0,0,0,0,0,0,0,0,0,0,0,0,
0,0,0,0,0,0,0,0,0,0,0,0,0,0,0,0,0,0,0,0,0,0,0,0,0,0,0,0,0,0,0,0,0,0,0,0,0,0,0,0,0,0,0,0,0,0,0,0,0,0,0,0,0,0,0,0,
0,0,0,0,0,0,0,0,0,0,0,0,0,0,0,0,0,0,0,0,0,0,0,0,0,0,0,0,0,0,0,0,0,0,0,0,0,0,0,0,0,0,0,0,0,0,0,0,0,0,0,0,0,0,0,0,
0,0,0,0,0,0,0,0,0,0,0,0,0,0,0,0,0,0,0,0,0,0,0,0,0,0,0,0,0,0,0,0,0,0,0,0,0,0,0,0,0,0,0,0,0,0,0,0,0,0,0,0,0,0,0,0,
0,0,0,0,0,0,0,0,0,0,0,0,0,0,0,0,0,0,0,0,0,0,0,0,0,0,0,0,0,0,0,0,0,0,0,0,0,0,0,0,0,0,0,0,0,0,0,0,0,0,0,0,0,0,0,0,
0,0,0,0,0,0,0,0,0,0,0,0,0,0,0,0,0,0,0,0,0,0,0,0,0,0,0,0,0,0,0,0,0,0,0,0,0,0,0,0,0,0,0,0,0,0,0,0,0,0,0,0,0,0,0,0,
299,300,299,300,299,300,299,300,299,300,299,300,299,300,299,300,299,300,299,300,299,300,0,0,0,0,0,0,0,0,0,0,0,0,0,0,0,0,0,0,0,0,0,0,0,0,0,0,0,0,0,0,0,0,0,0,
0,0,0,0,0,0,0,0,0,0,0,0,0,0,0,0,0,0,0,0,0,0,0,0,0,612,613,613,614,0,0,0,0,0,0,0,0,0,0,0,0,0,0,0,0,0,0,0,0,0,0,0,0,0,0,0,
0,0,0,0,0,0,0,0,0,0,0,0,0,0,0,0,0,0,0,0,0,0,0,0,0,612,613,613,614,0,0,0,0,0,0,0,0,0,0,0,0,0,0,0,0,0,0,0,0,0,0,0,0,0,0,0,
0,0,0,0,0,0,0,0,0,0,0,0,0,0,0,0,0,0,0,0,0,0,0,0,0,612,613,613,614,0,0,0,0,0,0,0,0,0,0,0,0,0,0,0,0,0,0,0,0,0,0,0,0,0,0,0,
0,0,0,0,0,0,0,0,0,0,0,0,0,0,0,0,0,0,0,0,0,0,0,0,0,612,613,613,614,0,0,0,0,0,0,0,0,0,0,0,0,0,0,0,0,0,0,0,0,0,0,0,0,0,0,0,
0,0,0,0,0,0,0,0,0,0,0,0,0,0,0,0,0,0,0,0,0,0,0,0,0,612,613,613,614,0,0,0,0,0,0,0,0,0,0,0,0,0,0,0,0,0,0,0,0,0,0,0,0,0,0,0,
0,0,0,0,0,0,0,0,0,0,0,0,0,0,0,0,0,0,0,0,0,0,0,0,0,612,613,613,614,0,0,0,0,0,0,0,0,0,0,0,0,0,0,0,0,0,0,0,0,0,0,0,0,0,0,0,
0,0,0,0,0,0,0,0,0,0,0,0,0,0,0,0,0,0,0,0,0,0,0,0,0,612,613,613,614,0,0,0,0,0,0,0,0,0,0,0,0,0,0,0,0,0,0,0,0,0,0,0,0,0,0,0,
0,0,0,0,0,0,0,0,0,0,0,0,0,0,0,0,0,0,0,0,0,0,0,0,0,0,0,0,0,0,0,0,0,0,0,0,0,0,0,0,0,0,0,0,0,0,0,0,0,0,0,0,0,0,0,0,
0,0,0,0,0,0,0,0,0,0,0,0,0,0,297,298,297,0,0,0,0,298,0,0,0,0,0,0,0,0,0,0,0,0,0,0,0,0,0,0,0,0,0,0,0,0,0,0,0,0,0,0,0,0,0,0,
0,0,0,0,0,0,0,0,0,0,0,0,0,0,0,0,0,0,0,0,0,0,0,0,0,0,0,0,0,0,0,0,0,0,0,0,0,0,0,0,0,0,0,0,0,0,0,0,0,0,0,0,0,0,0,0,
0,0,0,0,0,0,0,0,0,0,0,0,0,0,0,0,0,0,0,0,0,0,0,0,0,0,0,0,0,0,0,0,0,0,0,0,0,0,0,0,0,0,0,0,0,0,0,0,0,0,0,0,0,0,0,0,
0,0,0,0,0,0,0,0,0,0,0,0,0,0,0,0,0,0,0,0,0,0,0,0,0,0,0,0,0,0,0,0,0,0,0,0,0,0,0,0,0,0,0,0,0,0,0,0,0,0,0,0,0,0,0,0,
0,0,0,0,0,0,0,0,0,0,0,0,0,0,0,0,0,0,0,0,0,0,0,0,0,0,0,0,0,0,0,0,0,0,0,0,0,0,0,0,0,0,0,0,0,0,0,0,0,0,0,0,0,0,0,0,
0,0,0,0,0,0,0,0,0,0,0,0,0,0,0,0,0,0,0,0,0,0,0,0,0,0,0,0,0,0,0,0,0,0,0,0,0,0,0,0,0,0,0,0,0,0,0,0,0,0,0,0,0,0,0,0,
0,0,0,0,0,0,0,0,0,0,0,0,0,0,0,0,0,0,297,298,0,0,0,0,0,0,0,0,0,0,0,0,0,0,0,0,0,0,0,0,0,0,0,0,0,0,0,0,0,0,0,0,0,0,0,0,
0,0,0,0,0,0,0,0,0,0,0,0,0,0,0,0,0,0,0,0,0,0,0,0,0,0,0,0,0,0,0,0,0,0,0,0,0,0,0,0,0,0,0,0,0,0,0,0,0,0,0,0,0,0,0,0,
0,0,0,0,0,0,0,0,0,0,0,0,0,0,0,0,0,0,0,0,0,0,0,0,0,0,0,0,0,0,0,0,0,0,0,0,0,0,0,0,0,0,0,0,0,0,0,0,0,0,0,0,0,0,0,0,
0,0,0,0,0,0,0,0,0,0,0,0,0,0,0,0,0,0,0,0,0,0,0,0,0,0,0,0,0,0,0,0,0,0,0,0,0,0,0,0,0,0,0,0,0,0,0,0,0,0,0,0,0,0,0,0,
0,0,0,0,0,0,0,0,0,0,0,0,0,0,0,0,0,0,0,0,0,0,0,0,0,0,0,0,0,0,0,0,0,0,0,0,0,0,0,0,0,0,0,0,0,0,0,0,0,0,0,0,0,0,0,0,
0,0,0,0,0,0,0,0,0,0,0,0,0,0,0,0,0,0,0,0,0,0,0,0,0,0,0,0,0,0,0,0,0,0,0,0,0,0,0,0,0,0,0,0,0,0,0,0,0,0,0,0,0,0,0,0,
0,0,0,0,0,0,0,0,0,0,0,0,0,0,0,0,0,0,0,0,0,0,0,0,0,0,0,0,0,0,0,0,0,0,0,0,0,0,0,0,0,0,0,0,0,0,0,0,0,0,0,0,0,0,0,0,
0,0,0,0,0,0,0,0,0,0,0,0,0,0,0,0,0,0,0,0,0,0,0,0,0,0,0,0,0,0,0,0,0,0,0,0,0,0,0,0,0,0,0,0,0,0,0,0,0,0,0,0,0,0,0,0,
0,0,0,0,0,0,0,0,0,0,0,0,0,0,0,0,0,0,0,0,0,0,0,0,0,0,0,0,0,0,0,0,0,0,0,0,0,0,0,0,0,0,0,0,0,0,0,0,0,0,0,0,0,0,0,0,
0,0,0,0,0,0,0,0,0,0,0,0,0,0,0,0,0,0,0,0,0,0,0,0,0,0,0,0,0,0,0,0,0,0,0,0,0,0,0,0,0,0,0,0,0,0,0,0,0,0,0,0,0,0,0,0,
0,0,0,0,0,0,0,0,0,0,0,0,0,0,0,0,0,0,0,0,0,0,0,0,0,0,0,0,0,0,0,0,0,0,0,0,0,0,0,0,0,0,0,0,0,0,0,0,0,0,0,0,0,0,0,0
  </data>
 </layer>
 <objectgroup id="4" name="events"/>
 <group id="7" name="above">
 <layer id="5" name="middle_above+1" width="56" height="34">
  <data encoding="csv">
281,282,281,282,281,282,281,282,281,282,281,282,281,282,281,282,295,296,295,296,295,296,285,0,0,0,0,0,0,0,0,286,295,296,295,296,295,296,281,282,281,282,281,282,281,282,281,282,281,282,281,282,281,282,281,282,
273,274,273,274,273,274,273,274,273,274,273,274,273,274,273,274,273,274,273,274,273,276,293,0,0,0,0,0,0,0,0,294,273,274,273,274,273,274,273,274,273,274,273,274,273,274,273,274,273,274,273,274,273,274,273,274,
281,282,281,282,281,282,281,282,281,282,281,282,281,282,281,282,281,282,281,282,281,284,285,0,0,0,0,0,0,0,0,286,281,282,281,282,281,282,281,282,281,282,281,282,281,282,281,282,281,282,281,282,281,282,281,282,
273,274,273,274,273,274,273,274,273,274,273,274,273,274,273,274,273,274,273,274,273,276,293,0,0,0,0,0,0,0,0,294,273,274,273,274,273,274,273,274,291,290,291,290,291,290,291,290,291,290,291,290,291,290,291,290,
281,282,281,282,281,282,281,282,281,282,281,282,281,282,281,282,281,282,281,282,281,284,285,0,0,0,0,0,0,0,0,286,281,282,281,282,281,282,281,284,285,0,0,0,0,0,0,0,0,0,0,0,0,0,0,0,
273,274,273,274,273,274,273,274,273,274,273,274,273,274,273,274,273,274,273,274,273,276,293,0,0,0,0,0,0,0,0,294,273,274,273,274,273,274,273,276,293,0,0,0,0,0,0,0,0,0,0,0,0,0,0,0,
281,282,281,282,281,282,281,282,281,282,281,282,281,282,281,282,281,282,281,282,281,284,285,0,0,0,0,0,0,0,0,286,281,282,281,282,281,282,281,284,285,0,0,0,0,0,0,0,0,0,0,0,0,0,0,0,
289,290,289,290,289,290,289,290,289,290,289,290,289,290,289,290,289,290,289,290,289,292,293,0,0,0,0,0,0,0,0,294,289,290,291,290,291,290,291,292,293,0,0,0,0,0,0,0,0,0,0,0,0,0,0,0,
0,0,0,0,0,0,0,0,0,0,0,0,0,0,0,0,0,0,0,0,0,0,0,0,0,0,0,0,0,0,0,0,0,0,0,0,0,0,0,0,0,0,0,0,0,0,0,0,0,0,0,0,0,0,0,0,
0,0,0,0,0,0,0,0,0,0,0,0,0,0,0,0,0,0,0,0,0,0,0,0,0,0,0,0,0,0,0,0,0,0,0,0,0,0,0,0,0,0,0,0,0,0,0,0,0,0,0,0,0,0,0,0,
0,0,0,0,0,0,0,0,0,0,0,0,0,0,0,0,0,0,0,0,0,0,0,0,0,0,0,0,0,0,0,0,0,0,0,0,0,0,0,0,0,0,0,0,0,0,0,0,0,0,0,0,0,0,0,0,
0,0,0,0,0,0,0,0,0,0,0,0,0,0,0,0,0,0,0,0,0,0,0,0,0,0,0,0,0,0,0,0,0,0,0,0,0,0,0,0,0,0,0,0,0,0,0,0,0,0,0,0,0,0,0,0,
0,0,0,0,0,0,0,0,0,0,0,0,0,0,0,0,0,0,0,0,0,0,0,0,0,0,0,0,0,0,0,0,0,0,0,0,0,0,0,0,0,0,0,0,0,0,0,0,0,0,0,0,0,0,0,0,
0,0,0,0,0,0,0,0,0,0,0,0,0,0,0,0,0,0,0,0,0,0,0,0,0,0,0,0,0,0,0,0,0,0,0,0,0,0,0,0,0,0,0,0,0,0,0,0,0,0,0,0,0,0,0,0,
0,0,0,0,0,0,0,0,0,0,0,0,0,0,287,288,287,288,287,288,287,288,0,0,0,0,0,0,0,0,0,0,0,0,0,0,0,0,0,0,0,0,0,0,0,0,0,0,0,0,0,0,0,0,0,0,
0,0,0,0,0,0,0,0,0,0,0,0,0,286,295,296,295,296,295,296,295,296,285,0,0,0,0,0,0,0,0,0,0,0,0,0,0,0,0,0,0,0,0,287,288,287,288,0,0,0,0,0,0,0,0,0,
0,0,0,0,0,0,0,0,0,0,0,0,0,294,289,290,289,290,273,274,289,292,293,0,0,0,0,0,0,0,0,0,0,0,0,0,0,0,0,0,0,0,286,295,296,295,296,285,0,0,0,0,0,0,0,0,
0,0,0,0,0,0,0,0,0,0,0,0,0,0,0,0,0,286,281,284,285,0,0,0,0,0,0,0,0,0,0,0,0,0,0,0,0,0,0,0,0,0,294,273,274,273,276,293,0,0,0,0,0,0,0,0,
0,0,0,0,0,0,0,0,0,0,0,0,0,0,0,0,0,294,273,276,293,0,0,0,0,0,0,0,0,0,0,0,0,0,0,0,0,0,0,0,0,0,286,281,282,281,284,285,0,0,0,0,0,0,0,0,
0,0,0,0,0,0,0,0,0,0,0,0,0,0,0,0,0,286,281,284,285,0,0,0,0,0,0,0,0,0,0,0,0,0,0,0,0,0,0,0,0,0,294,273,274,273,276,293,0,0,0,0,0,0,0,0,
0,0,0,0,0,0,0,0,0,0,0,0,0,0,0,0,0,294,273,276,293,0,0,0,0,0,0,0,0,0,0,0,0,0,0,0,0,0,0,0,0,0,286,281,282,281,284,285,0,0,0,0,0,0,0,0,
0,0,0,0,0,0,0,0,0,0,0,0,0,0,0,0,0,286,281,284,285,0,0,0,0,0,0,0,0,0,0,0,0,0,0,0,0,0,0,0,0,0,294,273,274,273,276,293,0,0,0,0,0,0,0,0,
0,0,0,0,0,0,0,0,0,0,0,0,0,0,0,0,0,294,291,292,293,0,0,0,0,0,0,0,0,0,0,0,0,0,0,0,0,0,0,0,0,0,286,281,282,281,284,285,0,0,0,0,0,0,0,0,
0,0,0,0,0,0,0,0,0,0,0,0,0,0,0,0,0,0,0,0,0,0,0,0,0,0,0,0,0,0,0,0,0,0,0,0,0,0,0,0,0,0,294,273,274,273,276,293,0,0,0,0,0,0,0,0,
0,0,0,0,0,0,0,0,0,0,0,0,0,0,0,0,0,0,0,0,0,0,0,0,0,0,0,0,0,0,0,0,0,0,0,0,0,0,0,0,0,0,286,281,282,281,284,285,0,0,0,0,0,0,0,0,
0,0,0,0,0,0,0,0,0,0,0,0,0,0,0,0,0,0,0,0,0,0,0,0,0,0,0,0,0,0,0,0,0,0,0,0,0,0,0,0,0,0,294,273,274,273,276,293,0,0,0,0,0,0,0,0,
0,0,0,0,0,0,0,0,0,0,0,0,0,0,0,0,0,0,0,0,0,0,0,0,0,0,0,0,0,0,0,0,0,0,0,0,0,0,0,0,0,0,286,281,282,281,284,285,0,0,0,0,0,0,0,0,
0,0,0,0,0,0,0,0,0,0,0,0,0,0,0,0,0,0,0,0,0,0,0,0,0,0,0,0,0,0,0,0,0,0,0,0,0,0,0,0,0,0,294,273,274,273,276,293,0,0,0,0,0,0,0,0,
0,0,0,0,0,0,0,0,0,0,0,0,0,0,0,0,0,0,0,0,0,0,0,0,0,0,0,0,0,0,0,0,0,0,0,0,0,0,0,0,0,0,286,281,282,281,284,285,0,0,0,0,0,0,0,0,
0,0,0,0,0,0,0,0,0,0,0,0,0,0,0,0,0,0,0,0,0,0,0,0,0,0,0,0,0,0,0,0,0,0,0,0,0,0,0,0,0,0,294,273,274,273,276,293,0,0,0,0,0,0,0,0,
0,0,0,0,0,0,0,0,0,0,0,0,0,0,0,0,0,0,0,0,0,0,0,0,0,0,0,0,0,0,0,0,0,0,0,0,0,0,0,0,0,0,286,281,282,281,284,285,0,0,0,0,0,0,0,0,
0,0,0,0,0,0,0,0,0,0,0,0,0,0,0,0,0,0,0,0,0,0,0,0,0,0,0,0,0,0,0,0,0,0,0,0,0,0,0,0,0,0,294,273,274,273,276,293,0,0,0,0,0,0,0,0,
0,0,0,0,0,0,0,0,0,0,0,0,0,0,0,0,0,0,0,0,0,0,0,0,0,0,0,0,0,0,0,0,0,0,0,0,0,0,0,0,0,0,286,281,282,281,284,285,0,0,0,0,0,0,0,0,
0,0,0,0,0,0,0,0,0,0,0,0,0,0,0,0,0,0,0,0,0,0,0,0,0,0,0,0,0,0,0,0,0,0,0,0,0,0,0,0,0,0,294,273,274,273,276,293,0,0,0,0,0,0,0,0
 </data>
 </layer>
 </group>
</map>
