<?xml version="1.0" encoding="UTF-8"?>
<map version="1.10" tiledversion="1.10.2" orientation="orthogonal" renderorder="right-down" compressionlevel="0" width="48" height="44" tilewidth="32" tileheight="32" infinite="0" nextlayerid="7" nextobjectid="1">
 <tileset firstgid="1" source="RMXP-KANTO50S_OUT.tsx"/>
 <tileset firstgid="2225" source="RMXP-auto-hgss-sea.tsx"/>
 <tileset firstgid="2273" source="RMXP-auto-noanimsea.tsx"/>
 <tileset firstgid="2321" source="RMXP-auto-a-beach.tsx"/>
 <tileset firstgid="2369" source="RMXP-auto-a-flowred.tsx"/>
 <tileset firstgid="2417" source="RMXP-auto-a-flow.tsx"/>
 <tileset firstgid="2465" source="RMXP-auto-land2-2.tsx"/>
 <tileset firstgid="2513" source="RMXP-auto-still.tsx"/>
 <layer id="1" name="lower" width="48" height="44">
  <data encoding="csv">
0,0,0,0,0,0,0,0,0,0,0,0,0,0,0,0,0,0,0,0,0,0,0,0,0,0,0,0,0,0,0,0,0,0,0,0,0,0,0,0,0,0,0,0,0,0,0,0,
0,0,0,0,0,0,0,0,0,0,0,0,0,0,0,0,0,0,0,0,0,0,0,0,0,0,0,0,0,0,0,0,0,0,0,0,0,0,0,0,0,0,0,0,0,0,0,0,
0,0,0,0,0,0,0,0,0,0,0,0,0,0,0,0,0,0,0,0,0,0,0,0,0,0,0,0,0,0,0,0,0,0,0,0,0,0,0,0,0,0,0,0,0,0,0,0,
0,0,0,0,0,0,0,0,0,0,0,0,0,0,0,0,0,0,0,0,0,0,0,0,0,0,0,0,0,0,0,0,0,0,0,0,0,0,0,0,0,0,0,0,0,0,0,0,
0,0,0,0,0,0,0,0,0,0,0,0,0,0,0,0,0,0,0,0,0,0,0,0,0,0,0,0,0,0,0,0,0,0,0,0,0,0,0,0,0,0,0,0,0,0,0,0,
0,0,0,0,0,0,0,0,0,0,0,0,0,0,0,0,0,0,0,0,0,0,0,0,0,0,0,0,0,0,0,0,0,0,0,0,0,0,0,0,0,0,0,0,0,0,0,0,
797,797,797,797,797,797,797,797,797,797,797,797,797,797,797,797,797,797,797,797,797,797,797,797,797,797,797,797,797,797,797,797,797,797,797,797,797,797,0,0,0,0,0,0,0,0,0,0,
0,0,0,0,0,0,0,0,0,0,0,0,0,0,0,0,0,0,0,0,0,0,0,0,0,0,0,0,0,0,0,0,0,0,0,0,0,0,0,0,0,0,0,0,0,0,0,0,
0,0,0,0,0,0,0,0,0,0,0,0,3,3,3,3,3,3,3,3,3,3,3,3,3,3,3,3,3,3,3,3,3,3,3,3,3,3,4,4,4,4,4,4,4,4,4,4,
0,0,0,0,0,0,0,0,0,0,0,0,3,3,3,3,3,3,3,3,3,3,3,3,3,3,3,3,3,3,3,3,3,3,3,3,3,3,4,4,4,4,4,4,4,4,4,4,
0,0,0,0,0,0,0,0,0,0,0,0,3,3,107,107,107,107,107,107,107,107,107,107,107,107,107,107,107,3,3,3,3,3,3,3,3,3,4,4,4,4,4,4,4,4,4,4,
0,0,0,0,0,0,0,0,0,0,0,0,3,3,107,107,107,107,107,107,107,107,107,107,107,107,107,107,107,108,3,4,5,6,5,6,5,6,5,7,7,7,7,7,7,7,7,5,
0,0,0,0,0,0,0,0,0,0,0,0,3,3,107,107,107,107,107,107,107,107,107,107,107,107,107,107,107,108,5,24,2,5,2,5,2,5,2,7,7,7,7,7,7,7,7,2,
0,0,0,0,0,0,0,0,0,0,0,0,3,3,107,107,107,107,107,107,107,107,107,107,107,107,107,107,107,108,3,4,5,6,5,6,5,6,2,3,4,3,4,3,4,3,4,3,
0,0,0,0,0,0,0,0,0,0,0,0,3,3,107,107,107,107,107,107,107,107,107,107,107,107,107,107,107,108,3,3,3,3,3,3,3,3,3,2,3,2,3,2,3,2,3,4,
0,0,0,0,0,0,0,0,0,0,0,0,3,3,107,107,107,107,107,107,107,107,107,107,107,107,107,107,107,107,107,107,107,107,107,107,107,107,107,107,107,107,107,107,107,107,107,109,
0,0,0,0,0,0,0,0,0,0,0,0,3,3,107,107,107,107,107,107,107,107,107,107,107,107,107,107,107,107,107,107,107,107,107,107,107,107,107,107,107,107,107,107,107,107,107,107,
0,0,0,0,0,0,0,0,0,0,0,0,3,3,115,115,115,115,115,115,115,115,102,107,101,115,115,115,115,115,115,115,115,115,115,115,115,115,115,115,115,115,115,115,115,115,115,115,
0,0,0,0,0,0,0,0,0,0,0,0,3,3,3,4,4,4,5,5,5,6,106,107,108,3,3,3,3,3,3,3,3,3,3,3,3,3,4,4,4,4,4,4,4,4,4,4,
0,0,0,0,0,0,0,0,0,0,0,0,3,3,3,2,4,4,4,5,3,4,106,107,108,3,3,266,268,4,3,4,3,4,3,4,3,3,5,6,5,6,5,6,5,6,5,6,
0,0,0,0,0,0,0,0,0,0,0,0,3,3,3,4,6,3,5,6,5,5,106,107,108,3,5,289,290,3,3,3,3,3,3,3,3,3,4,4,4,4,4,4,4,4,4,4,
0,0,0,0,0,0,0,0,0,0,0,0,3,3,3,5,4,4,3,3,4,3,106,107,108,3,3,289,290,3,3,3,3,3,3,3,3,3,4,4,4,4,4,4,4,4,4,4,
0,0,0,0,0,0,0,0,0,0,0,0,3,3,3,4,2,5,5,5,6,4,106,107,108,3,5,289,290,3,3,3,3,3,3,3,3,3,4,4,4,4,4,4,4,4,4,4,
0,0,0,0,0,0,0,0,0,0,0,0,3,3,3,4,5,5,4,6,3,5,106,107,108,3,3,289,290,3,3,3,3,3,3,3,3,3,4,4,4,4,4,4,4,4,4,4,
0,0,0,0,0,0,0,0,0,0,0,0,3,3,3,3,5,6,6,6,6,6,114,115,116,3,5,289,290,3,3,3,3,3,3,3,3,3,4,4,4,4,4,4,4,4,4,4,
0,0,0,0,0,0,0,0,0,0,0,0,3,3,3,4,3,5,2547,2533,2533,2549,10,10,10,2547,2549,289,290,3,3,3,3,3,3,3,3,3,4,4,4,4,4,4,4,4,4,4,
0,0,0,0,0,0,0,0,0,0,0,0,3,3,3,3,5,6,2529,2513,2513,2515,4,4,4,2514,2537,289,290,3,3,3,3,3,3,3,3,3,4,4,4,4,4,4,4,4,4,4,
0,0,0,0,0,0,0,0,0,0,0,0,3,3,3,7,7,7,2529,2513,2513,2513,4,4,4,2513,2537,289,290,3,3,3,3,3,3,3,3,3,4,4,4,4,4,4,4,4,4,4,
0,0,0,0,0,0,0,0,0,0,0,0,3,3,3,7,7,7,2529,2513,2513,2513,4,4,4,2513,2537,289,290,3,3,3,3,3,3,3,3,3,3,3,3,3,3,3,3,3,3,3,
0,0,0,0,0,0,0,0,0,0,0,0,3,3,3,7,7,7,2529,2513,2513,2513,4,4,4,2513,2537,289,290,3,3,3,3,3,3,3,3,3,3,3,3,3,3,3,3,3,3,3,
0,0,0,0,0,0,0,0,0,0,0,0,3,3,3,7,5,7,2529,2513,2513,2513,4,4,4,2513,2537,289,290,3,3,3,3,3,3,3,3,3,3,3,3,3,3,3,3,3,3,3,
0,0,0,0,0,0,0,0,0,0,0,0,3,3,3,7,7,7,2529,2513,2513,2513,4,4,4,2513,2537,289,290,3,3,3,3,3,3,3,3,3,3,3,3,3,3,3,3,3,3,3,
0,0,0,0,0,0,0,0,0,0,0,0,3,3,3,7,7,7,2529,2513,2513,2513,4,4,4,2513,2537,289,290,3,3,3,3,3,3,3,3,3,3,3,3,3,3,3,3,3,3,3,
0,0,0,0,0,0,0,0,0,0,0,0,3,3,3,7,7,7,2529,2513,2513,2513,4,4,4,2513,2537,289,290,3,3,3,3,3,3,3,3,3,3,3,3,3,3,3,3,3,3,3,
0,0,0,0,0,0,0,0,0,0,0,0,3,3,3,7,7,7,2529,2513,2513,2513,4,4,4,2513,2537,289,290,3,3,3,3,3,3,3,3,3,3,3,3,3,3,3,3,3,3,3,
0,0,0,0,0,0,0,0,0,0,0,0,3,3,3,7,7,7,2529,2513,2513,2513,4,4,4,2513,2537,289,290,5,2307,2293,2293,2293,2293,2293,2293,2293,2293,2293,2293,2293,2293,2293,2293,2293,2293,2293,
0,0,0,0,0,0,0,0,0,0,0,0,3,3,3,7,7,7,2529,2513,2513,2513,4,4,4,2513,2537,289,290,5,2289,2273,2273,2273,2273,2273,2273,2273,2273,2273,2273,2273,2273,2273,2273,2273,2273,2273,
0,0,0,0,0,0,0,0,0,0,0,0,3,3,3,7,7,7,2529,2513,2513,2513,4,4,4,2513,2537,289,290,5,2289,2273,2273,2273,2273,2273,2273,2273,2273,2273,2273,2273,2273,2273,2273,2273,2273,2273,
0,0,0,0,0,0,0,0,0,0,0,0,3,3,3,7,7,5,2529,2513,2513,2513,4,4,4,2513,2537,289,290,5,2289,2273,2273,2273,2273,2273,2273,2273,2273,2273,2273,2273,2273,2273,2273,2273,2273,2273,
0,0,0,0,0,0,0,0,0,0,0,0,3,3,3,7,7,7,2529,2513,2513,2513,4,4,4,2513,2537,289,290,5,2289,2273,2273,2273,2273,2273,2273,2273,2273,2273,2273,2273,2273,2273,2273,2273,2273,2273,
0,0,0,0,0,0,0,0,0,0,0,0,3,3,3,5,2547,2533,2514,2513,2513,2513,4,4,4,2513,2537,289,290,5,2289,2273,2273,2273,2273,2273,2273,2273,2273,2273,2273,2273,2273,2273,2273,2273,2273,2273,
0,0,0,0,0,0,0,0,0,0,0,0,3,3,3,3,2529,2513,2513,2513,2513,2513,4,4,4,2513,2537,289,290,5,2289,2273,2273,2273,2273,2273,2273,2273,2273,2273,2273,2273,2273,2273,2273,2273,2273,2273,
0,0,0,0,0,0,0,0,0,0,0,0,3,3,3,3,2529,2513,2513,2513,2513,2513,4,4,4,2513,2537,289,290,5,2289,2273,2273,2273,2273,2273,2273,2273,2273,2273,2273,2273,2273,2273,2273,2273,2273,2273,
0,0,0,0,0,0,0,0,0,0,0,0,3,3,3,3,2529,2513,2513,2513,2513,2513,4,4,4,2513,2537,289,290,5,2289,2273,2273,2273,2273,2273,2273,2273,2273,2273,2273,2273,2273,2273,2273,2273,2273,2273
  </data>
 </layer>
 <layer id="2" name="middle+1" width="48" height="44">
  <data encoding="csv">
797,797,797,797,797,797,797,797,797,797,797,797,797,797,797,797,797,797,797,797,797,797,797,797,797,797,797,797,797,797,797,797,797,797,797,797,797,797,797,797,797,797,797,797,797,797,797,797,
797,797,797,797,797,797,797,797,797,797,797,797,797,797,797,797,797,797,797,797,797,797,797,797,797,797,797,797,797,797,797,797,797,797,797,797,797,797,797,797,797,797,797,797,797,797,797,797,
797,797,797,797,797,797,797,797,797,797,797,797,797,797,797,797,797,797,797,797,797,797,797,797,797,797,797,797,797,797,797,797,797,797,797,797,797,797,797,797,797,797,797,797,797,797,797,797,
797,797,797,797,797,797,797,797,797,797,797,797,797,797,797,797,797,797,797,797,797,797,797,797,797,797,797,797,797,797,797,797,797,797,797,797,797,797,797,797,797,797,797,797,797,797,797,797,
797,797,797,797,797,797,797,797,797,797,797,797,797,797,797,797,797,797,797,797,797,797,797,797,797,797,797,797,797,797,797,797,797,797,797,797,797,797,797,797,797,797,797,797,797,797,797,797,
797,797,797,797,797,797,797,797,797,797,797,797,797,797,797,797,797,797,797,797,797,797,797,797,797,797,797,797,797,797,797,797,797,797,797,797,797,797,797,797,797,797,797,797,797,797,797,797,
797,797,797,797,797,797,797,797,797,797,797,797,797,797,797,797,797,797,797,797,797,797,797,797,797,797,797,797,797,797,797,797,797,797,797,797,797,797,797,797,797,797,797,797,797,797,797,797,
797,797,797,797,797,797,797,797,797,797,797,797,797,797,797,797,797,797,797,797,797,797,797,797,797,797,797,797,797,797,797,797,797,797,797,797,797,797,797,797,797,797,797,797,797,797,797,797,
797,797,797,797,797,797,797,797,797,797,797,797,797,797,797,797,797,797,797,797,797,797,797,809,805,805,805,805,805,805,805,810,797,797,797,797,797,797,797,797,797,797,797,797,797,797,809,805,
797,797,797,797,797,797,797,797,797,797,797,797,797,797,809,805,805,805,805,805,805,805,805,806,797,797,797,797,797,797,797,804,805,805,805,805,805,805,805,805,805,805,805,805,805,805,806,797,
797,797,797,797,797,797,797,797,797,797,797,797,797,797,798,809,802,802,802,802,802,802,802,802,802,802,802,802,802,802,802,802,802,802,802,802,802,802,802,802,802,802,802,802,802,802,802,802,
797,797,797,797,797,797,797,797,797,797,797,797,797,809,806,795,0,0,0,0,0,0,0,0,0,822,0,0,0,820,0,0,0,0,0,0,0,0,0,0,0,0,0,0,0,0,0,0,
797,797,797,797,797,797,797,797,797,797,797,797,797,798,797,795,0,0,0,0,0,0,0,0,0,822,0,0,0,820,0,0,0,0,0,0,0,0,0,0,0,0,0,0,0,0,0,0,
797,797,797,797,797,797,797,797,797,797,797,797,797,798,809,803,0,0,0,0,0,0,0,0,0,822,0,0,0,820,0,0,0,0,0,0,0,0,0,0,0,0,0,0,0,0,0,0,
797,797,797,797,797,797,797,797,797,797,797,797,797,798,795,829,829,829,815,0,0,811,829,829,829,830,0,0,0,828,829,829,829,829,829,829,829,829,829,829,829,829,829,829,829,829,829,815,
797,797,797,797,797,797,797,797,797,797,797,797,797,798,795,0,0,0,0,0,0,0,0,0,0,0,0,0,0,0,0,0,0,0,0,0,0,0,0,0,0,0,0,0,0,0,0,0,
797,797,797,797,797,797,797,797,797,797,797,797,797,798,795,0,0,0,0,0,0,0,0,0,0,0,0,0,0,0,0,0,0,0,0,0,0,0,0,0,0,0,0,0,0,0,0,0,
797,797,797,797,797,797,797,797,797,797,797,797,797,798,795,0,0,0,0,0,0,0,0,0,0,0,0,0,0,0,0,0,0,0,0,0,0,0,0,0,0,0,0,0,0,0,0,0,
797,797,797,797,797,797,797,797,797,797,797,797,797,798,795,0,0,0,0,0,0,0,0,0,0,0,670,687,687,687,687,687,687,687,687,687,687,687,687,687,687,687,687,687,687,687,687,687,
797,797,797,797,797,797,797,797,797,797,797,797,797,798,795,0,0,0,0,0,0,0,0,0,0,0,677,0,0,0,0,0,0,0,0,0,0,0,0,0,0,0,0,0,0,0,0,0,
797,797,797,797,797,797,797,797,797,797,797,797,797,798,795,0,0,0,0,0,0,0,0,0,0,0,677,0,0,785,786,786,786,786,786,786,786,786,786,786,786,786,786,786,786,786,786,786,
797,797,797,797,797,797,797,797,797,797,797,797,809,806,795,0,0,0,0,0,0,0,0,0,0,0,677,0,0,793,797,788,789,789,789,789,789,789,789,789,789,789,789,789,789,790,797,797,
797,797,797,797,797,797,797,797,797,797,797,797,798,797,795,0,0,0,0,0,0,0,0,0,0,0,677,0,0,793,797,796,797,797,797,797,797,797,797,797,797,797,797,797,797,791,789,789,
797,797,797,797,797,797,797,797,797,797,797,797,798,797,795,0,0,0,0,0,0,0,0,0,0,0,677,0,0,793,788,792,797,797,797,797,797,797,797,797,797,797,797,797,797,797,797,797,
797,797,797,797,797,797,797,797,797,797,797,797,798,797,795,0,0,0,1298,1298,1298,1298,0,0,0,1298,685,0,0,793,796,797,797,797,797,797,797,797,797,797,797,797,797,797,797,797,797,797,
797,797,797,797,797,797,797,797,797,797,797,797,798,797,795,0,0,0,0,0,0,1201,1202,1203,1204,1205,0,0,0,793,796,797,797,797,797,797,797,797,797,797,797,797,797,797,797,797,797,797,
797,797,797,797,797,797,797,797,797,797,797,797,798,797,795,0,0,0,0,0,0,1209,1210,1211,1212,1213,0,0,0,793,796,797,797,797,797,797,797,797,797,797,797,797,797,797,797,797,797,797,
797,797,797,797,797,797,797,797,797,797,797,797,798,797,795,0,0,0,0,0,0,1217,1218,1219,1220,1221,0,0,0,793,796,797,797,797,797,797,797,797,797,797,797,797,797,797,797,797,797,797,
797,797,797,797,797,797,797,797,797,797,797,797,798,797,795,0,0,0,0,0,0,1209,1210,1211,1212,1213,0,0,0,793,796,797,797,797,797,797,797,797,797,797,797,797,797,797,797,797,797,797,
797,797,797,797,797,797,797,797,797,797,797,797,798,797,795,0,0,0,0,0,0,1217,1218,1219,1220,1221,0,0,0,793,796,797,797,797,797,797,797,797,797,797,797,797,797,797,797,797,797,797,
797,797,797,797,797,797,797,797,797,797,797,797,798,797,795,0,0,0,0,0,0,1209,1210,1211,1212,1213,0,0,0,793,804,810,797,797,797,797,797,797,797,797,797,797,797,797,797,797,797,797,
797,797,797,797,797,797,797,797,797,797,797,797,798,797,795,0,0,0,0,0,0,1217,1218,1219,1220,1221,0,0,0,793,797,796,797,797,797,797,797,797,797,797,797,797,797,797,797,797,797,797,
797,797,797,797,797,797,797,797,797,797,797,797,798,797,795,0,0,0,0,0,0,1209,1210,1211,1212,1213,0,0,0,793,797,796,797,797,797,797,797,797,797,797,797,797,797,797,797,797,797,797,
797,797,797,797,797,797,797,797,797,797,797,797,798,797,795,0,0,0,0,0,0,1217,1218,1219,1220,1221,0,0,0,801,810,804,805,805,805,805,805,805,805,805,805,805,805,805,805,805,805,805,
797,797,797,797,797,797,797,797,797,797,797,797,798,797,795,0,0,0,0,0,0,1209,1210,1211,1212,1213,0,0,0,1279,801,805,805,805,805,805,805,805,805,805,805,805,805,805,805,805,805,805,
797,797,797,797,797,797,797,797,797,797,797,797,798,797,795,0,0,0,0,0,0,1217,1218,1219,1220,1221,0,0,0,1282,0,0,0,0,0,0,0,0,0,0,0,0,0,0,0,0,0,0,
797,797,797,797,797,797,797,797,797,797,797,797,791,790,795,0,0,0,0,0,0,1209,1210,1211,1212,1213,0,0,0,1282,0,0,0,0,0,0,0,0,0,0,0,0,0,0,0,0,0,0,
797,797,797,797,797,797,797,797,797,797,797,797,797,798,795,0,0,0,0,0,0,1217,1218,1219,1220,1221,0,0,0,1282,0,0,0,0,0,0,0,0,0,0,0,0,0,0,0,0,0,0,
797,797,797,797,797,797,797,797,797,797,797,797,797,798,795,0,0,105,0,0,0,1209,1210,1211,1212,1213,0,0,0,1282,0,0,0,0,0,0,0,0,0,0,0,0,0,0,0,0,0,0,
797,797,797,797,797,797,797,797,797,797,797,797,797,798,795,0,0,0,0,0,0,1217,1218,1219,1220,1221,0,0,0,1282,0,0,0,0,0,0,0,0,0,0,0,0,0,0,0,0,0,0,
797,797,797,797,797,797,797,797,797,797,797,797,797,798,791,787,0,0,0,0,0,1209,1210,1211,1212,1213,0,0,0,1282,0,0,0,0,0,0,0,0,0,0,0,0,0,0,0,0,0,0,
797,797,797,797,797,797,797,797,797,797,797,797,797,798,797,798,0,0,0,0,0,1217,1218,1219,1220,1221,0,0,0,1282,0,0,0,0,0,0,0,0,0,0,0,0,0,0,0,0,0,0,
797,797,797,797,797,797,797,797,797,797,797,797,797,798,797,798,0,0,0,0,0,1209,1210,1211,1212,1213,0,0,0,1282,0,0,0,0,0,0,0,0,0,0,0,0,0,0,0,0,0,0,
797,797,797,797,797,797,797,797,797,797,797,797,797,791,790,798,0,0,0,0,0,1217,1218,1219,1220,1221,0,0,0,1282,0,0,0,0,0,0,0,0,0,0,0,0,0,0,0,0,0,0
 </data>
 </layer>
 <objectgroup id="4" name="events"/>
 <group id="6" name="above">
 <layer id="5" name="upper_above" width="48" height="44">
  <data encoding="csv">
0,0,0,0,0,0,0,0,0,0,0,0,0,0,0,0,0,0,0,0,0,0,0,0,0,0,0,0,0,0,0,0,0,0,0,0,0,0,0,0,0,0,0,0,0,0,0,0,
0,0,0,0,0,0,0,0,0,0,0,0,0,0,0,0,0,0,0,0,0,0,0,0,0,0,0,0,0,0,0,0,0,0,0,0,0,0,0,0,0,0,0,0,0,0,0,0,
0,0,0,0,0,0,0,0,0,0,0,0,0,0,0,0,0,0,0,0,0,0,0,0,0,0,0,0,0,0,0,0,0,0,0,0,0,0,0,0,0,0,0,0,0,0,0,0,
0,0,0,0,0,0,0,0,0,0,0,0,0,0,0,0,0,0,0,0,0,0,0,0,0,0,0,0,0,0,0,0,0,0,0,0,0,0,0,0,0,0,0,0,0,0,0,0,
0,0,0,0,0,0,0,0,0,0,0,0,0,0,0,0,0,0,0,0,0,0,0,0,0,0,0,0,0,0,0,0,0,0,0,0,0,0,0,0,0,0,0,0,0,0,0,0,
0,0,0,0,0,0,0,0,0,0,0,0,0,0,0,0,0,0,0,0,0,0,0,0,0,0,0,0,0,0,0,0,0,0,0,0,0,0,0,0,0,0,0,0,0,0,0,0,
0,0,0,0,0,0,0,0,0,0,0,0,0,0,0,0,0,0,0,0,0,0,0,0,0,0,0,0,0,0,0,0,0,0,0,0,0,0,0,0,0,0,0,0,0,0,0,0,
0,0,0,0,0,0,0,0,0,0,0,0,0,0,0,0,0,0,0,0,0,0,0,0,0,0,0,0,0,0,0,0,0,0,0,0,0,0,0,0,0,0,0,0,0,0,0,0,
0,0,0,0,0,0,0,0,0,0,0,0,0,0,0,0,0,0,0,0,0,0,0,0,0,0,0,0,0,0,0,0,0,0,0,0,0,0,0,0,0,0,0,0,0,0,0,0,
0,0,0,0,0,0,0,0,0,0,0,0,0,0,0,0,0,0,0,0,0,0,0,0,0,0,0,0,0,0,0,0,0,0,0,0,0,0,0,0,0,0,0,0,0,0,0,0,
0,0,0,0,0,0,0,0,0,0,0,0,0,0,0,0,0,0,0,0,0,0,0,0,0,0,0,0,0,0,0,0,0,0,0,0,0,0,0,0,0,0,0,0,0,0,0,0,
0,0,0,0,0,0,0,0,0,0,0,0,0,0,0,0,0,0,0,0,0,0,0,0,0,0,0,0,0,0,0,0,0,0,0,0,0,0,0,0,0,0,0,0,0,0,0,0,
0,0,0,0,0,0,0,0,0,0,0,0,0,0,0,0,0,0,0,0,0,0,0,0,0,0,0,0,0,0,0,0,0,0,0,0,0,0,0,0,0,0,0,0,0,0,0,0,
0,0,0,0,0,0,0,0,0,0,0,0,0,0,0,0,0,0,0,0,0,0,0,0,0,0,0,0,0,0,0,0,0,0,0,0,0,0,0,0,0,0,0,0,0,0,0,0,
0,0,0,0,0,0,0,0,0,0,0,0,0,0,0,0,0,0,0,0,0,0,0,0,0,0,0,0,0,0,0,0,0,0,0,0,0,0,0,0,0,0,0,0,0,0,0,0,
0,0,0,0,0,0,0,0,0,0,0,0,0,0,0,0,0,0,0,0,0,0,0,0,0,0,0,0,0,0,0,0,0,0,0,0,0,0,0,0,0,0,0,0,0,0,0,0,
0,0,0,0,0,0,0,0,0,0,0,0,0,0,0,0,0,0,0,0,0,0,0,0,0,0,0,0,0,0,0,0,0,0,0,0,0,0,0,0,0,0,0,0,0,0,0,0,
0,0,0,0,0,0,0,0,0,0,0,0,0,0,0,0,0,0,0,0,0,0,0,0,0,0,0,0,0,0,0,0,0,0,0,0,0,0,0,0,0,0,0,0,0,0,0,0,
0,0,0,0,0,0,0,0,0,0,0,0,0,0,0,0,0,0,0,0,0,0,0,0,0,0,0,0,0,0,0,0,0,0,0,0,0,0,0,0,0,0,0,0,0,0,0,0,
0,0,0,0,0,0,0,0,0,0,0,0,0,0,0,0,0,0,0,0,0,0,0,0,0,0,0,0,0,0,0,0,0,0,0,0,0,0,0,0,0,0,0,0,0,0,0,0,
0,0,0,0,0,0,0,0,0,0,0,0,0,0,0,0,0,0,0,0,0,0,0,0,0,0,0,0,0,0,0,0,0,0,0,0,0,0,0,0,0,0,0,0,0,0,0,0,
0,0,0,0,0,0,0,0,0,0,0,0,0,0,0,0,0,0,0,0,0,0,0,0,0,0,0,0,0,0,0,0,0,0,0,0,0,0,0,0,0,0,0,0,0,0,0,0,
0,0,0,0,0,0,0,0,0,0,0,0,0,0,0,0,0,0,0,0,0,0,0,0,0,0,0,0,0,0,0,0,0,0,0,0,0,0,0,0,0,0,0,0,0,0,0,0,
0,0,0,0,0,0,0,0,0,0,0,0,0,0,0,0,0,0,0,0,0,0,0,0,0,0,0,0,0,0,0,0,0,0,0,0,0,0,0,0,0,0,0,0,0,0,0,0,
0,0,0,0,0,0,0,0,0,0,0,0,0,0,0,0,0,0,0,0,0,0,0,0,0,0,0,0,0,0,0,0,0,0,0,0,0,0,0,0,0,0,0,0,0,0,0,0,
0,0,0,0,0,0,0,0,0,0,0,0,0,0,0,0,0,0,0,0,0,0,0,0,0,0,0,0,0,0,0,0,0,0,0,0,0,0,0,0,0,0,0,0,0,0,0,0,
0,0,0,0,0,0,0,0,0,0,0,0,0,0,0,0,0,0,0,0,0,0,0,0,0,0,0,0,0,0,0,0,0,0,0,0,0,0,0,0,0,0,0,0,0,0,0,0,
0,0,0,0,0,0,0,0,0,0,0,0,0,0,0,0,0,0,0,0,0,0,0,0,0,0,0,0,0,0,0,0,0,0,0,0,0,0,0,0,0,0,0,0,0,0,0,0,
0,0,0,0,0,0,0,0,0,0,0,0,0,0,0,0,0,0,0,0,0,0,0,0,0,0,0,0,0,0,0,0,0,0,0,0,0,0,0,0,0,0,0,0,0,0,0,0,
0,0,0,0,0,0,0,0,0,0,0,0,0,0,0,0,0,0,0,0,0,0,0,0,0,0,0,0,0,0,0,0,0,0,0,0,0,0,0,0,0,0,0,0,0,0,0,0,
0,0,0,0,0,0,0,0,0,0,0,0,0,0,0,0,0,0,0,0,0,0,0,0,0,0,0,0,0,0,0,0,0,0,0,0,0,0,0,0,0,0,0,0,0,0,0,0,
0,0,0,0,0,0,0,0,0,0,0,0,0,0,0,0,0,0,0,0,0,0,0,0,0,0,0,0,0,0,0,0,0,0,0,0,0,0,0,0,0,0,0,0,0,0,0,0,
0,0,0,0,0,0,0,0,0,0,0,0,0,0,0,0,0,0,0,0,0,0,0,0,0,0,0,0,0,0,0,0,0,0,0,0,0,0,0,0,0,0,0,0,0,0,0,0,
0,0,0,0,0,0,0,0,0,0,0,0,0,0,0,0,0,0,0,0,0,0,0,0,0,0,0,0,0,0,0,0,0,0,0,0,0,0,0,0,0,0,0,0,0,0,0,0,
0,0,0,0,0,0,0,0,0,0,0,0,0,0,0,0,0,0,0,0,0,0,0,0,0,0,0,0,0,0,0,0,0,0,0,0,0,0,0,0,0,0,0,0,0,0,0,0,
0,0,0,0,0,0,0,0,0,0,0,0,0,0,0,0,0,0,0,0,0,0,0,0,0,0,0,0,0,0,0,0,0,0,0,0,0,0,0,0,0,0,0,0,0,0,0,0,
0,0,0,0,0,0,0,0,0,0,0,0,0,0,0,0,0,0,0,0,0,0,0,0,0,0,0,0,0,0,0,0,0,0,0,0,0,0,0,0,0,0,0,0,0,0,0,0,
0,0,0,0,0,0,0,0,0,0,0,0,0,0,0,0,0,97,0,0,0,0,0,0,0,0,0,0,0,0,0,0,0,0,0,0,0,0,0,0,0,0,0,0,0,0,0,0,
0,0,0,0,0,0,0,0,0,0,0,0,0,0,0,0,0,0,0,0,0,0,0,0,0,0,0,0,0,0,0,0,0,0,0,0,0,0,0,0,0,0,0,0,0,0,0,0,
0,0,0,0,0,0,0,0,0,0,0,0,0,0,0,0,0,0,0,0,0,0,0,0,0,0,0,0,0,0,0,0,0,0,0,0,0,0,0,0,0,0,0,0,0,0,0,0,
0,0,0,0,0,0,0,0,0,0,0,0,0,0,0,0,0,0,0,0,0,0,0,0,0,0,0,0,0,0,0,0,0,0,0,0,0,0,0,0,0,0,0,0,0,0,0,0,
0,0,0,0,0,0,0,0,0,0,0,0,0,0,0,0,0,0,0,0,0,0,0,0,0,0,0,0,0,0,0,0,0,0,0,0,0,0,0,0,0,0,0,0,0,0,0,0,
0,0,0,0,0,0,0,0,0,0,0,0,0,0,0,0,0,0,0,0,0,0,0,0,0,0,0,0,0,0,0,0,0,0,0,0,0,0,0,0,0,0,0,0,0,0,0,0,
0,0,0,0,0,0,0,0,0,0,0,0,0,0,0,0,0,0,0,0,0,0,0,0,0,0,0,0,0,0,0,0,0,0,0,0,0,0,0,0,0,0,0,0,0,0,0,0
  </data>
 </layer>
 </group>
</map>
