<?xml version="1.0" encoding="UTF-8"?>
<map version="1.10" tiledversion="1.10.2" orientation="orthogonal" renderorder="right-down" compressionlevel="0" width="42" height="160" tilewidth="32" tileheight="32" infinite="0" nextlayerid="9" nextobjectid="1">
 <tileset firstgid="1" source="RMXP-KANTO50S_OUT.tsx"/>
 <tileset firstgid="2225" source="RMXP-auto-hgss-sea.tsx"/>
 <tileset firstgid="2273" source="RMXP-auto-noanimsea.tsx"/>
 <tileset firstgid="2321" source="RMXP-auto-a-beach.tsx"/>
 <tileset firstgid="2369" source="RMXP-auto-a-flowred.tsx"/>
 <tileset firstgid="2417" source="RMXP-auto-a-flow.tsx"/>
 <tileset firstgid="2465" source="RMXP-auto-land2-2.tsx"/>
 <tileset firstgid="2513" source="RMXP-auto-still.tsx"/>
 <layer id="1" name="lower" width="42" height="160">
  <data encoding="csv">
5,5,5,5,5,5,5,5,5,5,5,5,5,5,5,5,5,5,5,5,321,322,323,5,5,5,5,5,5,5,5,5,5,5,5,5,5,5,5,5,5,5,
5,5,5,5,5,5,5,5,5,5,5,5,5,5,5,5,4,5,5,5,81,82,83,5,5,5,4,5,5,5,5,5,5,5,5,5,5,5,5,5,5,5,
5,5,5,5,5,5,5,5,5,5,5,5,5,5,5,4,5,5,5,5,81,82,83,5,5,5,5,5,4,5,5,5,5,5,5,5,5,5,5,5,5,5,
0,418,0,418,0,418,0,418,0,418,0,418,0,418,0,4,5,15,15,5,81,82,83,5,5,15,5,5,4,418,0,418,0,418,0,418,0,418,0,418,0,418,
0,426,0,426,0,426,0,426,0,426,0,426,0,426,0,4,15,15,5,5,89,90,91,5,15,15,15,5,4,426,0,426,0,426,0,426,0,426,0,426,0,426,
0,418,0,418,0,418,0,418,0,418,0,418,0,434,0,0,15,15,15,15,5,5,5,5,15,15,15,15,0,434,0,434,0,418,0,418,0,418,0,418,0,418,
0,426,0,426,0,426,0,426,0,426,0,0,441,442,441,442,15,15,15,15,15,5,5,15,15,15,15,15,441,442,441,442,427,426,0,426,0,426,0,426,0,426,
0,418,0,418,0,418,0,418,0,418,0,0,15,15,15,15,15,15,15,15,15,15,15,15,5,5,15,15,15,15,15,15,419,418,0,418,0,418,0,418,0,418,
0,426,0,426,0,426,0,426,0,426,0,0,15,15,15,15,15,15,5,15,15,15,15,15,15,15,15,5,15,15,15,15,427,426,0,426,0,426,0,426,0,426,
0,418,0,418,0,418,0,418,0,418,0,0,15,15,15,15,15,15,15,15,15,15,15,15,15,15,15,15,5,15,15,15,419,418,0,418,0,418,0,418,0,418,
0,426,0,426,0,426,0,426,0,426,0,0,15,15,15,15,15,15,15,15,15,15,15,15,15,15,15,15,15,15,15,15,427,426,0,426,0,426,0,426,0,426,
0,418,0,418,0,418,0,418,0,418,0,0,15,5,15,15,15,15,15,15,15,15,15,5,15,15,15,15,15,15,15,15,419,418,0,418,0,418,0,418,0,418,
0,426,0,426,0,426,0,426,0,426,0,0,15,15,15,15,15,15,15,15,15,15,15,15,15,15,5,15,15,15,15,15,427,426,0,426,0,426,0,426,0,426,
0,418,0,418,0,418,0,418,0,418,0,0,15,15,15,5,5,15,5,5,15,15,15,15,15,15,15,15,15,15,15,15,419,418,0,418,0,418,0,418,0,418,
0,426,0,426,0,426,0,426,0,426,0,0,15,15,15,15,15,15,5,15,15,15,15,15,15,15,15,15,15,15,15,15,427,426,0,426,0,426,0,426,0,426,
0,418,0,418,0,418,0,418,0,418,0,0,15,15,15,15,15,5,5,15,15,15,15,15,15,5,15,15,15,15,15,15,419,418,0,418,0,418,0,418,0,418,
0,426,0,426,0,426,0,426,0,426,0,0,15,15,5,15,5,5,15,15,15,15,15,15,15,15,15,15,15,15,15,15,427,426,0,426,0,426,0,426,0,426,
0,418,0,418,0,418,0,418,0,418,0,0,15,15,15,5,5,15,15,15,15,15,5,15,15,15,15,15,15,15,15,15,419,418,0,418,0,418,0,418,0,418,
0,426,0,426,0,426,0,426,0,426,0,0,15,15,15,5,15,15,15,15,15,15,15,15,15,15,15,15,15,15,15,15,427,426,0,426,0,426,0,426,0,426,
0,418,0,418,0,418,0,418,0,418,0,0,15,15,5,5,15,5,15,15,15,15,15,15,15,15,15,15,15,5,15,15,419,418,0,418,0,418,0,418,0,418,
0,426,0,426,0,426,0,426,0,426,0,0,15,5,5,15,15,15,15,15,15,15,15,15,15,5,5,15,15,15,15,15,427,426,0,426,0,426,0,426,0,426,
0,418,0,418,0,418,0,418,0,418,0,0,15,5,5,15,5,15,15,15,15,15,5,15,15,15,15,15,15,15,15,15,419,418,0,418,0,418,0,418,0,418,
0,426,0,426,0,426,0,426,0,426,0,0,15,5,15,15,15,15,15,15,15,15,15,15,15,15,15,15,15,15,15,15,427,426,0,426,0,426,0,426,0,426,
0,418,0,418,0,418,0,418,0,418,0,0,5,5,15,15,15,15,15,15,15,15,15,15,15,15,15,15,15,15,15,15,419,418,0,418,0,418,0,418,0,418,
0,426,0,426,0,426,0,426,0,426,0,0,5,15,5,15,15,15,15,15,15,15,15,15,15,15,15,15,15,15,15,15,427,426,0,426,0,426,0,426,0,426,
0,418,0,418,0,418,0,418,0,418,0,0,5,5,5,5,5,5,5,5,5,5,5,5,5,5,5,5,5,15,15,15,419,418,0,418,0,418,0,418,0,418,
0,426,0,426,0,426,0,426,0,426,0,0,5,5,5,797,5,5,5,5,5,5,5,5,5,5,5,5,5,15,15,15,427,426,0,426,0,426,0,426,0,426,
0,418,0,418,0,418,0,418,0,418,0,0,5,5,5,5,5,5,5,5,5,5,5,5,5,5,5,5,5,15,15,15,419,418,0,418,0,418,0,418,0,418,
0,426,0,426,0,426,0,426,0,426,0,0,219,219,219,219,219,219,219,219,5,5,5,5,5,5,5,5,5,15,15,15,427,426,0,426,0,426,0,426,0,426,
0,418,0,418,0,418,0,418,0,418,0,0,219,127,127,127,127,127,219,219,5,5,5,5,5,5,5,5,5,15,15,15,419,418,0,418,0,418,0,418,0,418,
0,426,0,426,0,426,0,426,0,426,0,0,219,219,127,127,127,127,127,219,5,5,5,5,5,5,5,5,5,5,15,15,427,426,0,426,0,426,0,426,0,426,
0,418,0,418,0,418,0,418,0,418,0,0,219,219,127,127,127,127,219,219,5,5,5,5,5,5,5,5,5,5,5,15,419,418,0,418,0,418,0,418,0,418,
0,426,0,426,0,426,0,426,0,426,0,0,127,127,127,127,127,127,127,219,5,5,5,5,5,5,5,5,5,5,5,15,427,426,0,426,0,426,0,426,0,426,
0,418,0,418,0,418,0,418,0,418,0,0,219,127,127,127,127,127,127,219,5,5,5,5,5,5,5,5,5,5,5,15,419,418,0,418,0,418,0,418,0,418,
0,426,0,426,0,426,0,426,0,426,0,0,219,127,127,127,127,127,127,219,5,5,5,5,5,5,5,15,15,15,15,15,427,426,0,426,0,426,0,426,0,426,
0,418,0,418,0,418,0,418,0,418,0,0,219,127,127,127,127,219,219,219,5,5,5,5,5,5,5,15,15,15,15,15,419,418,0,418,0,418,0,418,0,418,
0,426,0,426,0,426,0,426,0,426,0,0,219,127,127,127,127,127,219,219,5,5,5,5,5,5,5,5,5,5,5,5,427,426,0,426,0,426,0,426,0,426,
0,418,0,418,0,418,0,418,0,418,0,0,127,127,127,127,127,127,127,219,5,5,5,5,5,5,797,5,5,5,5,5,419,418,0,418,0,418,0,418,0,418,
0,426,0,426,0,426,0,426,0,426,0,0,127,219,127,127,127,219,219,219,5,5,5,5,5,5,5,5,5,5,5,5,427,426,0,426,0,426,0,426,0,426,
0,418,0,418,0,418,0,418,0,418,0,0,127,127,127,127,127,127,219,219,5,5,5,5,5,5,5,5,5,5,5,5,419,418,0,418,0,418,0,418,0,418,
0,426,0,426,0,426,0,426,0,426,0,0,219,127,127,127,127,127,127,219,5,5,5,5,5,5,5,211,211,211,211,5,427,426,0,426,0,426,0,426,0,426,
0,418,0,418,0,418,0,418,0,418,0,0,219,127,127,127,127,127,127,219,219,219,219,219,219,219,219,219,219,219,219,219,419,418,0,418,0,418,0,418,0,418,
0,426,0,426,0,426,0,426,0,426,0,426,127,127,127,127,127,127,127,127,219,127,127,127,127,127,797,127,127,219,219,219,427,426,0,426,0,426,0,426,0,426,
0,418,0,418,0,418,0,418,0,418,0,418,219,219,127,127,127,127,127,127,127,219,219,127,127,127,127,127,219,219,127,127,419,418,0,418,0,418,0,418,0,418,
0,426,0,426,0,426,0,426,0,426,0,426,219,127,127,127,127,127,127,127,127,219,219,127,127,127,127,127,127,127,127,127,427,426,0,426,0,426,0,426,0,426,
0,418,0,418,0,418,0,418,0,418,0,418,127,127,127,127,219,219,127,127,127,127,219,127,127,127,127,127,127,127,127,219,419,418,0,418,0,418,0,418,0,418,
0,426,0,426,0,426,0,426,0,426,0,426,127,127,127,127,219,219,127,127,127,127,219,219,219,127,127,127,127,127,127,127,427,426,0,426,0,426,0,426,0,426,
0,418,0,418,0,418,0,418,0,418,0,418,127,127,219,219,127,127,219,127,127,127,127,127,127,127,127,127,127,127,127,127,419,418,0,418,0,418,0,418,0,418,
0,426,0,426,0,426,0,426,0,426,0,426,219,219,127,127,127,127,127,127,127,127,127,127,127,127,127,127,127,127,127,127,427,426,0,426,0,426,0,426,0,426,
0,418,0,418,0,418,0,418,0,418,0,418,219,219,127,127,127,127,219,219,127,127,127,127,127,127,127,127,127,127,127,127,419,418,0,418,0,418,0,418,0,418,
0,426,0,426,0,426,0,426,0,426,0,426,127,127,127,127,127,127,127,127,219,219,127,127,127,127,127,127,127,127,127,127,427,426,0,426,0,426,0,426,0,426,
0,418,0,418,0,418,0,418,0,418,0,418,127,127,127,127,127,127,127,127,127,127,219,219,127,127,127,127,127,127,127,127,419,418,0,418,0,418,0,418,0,418,
0,426,0,426,0,426,0,426,0,426,0,426,127,127,127,219,219,219,219,219,219,219,127,219,127,127,127,127,127,127,127,127,427,426,0,426,0,426,0,426,0,426,
0,418,0,418,0,418,0,418,0,418,0,418,127,219,219,219,219,219,219,219,219,219,127,127,219,219,127,127,127,127,127,127,419,418,0,418,0,418,0,418,0,418,
0,426,0,426,0,426,0,426,0,426,0,426,127,127,127,127,127,127,127,127,219,219,219,127,219,127,127,127,127,127,127,127,427,426,0,426,0,426,0,426,0,426,
0,418,0,418,0,418,0,418,0,418,0,418,127,127,127,127,127,127,127,127,127,219,219,219,219,219,219,219,219,219,219,127,419,418,0,418,0,418,0,418,0,418,
0,426,0,426,0,426,0,426,0,426,0,426,127,127,127,127,127,127,127,127,127,219,219,127,127,127,127,127,127,127,127,127,427,426,0,426,0,426,0,426,0,426,
0,418,0,418,0,418,0,418,0,418,0,418,127,127,127,127,127,127,127,127,127,127,127,127,127,127,127,127,127,127,127,127,419,418,0,418,0,418,0,418,0,418,
0,426,0,426,0,426,0,426,0,426,0,426,127,127,127,127,127,127,127,127,127,127,127,127,127,127,127,127,127,127,127,127,427,426,0,426,0,426,0,426,0,426,
0,418,0,418,0,418,0,418,0,418,0,0,127,127,127,127,127,127,127,127,127,127,127,127,127,127,127,127,127,127,127,127,419,418,0,418,0,418,0,418,0,418,
0,426,0,426,0,426,0,426,0,426,0,0,127,127,127,127,127,127,127,127,127,127,127,127,127,127,127,127,127,127,127,127,427,426,0,426,0,426,0,426,0,426,
0,418,0,418,0,418,0,418,0,418,0,0,127,127,127,127,127,127,127,127,127,127,127,127,127,127,127,127,127,127,127,127,419,418,0,418,0,418,0,418,0,418,
0,426,0,426,0,426,0,426,0,426,0,0,127,127,127,127,127,127,127,219,219,127,127,127,127,127,127,127,127,127,127,127,427,426,0,426,0,426,0,426,0,426,
0,418,0,418,0,418,0,418,0,418,0,0,219,219,127,127,127,127,127,127,127,127,127,127,127,127,127,127,127,127,127,127,419,418,0,418,0,418,0,418,0,418,
0,426,0,426,0,426,0,426,0,426,0,0,219,219,127,127,219,219,127,127,219,219,127,127,219,219,219,219,219,127,127,127,427,426,0,426,0,426,0,426,0,426,
0,418,0,418,0,418,0,418,0,418,0,0,127,127,127,127,127,127,127,127,127,127,219,219,127,127,127,127,127,127,127,127,419,418,0,418,0,418,0,418,0,418,
0,426,0,426,0,426,0,426,0,426,0,0,127,127,127,127,127,127,127,127,127,127,127,127,127,127,127,127,127,127,127,127,427,426,0,426,0,426,0,426,0,426,
0,418,0,418,0,418,0,418,0,418,0,0,127,127,127,219,219,219,219,219,127,127,127,127,127,127,127,127,127,127,127,127,419,418,0,418,0,418,0,418,0,418,
0,426,0,426,0,426,0,426,0,426,0,0,127,127,127,127,127,127,127,127,127,127,127,127,127,127,127,127,127,127,127,127,427,426,0,426,0,426,0,426,0,426,
0,418,0,418,0,418,0,418,0,418,0,0,127,127,127,127,127,127,127,127,127,127,127,127,127,127,127,127,127,127,127,127,419,418,0,418,0,418,0,418,0,418,
0,426,0,426,0,426,0,426,0,426,0,0,127,127,127,127,127,127,127,127,127,127,127,127,127,127,127,127,127,127,127,127,427,426,0,426,0,426,0,426,0,426,
0,418,0,418,0,418,0,418,0,418,0,0,127,127,127,127,127,127,127,127,127,127,127,127,127,127,127,127,219,219,127,127,419,418,0,418,0,418,0,418,0,418,
0,426,0,426,0,426,0,426,0,426,0,0,127,127,127,127,127,127,127,127,127,127,127,219,219,219,127,127,127,127,127,127,427,426,0,426,0,426,0,426,0,426,
0,418,0,418,0,418,0,418,0,418,0,0,127,127,127,127,127,127,127,127,127,219,219,219,219,219,127,127,127,127,219,219,419,418,0,418,0,418,0,418,0,418,
0,426,0,426,0,426,0,426,0,426,0,0,127,127,127,127,127,127,127,127,127,219,219,219,219,127,127,127,127,127,219,219,427,426,0,426,0,426,0,426,0,426,
0,418,0,418,0,418,0,418,0,418,0,0,127,127,127,127,127,127,127,127,127,127,219,219,219,127,127,127,127,127,127,127,419,418,0,418,0,418,0,418,0,418,
0,426,0,426,0,426,0,426,0,426,0,0,127,127,127,127,127,127,127,127,127,127,127,127,127,127,127,127,127,127,127,127,427,426,0,426,0,426,0,426,0,426,
0,418,0,418,0,418,0,418,0,418,0,0,127,127,127,127,127,127,127,127,127,127,127,219,219,219,219,219,219,219,219,219,419,418,0,418,0,418,0,418,0,418,
0,426,0,426,0,426,0,426,0,426,0,0,219,219,219,219,219,219,219,219,127,127,127,219,794,794,794,794,794,794,794,219,427,426,0,426,0,426,0,426,0,426,
0,418,0,418,0,418,0,418,0,418,0,0,5,794,794,794,794,794,794,219,127,127,127,219,794,794,794,794,794,794,794,5,419,418,0,418,0,418,0,418,0,418,
0,426,0,426,0,426,0,426,0,426,0,0,5,5,5,5,5,5,5,219,127,127,127,219,5,5,5,5,5,5,5,5,427,426,0,426,0,426,0,426,0,426,
0,418,0,418,0,418,0,418,0,418,0,0,5,5,5,5,5,5,5,219,127,127,127,219,5,5,5,5,5,5,5,5,419,418,0,418,0,418,0,418,0,418,
0,426,0,426,0,426,0,426,0,426,0,0,5,5,5,5,5,5,5,219,127,127,127,219,5,5,5,5,5,5,5,5,427,426,0,426,0,426,0,426,0,426,
0,418,0,418,0,418,0,418,0,418,0,0,5,5,5,5,5,5,5,219,127,127,127,219,5,5,5,5,5,5,5,5,419,418,0,418,0,418,0,418,0,418,
0,426,0,426,0,426,0,426,0,426,0,0,5,5,5,5,219,219,219,219,127,127,127,219,5,5,5,5,5,5,5,5,427,426,0,426,0,426,0,426,0,426,
0,418,0,418,0,418,0,418,0,418,0,0,5,5,5,5,219,127,127,127,127,127,127,219,5,5,5,5,5,5,5,5,419,418,0,418,0,418,0,418,0,418,
0,426,0,426,0,426,0,426,0,426,0,0,5,5,5,5,219,127,127,127,127,127,127,219,5,5,5,5,5,5,5,5,427,426,0,426,0,426,0,426,0,426,
0,418,0,418,0,418,0,418,0,418,0,0,5,5,5,5,219,127,127,127,127,127,127,219,5,5,5,5,5,5,5,5,419,418,0,418,0,418,0,418,0,418,
0,426,0,426,0,426,0,426,0,426,0,0,5,5,5,5,219,127,127,127,219,219,219,5,5,5,5,5,5,5,5,5,427,426,0,426,0,426,0,426,0,426,
0,418,0,418,0,418,0,418,0,418,0,0,5,5,5,5,219,127,127,127,219,219,5,5,5,5,5,5,5,5,5,5,419,418,0,418,0,418,0,418,0,418,
0,426,0,426,0,426,0,426,0,426,0,0,5,5,5,5,219,127,127,219,219,219,5,5,5,5,5,5,5,5,5,5,427,426,0,426,0,426,0,426,0,426,
0,418,0,418,0,418,0,418,0,418,0,0,5,5,5,5,219,127,219,219,219,219,5,5,5,5,5,5,5,5,5,5,419,418,0,418,0,418,0,418,0,418,
0,426,0,426,0,426,0,426,0,426,0,0,5,5,5,5,219,127,219,219,219,219,5,5,5,5,5,5,5,5,5,5,427,426,0,426,0,426,0,426,0,426,
0,418,0,418,0,418,0,418,0,418,0,0,5,5,5,5,219,127,219,219,219,219,5,5,5,5,5,5,5,5,5,5,419,418,0,418,0,418,0,418,0,418,
0,426,0,426,0,426,0,426,0,426,0,0,5,5,5,4,219,127,219,127,219,219,4,4,4,4,5,5,5,5,5,5,427,426,0,426,0,426,0,426,0,426,
0,418,0,418,0,418,0,418,0,418,0,0,5,5,5,4,219,127,127,127,219,219,4,4,4,4,5,5,5,5,5,5,419,418,0,418,0,418,0,418,0,418,
0,426,0,426,0,426,0,426,0,426,0,0,5,5,5,4,219,127,127,127,219,219,4,4,4,4,5,5,5,5,5,5,427,426,0,426,0,426,0,426,0,426,
0,418,0,418,0,418,0,418,0,418,0,0,5,5,5,4,219,127,127,127,219,219,4,4,4,4,5,5,5,5,5,5,419,418,0,418,0,418,0,418,0,418,
0,426,0,426,0,426,0,426,0,426,0,0,5,5,5,4,219,127,127,127,219,219,219,4,4,4,5,5,5,5,5,5,427,426,0,426,0,426,0,426,0,426,
0,418,0,418,0,418,0,418,0,418,0,0,5,5,5,4,219,127,127,127,219,219,219,4,4,4,5,5,5,5,5,5,419,418,0,418,0,418,0,418,0,418,
0,426,0,426,0,426,0,426,0,426,0,0,5,5,5,4,219,127,127,127,219,219,219,219,219,219,5,5,5,5,5,5,427,426,0,426,0,426,0,426,0,426,
0,418,0,418,0,418,0,418,0,418,0,0,5,5,5,4,219,127,127,127,127,127,127,127,127,219,5,5,5,5,5,5,419,418,0,418,0,418,0,418,0,418,
0,426,0,426,0,426,0,426,0,426,0,0,5,5,5,4,219,127,127,127,127,127,127,127,127,219,5,5,5,5,5,5,427,426,0,426,0,426,0,426,0,426,
0,418,0,418,0,418,0,418,0,418,0,0,5,5,5,4,219,127,127,127,127,127,127,127,127,219,5,5,5,5,5,5,419,418,0,418,0,418,0,418,0,418,
0,426,0,426,0,426,0,426,0,426,0,0,5,5,5,4,219,219,219,219,219,219,127,127,127,219,5,5,5,5,5,5,427,426,0,426,0,426,0,426,0,426,
0,418,0,418,0,418,0,418,0,418,0,0,5,5,5,4,4,4,4,4,219,219,127,127,219,219,4,4,5,5,5,5,419,418,0,418,0,418,0,418,0,418,
0,426,0,426,0,426,0,426,0,426,0,0,5,5,794,794,794,794,794,794,219,219,127,219,219,219,4,4,5,5,5,5,427,426,0,426,0,426,0,426,0,426,
0,418,0,418,0,418,0,418,0,418,0,0,5,5,794,794,794,794,794,794,794,219,127,219,219,219,4,4,5,5,5,5,419,418,0,418,0,418,0,418,0,418,
0,426,0,426,0,426,0,426,0,426,0,0,5,5,794,794,794,794,794,794,794,219,127,219,219,219,4,4,5,5,5,5,427,426,0,426,0,426,0,426,0,426,
0,418,0,418,0,418,0,418,0,418,0,0,5,5,794,794,794,794,794,794,794,219,127,127,219,219,4,4,5,5,5,5,419,418,0,418,0,418,0,418,0,418,
0,426,0,426,0,426,0,426,0,426,0,0,5,5,794,794,794,794,794,794,794,219,127,127,219,219,4,4,5,5,5,5,427,426,0,426,0,426,0,426,0,426,
0,418,0,418,0,418,0,418,0,418,0,0,5,5,794,794,794,794,794,794,794,219,127,127,127,219,4,4,5,5,5,5,419,418,0,418,0,418,0,418,0,418,
0,426,0,426,0,426,0,426,0,426,0,0,5,5,794,794,794,794,794,794,794,219,127,127,127,219,4,4,5,5,5,5,427,426,0,426,0,426,0,426,0,426,
0,418,0,418,0,418,0,418,0,418,0,0,5,5,794,794,794,794,794,794,794,219,127,127,127,219,4,4,5,5,5,5,419,418,0,418,0,418,0,418,0,418,
0,426,0,426,0,426,0,426,0,426,0,0,5,5,794,794,794,794,794,794,794,219,127,127,127,219,4,4,5,5,5,5,427,426,0,426,0,426,0,426,0,426,
0,418,0,418,0,418,0,418,0,418,0,0,5,5,794,794,794,794,794,794,794,219,127,127,127,219,4,4,5,5,5,5,419,418,0,418,0,418,0,418,0,418,
0,426,0,426,0,426,0,426,0,426,0,0,5,5,794,794,794,794,794,794,794,219,127,127,127,219,4,4,5,5,5,5,427,426,0,426,0,426,0,426,0,426,
0,418,0,418,0,418,0,418,0,418,0,0,5,5,794,794,794,794,794,794,219,219,127,127,127,219,4,4,5,5,5,5,419,418,0,418,0,418,0,418,0,418,
0,426,0,426,0,426,0,426,0,426,0,0,4,4,794,794,794,794,794,794,4,219,127,127,127,219,4,4,4,4,4,4,427,426,0,426,0,426,0,426,0,426,
0,418,0,418,0,418,0,418,0,418,0,0,4,4,794,794,794,794,794,794,4,219,127,127,127,219,4,4,4,4,4,4,419,418,0,418,0,418,0,418,0,418,
0,426,0,426,0,426,0,426,0,426,0,0,4,4,794,794,794,794,794,794,4,219,127,127,127,219,4,4,4,4,4,4,427,426,0,426,0,426,0,426,0,426,
0,418,0,418,0,418,0,418,0,418,0,0,4,4,4,4,4,4,4,4,4,219,127,127,127,219,4,4,4,4,4,4,419,418,0,418,0,418,0,418,0,418,
0,426,0,426,0,426,0,426,0,426,0,0,4,219,219,219,219,219,219,219,219,219,127,127,127,219,219,219,219,219,4,4,427,426,0,426,0,426,0,426,0,426,
0,418,0,418,0,418,0,418,0,418,0,0,4,4,4,219,127,127,127,127,127,127,127,127,127,127,127,127,127,127,4,4,419,418,0,418,0,418,0,418,0,418,
0,426,0,426,0,426,0,426,0,426,0,0,2,4,4,219,127,127,127,127,127,127,127,127,127,127,127,127,127,127,4,2,427,426,0,426,0,426,0,426,0,426,
0,418,0,418,0,418,0,418,0,418,0,0,2,4,4,219,127,127,127,127,127,127,127,127,127,127,127,127,127,127,4,2,419,418,0,418,0,418,0,418,0,418,
0,426,0,426,0,426,0,426,0,426,0,0,5,4,4,219,219,219,219,127,127,127,219,219,219,219,219,219,219,219,4,3,427,426,0,426,0,426,0,426,0,426,
0,418,0,418,0,418,0,418,0,418,0,0,3,4,4,219,219,219,219,127,127,127,219,219,4,4,4,4,4,4,4,4,419,418,0,418,0,418,0,418,0,418,
0,426,0,426,0,426,0,426,0,426,0,0,5,4,4,4,219,219,219,127,5,127,219,219,4,4,4,4,4,4,4,4,427,426,0,426,0,426,0,426,0,426,
0,418,0,418,0,418,0,418,0,418,0,0,4,4,4,4,219,219,219,127,127,127,219,219,4,4,4,4,4,4,4,4,419,418,0,418,0,418,0,418,0,418,
0,426,0,426,0,426,0,426,0,426,0,0,4,4,4,4,219,219,219,127,127,5,219,219,4,4,4,4,4,4,4,4,427,426,0,426,0,426,0,426,0,426,
0,418,0,418,0,418,0,418,0,418,0,0,4,4,4,4,219,219,219,5,127,127,219,219,6,4,5,6,4,5,6,4,419,418,0,418,0,418,0,418,0,418,
0,426,0,426,0,426,0,426,0,426,0,0,4,4,4,4,4,127,127,127,127,127,219,219,3,3,3,3,3,3,3,3,427,426,0,426,0,426,0,426,0,426,
0,418,0,418,0,418,0,418,0,418,0,0,4,4,4,4,4,5,5,127,5,5,219,219,5,3,3,3,3,3,3,3,419,418,0,418,0,418,0,418,0,418,
0,426,0,426,0,426,0,426,0,426,0,0,4,4,4,4,4,5,5,5,127,127,219,219,3,3,3,3,3,3,3,3,427,426,0,426,0,426,0,426,0,426,
0,418,0,418,0,418,0,418,0,418,0,0,4,4,4,4,4,5,5,5,219,219,219,219,3,3,3,3,3,3,3,3,419,418,0,418,0,418,0,418,0,418,
0,426,0,426,0,426,0,426,0,426,0,0,4,4,4,4,210,211,212,4,4,4,4,4,4,4,4,4,4,4,4,4,427,426,0,426,0,426,0,426,0,426,
0,418,0,418,0,418,0,418,0,418,0,0,4,4,4,4,218,219,220,4,4,4,4,4,4,4,4,4,4,4,4,4,419,418,0,418,0,418,0,418,0,418,
0,426,0,426,0,426,0,426,0,426,0,0,4,4,4,4,218,219,220,4,4,4,4,4,4,4,4,4,4,4,794,4,427,426,0,426,0,426,0,426,0,426,
0,418,0,418,0,418,0,418,0,418,0,0,4,4,4,4,218,219,220,4,4,4,4,4,4,4,4,4,4,4,4,4,419,418,0,418,0,418,0,418,0,418,
0,426,0,426,0,426,0,426,0,426,0,0,4,4,4,4,218,219,220,4,5,6,4,5,6,4,5,6,4,5,6,4,427,426,0,426,0,426,0,426,0,426,
0,418,0,418,0,418,0,418,0,418,0,0,801,6,3,3,218,219,221,211,211,211,211,211,211,211,211,211,211,212,5,6,419,418,0,418,0,418,0,418,0,418,
0,426,0,426,0,426,0,426,0,426,0,426,6,6,6,32,218,219,219,219,219,219,219,219,219,219,219,219,219,220,6,5,0,426,0,426,0,426,0,426,0,426,
0,418,0,418,435,434,435,434,435,434,435,434,435,0,5,6,226,227,227,227,227,227,227,214,219,213,227,227,227,228,419,418,0,418,0,418,0,418,0,418,0,418,
4,4,4,4,4,4,4,6,6,6,6,6,6,6,6,4,4,4,3,3,4,3,3,218,219,220,3,4,3,3,427,426,0,426,0,426,0,426,0,426,0,426,
4,4,4,4,4,4,4,4,4,4,4,4,4,4,4,4,4,4,4,4,4,4,4,218,219,220,4,4,4,4,419,418,0,418,0,418,0,418,0,418,0,418,
4,4,4,4,4,4,4,4,4,4,4,4,4,4,4,4,4,4,4,4,4,4,4,218,219,220,4,4,4,4,427,426,0,426,0,426,0,426,0,426,0,426,
4,4,4,4,4,4,4,4,4,4,4,4,4,4,4,4,4,4,4,4,4,4,4,218,219,220,4,4,4,4,419,418,0,418,0,418,0,418,0,418,0,418,
4,4,4,4,4,4,4,4,4,4,4,4,4,4,4,4,4,4,4,4,4,4,4,218,219,220,4,4,4,4,427,426,0,426,0,426,0,426,0,426,0,426,
4,4,4,4,4,4,4,4,4,4,4,4,4,82,83,4,4,6,5,4,6,5,4,218,219,220,4,4,3,4,419,418,0,418,0,418,0,418,0,418,0,418,
74,74,74,74,74,74,74,74,74,74,82,82,82,82,83,3,4,210,211,211,211,211,211,222,219,220,4,3,3,3,427,426,0,426,0,426,0,426,0,426,0,426,
82,82,82,82,82,82,82,82,82,82,82,82,82,82,83,4,3,218,219,219,219,219,219,219,219,220,3,3,3,15,435,434,0,418,0,418,0,418,0,418,0,418,
90,90,90,90,90,90,90,90,90,90,82,4,4,4,4,4,3,218,219,213,227,227,227,227,227,228,5,3,3,3,4,4,427,426,0,426,0,426,0,426,0,426,
4,4,4,4,4,4,4,4,4,4,4,4,4,4,4,4,4,226,227,228,4,4,4,4,4,4,4,4,4,4,4,5,419,418,0,418,0,418,0,418,0,418,
4,4,4,4,4,4,4,4,4,4,4,4,4,4,4,4,4,4,4,4,4,4,4,4,4,4,4,4,4,4,4,4,427,426,0,426,0,426,0,426,0,426,
4,4,4,4,4,4,4,4,4,4,4,4,4,4,4,4,4,4,4,4,4,4,4,4,4,4,4,4,4,4,4,4,419,418,0,418,0,418,0,418,0,418,
4,4,4,4,4,4,4,4,4,4,4,4,4,4,4,3,4,4,4,4,4,4,4,4,4,4,4,4,4,4,4,4,427,426,0,426,0,426,0,426,0,426,
4,4,4,4,4,4,4,4,4,4,4,4,4,4,4,4,4,4,4,4,4,4,4,4,4,4,4,4,4,4,4,4,435,434,435,434,435,434,435,0,0,418,
4,4,4,4,4,4,4,4,4,4,4,4,4,4,4,4,4,4,4,4,4,4,4,4,4,4,4,4,4,4,4,4,6,6,6,4,4,4,4,4,4,4,
4,4,4,4,4,4,4,4,4,4,4,4,4,4,4,130,130,130,130,130,130,130,130,130,4,4,4,4,4,4,4,4,4,4,4,4,4,4,4,4,4,4
  </data>
 </layer>
 <layer id="2" name="middle" width="42" height="160">
  <data encoding="csv">
794,794,794,794,794,794,794,794,794,794,794,794,794,794,794,794,809,802,802,802,0,0,0,802,802,802,810,794,794,794,794,794,794,794,794,794,794,794,794,794,794,794,
794,794,794,794,794,794,794,794,794,794,794,794,794,794,809,802,803,0,0,954,0,0,0,0,0,0,801,802,810,794,794,794,794,794,794,794,794,794,794,794,794,794,
802,802,802,802,802,802,802,802,802,802,802,802,802,802,803,0,0,112,112,0,0,0,0,0,0,112,0,0,801,802,802,802,802,802,802,802,802,802,802,802,802,802,
0,0,0,0,0,0,0,0,0,0,0,0,0,0,0,0,112,112,0,0,0,0,0,0,112,112,112,0,419,0,0,0,0,0,0,0,0,0,0,0,0,0,
0,0,0,0,0,0,0,0,0,0,0,0,0,0,0,0,112,112,112,112,0,0,0,0,112,112,112,112,427,0,0,0,0,0,0,0,0,0,0,0,0,0,
0,0,0,0,0,0,0,0,0,0,0,0,0,0,0,0,112,0,0,0,112,0,0,112,112,112,112,112,0,0,0,0,0,0,0,0,0,0,0,0,0,0,
0,0,0,0,0,0,0,0,0,0,0,0,112,112,112,112,112,112,112,112,112,112,112,112,713,714,112,112,112,112,112,112,0,0,0,0,0,0,0,0,0,0,
0,0,0,0,0,0,0,0,0,0,0,0,112,112,112,112,112,112,0,112,112,112,112,112,721,722,112,0,112,112,112,112,0,0,0,0,0,0,0,0,0,0,
0,0,0,0,0,0,0,0,0,0,0,0,112,112,112,112,112,112,816,112,112,112,112,112,112,112,112,816,0,112,112,112,0,0,0,0,0,0,0,0,0,0,
0,0,0,0,0,0,0,0,0,0,0,0,112,112,112,112,112,112,112,112,112,112,112,112,112,112,112,112,816,112,112,112,0,0,0,0,0,0,0,0,0,0,
0,0,0,0,0,0,0,0,0,0,0,0,112,0,112,112,112,112,112,112,112,112,112,0,112,112,112,112,112,112,112,112,0,0,0,0,0,0,0,0,0,0,
0,0,0,0,0,0,0,0,0,0,0,0,112,816,112,112,112,112,112,112,112,112,112,816,112,112,0,112,112,112,112,112,0,0,0,0,0,0,0,0,0,0,
0,0,0,0,0,0,0,0,0,0,0,0,112,112,112,713,714,112,0,0,112,112,112,112,112,112,816,112,112,112,112,112,0,0,0,0,0,0,0,0,0,0,
0,0,0,0,0,0,0,0,0,0,0,0,112,112,112,721,722,112,0,816,112,112,112,112,112,112,112,112,112,112,112,112,0,0,0,0,0,0,0,0,0,0,
0,0,0,0,0,0,0,0,0,0,0,0,112,112,112,112,112,0,0,112,112,112,112,112,112,0,112,112,112,112,112,112,0,0,0,0,0,0,0,0,0,0,
0,0,0,0,0,0,0,0,0,0,0,0,112,112,0,112,0,0,112,112,112,112,112,112,112,816,112,112,112,112,112,112,0,0,0,0,0,0,0,0,0,0,
0,0,0,0,0,0,0,0,0,0,0,0,112,112,816,0,0,112,112,112,112,112,0,112,112,112,112,112,112,112,112,112,0,0,0,0,0,0,0,0,0,0,
0,0,0,0,0,0,0,0,0,0,0,0,112,112,112,0,112,112,112,112,112,112,816,112,112,112,112,112,112,112,112,112,0,0,0,0,0,0,0,0,0,0,
0,0,0,0,0,0,0,0,0,0,0,0,112,112,0,0,112,0,112,112,112,112,112,112,112,112,112,112,112,0,112,112,0,0,0,0,0,0,0,0,0,0,
0,0,0,0,0,0,0,0,0,0,0,0,112,0,0,112,112,816,112,112,112,112,112,112,112,713,714,112,112,816,112,112,0,0,0,0,0,0,0,0,0,0,
0,0,0,0,0,0,0,0,0,0,0,0,112,713,714,112,0,112,112,112,112,112,0,112,112,721,722,112,112,112,112,112,0,0,0,0,0,0,0,0,0,0,
0,0,0,0,0,0,0,0,0,0,0,0,112,721,722,112,816,112,112,112,112,112,816,112,112,112,112,112,112,112,112,112,0,0,0,0,0,0,0,0,0,0,
0,0,0,0,0,0,0,0,0,0,0,0,0,0,112,112,112,112,112,112,112,112,112,112,112,112,112,112,112,112,112,112,0,0,0,0,0,0,0,0,0,0,
0,0,0,0,0,0,0,0,0,0,0,0,0,112,0,112,112,112,112,112,112,112,112,112,112,112,112,112,112,112,112,112,0,0,0,0,0,0,0,0,0,0,
0,0,0,0,0,0,0,0,0,0,0,0,0,0,0,0,0,0,0,0,0,0,0,0,0,0,0,0,0,112,112,112,0,0,0,0,0,0,0,0,0,0,
0,0,0,0,0,0,0,0,0,0,0,0,0,0,785,786,786,786,786,786,786,786,786,786,786,786,786,786,787,112,112,112,0,0,0,0,0,0,0,0,0,0,
0,0,0,0,0,0,0,0,0,0,0,0,785,786,792,785,789,789,789,789,789,789,789,789,789,789,789,790,795,112,112,112,0,0,0,0,0,0,0,0,0,0,
0,0,0,0,0,0,0,0,0,0,0,0,793,788,789,792,797,797,797,797,797,797,797,797,797,797,797,798,795,112,112,112,0,0,0,0,0,0,0,0,0,0,
0,0,0,0,0,0,0,0,0,0,0,0,793,796,797,797,797,797,797,797,797,797,797,797,797,797,797,798,795,112,112,112,0,0,0,0,0,0,0,0,0,0,
0,0,0,0,0,0,0,0,0,0,0,0,793,796,797,797,797,797,797,797,797,797,797,797,797,797,797,798,795,0,112,112,0,0,0,0,0,0,0,0,0,0,
0,0,0,0,0,0,0,0,0,0,0,0,793,796,797,797,797,797,797,797,797,797,797,797,797,797,797,791,791,787,0,112,0,0,0,0,0,0,0,0,0,0,
0,0,0,0,0,0,0,0,0,0,0,0,793,796,797,797,797,797,797,797,797,797,797,797,797,797,797,797,797,798,787,112,0,0,0,0,0,0,0,0,0,0,
0,0,0,0,0,0,0,0,0,0,0,0,793,804,805,805,805,805,805,805,810,797,797,797,797,809,805,805,805,806,795,112,0,0,0,0,0,0,0,0,0,0,
0,0,0,0,0,0,0,0,0,0,0,0,801,802,802,802,802,802,802,810,796,797,797,797,797,798,809,802,802,802,803,112,0,0,0,0,0,0,0,0,0,0,
0,0,0,0,0,0,0,0,0,0,0,0,0,0,0,0,0,0,0,793,796,797,797,797,797,798,795,112,112,112,112,112,0,0,0,0,0,0,0,0,0,0,
0,0,0,0,0,0,0,0,0,0,0,0,816,0,0,0,0,0,0,793,796,797,797,797,797,798,795,0,0,0,0,0,0,0,0,0,0,0,0,0,0,0,
0,0,0,0,0,0,0,0,0,0,0,0,112,0,0,0,0,0,0,793,796,797,797,797,797,798,791,787,0,785,786,787,0,0,0,0,0,0,0,0,0,0,
0,0,0,0,0,0,0,0,0,0,0,0,112,0,0,0,0,713,714,793,796,797,797,797,797,791,787,795,0,793,794,795,0,0,0,0,0,0,0,0,0,0,
0,0,0,0,0,0,0,0,0,0,0,0,112,816,0,0,0,721,722,793,796,797,797,797,797,797,795,795,0,793,794,795,0,0,0,0,0,0,0,0,0,0,
0,0,0,0,0,0,0,0,0,0,0,0,0,0,0,0,0,0,816,793,796,797,797,797,797,797,795,795,0,793,794,795,0,0,0,0,0,0,0,0,0,0,
0,0,0,0,0,0,0,0,0,0,0,0,816,0,0,0,0,0,0,793,804,810,797,797,797,797,795,795,0,793,794,795,0,0,0,0,0,0,0,0,0,0,
0,0,0,0,0,0,0,0,0,0,0,0,112,112,0,0,0,0,816,793,797,796,797,797,797,797,795,795,0,793,794,795,0,0,0,0,0,0,0,0,0,0,
0,0,0,0,0,0,0,0,0,0,0,0,713,714,0,0,0,0,816,793,797,804,805,805,805,805,803,795,0,793,794,795,0,0,0,0,0,0,0,0,0,0,
0,0,0,0,0,0,0,0,0,0,0,0,721,722,0,0,0,0,0,793,794,794,794,794,794,794,794,795,0,793,794,795,0,0,0,0,0,0,0,0,0,0,
0,0,0,0,0,0,0,0,0,0,0,0,112,0,0,0,0,0,0,801,802,802,802,802,802,802,802,803,0,801,802,803,0,0,0,0,0,0,0,0,0,0,
0,0,0,0,0,0,0,0,0,0,0,0,112,112,112,112,713,714,0,0,0,0,816,713,714,0,0,0,0,0,0,112,0,0,0,0,0,0,0,0,0,0,
0,0,0,0,0,0,0,0,0,0,0,0,0,0,713,714,721,722,0,0,0,0,816,721,722,0,0,0,0,0,0,112,0,0,0,0,0,0,0,0,0,0,
0,0,0,0,0,0,0,0,0,0,0,0,0,0,721,722,0,0,816,112,0,0,0,0,0,0,0,0,0,0,0,112,0,0,0,0,0,0,0,0,0,0,
0,0,0,0,0,0,0,0,0,0,0,0,816,816,0,0,0,0,713,714,112,112,0,0,0,0,0,0,0,0,0,112,0,0,0,0,0,0,0,0,0,0,
0,0,0,0,0,0,0,0,0,0,0,0,112,0,0,0,0,0,721,722,713,714,0,0,0,0,0,0,0,0,0,112,0,0,0,0,0,0,0,0,0,0,
0,0,0,0,0,0,0,0,0,0,0,0,112,0,0,0,0,0,0,0,721,722,0,0,0,0,0,0,0,0,0,112,0,0,0,0,0,0,0,0,0,0,
0,0,0,0,0,0,0,0,0,0,0,0,112,0,0,0,0,0,0,0,0,0,816,816,0,0,0,0,0,0,0,112,0,0,0,0,0,0,0,0,0,0,
0,0,0,0,0,0,0,0,0,0,0,0,112,0,0,785,786,786,786,787,0,0,0,816,713,714,0,0,0,0,0,112,0,0,0,0,0,0,0,0,0,0,
0,0,0,0,0,0,0,0,0,0,0,0,112,785,786,792,794,794,794,795,0,0,0,0,721,722,0,0,0,0,0,112,0,0,0,0,0,0,0,0,0,0,
0,0,0,0,0,0,0,0,0,0,0,0,112,793,794,794,794,794,794,795,0,0,0,0,816,0,0,0,0,0,0,112,0,0,0,0,0,0,0,0,0,0,
0,0,0,0,0,0,0,0,0,0,0,0,112,793,794,794,794,794,794,795,0,0,0,793,786,786,786,786,786,786,787,112,0,0,0,0,0,0,0,0,0,0,
0,0,0,0,0,0,0,0,0,0,0,0,112,793,794,794,794,794,794,795,0,0,0,793,794,794,794,794,794,794,795,112,0,0,0,0,0,0,0,0,0,0,
0,0,0,0,0,0,0,0,0,0,0,0,112,793,794,794,794,794,794,795,0,0,0,801,802,810,794,794,794,794,795,112,0,0,0,0,0,0,0,0,0,0,
0,0,0,0,0,0,0,0,0,0,0,0,112,793,794,794,794,794,794,795,0,0,0,0,0,793,794,794,794,794,795,112,0,0,0,0,0,0,0,0,0,0,
0,0,0,0,0,0,0,0,0,0,0,0,112,801,810,794,794,794,794,795,0,0,0,0,0,801,802,802,802,802,803,112,0,0,0,0,0,0,0,0,0,0,
0,0,0,0,0,0,0,0,0,0,0,0,112,0,801,810,794,794,794,795,0,0,0,0,0,0,0,0,0,0,0,112,0,0,0,0,0,0,0,0,0,0,
0,0,0,0,0,0,0,0,0,0,0,0,112,0,0,801,802,802,802,803,0,0,0,0,0,0,0,0,0,0,0,112,0,0,0,0,0,0,0,0,0,0,
0,0,0,0,0,0,0,0,0,0,0,0,713,714,0,0,0,0,0,816,816,0,0,0,0,0,0,0,0,0,0,112,0,0,0,0,0,0,0,0,0,0,
0,0,0,0,0,0,0,0,0,0,0,0,721,722,0,0,713,714,0,0,713,714,0,0,0,0,0,0,0,0,0,112,0,0,0,0,0,0,0,0,0,0,
0,0,0,0,0,0,0,0,0,0,0,0,112,0,0,0,721,722,0,0,721,722,713,714,785,786,786,786,787,0,0,112,0,0,0,0,0,0,0,0,0,0,
0,0,0,0,0,0,0,0,0,0,0,0,112,0,0,0,0,0,0,0,0,0,721,722,793,794,794,794,795,0,0,112,0,0,0,0,0,0,0,0,0,0,
0,0,0,0,0,0,0,0,0,0,0,0,112,0,0,0,0,0,0,0,0,0,0,0,793,794,794,794,795,0,0,112,0,0,0,0,0,0,0,0,0,0,
0,0,0,0,0,0,0,0,0,0,0,0,112,0,0,785,786,786,786,787,0,0,0,0,793,794,794,794,795,0,0,112,0,0,0,0,0,0,0,0,0,0,
0,0,0,0,0,0,0,0,0,0,0,0,112,0,0,793,794,794,794,795,0,0,0,0,793,794,794,794,795,0,0,112,0,0,0,0,0,0,0,0,0,0,
0,0,0,0,0,0,0,0,0,0,0,0,112,785,786,792,794,794,794,795,0,0,0,0,801,802,802,802,803,0,0,112,0,0,0,0,0,0,0,0,0,0,
0,0,0,0,0,0,0,0,0,0,0,0,112,793,794,794,794,794,794,795,0,0,0,0,0,0,0,0,713,714,0,112,0,0,0,0,0,0,0,0,0,0,
0,0,0,0,0,0,0,0,0,0,0,0,112,793,794,794,794,794,794,795,0,0,0,0,0,0,0,0,721,722,0,112,0,0,0,0,0,0,0,0,0,0,
0,0,0,0,0,0,0,0,0,0,0,0,112,793,794,794,794,809,802,803,0,0,0,0,0,0,0,0,0,0,713,714,0,0,0,0,0,0,0,0,0,0,
0,0,0,0,0,0,0,0,0,0,0,0,112,793,794,794,794,795,0,0,0,0,0,0,0,0,0,0,0,0,721,722,0,0,0,0,0,0,0,0,0,0,
0,0,0,0,0,0,0,0,0,0,0,0,112,801,802,802,802,803,0,0,0,0,0,0,0,0,0,0,0,0,0,112,0,0,0,0,0,0,0,0,0,0,
0,0,0,0,0,0,0,0,0,0,0,0,112,0,0,0,0,0,0,0,0,0,0,0,0,0,0,0,0,0,0,112,0,0,0,0,0,0,0,0,0,0,
0,0,0,0,0,0,0,0,0,0,0,0,112,0,0,0,0,0,0,0,0,0,0,0,0,0,0,0,0,0,0,0,0,0,0,0,0,0,0,0,0,0,
0,0,0,0,0,0,0,0,0,0,0,0,0,0,0,0,0,0,0,0,0,0,0,785,786,786,786,786,786,786,786,787,0,0,0,0,0,0,0,0,0,0,
0,0,0,0,0,0,0,0,0,0,0,0,785,786,786,786,786,786,786,787,0,0,0,793,788,786,786,786,786,786,790,795,0,0,0,0,0,0,0,0,0,0,
0,0,0,0,0,0,0,0,0,0,0,0,793,788,786,786,786,786,790,795,0,0,0,793,793,788,786,786,786,790,795,795,0,0,0,0,0,0,0,0,0,0,
0,0,0,0,0,0,0,0,0,0,0,0,793,793,794,794,794,794,795,795,0,0,0,793,793,793,794,794,794,795,795,795,0,0,0,0,0,0,0,0,0,0,
0,0,0,0,0,0,0,0,0,0,0,0,793,793,794,794,794,794,795,795,0,0,0,793,793,793,794,794,794,795,795,795,0,0,0,0,0,0,0,0,0,0,
0,0,0,0,0,0,0,0,0,0,0,0,793,793,794,794,794,794,795,795,0,0,0,793,793,793,794,794,794,795,795,795,0,0,0,0,0,0,0,0,0,0,
0,0,0,0,0,0,0,0,0,0,0,0,793,793,794,809,802,802,806,795,0,0,0,793,793,793,794,794,794,795,795,795,0,0,0,0,0,0,0,0,0,0,
0,0,0,0,0,0,0,0,0,0,0,0,793,793,794,795,809,802,802,803,0,0,0,793,793,793,794,794,794,795,795,795,0,0,0,0,0,0,0,0,0,0,
0,0,0,0,0,0,0,0,0,0,0,0,793,793,794,795,795,0,0,0,0,0,0,793,793,793,794,794,794,795,795,795,0,0,0,0,0,0,0,0,0,0,
0,0,0,0,0,0,0,0,0,0,0,0,793,793,794,795,795,0,0,0,0,0,0,793,793,793,794,794,794,795,795,795,0,0,0,0,0,0,0,0,0,0,
0,0,0,0,0,0,0,0,0,0,0,0,793,793,794,795,795,0,0,0,0,0,0,793,793,793,794,794,794,795,795,795,0,0,0,0,0,0,0,0,0,0,
0,0,0,0,0,0,0,0,0,0,0,0,793,793,794,795,795,0,0,0,785,786,786,792,793,793,794,794,794,795,795,795,0,0,0,0,0,0,0,0,0,0,
0,0,0,0,0,0,0,0,0,0,0,0,793,793,794,795,795,0,0,0,793,788,794,794,792,793,794,794,794,795,795,795,0,0,0,0,0,0,0,0,0,0,
0,0,0,0,0,0,0,0,0,0,0,0,793,793,794,795,795,0,0,0,793,796,788,794,794,792,794,794,794,795,795,795,0,0,0,0,0,0,0,0,0,0,
0,0,0,0,0,0,0,0,0,0,0,0,793,793,794,795,795,0,0,0,793,796,796,794,794,794,794,794,794,795,795,795,0,0,0,0,0,0,0,0,0,0,
0,0,0,0,0,0,0,0,0,0,0,0,793,793,794,795,795,0,0,0,793,796,796,794,794,794,794,794,794,795,795,795,0,0,0,0,0,0,0,0,0,0,
0,0,0,0,0,0,0,0,0,0,0,0,793,793,794,795,795,0,0,0,793,796,796,794,794,794,794,794,794,795,795,795,0,0,0,0,0,0,0,0,0,0,
0,0,0,0,0,0,0,0,0,0,0,0,793,793,794,795,795,0,0,0,793,796,796,794,794,794,794,794,794,795,795,795,0,0,0,0,0,0,0,0,0,0,
0,0,0,0,0,0,0,0,0,0,0,0,793,793,794,795,795,0,0,0,793,796,796,794,794,794,794,794,794,795,795,795,0,0,0,0,0,0,0,0,0,0,
0,0,0,0,0,0,0,0,0,0,0,0,793,793,794,795,795,0,0,0,793,796,796,794,794,794,794,794,794,795,795,795,0,0,0,0,0,0,0,0,0,0,
0,0,0,0,0,0,0,0,0,0,0,0,793,793,794,795,795,0,0,0,793,796,796,794,794,794,794,794,794,795,795,795,0,0,0,0,0,0,0,0,0,0,
0,0,0,0,0,0,0,0,0,0,0,0,793,793,794,795,795,0,0,0,793,796,804,805,805,805,805,810,794,795,795,795,0,0,0,0,0,0,0,0,0,0,
0,0,0,0,0,0,0,0,0,0,0,0,793,793,794,795,795,0,0,0,793,804,805,805,805,805,810,793,794,795,795,795,0,0,0,0,0,0,0,0,0,0,
0,0,0,0,0,0,0,0,0,0,0,0,793,793,794,795,795,0,0,0,801,802,802,802,802,810,793,793,794,795,795,795,0,0,0,0,0,0,0,0,0,0,
0,0,0,0,0,0,0,0,0,0,0,0,793,793,794,795,795,0,0,0,0,0,0,0,0,793,793,793,794,795,795,795,0,0,0,0,0,0,0,0,0,0,
0,0,0,0,0,0,0,0,0,0,0,0,793,793,794,795,795,0,0,0,0,0,0,0,0,793,793,793,794,795,795,795,0,0,0,0,0,0,0,0,0,0,
0,0,0,0,0,0,0,0,0,0,0,0,793,793,794,795,795,0,0,0,0,0,0,0,0,793,793,793,794,795,795,795,0,0,0,0,0,0,0,0,0,0,
0,0,0,0,0,0,0,0,0,0,0,0,793,804,805,806,791,786,786,786,786,787,0,0,0,793,793,793,794,795,795,795,0,0,0,0,0,0,0,0,0,0,
0,0,0,0,0,0,0,0,0,0,0,0,793,794,794,794,794,794,794,794,794,795,0,0,0,793,793,793,794,795,795,795,0,0,0,0,0,0,0,0,0,0,
0,0,0,0,0,0,0,0,0,0,0,0,793,794,785,786,786,786,787,794,794,795,0,0,0,793,793,793,794,795,795,795,0,0,0,0,0,0,0,0,0,0,
0,0,0,0,0,0,0,0,0,0,0,0,793,794,793,794,794,794,791,787,794,795,0,0,0,793,793,793,794,795,795,795,0,0,0,0,0,0,0,0,0,0,
0,0,0,0,0,0,0,0,0,0,0,0,793,794,793,794,794,794,794,791,787,795,0,0,0,793,793,793,794,795,795,795,0,0,0,0,0,0,0,0,0,0,
0,0,0,0,0,0,0,0,0,0,0,0,793,794,793,794,794,794,794,794,795,795,0,0,0,793,793,793,794,795,795,795,0,0,0,0,0,0,0,0,0,0,
0,0,0,0,0,0,0,0,0,0,0,0,793,794,793,794,794,794,794,794,795,795,0,0,0,793,793,793,794,795,795,795,0,0,0,0,0,0,0,0,0,0,
0,0,0,0,0,0,0,0,0,0,0,0,793,794,793,794,794,794,794,794,795,795,0,0,0,793,793,793,794,795,795,795,0,0,0,0,0,0,0,0,0,0,
0,0,0,0,0,0,0,0,0,0,0,0,793,794,793,794,794,794,794,794,795,795,0,0,0,793,793,793,794,795,795,795,0,0,0,0,0,0,0,0,0,0,
0,0,0,0,0,0,0,0,0,0,0,0,793,794,793,794,794,794,794,794,795,795,0,0,0,793,793,793,794,795,795,795,0,0,0,0,0,0,0,0,0,0,
0,0,0,0,0,0,0,0,0,0,0,0,793,794,793,794,794,794,794,794,795,795,0,0,0,793,793,793,794,795,795,795,0,0,0,0,0,0,0,0,0,0,
0,0,0,0,0,0,0,0,0,0,0,0,793,794,793,794,794,794,794,809,803,795,0,0,0,793,793,793,794,795,795,795,0,0,0,0,0,0,0,0,0,0,
0,0,0,0,0,0,0,0,0,0,0,0,793,794,793,794,794,794,794,795,794,795,0,0,0,793,793,793,794,795,795,795,0,0,0,0,0,0,0,0,0,0,
0,0,0,0,0,0,0,0,0,0,0,0,793,794,801,810,794,794,794,795,794,795,0,0,0,793,793,793,794,795,795,795,0,0,0,0,0,0,0,0,0,0,
0,0,0,0,0,0,0,0,0,0,0,0,793,794,794,801,810,794,794,795,794,795,0,0,0,793,793,793,794,795,795,795,0,0,0,0,0,0,0,0,0,0,
0,0,0,0,0,0,0,0,0,0,0,0,793,794,794,794,793,794,794,795,794,795,0,0,0,793,793,804,810,795,795,795,0,0,0,0,0,0,0,0,0,0,
0,0,0,0,0,0,0,0,0,0,0,0,793,794,794,794,801,802,802,803,794,795,0,0,0,793,793,794,804,806,795,795,0,0,0,0,0,0,0,0,0,0,
0,0,0,0,0,0,0,0,0,0,0,0,793,794,794,794,794,794,794,794,794,795,0,0,0,793,804,805,805,805,806,795,0,0,0,0,0,0,0,0,0,0,
0,0,0,0,0,0,0,0,0,0,0,0,793,794,794,809,802,802,802,802,802,803,0,0,0,801,802,802,802,810,794,795,0,0,0,0,0,0,0,0,0,0,
0,0,0,0,0,0,0,0,0,0,0,0,793,794,794,795,0,0,0,0,0,0,0,0,0,0,0,0,0,793,794,795,0,0,0,0,0,0,0,0,0,0,
0,0,0,0,0,0,0,0,0,0,0,0,793,794,794,795,0,0,0,0,0,0,0,0,0,0,0,0,0,793,794,795,0,0,0,0,0,0,0,0,0,0,
0,0,0,0,0,0,0,0,0,0,0,0,793,794,794,795,0,0,0,0,0,0,0,0,0,0,0,0,0,793,794,795,0,0,0,0,0,0,0,0,0,0,
0,0,0,0,0,0,0,0,0,0,0,0,793,794,794,791,786,786,787,0,0,0,785,786,786,786,786,786,786,792,794,795,0,0,0,0,0,0,0,0,0,0,
0,0,0,0,0,0,0,0,0,0,0,0,793,788,789,790,794,794,795,0,0,0,793,788,789,789,789,789,789,789,790,795,0,0,0,0,0,0,0,0,0,0,
0,0,0,0,0,0,0,0,0,0,0,0,793,796,794,798,794,794,795,0,0,0,793,796,797,794,794,794,794,794,795,795,0,0,0,0,0,0,0,0,0,0,
0,0,0,0,0,0,0,0,0,0,0,0,793,796,794,798,794,794,795,0,0,0,793,796,794,794,794,794,794,794,795,795,0,0,0,0,0,0,0,0,0,0,
0,0,0,0,0,0,0,0,0,0,0,0,793,796,794,798,794,794,795,0,0,0,793,796,794,794,794,794,794,794,795,795,0,0,0,0,0,0,0,0,0,0,
0,0,0,0,0,0,0,0,0,0,0,0,793,796,794,798,809,802,803,112,0,0,793,796,794,794,794,794,794,794,795,795,0,0,0,0,0,0,0,0,0,0,
0,0,0,0,0,0,0,0,0,0,0,0,793,796,794,798,795,0,0,0,0,0,793,796,794,794,794,794,794,794,795,795,0,0,0,0,0,0,0,0,0,0,
0,0,0,0,0,0,0,0,0,0,0,0,793,804,805,806,795,0,0,0,0,0,793,796,794,794,794,794,794,794,795,795,0,0,0,0,0,0,0,0,0,0,
0,0,0,0,0,0,0,0,0,0,0,0,793,794,794,794,795,0,0,0,0,0,793,796,794,794,794,794,794,794,795,795,0,0,0,0,0,0,0,0,0,0,
0,0,0,0,0,0,0,0,0,0,0,0,793,794,794,809,803,0,0,785,786,786,792,796,794,794,794,794,794,794,795,795,0,0,0,0,0,0,0,0,0,0,
0,0,0,0,0,0,0,0,0,0,0,0,793,794,794,795,0,0,0,793,788,789,789,792,794,794,794,794,794,794,795,795,0,0,0,0,0,0,0,0,0,0,
0,0,0,0,0,0,0,0,0,0,0,0,793,794,794,795,0,0,0,793,793,794,794,794,794,794,794,794,794,794,795,795,0,0,0,0,0,0,0,0,0,0,
0,0,0,0,0,0,0,0,0,0,0,0,793,794,794,795,0,0,0,793,793,794,809,802,802,802,802,802,802,802,803,795,0,0,0,0,0,0,0,0,0,0,
0,0,0,0,0,0,0,0,0,0,0,0,793,794,794,795,0,0,0,793,804,802,806,794,794,794,794,794,794,794,794,795,0,0,0,0,0,0,0,0,0,0,
0,0,0,0,0,0,0,0,0,0,0,0,793,794,794,795,0,0,0,801,802,802,802,802,802,802,802,802,802,802,802,803,0,0,0,0,0,0,0,0,0,0,
0,0,0,0,0,0,0,0,0,0,0,0,0,802,802,803,0,0,0,0,0,0,0,0,0,0,0,0,0,0,0,0,0,0,0,0,0,0,0,0,0,0,
0,0,0,0,0,0,0,0,0,0,0,0,0,0,0,0,0,0,0,0,0,0,0,0,0,0,0,0,0,0,0,0,0,0,0,0,0,0,0,0,0,0,
0,0,0,0,0,0,0,0,0,0,0,0,0,0,0,0,0,0,0,0,0,0,0,0,0,0,0,0,0,0,0,0,0,0,0,0,0,0,0,0,0,0,
786,786,786,786,786,786,786,786,786,786,786,786,786,786,786,786,786,787,0,0,0,0,0,0,0,0,785,786,786,787,0,0,0,0,0,0,0,0,0,0,0,0,
789,789,789,789,789,789,789,789,789,789,789,789,789,789,789,790,794,791,786,786,786,786,787,0,0,0,793,794,794,795,0,0,0,0,0,0,0,0,0,0,0,0,
794,794,794,794,794,794,794,794,794,794,794,794,794,794,794,791,789,789,789,789,789,790,795,0,0,0,793,794,794,795,0,0,0,0,0,0,0,0,0,0,0,0,
794,794,794,794,794,794,794,794,789,789,789,789,789,789,789,789,789,789,794,794,794,798,795,0,0,0,793,794,794,795,0,0,0,0,0,0,0,0,0,0,0,0,
802,802,802,802,802,802,802,802,802,802,802,802,802,802,802,802,802,802,802,802,802,806,795,0,0,0,793,794,794,795,0,0,0,0,0,0,0,0,0,0,0,0,
802,802,802,802,802,802,802,802,802,802,802,802,802,802,802,802,802,802,802,802,802,802,803,0,0,0,801,802,802,803,0,0,0,0,0,0,0,0,0,0,0,0,
0,0,0,0,0,0,0,0,0,2194,2195,2196,2197,2198,2199,0,0,0,0,0,0,0,0,0,0,0,120,120,120,112,0,0,0,0,0,0,0,0,0,0,0,0,
0,0,0,0,0,0,0,0,0,2202,2203,2204,2205,2206,2207,0,0,0,0,0,0,0,0,0,0,0,120,120,120,112,0,0,0,0,0,0,0,0,0,0,0,0,
0,0,0,0,0,0,0,0,0,2210,2211,2212,2213,2214,2215,0,0,0,0,0,0,0,0,0,0,0,120,120,120,120,443,444,0,0,0,0,0,0,0,0,0,0,
786,786,786,786,786,786,786,786,786,786,786,786,786,786,786,787,0,0,0,0,120,120,120,785,786,786,786,786,786,786,786,787,0,0,0,0,0,0,0,0,0,0,
794,794,794,794,794,794,794,794,794,794,794,794,794,794,794,795,120,120,120,120,120,120,120,793,788,789,789,789,789,789,790,795,0,0,0,0,0,0,0,0,0,0,
794,794,794,794,794,794,794,794,794,794,794,794,794,794,794,795,120,120,120,120,120,120,120,793,796,794,794,794,794,794,798,795,0,0,0,0,0,0,0,0,0,0,
794,794,794,794,794,794,794,794,794,794,794,794,794,794,794,795,120,120,120,120,120,120,120,793,796,794,794,794,794,794,798,795,0,0,0,0,0,0,0,0,0,0,
794,794,794,794,786,786,786,786,786,786,786,786,786,786,787,795,120,120,120,120,120,120,120,793,796,794,794,794,794,794,798,795,0,0,0,0,0,0,0,0,0,0,
794,794,794,794,786,794,794,794,794,794,794,794,809,802,803,795,120,120,120,120,120,120,120,793,796,794,794,794,794,794,791,791,786,786,786,786,786,786,786,786,786,786,
794,794,794,794,789,786,786,786,786,786,786,786,798,809,802,803,120,120,120,120,120,120,120,793,796,794,794,794,794,794,794,794,794,794,794,794,794,794,794,794,794,794
  </data>
 </layer>
 <layer id="3" name="upper" width="42" height="160">
  <data encoding="csv">
0,0,0,0,0,0,0,0,0,0,0,0,0,0,0,0,0,0,0,0,0,0,0,0,0,0,0,0,0,0,0,0,0,0,0,0,0,0,0,0,0,0,
0,0,0,0,0,0,0,0,0,0,0,0,0,0,0,0,0,0,0,0,0,0,0,0,0,0,0,0,0,0,0,0,0,0,0,0,0,0,0,0,0,0,
0,0,0,0,0,0,0,0,0,0,0,0,0,0,0,0,0,0,0,0,0,0,0,0,0,0,0,0,0,0,0,0,0,0,0,0,0,0,0,0,0,0,
0,0,0,0,0,0,0,0,0,0,0,0,0,0,0,0,0,0,0,0,0,0,0,0,0,0,0,0,0,0,0,0,0,0,0,0,0,0,0,0,0,0,
0,0,0,0,0,0,0,0,0,0,0,0,0,0,0,0,0,0,0,0,0,0,0,0,0,0,0,0,0,0,0,0,0,0,0,0,0,0,0,0,0,0,
0,0,0,0,0,0,0,0,0,0,0,0,0,0,0,0,0,112,112,112,0,0,0,0,0,0,0,0,0,0,0,0,0,0,0,0,0,0,0,0,0,0,
0,0,0,0,0,0,0,0,0,0,0,0,0,0,0,0,0,0,0,0,0,0,0,0,0,0,0,0,0,0,0,0,0,0,0,0,0,0,0,0,0,0,
0,0,0,0,0,0,0,0,0,0,0,0,0,0,0,0,0,0,0,0,0,0,0,0,112,112,0,0,0,0,0,0,0,0,0,0,0,0,0,0,0,0,
0,0,0,0,0,0,0,0,0,0,0,0,0,0,0,0,0,0,112,0,0,0,0,0,0,0,0,112,0,0,0,0,0,0,0,0,0,0,0,0,0,0,
0,0,0,0,0,0,0,0,0,0,0,0,0,0,0,0,0,0,0,0,0,0,0,0,0,0,0,0,112,0,0,0,0,0,0,0,0,0,0,0,0,0,
0,0,0,0,0,0,0,0,0,0,0,0,0,0,0,0,0,0,0,0,0,0,0,0,0,0,0,0,0,0,0,0,0,0,0,0,0,0,0,0,0,0,
0,0,0,0,0,0,0,0,0,0,0,0,0,112,0,0,0,0,0,0,0,0,0,112,0,0,0,0,0,0,0,0,0,0,0,0,0,0,0,0,0,0,
0,0,0,0,0,0,0,0,0,0,0,0,0,0,0,0,0,0,0,0,0,0,0,0,0,0,112,0,0,0,0,0,0,0,0,0,0,0,0,0,0,0,
0,0,0,0,0,0,0,0,0,0,0,0,0,0,0,112,112,0,0,112,0,0,0,0,0,0,0,0,0,0,0,0,0,0,0,0,0,0,0,0,0,0,
0,0,0,0,0,0,0,0,0,0,0,0,0,0,0,0,0,0,0,0,0,0,0,0,0,0,0,0,0,0,0,0,0,0,0,0,0,0,0,0,0,0,
0,0,0,0,0,0,0,0,0,0,0,0,0,0,0,0,0,0,0,0,0,0,0,0,0,112,0,0,0,0,0,0,0,0,0,0,0,0,0,0,0,0,
0,0,0,0,0,0,0,0,0,0,0,0,0,0,112,0,0,0,0,0,0,0,0,0,0,0,0,0,0,0,0,0,0,0,0,0,0,0,0,0,0,0,
0,0,0,0,0,0,0,0,0,0,0,0,0,0,0,0,0,0,0,0,0,0,112,0,0,0,0,0,0,0,0,0,0,0,0,0,0,0,0,0,0,0,
0,0,0,0,0,0,0,0,0,0,0,0,0,0,0,0,0,0,0,0,0,0,0,0,0,0,0,0,0,0,0,0,0,0,0,0,0,0,0,0,0,0,
0,0,0,0,0,0,0,0,0,0,0,0,0,0,0,0,0,112,0,0,0,0,0,0,0,0,0,0,0,112,0,0,0,0,0,0,0,0,0,0,0,0,
0,0,0,0,0,0,0,0,0,0,0,0,0,0,0,0,0,0,0,0,0,0,0,0,0,112,112,0,0,0,0,0,0,0,0,0,0,0,0,0,0,0,
0,0,0,0,0,0,0,0,0,0,0,0,0,0,112,0,112,0,0,0,0,0,112,0,0,0,0,0,0,0,0,0,0,0,0,0,0,0,0,0,0,0,
0,0,0,0,0,0,0,0,0,0,0,0,0,0,0,0,0,0,0,0,0,0,0,0,0,0,0,0,0,0,0,0,0,0,0,0,0,0,0,0,0,0,
0,0,0,0,0,0,0,0,0,0,0,0,0,0,0,0,0,0,0,0,0,0,0,0,0,0,0,0,0,0,0,0,0,0,0,0,0,0,0,0,0,0,
0,0,0,0,0,0,0,0,0,0,0,0,0,0,0,0,0,0,0,0,0,0,0,0,0,0,0,0,0,0,0,0,0,0,0,0,0,0,0,0,0,0,
0,0,0,0,0,0,0,0,0,0,0,0,0,0,0,0,0,0,0,0,0,0,0,0,0,0,0,0,0,0,0,0,0,0,0,0,0,0,0,0,0,0,
0,0,0,0,0,0,0,0,0,0,0,0,0,0,0,0,0,0,0,0,0,0,0,0,0,0,0,0,0,0,0,0,0,0,0,0,0,0,0,0,0,0,
0,0,0,0,0,0,0,0,0,0,0,0,0,0,0,0,0,0,0,0,0,0,0,0,0,0,0,0,0,0,0,0,0,0,0,0,0,0,0,0,0,0,
0,0,0,0,0,0,0,0,0,0,0,0,0,0,0,0,0,0,0,0,0,0,0,0,0,0,0,0,0,0,0,0,0,0,0,0,0,0,0,0,0,0,
0,0,0,0,0,0,0,0,0,0,0,0,0,0,0,0,0,0,0,0,0,0,0,0,0,0,0,0,0,0,0,0,0,0,0,0,0,0,0,0,0,0,
0,0,0,0,0,0,0,0,0,0,0,0,0,0,0,0,0,0,0,0,0,0,0,0,0,0,0,0,0,0,0,0,0,0,0,0,0,0,0,0,0,0,
0,0,0,0,0,0,0,0,0,0,0,0,0,0,0,0,0,0,0,0,0,0,0,0,0,0,0,0,0,0,0,0,0,0,0,0,0,0,0,0,0,0,
0,0,0,0,0,0,0,0,0,0,0,0,0,0,0,0,0,0,0,0,0,0,0,0,0,0,0,0,0,0,0,0,0,0,0,0,0,0,0,0,0,0,
0,0,0,0,0,0,0,0,0,0,0,0,0,112,112,112,112,112,112,0,0,0,0,0,0,0,0,112,112,112,112,0,0,0,0,0,0,0,0,0,0,0,
0,0,0,0,0,0,0,0,0,0,0,0,0,112,112,112,112,0,0,0,0,0,0,0,0,0,0,0,0,0,0,0,0,0,0,0,0,0,0,0,0,0,
0,0,0,0,0,0,0,0,0,0,0,0,0,112,112,112,112,112,0,0,0,0,0,0,0,0,0,0,0,0,0,0,0,0,0,0,0,0,0,0,0,0,
0,0,0,0,0,0,0,0,0,0,0,0,0,112,112,112,112,112,112,0,0,0,0,0,0,0,0,0,0,0,0,0,0,0,0,0,0,0,0,0,0,0,
0,0,0,0,0,0,0,0,0,0,0,0,0,0,112,112,112,0,0,0,0,0,0,0,0,0,0,0,0,0,0,0,0,0,0,0,0,0,0,0,0,0,
0,0,0,0,0,0,0,0,0,0,0,0,0,112,112,112,112,112,0,0,0,0,0,0,0,0,0,0,0,0,0,0,0,0,0,0,0,0,0,0,0,0,
0,0,0,0,0,0,0,0,0,0,0,0,0,112,112,112,112,112,112,0,0,0,0,0,0,0,0,0,0,0,0,0,0,0,0,0,0,0,0,0,0,0,
0,0,0,0,0,0,0,0,0,0,0,0,0,112,112,112,112,112,112,0,0,0,0,0,0,0,0,0,0,0,0,0,0,0,0,0,0,0,0,0,0,0,
0,0,0,0,0,0,0,0,0,0,0,0,0,0,112,112,112,112,112,0,0,0,0,0,0,0,0,0,112,0,0,0,0,0,0,0,0,0,0,0,0,0,
0,0,0,0,0,0,0,0,0,0,0,0,0,0,112,112,112,112,112,0,0,0,0,0,0,0,0,0,0,0,0,0,0,0,0,0,0,0,0,0,0,0,
0,0,0,0,0,0,0,0,0,0,0,0,0,112,112,112,112,112,112,0,0,0,0,0,0,0,0,0,112,0,0,0,0,0,0,0,0,0,0,0,0,0,
0,0,0,0,0,0,0,0,0,0,0,0,0,112,112,112,0,0,112,112,112,112,0,112,112,112,112,112,112,112,112,0,0,0,0,0,0,0,0,0,0,0,
0,0,0,0,0,0,0,0,0,0,0,0,0,0,0,0,0,0,112,112,112,112,0,0,0,112,112,112,112,112,112,0,0,0,0,0,0,0,0,0,0,0,
0,0,0,0,0,0,0,0,0,0,0,0,112,112,0,0,112,112,0,112,112,112,112,112,112,112,112,112,112,112,112,0,0,0,0,0,0,0,0,0,0,0,
0,0,0,0,0,0,0,0,0,0,0,0,0,0,112,112,112,112,112,0,112,112,112,112,112,112,112,112,112,112,112,0,0,0,0,0,0,0,0,0,0,0,
0,0,0,0,0,0,0,0,0,0,0,0,0,0,112,112,112,112,0,0,0,0,112,112,112,112,112,112,112,112,112,0,0,0,0,0,0,0,0,0,0,0,
0,0,0,0,0,0,0,0,0,0,0,0,0,112,112,112,112,112,112,112,0,0,112,112,112,112,112,112,112,112,112,0,0,0,0,0,0,0,0,0,0,0,
0,0,0,0,0,0,0,0,0,0,0,0,0,112,112,112,112,112,112,112,112,112,0,0,112,112,112,112,112,112,112,0,0,0,0,0,0,0,0,0,0,0,
0,0,0,0,0,0,0,0,0,0,0,0,0,112,112,0,0,0,0,0,0,0,112,0,112,112,112,112,112,112,112,0,0,0,0,0,0,0,0,0,0,0,
0,0,0,0,0,0,0,0,0,0,0,0,0,0,0,0,0,0,0,0,0,0,112,112,0,0,112,112,112,112,112,0,0,0,0,0,0,0,0,0,0,0,
0,0,0,0,0,0,0,0,0,0,0,0,0,0,0,0,0,0,0,0,0,0,0,112,0,112,112,112,112,112,112,0,0,0,0,0,0,0,0,0,0,0,
0,0,0,0,0,0,0,0,0,0,0,0,0,0,0,0,0,0,0,0,112,0,0,0,0,0,0,0,0,0,0,0,0,0,0,0,0,0,0,0,0,0,
0,0,0,0,0,0,0,0,0,0,0,0,0,0,0,0,0,0,0,0,112,0,0,0,0,0,0,0,0,0,0,0,0,0,0,0,0,0,0,0,0,0,
0,0,0,0,0,0,0,0,0,0,0,0,0,0,0,0,0,0,0,0,112,112,112,0,0,0,0,0,0,0,0,0,0,0,0,0,0,0,0,0,0,0,
0,0,0,0,0,0,0,0,0,0,0,0,0,0,0,0,0,0,0,0,112,112,112,112,112,0,0,0,0,0,0,0,0,0,0,0,0,0,0,0,0,0,
0,0,0,0,0,0,0,0,0,0,0,0,0,0,0,0,0,0,0,0,112,112,112,112,112,0,0,0,0,0,0,0,0,0,0,0,0,0,0,0,0,0,
0,0,0,0,0,0,0,0,0,0,0,0,0,112,0,0,0,0,0,0,112,112,112,112,112,112,112,112,112,112,112,0,0,0,0,0,0,0,0,0,0,0,
0,0,0,0,0,0,0,0,0,0,0,0,0,112,112,0,0,0,0,0,112,112,112,112,112,112,112,112,112,112,112,0,0,0,0,0,0,0,0,0,0,0,
0,0,0,0,0,0,0,0,0,0,0,0,0,112,112,112,112,112,112,0,0,112,112,112,112,112,112,112,112,112,112,0,0,0,0,0,0,0,0,0,0,0,
0,0,0,0,0,0,0,0,0,0,0,0,0,0,112,112,112,112,112,112,112,112,112,112,112,112,112,112,112,112,112,0,0,0,0,0,0,0,0,0,0,0,
0,0,0,0,0,0,0,0,0,0,0,0,0,0,112,112,0,0,112,112,0,0,112,112,112,0,0,0,0,112,112,0,0,0,0,0,0,0,0,0,0,0,
0,0,0,0,0,0,0,0,0,0,0,0,0,112,112,112,112,112,112,112,112,112,0,0,0,0,0,0,0,112,112,0,0,0,0,0,0,0,0,0,0,0,
0,0,0,0,0,0,0,0,0,0,0,0,0,112,112,112,112,112,112,112,112,112,112,112,0,0,0,0,0,112,112,0,0,0,0,0,0,0,0,0,0,0,
0,0,0,0,0,0,0,0,0,0,0,0,0,112,112,0,0,0,0,0,112,112,112,112,0,0,0,0,0,112,112,0,0,0,0,0,0,0,0,0,0,0,
0,0,0,0,0,0,0,0,0,0,0,0,0,112,112,0,0,0,0,0,112,112,112,112,0,0,0,0,0,112,112,0,0,0,0,0,0,0,0,0,0,0,
0,0,0,0,0,0,0,0,0,0,0,0,0,112,112,0,0,0,0,0,112,112,112,112,0,0,0,0,0,112,112,0,0,0,0,0,0,0,0,0,0,0,
0,0,0,0,0,0,0,0,0,0,0,0,0,0,0,0,0,0,0,0,112,112,112,112,112,112,112,112,112,112,112,0,0,0,0,0,0,0,0,0,0,0,
0,0,0,0,0,0,0,0,0,0,0,0,0,0,0,0,0,0,0,0,112,112,112,112,112,112,112,112,0,0,112,0,0,0,0,0,0,0,0,0,0,0,
0,0,0,0,0,0,0,0,0,0,0,0,0,0,0,0,0,0,0,0,112,112,112,0,0,0,112,112,112,112,112,0,0,0,0,0,0,0,0,0,0,0,
0,0,0,0,0,0,0,0,0,0,0,0,0,0,0,0,0,0,112,112,112,0,0,0,0,0,112,112,112,112,0,0,0,0,0,0,0,0,0,0,0,0,
0,0,0,0,0,0,0,0,0,0,0,0,0,0,0,0,0,0,112,112,112,0,0,0,0,112,112,112,112,112,0,0,0,0,0,0,0,0,0,0,0,0,
0,0,0,0,0,0,0,0,0,0,0,0,0,112,112,112,112,112,112,112,112,112,0,0,0,112,112,112,112,112,112,0,0,0,0,0,0,0,0,0,0,0,
0,0,0,0,0,0,0,0,0,0,0,0,0,112,112,112,112,112,112,112,112,112,112,112,112,112,112,112,112,112,112,0,0,0,0,0,0,0,0,0,0,0,
0,0,0,0,0,0,0,0,0,0,0,0,0,112,112,112,112,112,112,112,112,112,112,0,0,0,0,0,0,0,0,0,0,0,0,0,0,0,0,0,0,0,
0,0,0,0,0,0,0,0,0,0,0,0,0,0,0,0,0,0,0,0,112,112,112,0,0,0,0,0,0,0,0,0,0,0,0,0,0,0,0,0,0,0,
0,0,0,0,0,0,0,0,0,0,0,0,0,0,0,0,0,0,0,0,112,112,112,0,0,0,0,0,0,0,0,0,0,0,0,0,0,0,0,0,0,0,
0,0,0,0,0,0,0,0,0,0,0,0,0,0,0,0,0,0,0,0,112,112,112,0,0,0,0,0,0,0,0,0,0,0,0,0,0,0,0,0,0,0,
0,0,0,0,0,0,0,0,0,0,0,0,0,0,0,0,713,714,0,0,112,112,112,0,0,0,0,0,0,0,0,0,0,0,0,0,0,0,0,0,0,0,
0,0,0,0,0,0,0,0,0,0,0,0,0,0,0,0,721,722,0,0,112,112,112,0,0,0,0,0,0,0,0,0,0,0,0,0,0,0,0,0,0,0,
0,0,0,0,0,0,0,0,0,0,0,0,0,0,0,0,0,0,0,0,112,112,112,0,0,0,0,0,0,0,0,0,0,0,0,0,0,0,0,0,0,0,
0,0,0,0,0,0,0,0,0,0,0,0,0,0,0,0,0,0,0,0,112,112,112,0,0,0,0,0,0,0,0,0,0,0,0,0,0,0,0,0,0,0,
0,0,0,0,0,0,0,0,0,0,0,0,0,0,0,0,0,112,112,112,112,112,112,0,0,0,0,0,0,0,0,0,0,0,0,0,0,0,0,0,0,0,
0,0,0,0,0,0,0,0,0,0,0,0,0,0,0,0,0,112,112,112,112,112,112,0,0,0,0,0,0,0,0,0,0,0,0,0,0,0,0,0,0,0,
0,0,0,0,0,0,0,0,0,0,0,0,0,0,0,0,0,112,112,112,112,112,112,0,0,0,0,0,0,0,0,0,0,0,0,0,0,0,0,0,0,0,
0,0,0,0,0,0,0,0,0,0,0,0,0,0,0,0,0,112,112,112,0,0,0,0,0,0,0,0,0,0,0,0,0,0,0,0,0,0,0,0,0,0,
0,0,0,0,0,0,0,0,0,0,0,0,0,0,0,0,0,112,112,112,0,0,0,0,0,0,0,0,0,0,0,0,0,0,0,0,0,0,0,0,0,0,
0,0,0,0,0,0,0,0,0,0,0,0,0,0,0,0,0,112,112,0,0,0,0,0,0,0,0,0,0,0,0,0,0,0,0,0,0,0,0,0,0,0,
0,0,0,0,0,0,0,0,0,0,0,0,0,0,0,0,0,112,0,0,0,0,0,0,0,0,0,0,0,0,0,0,0,0,0,0,0,0,0,0,0,0,
0,0,0,0,0,0,0,0,0,0,0,0,0,0,0,0,0,112,0,0,0,0,0,0,0,0,0,0,0,0,0,0,0,0,0,0,0,0,0,0,0,0,
0,0,0,0,0,0,0,0,0,0,0,0,0,0,0,0,0,112,0,0,0,0,0,0,0,0,0,0,0,0,0,0,0,0,0,0,0,0,0,0,0,0,
0,0,0,0,0,0,0,0,0,0,0,0,0,0,0,0,0,112,0,112,0,0,0,713,714,0,0,0,0,0,0,0,0,0,0,0,0,0,0,0,0,0,
0,0,0,0,0,0,0,0,0,0,0,0,0,0,0,0,0,112,112,112,0,0,0,721,722,0,0,0,0,0,0,0,0,0,0,0,0,0,0,0,0,0,
0,0,0,0,0,0,0,0,0,0,0,0,0,0,0,0,0,112,112,112,0,0,0,0,0,0,0,0,0,0,0,0,0,0,0,0,0,0,0,0,0,0,
0,0,0,0,0,0,0,0,0,0,0,0,0,0,0,0,0,112,112,112,0,0,0,0,0,0,0,0,0,0,0,0,0,0,0,0,0,0,0,0,0,0,
0,0,0,0,0,0,0,0,0,0,0,0,0,0,0,0,0,112,112,112,0,0,0,0,0,0,0,0,0,0,0,0,0,0,0,0,0,0,0,0,0,0,
0,0,0,0,0,0,0,0,0,0,0,0,0,0,0,0,0,112,112,112,0,0,0,0,0,0,0,0,0,0,0,0,0,0,0,0,0,0,0,0,0,0,
0,0,0,0,0,0,0,0,0,0,0,0,0,0,0,0,0,112,112,112,0,0,0,0,0,0,0,0,0,0,0,0,0,0,0,0,0,0,0,0,0,0,
0,0,0,0,0,0,0,0,0,0,0,0,0,0,0,0,0,112,112,112,112,112,112,112,112,0,0,0,0,0,0,0,0,0,0,0,0,0,0,0,0,0,
0,0,0,0,0,0,0,0,0,0,0,0,0,0,0,0,0,112,112,112,112,112,112,112,112,0,0,0,0,0,0,0,0,0,0,0,0,0,0,0,0,0,
0,0,0,0,0,0,0,0,0,0,0,0,0,0,0,0,0,112,112,112,112,112,112,112,112,0,0,0,0,0,0,0,0,0,0,0,0,0,0,0,0,0,
0,0,0,0,0,0,0,0,0,0,0,0,0,0,0,0,0,0,0,0,0,0,112,112,112,0,0,0,0,0,0,0,0,0,0,0,0,0,0,0,0,0,
0,0,0,0,0,0,0,0,0,0,0,0,0,0,0,0,0,0,0,0,0,0,112,112,0,0,0,0,0,0,0,0,0,0,0,0,0,0,0,0,0,0,
0,0,0,0,0,0,0,0,0,0,0,0,0,0,0,0,0,0,0,0,0,0,112,0,0,0,0,0,0,0,0,0,0,0,0,0,0,0,0,0,0,0,
0,0,0,0,0,0,0,0,0,0,0,0,0,0,0,0,0,0,0,0,0,0,112,0,0,0,0,0,0,0,0,0,0,0,0,0,0,0,0,0,0,0,
0,0,0,0,0,0,0,0,0,0,0,0,0,0,0,0,0,0,0,0,0,0,112,0,0,0,0,0,0,0,0,0,0,0,0,0,0,0,0,0,0,0,
0,0,0,0,0,0,0,0,0,0,0,0,0,0,0,0,0,0,0,0,0,0,112,112,0,0,0,0,0,0,0,0,0,0,0,0,0,0,0,0,0,0,
0,0,0,0,0,0,0,0,0,0,0,0,0,0,0,0,0,0,0,0,0,0,112,112,0,0,0,0,0,0,0,0,0,0,0,0,0,0,0,0,0,0,
0,0,0,0,0,0,0,0,0,0,0,0,0,0,0,0,0,0,0,0,0,0,112,112,112,0,0,0,0,0,0,0,0,0,0,0,0,0,0,0,0,0,
0,0,0,0,0,0,0,0,0,0,0,0,0,0,0,0,0,0,713,714,0,0,112,112,112,0,0,0,0,0,0,0,0,0,0,0,0,0,0,0,0,0,
0,0,0,0,0,0,0,0,0,0,0,0,0,0,0,0,0,0,721,722,0,0,112,112,112,0,0,0,0,0,0,0,0,0,0,0,0,0,0,0,0,0,
0,0,0,0,0,0,0,0,0,0,0,0,0,0,0,0,0,0,0,0,0,0,112,112,112,0,0,0,0,0,0,0,0,0,0,0,0,0,0,0,0,0,
0,0,0,0,0,0,0,0,0,0,0,0,0,0,0,0,0,0,0,0,0,0,112,112,112,0,0,0,0,0,0,0,0,0,0,0,0,0,0,0,0,0,
0,0,0,0,0,0,0,0,0,0,0,0,0,0,0,0,0,0,0,0,0,0,112,112,112,0,0,0,0,0,0,0,0,0,0,0,0,0,0,0,0,0,
0,0,0,0,0,0,0,0,0,0,0,0,0,0,0,0,0,0,0,0,0,0,112,112,112,0,0,0,0,0,0,0,0,0,0,0,0,0,0,0,0,0,
0,0,0,0,0,0,0,0,0,0,0,0,0,0,0,0,0,0,0,0,0,0,112,112,112,0,0,0,0,0,0,0,0,0,0,0,0,0,0,0,0,0,
0,0,0,0,0,0,0,0,0,0,0,0,0,0,0,0,0,0,0,0,0,0,112,112,112,0,0,0,0,0,0,0,0,0,0,0,0,0,0,0,0,0,
0,0,0,0,0,0,0,0,0,0,0,0,0,0,0,0,0,0,0,0,0,0,112,112,112,0,0,0,0,0,0,0,0,0,0,0,0,0,0,0,0,0,
0,0,0,0,0,0,0,0,0,0,0,0,0,0,0,0,0,0,0,0,0,0,112,112,112,0,0,0,0,0,0,0,0,0,0,0,0,0,0,0,0,0,
0,0,0,0,0,0,0,0,0,0,0,0,0,0,0,0,0,0,0,0,0,0,112,112,112,0,0,0,0,0,0,0,0,0,0,0,0,0,0,0,0,0,
0,0,0,0,0,0,0,0,0,0,0,0,0,0,0,0,112,112,112,112,112,112,112,112,112,112,112,112,112,0,0,0,0,0,0,0,0,0,0,0,0,0,
0,0,0,0,0,0,0,0,0,0,0,0,0,0,0,0,112,112,112,112,112,112,112,112,112,112,112,112,112,0,0,0,0,0,0,0,0,0,0,0,0,0,
0,0,0,0,0,0,0,0,0,0,0,0,0,0,0,0,112,112,112,112,112,112,112,112,112,112,112,112,112,0,0,0,0,0,0,0,0,0,0,0,0,0,
0,0,0,0,0,0,0,0,0,0,0,0,0,0,0,0,0,0,0,112,112,112,0,0,0,0,0,0,0,0,0,0,0,0,0,0,0,0,0,0,0,0,
0,0,0,0,0,0,0,0,0,0,0,0,0,0,0,0,713,714,0,112,112,112,0,0,0,0,0,0,0,0,0,0,0,0,0,0,0,0,0,0,0,0,
0,0,0,0,0,0,0,0,0,0,0,0,0,0,0,0,721,722,0,112,0,112,0,0,0,0,0,0,0,0,0,0,0,0,0,0,0,0,0,0,0,0,
0,0,0,0,0,0,0,0,0,0,0,0,0,0,0,0,0,0,0,112,112,112,0,0,0,0,0,0,0,0,0,0,0,0,0,0,0,0,0,0,0,0,
0,0,0,0,0,0,0,0,0,0,0,0,0,0,0,0,0,0,0,112,112,0,0,0,713,714,0,0,0,0,0,0,0,0,0,0,0,0,0,0,0,0,
0,0,0,0,0,0,0,0,0,0,0,0,0,0,0,0,0,0,0,0,112,112,0,0,721,722,0,0,0,0,0,0,0,0,0,0,0,0,0,0,0,0,
0,0,0,0,0,0,0,0,0,0,0,0,0,0,0,0,0,112,112,0,112,112,0,0,0,0,0,0,0,0,0,0,0,0,0,0,0,0,0,0,0,0,
0,0,0,0,0,0,0,0,0,0,0,0,0,0,0,0,0,0,0,112,0,0,0,0,0,0,0,0,0,0,0,0,0,0,0,0,0,0,0,0,0,0,
0,0,0,0,0,0,0,0,0,0,0,0,0,0,0,0,0,0,0,0,112,112,0,0,0,0,0,0,0,0,0,0,0,0,0,0,0,0,0,0,0,0,
0,0,0,0,0,0,0,0,0,0,0,0,0,0,0,0,0,0,0,0,0,0,0,0,0,0,0,0,0,0,0,0,0,0,0,0,0,0,0,0,0,0,
0,0,0,0,0,0,0,0,0,0,0,0,0,0,0,0,0,0,0,0,0,0,0,0,0,0,0,0,0,0,0,0,0,0,0,0,0,0,0,0,0,0,
0,0,0,0,0,0,0,0,0,0,0,0,0,0,0,0,0,0,0,0,0,0,0,0,0,0,0,0,0,0,0,0,0,0,0,0,0,0,0,0,0,0,
0,0,0,0,0,0,0,0,0,0,0,0,0,0,0,0,0,0,0,0,0,0,0,0,0,0,0,0,0,0,0,0,0,0,0,0,0,0,0,0,0,0,
0,0,0,0,0,0,0,0,0,0,0,0,0,0,0,0,0,0,0,0,0,0,0,0,0,0,0,0,0,0,0,0,0,0,0,0,0,0,0,0,0,0,
0,0,0,0,0,0,0,0,0,0,0,0,0,0,0,0,0,0,0,0,0,0,0,0,0,0,0,0,0,0,0,0,0,0,0,0,0,0,0,0,0,0,
0,0,0,0,0,0,0,0,0,0,0,0,0,0,0,0,0,0,0,0,0,0,0,0,0,0,0,0,0,0,0,0,0,0,0,0,0,0,0,0,0,0,
0,0,0,0,0,0,0,0,0,0,0,0,0,0,0,0,0,0,0,0,0,0,0,0,0,0,0,0,0,0,0,0,0,0,0,0,0,0,0,0,0,0,
0,0,0,0,0,0,0,0,0,0,0,0,0,0,0,0,0,0,0,0,0,0,0,0,0,0,0,0,0,0,0,0,0,0,0,0,0,0,0,0,0,0,
0,0,0,0,0,0,0,0,0,0,0,0,0,0,0,0,0,0,0,0,0,0,0,0,0,0,0,0,0,0,0,0,0,0,0,0,0,0,0,0,0,0,
0,0,0,0,0,0,0,0,0,0,0,0,0,0,0,0,0,0,0,0,0,0,0,0,0,0,0,0,0,0,0,0,0,0,0,0,0,0,0,0,0,0,
0,0,0,0,0,0,0,0,0,0,0,0,0,0,0,0,0,0,0,0,0,0,0,0,0,0,0,0,0,0,0,0,0,0,0,0,0,0,0,0,0,0,
0,0,0,0,0,0,0,0,0,0,0,0,0,0,0,0,0,0,0,0,0,0,0,0,0,0,0,0,0,0,0,0,0,0,0,0,0,0,0,0,0,0,
0,0,0,0,0,0,0,0,0,2170,2171,2172,2173,2174,2175,0,0,0,0,0,0,0,0,0,0,0,0,0,0,0,0,0,0,0,0,0,0,0,0,0,0,0,
0,0,0,0,0,0,0,0,0,2178,2179,2180,2181,2182,2183,0,0,0,0,0,0,0,0,0,0,0,0,0,0,0,0,0,0,0,0,0,0,0,0,0,0,0,
0,0,0,0,0,0,0,0,0,2186,2187,2188,2189,2190,2191,0,0,0,0,0,0,0,0,0,0,0,112,112,112,0,0,0,0,0,0,0,0,0,0,0,0,0,
0,0,0,0,0,0,0,0,0,2194,2195,2196,2197,2198,2199,0,0,0,0,0,0,0,0,0,0,0,112,112,112,0,0,0,0,0,0,0,0,0,0,0,0,0,
0,0,0,0,0,0,0,0,0,2202,2203,2204,2205,2206,2207,0,0,0,0,0,0,0,0,0,0,0,112,112,112,0,0,0,0,0,0,0,0,0,0,0,0,0,
0,0,0,0,0,0,0,0,0,2210,2211,2212,2213,2214,2215,0,0,0,0,0,112,112,112,0,0,0,0,0,0,0,0,0,0,0,0,0,0,0,0,0,0,0,
0,0,0,0,0,0,0,0,0,0,0,0,0,0,0,0,112,112,112,112,112,112,112,0,0,0,0,0,0,0,0,0,0,0,0,0,0,0,0,0,0,0,
0,0,0,0,0,0,0,0,0,0,0,0,0,0,0,0,112,112,112,112,112,112,112,0,0,0,0,0,0,0,0,0,0,0,0,0,0,0,0,0,0,0,
0,0,0,0,0,0,0,0,0,0,0,0,0,0,0,0,112,112,112,112,112,112,112,0,0,0,0,0,0,0,0,0,0,0,0,0,0,0,0,0,0,0,
0,0,0,0,0,0,0,0,0,0,0,0,0,0,0,0,112,112,112,112,112,112,112,0,0,0,0,0,0,0,0,0,0,0,0,0,0,0,0,0,0,0,
0,0,0,0,0,0,0,0,0,0,0,0,0,0,0,0,112,112,112,112,112,112,112,0,0,0,0,0,0,0,0,0,0,0,0,0,0,0,0,0,0,0,
0,0,0,0,0,0,0,0,0,0,0,0,0,0,0,0,112,112,112,112,112,112,112,0,0,0,0,0,0,0,0,0,0,0,0,0,0,0,0,0,0,0,
0,0,0,0,0,0,0,0,0,0,0,0,0,0,0,0,0,0,0,0,0,0,0,0,0,0,0,0,0,0,0,0,0,0,0,0,0,0,0,0,0,0
  </data>
 </layer>
 <objectgroup id="4" name="events"/>
 <group id="8" name="above">
 <layer id="5" name="lower_above+1" width="42" height="160">
  <data encoding="csv">
0,0,0,0,0,0,0,0,0,0,0,0,0,0,0,0,0,0,0,0,0,0,0,0,0,0,0,0,0,0,0,0,0,0,0,0,0,0,0,0,0,0,
0,0,0,0,0,0,0,0,0,0,0,0,0,0,0,0,0,0,0,0,0,0,0,0,0,0,0,0,0,0,0,0,0,0,0,0,0,0,0,0,0,0,
0,0,0,0,0,0,0,0,0,0,0,0,0,0,0,0,0,0,0,0,0,0,0,0,0,0,0,0,0,0,0,0,0,0,0,0,0,0,0,0,0,0,
417,0,417,0,417,0,417,0,417,0,417,0,417,0,417,420,0,0,0,0,0,0,0,0,0,0,0,0,0,0,417,0,417,0,417,0,417,0,417,0,417,0,
425,0,425,0,425,0,425,0,425,0,425,0,425,0,425,428,0,0,0,0,0,0,0,0,0,0,0,0,0,0,425,0,425,0,425,0,425,0,425,0,425,0,
417,0,417,0,417,0,417,0,417,0,417,0,433,0,433,436,0,0,0,0,0,0,0,0,0,0,0,0,433,0,433,0,417,0,417,0,417,0,417,0,417,0,
425,0,425,0,425,0,425,0,425,0,425,428,0,0,0,0,0,0,0,0,0,0,0,0,0,0,0,0,0,0,0,0,0,0,425,0,425,0,425,0,425,0,
417,0,417,0,417,0,417,0,417,0,417,420,0,0,0,0,0,0,0,0,0,0,0,0,0,0,0,0,0,0,0,0,0,0,417,0,417,0,417,0,417,0,
425,0,425,0,425,0,425,0,425,0,425,428,0,0,0,0,0,0,0,0,0,0,0,0,0,0,0,0,0,0,0,0,0,0,425,0,425,0,425,0,425,0,
417,0,417,0,417,0,417,0,417,0,417,420,0,0,0,0,0,0,0,0,0,0,0,0,0,0,0,0,0,0,0,0,0,0,417,0,417,0,417,0,417,0,
425,0,425,0,425,0,425,0,425,0,425,428,0,0,0,0,0,0,0,0,0,0,0,0,0,0,0,0,0,0,0,0,0,0,425,0,425,0,425,0,425,0,
417,0,417,0,417,0,417,0,417,0,417,420,0,0,0,0,0,0,0,0,0,0,0,0,0,0,0,0,0,0,0,0,0,0,417,0,417,0,417,0,417,0,
425,0,425,0,425,0,425,0,425,0,425,428,0,0,0,0,0,0,0,0,0,0,0,0,0,0,0,0,0,0,0,0,0,0,425,0,425,0,425,0,425,0,
417,0,417,0,417,0,417,0,417,0,417,420,0,0,0,0,0,0,0,0,0,0,0,0,0,0,0,0,0,0,0,0,0,0,417,0,417,0,417,0,417,0,
425,0,425,0,425,0,425,0,425,0,425,428,0,0,0,0,0,0,0,0,0,0,0,0,0,0,0,0,0,0,0,0,0,0,425,0,425,0,425,0,425,0,
417,0,417,0,417,0,417,0,417,0,417,420,0,0,0,0,0,0,0,0,0,0,0,0,0,0,0,0,0,0,0,0,0,0,417,0,417,0,417,0,417,0,
425,0,425,0,425,0,425,0,425,0,425,428,0,0,0,0,0,0,0,0,0,0,0,0,0,0,0,0,0,0,0,0,0,0,425,0,425,0,425,0,425,0,
417,0,417,0,417,0,417,0,417,0,417,420,0,0,0,0,0,0,0,0,0,0,0,0,0,0,0,0,0,0,0,0,0,0,417,0,417,0,417,0,417,0,
425,0,425,0,425,0,425,0,425,0,425,428,0,0,0,0,0,0,0,0,0,0,0,0,0,0,0,0,0,0,0,0,0,0,425,0,425,0,425,0,425,0,
417,0,417,0,417,0,417,0,417,0,417,420,0,0,0,0,0,0,0,0,0,0,0,0,0,0,0,0,0,0,0,0,0,0,417,0,417,0,417,0,417,0,
425,0,425,0,425,0,425,0,425,0,425,428,0,0,0,0,0,0,0,0,0,0,0,0,0,0,0,0,0,0,0,0,0,0,425,0,425,0,425,0,425,0,
417,0,417,0,417,0,417,0,417,0,417,420,0,0,0,0,0,0,0,0,0,0,0,0,0,0,0,0,0,0,0,0,0,0,417,0,417,0,417,0,417,0,
425,0,425,0,425,0,425,0,425,0,425,428,0,0,0,0,0,0,0,0,0,0,0,0,0,0,0,0,0,0,0,0,0,0,425,0,425,0,425,0,425,0,
417,0,417,0,417,0,417,0,417,0,417,420,0,0,0,0,0,0,0,0,0,0,0,0,0,0,0,0,0,0,0,0,0,0,417,0,417,0,417,0,417,0,
425,0,425,0,425,0,425,0,425,0,425,428,0,0,0,0,0,0,0,0,0,0,0,0,0,0,0,0,0,0,0,0,0,0,425,0,425,0,425,0,425,0,
417,0,417,0,417,0,417,0,417,0,417,420,0,0,0,0,0,0,0,0,0,0,0,0,0,0,0,0,0,0,0,0,0,0,417,0,417,0,417,0,417,0,
425,0,425,0,425,0,425,0,425,0,425,428,0,0,0,0,0,0,0,0,0,0,0,0,0,0,0,0,0,0,0,0,0,0,425,0,425,0,425,0,425,0,
417,0,417,0,417,0,417,0,417,0,417,420,0,0,0,0,0,0,0,0,0,0,0,0,0,0,0,0,0,0,0,0,0,0,417,0,417,0,417,0,417,0,
425,0,425,0,425,0,425,0,425,0,425,428,0,0,0,0,0,0,0,0,0,0,0,0,0,0,0,0,0,0,0,0,0,0,425,0,425,0,425,0,425,0,
417,0,417,0,417,0,417,0,417,0,417,420,0,0,0,0,0,0,0,0,0,0,0,0,0,0,0,0,0,0,0,0,0,0,417,0,417,0,417,0,417,0,
425,0,425,0,425,0,425,0,425,0,425,428,0,0,0,0,0,0,0,0,0,0,0,0,0,0,0,0,0,0,0,0,0,0,425,0,425,0,425,0,425,0,
417,0,417,0,417,0,417,0,417,0,417,420,0,0,0,0,0,0,0,0,0,0,0,0,0,0,0,0,0,0,0,0,0,0,417,0,417,0,417,0,417,0,
425,0,425,0,425,0,425,0,425,0,425,428,0,0,0,0,0,0,0,0,0,0,0,0,0,0,0,0,0,0,0,0,0,0,425,0,425,0,425,0,425,0,
417,0,417,0,417,0,417,0,417,0,417,420,0,0,0,0,0,0,0,0,0,0,0,0,0,0,0,0,0,0,0,0,0,0,417,0,417,0,417,0,417,0,
425,0,425,0,425,0,425,0,425,0,425,428,0,0,0,0,0,0,0,0,0,0,0,0,0,0,0,0,0,0,0,0,0,0,425,0,425,0,425,0,425,0,
417,0,417,0,417,0,417,0,417,0,417,420,0,0,0,0,0,0,0,0,0,0,0,0,0,0,0,0,0,0,0,0,0,0,417,0,417,0,417,0,417,0,
425,0,425,0,425,0,425,0,425,0,425,428,0,0,0,0,0,0,0,0,0,0,0,0,0,0,0,0,0,0,0,0,0,0,425,0,425,0,425,0,425,0,
417,0,417,0,417,0,417,0,417,0,417,420,0,0,0,0,0,0,0,0,0,0,0,0,0,0,0,0,0,0,0,0,0,0,417,0,417,0,417,0,417,0,
425,0,425,0,425,0,425,0,425,0,425,428,0,0,0,0,0,0,0,0,0,0,0,0,0,0,0,0,0,0,0,0,0,0,425,0,425,0,425,0,425,0,
417,0,417,0,417,0,417,0,417,0,417,420,0,0,0,0,0,0,0,0,0,0,0,0,0,0,0,0,0,0,0,0,0,0,417,0,417,0,417,0,417,0,
425,0,425,0,425,0,425,0,425,0,425,428,0,0,0,0,0,0,0,0,0,0,0,0,0,0,0,0,0,0,0,0,0,0,425,0,425,0,425,0,425,0,
417,0,417,0,417,0,417,0,417,0,417,420,0,0,0,0,0,0,0,0,0,0,0,0,0,0,0,0,0,0,0,0,0,0,417,0,417,0,417,0,417,0,
425,0,425,0,425,0,425,0,425,0,425,0,0,0,0,0,0,0,0,0,0,0,0,0,0,0,0,0,0,0,0,0,0,0,425,0,425,0,425,0,425,0,
417,0,417,0,417,0,417,0,417,0,417,0,0,0,0,0,0,0,0,0,0,0,0,0,0,0,0,0,0,0,0,0,0,0,417,0,417,0,417,0,417,0,
425,0,425,0,425,0,425,0,425,0,425,0,0,0,0,0,0,0,0,0,0,0,0,0,0,0,0,0,0,0,0,0,0,0,425,0,425,0,425,0,425,0,
417,0,417,0,417,0,417,0,417,0,417,0,0,0,0,0,0,0,0,0,0,0,0,0,0,0,0,0,0,0,0,0,0,0,417,0,417,0,417,0,417,0,
425,0,425,0,425,0,425,0,425,0,425,0,0,0,0,0,0,0,0,0,0,0,0,0,0,0,0,0,0,0,0,0,0,0,425,0,425,0,425,0,425,0,
417,0,417,0,417,0,417,0,417,0,417,0,0,0,0,0,0,0,0,0,0,0,0,0,0,0,0,0,0,0,0,0,0,0,417,0,417,0,417,0,417,0,
425,0,425,0,425,0,425,0,425,0,425,0,0,0,0,0,0,0,0,0,0,0,0,0,0,0,0,0,0,0,0,0,0,0,425,0,425,0,425,0,425,0,
417,0,417,0,417,0,417,0,417,0,417,0,0,0,0,0,0,0,0,0,0,0,0,0,0,0,0,0,0,0,0,0,0,0,417,0,417,0,417,0,417,0,
425,0,425,0,425,0,425,0,425,0,425,0,0,0,0,0,0,0,0,0,0,0,0,0,0,0,0,0,0,0,0,0,0,0,425,0,425,0,425,0,425,0,
417,0,417,0,417,0,417,0,417,0,417,0,0,0,0,0,0,0,0,0,0,0,0,0,0,0,0,0,0,0,0,0,0,0,417,0,417,0,417,0,417,0,
425,0,425,0,425,0,425,0,425,0,425,0,0,0,0,0,0,0,0,0,0,0,0,0,0,0,0,0,0,0,0,0,0,0,425,0,425,0,425,0,425,0,
417,0,417,0,417,0,417,0,417,0,417,0,0,0,0,0,0,0,0,0,0,0,0,0,0,0,0,0,0,0,0,0,0,0,417,0,417,0,417,0,417,0,
425,0,425,0,425,0,425,0,425,0,425,0,0,0,0,0,0,0,0,0,0,0,0,0,0,0,0,0,0,0,0,0,0,0,425,0,425,0,425,0,425,0,
417,0,417,0,417,0,417,0,417,0,417,0,0,0,0,0,0,0,0,0,0,0,0,0,0,0,0,0,0,0,0,0,0,0,417,0,417,0,417,0,417,0,
425,0,425,0,425,0,425,0,425,0,425,0,0,0,0,0,0,0,0,0,0,0,0,0,0,0,0,0,0,0,0,0,0,0,425,0,425,0,425,0,425,0,
417,0,417,0,417,0,417,0,417,0,417,0,0,0,0,0,0,0,0,0,0,0,0,0,0,0,0,0,0,0,0,0,0,0,417,0,417,0,417,0,417,0,
425,0,425,0,425,0,425,0,425,0,425,0,0,0,0,0,0,0,0,0,0,0,0,0,0,0,0,0,0,0,0,0,0,0,425,0,425,0,425,0,425,0,
417,0,417,0,417,0,417,0,417,0,417,420,0,0,0,0,0,0,0,0,0,0,0,0,0,0,0,0,0,0,0,0,0,0,417,0,417,0,417,0,417,0,
425,0,425,0,425,0,425,0,425,0,425,428,0,0,0,0,0,0,0,0,0,0,0,0,0,0,0,0,0,0,0,0,0,0,425,0,425,0,425,0,425,0,
417,0,417,0,417,0,417,0,417,0,417,420,0,0,0,0,0,0,0,0,0,0,0,0,0,0,0,0,0,0,0,0,0,0,417,0,417,0,417,0,417,0,
425,0,425,0,425,0,425,0,425,0,425,428,0,0,0,0,0,0,0,0,0,0,0,0,0,0,0,0,0,0,0,0,0,0,425,0,425,0,425,0,425,0,
417,0,417,0,417,0,417,0,417,0,417,420,0,0,0,0,0,0,0,0,0,0,0,0,0,0,0,0,0,0,0,0,0,0,417,0,417,0,417,0,417,0,
425,0,425,0,425,0,425,0,425,0,425,428,0,0,0,0,0,0,0,0,0,0,0,0,0,0,0,0,0,0,0,0,0,0,425,0,425,0,425,0,425,0,
417,0,417,0,417,0,417,0,417,0,417,420,0,0,0,0,0,0,0,0,0,0,0,0,0,0,0,0,0,0,0,0,0,0,417,0,417,0,417,0,417,0,
425,0,425,0,425,0,425,0,425,0,425,428,0,0,0,0,0,0,0,0,0,0,0,0,0,0,0,0,0,0,0,0,0,0,425,0,425,0,425,0,425,0,
417,0,417,0,417,0,417,0,417,0,417,420,0,0,0,0,0,0,0,0,0,0,0,0,0,0,0,0,0,0,0,0,0,0,417,0,417,0,417,0,417,0,
425,0,425,0,425,0,425,0,425,0,425,428,0,0,0,0,0,0,0,0,0,0,0,0,0,0,0,0,0,0,0,0,0,0,425,0,425,0,425,0,425,0,
417,0,417,0,417,0,417,0,417,0,417,420,0,0,0,0,0,0,0,0,0,0,0,0,0,0,0,0,0,0,0,0,0,0,417,0,417,0,417,0,417,0,
425,0,425,0,425,0,425,0,425,0,425,428,0,0,0,0,0,0,0,0,0,0,0,0,0,0,0,0,0,0,0,0,0,0,425,0,425,0,425,0,425,0,
417,0,417,0,417,0,417,0,417,0,417,420,0,0,0,0,0,0,0,0,0,0,0,0,0,0,0,0,0,0,0,0,0,0,417,0,417,0,417,0,417,0,
425,0,425,0,425,0,425,0,425,0,425,428,0,0,0,0,0,0,0,0,0,0,0,0,0,0,0,0,0,0,0,0,0,0,425,0,425,0,425,0,425,0,
417,0,417,0,417,0,417,0,417,0,417,420,0,0,0,0,0,0,0,0,0,0,0,0,0,0,0,0,0,0,0,0,0,0,417,0,417,0,417,0,417,0,
425,0,425,0,425,0,425,0,425,0,425,428,0,0,0,0,0,0,0,0,0,0,0,0,0,0,0,0,0,0,0,0,0,0,425,0,425,0,425,0,425,0,
417,0,417,0,417,0,417,0,417,0,417,420,0,0,0,0,0,0,0,0,0,0,0,0,0,0,0,0,0,0,0,0,0,0,417,0,417,0,417,0,417,0,
425,0,425,0,425,0,425,0,425,0,425,428,0,0,0,0,0,0,0,0,0,0,0,0,0,0,0,0,0,0,0,0,0,0,425,0,425,0,425,0,425,0,
417,0,417,0,417,0,417,0,417,0,417,420,0,0,0,0,0,0,0,0,0,0,0,0,0,0,0,0,0,0,0,0,0,0,417,0,417,0,417,0,417,0,
425,0,425,0,425,0,425,0,425,0,425,428,0,0,0,0,0,0,0,0,0,0,0,0,0,0,0,0,0,0,0,0,0,0,425,0,425,0,425,0,425,0,
417,0,417,0,417,0,417,0,417,0,417,420,0,0,0,0,0,0,0,0,0,0,0,0,0,0,0,0,0,0,0,0,0,0,417,0,417,0,417,0,417,0,
425,0,425,0,425,0,425,0,425,0,425,428,0,0,0,0,0,0,0,0,0,0,0,0,0,0,0,0,0,0,0,0,0,0,425,0,425,0,425,0,425,0,
417,0,417,0,417,0,417,0,417,0,417,420,0,0,0,0,0,0,0,0,0,0,0,0,0,0,0,0,0,0,0,0,0,0,417,0,417,0,417,0,417,0,
425,0,425,0,425,0,425,0,425,0,425,428,0,0,0,0,0,0,0,0,0,0,0,0,0,0,0,0,0,0,0,0,0,0,425,0,425,0,425,0,425,0,
417,0,417,0,417,0,417,0,417,0,417,420,0,0,0,0,0,0,0,0,0,0,0,0,0,0,0,0,0,0,0,0,0,0,417,0,417,0,417,0,417,0,
425,0,425,0,425,0,425,0,425,0,425,428,0,0,0,0,0,0,0,0,0,0,0,0,0,0,0,0,0,0,0,0,0,0,425,0,425,0,425,0,425,0,
417,0,417,0,417,0,417,0,417,0,417,420,0,0,0,0,0,0,0,0,0,0,0,0,0,0,0,0,0,0,0,0,0,0,417,0,417,0,417,0,417,0,
425,0,425,0,425,0,425,0,425,0,425,428,0,0,0,0,0,0,0,0,0,0,0,0,0,0,0,0,0,0,0,0,0,0,425,0,425,0,425,0,425,0,
417,0,417,0,417,0,417,0,417,0,417,420,0,0,0,0,0,0,0,0,0,0,0,0,0,0,0,0,0,0,0,0,0,0,417,0,417,0,417,0,417,0,
425,0,425,0,425,0,425,0,425,0,425,428,0,0,0,0,0,0,0,0,0,0,0,0,0,0,0,0,0,0,0,0,0,0,425,0,425,0,425,0,425,0,
417,0,417,0,417,0,417,0,417,0,417,420,0,0,0,0,0,0,0,0,0,0,0,0,0,0,0,0,0,0,0,0,0,0,417,0,417,0,417,0,417,0,
425,0,425,0,425,0,425,0,425,0,425,428,0,0,0,0,0,0,0,0,0,0,0,0,0,0,0,0,0,0,0,0,0,0,425,0,425,0,425,0,425,0,
417,0,417,0,417,0,417,0,417,0,417,420,0,0,0,0,0,0,0,0,0,0,0,0,0,0,0,0,0,0,0,0,0,0,417,0,417,0,417,0,417,0,
425,0,425,0,425,0,425,0,425,0,425,428,0,0,0,0,0,0,0,0,0,0,0,0,0,0,0,0,0,0,0,0,0,0,425,0,425,0,425,0,425,0,
417,0,417,0,417,0,417,0,417,0,417,420,0,0,0,0,0,0,0,0,0,0,0,0,0,0,0,0,0,0,0,0,0,0,417,0,417,0,417,0,417,0,
425,0,425,0,425,0,425,0,425,0,425,428,0,0,0,0,0,0,0,0,0,0,0,0,0,0,0,0,0,0,0,0,0,0,425,0,425,0,425,0,425,0,
417,0,417,0,417,0,417,0,417,0,417,420,0,0,0,0,0,0,0,0,0,0,0,0,0,0,0,0,0,0,0,0,0,0,417,0,417,0,417,0,417,0,
425,0,425,0,425,0,425,0,425,0,425,428,0,0,0,0,0,0,0,0,0,0,0,0,0,0,0,0,0,0,0,0,0,0,425,0,425,0,425,0,425,0,
417,0,417,0,417,0,417,0,417,0,417,420,0,0,0,0,0,0,0,0,0,0,0,0,0,0,0,0,0,0,0,0,0,0,417,0,417,0,417,0,417,0,
425,0,425,0,425,0,425,0,425,0,425,428,0,0,0,0,0,0,0,0,0,0,0,0,0,0,0,0,0,0,0,0,0,0,425,0,425,0,425,0,425,0,
417,0,417,0,417,0,417,0,417,0,417,420,0,0,0,0,0,0,0,0,0,0,0,0,0,0,0,0,0,0,0,0,0,0,417,0,417,0,417,0,417,0,
425,0,425,0,425,0,425,0,425,0,425,428,0,0,0,0,0,0,0,0,0,0,0,0,0,0,0,0,0,0,0,0,0,0,425,0,425,0,425,0,425,0,
417,0,417,0,417,0,417,0,417,0,417,420,0,0,0,0,0,0,0,0,0,0,0,0,0,0,0,0,0,0,0,0,0,0,417,0,417,0,417,0,417,0,
425,0,425,0,425,0,425,0,425,0,425,428,0,0,0,0,0,0,0,0,0,0,0,0,0,0,0,0,0,0,0,0,0,0,425,0,425,0,425,0,425,0,
417,0,417,0,417,0,417,0,417,0,417,420,0,0,0,0,0,0,0,0,0,0,0,0,0,0,0,0,0,0,0,0,0,0,417,0,417,0,417,0,417,0,
425,0,425,0,425,0,425,0,425,0,425,428,0,0,0,0,0,0,0,0,0,0,0,0,0,0,0,0,0,0,0,0,0,0,425,0,425,0,425,0,425,0,
417,0,417,0,417,0,417,0,417,0,417,420,0,0,0,0,0,0,0,0,0,0,0,0,0,0,0,0,0,0,0,0,0,0,417,0,417,0,417,0,417,0,
425,0,425,0,425,0,425,0,425,0,425,428,0,0,0,0,0,0,0,0,0,0,0,0,0,0,0,0,0,0,0,0,0,0,425,0,425,0,425,0,425,0,
417,0,417,0,417,0,417,0,417,0,417,420,0,0,0,0,0,0,0,0,0,0,0,0,0,0,0,0,0,0,0,0,0,0,417,0,417,0,417,0,417,0,
425,0,425,0,425,0,425,0,425,0,425,428,0,0,0,0,0,0,0,0,0,0,0,0,0,0,0,0,0,0,0,0,0,0,425,0,425,0,425,0,425,0,
417,0,417,0,417,0,417,0,417,0,417,420,0,0,0,0,0,0,0,0,0,0,0,0,0,0,0,0,0,0,0,0,0,0,417,0,417,0,417,0,417,0,
425,0,425,0,425,0,425,0,425,0,425,428,0,0,0,0,0,0,0,0,0,0,0,0,0,0,0,0,0,0,0,0,0,0,425,0,425,0,425,0,425,0,
417,0,417,0,417,0,417,0,417,0,417,420,0,0,0,0,0,0,0,0,0,0,0,0,0,0,0,0,0,0,0,0,0,0,417,0,417,0,417,0,417,0,
425,0,425,0,425,0,425,0,425,0,425,428,0,0,0,0,0,0,0,0,0,0,0,0,0,0,0,0,0,0,0,0,0,0,425,0,425,0,425,0,425,0,
417,0,417,0,417,0,417,0,417,0,417,420,0,0,0,0,0,0,0,0,0,0,0,0,0,0,0,0,0,0,0,0,0,0,417,0,417,0,417,0,417,0,
425,0,425,0,425,0,425,0,425,0,425,428,0,0,0,0,0,0,0,0,0,0,0,0,0,0,0,0,0,0,0,0,0,0,425,0,425,0,425,0,425,0,
417,0,417,0,417,0,417,0,417,0,417,420,0,0,0,0,0,0,0,0,0,0,0,0,0,0,0,0,0,0,0,0,0,0,417,0,417,0,417,0,417,0,
425,0,425,0,425,0,425,0,425,0,425,428,0,0,0,0,0,0,0,0,0,0,0,0,0,0,0,0,0,0,0,0,0,0,425,0,425,0,425,0,425,0,
417,0,417,0,417,0,417,0,417,0,417,420,0,0,0,0,0,0,0,0,0,0,0,0,0,0,0,0,0,0,0,0,0,0,417,0,417,0,417,0,417,0,
425,0,425,0,425,0,425,0,425,0,425,428,0,0,0,0,0,0,0,0,0,0,0,0,0,0,0,0,0,0,0,0,0,0,425,0,425,0,425,0,425,0,
417,0,417,0,417,0,417,0,417,0,417,420,0,0,0,0,0,0,0,0,0,0,0,0,0,0,0,0,0,0,0,0,0,0,417,0,417,0,417,0,417,0,
425,0,425,0,425,0,425,0,425,0,425,428,0,0,0,0,0,0,0,0,0,0,0,0,0,0,0,0,0,0,0,0,0,0,425,0,425,0,425,0,425,0,
417,0,417,0,417,0,417,0,417,0,417,420,0,0,0,0,0,0,0,0,0,0,0,0,0,0,0,0,0,0,0,0,0,0,417,0,417,0,417,0,417,0,
425,0,425,0,425,0,425,0,425,0,425,428,0,0,0,0,0,0,0,0,0,0,0,0,0,0,0,0,0,0,0,0,0,0,425,0,425,0,425,0,425,0,
417,0,417,0,417,0,417,0,417,0,417,420,0,0,0,0,0,0,0,0,0,0,0,0,0,0,0,0,0,0,0,0,0,0,417,0,417,0,417,0,417,0,
425,0,425,0,425,0,425,0,425,0,425,428,0,0,0,0,0,0,0,0,0,0,0,0,0,0,0,0,0,0,0,0,0,0,425,0,425,0,425,0,425,0,
417,0,417,0,417,0,417,0,417,0,417,420,0,0,0,0,0,0,0,0,0,0,0,0,0,0,0,0,0,0,0,0,0,0,417,0,417,0,417,0,417,0,
425,0,425,0,425,0,425,0,425,0,425,428,0,0,0,0,0,0,0,0,0,0,0,0,0,0,0,0,0,0,0,0,0,0,425,0,425,0,425,0,425,0,
417,0,417,0,417,0,417,0,417,0,417,420,0,0,0,0,0,0,0,0,0,0,0,0,0,0,0,0,0,0,0,0,0,0,417,0,417,0,417,0,417,0,
425,0,425,0,425,0,425,0,425,0,425,428,0,0,0,0,0,0,0,0,0,0,0,0,0,0,0,0,0,0,0,0,0,0,425,0,425,0,425,0,425,0,
417,0,417,0,417,0,417,0,417,0,417,420,0,0,0,0,0,0,0,0,0,0,0,0,0,0,0,0,0,0,0,0,0,0,417,0,417,0,417,0,417,0,
425,0,425,0,425,0,425,0,425,0,425,428,0,0,0,0,0,0,0,0,0,0,0,0,0,0,0,0,0,0,0,0,0,0,425,0,425,0,425,0,425,0,
417,0,417,0,417,0,417,0,417,0,417,420,0,0,0,0,0,0,0,0,0,0,0,0,0,0,0,0,0,0,0,0,0,0,417,0,417,0,417,0,417,0,
425,0,425,0,425,0,425,0,425,0,425,428,0,0,0,0,0,0,0,0,0,0,0,0,0,0,0,0,0,0,0,0,0,0,425,0,425,0,425,0,425,0,
417,0,417,0,417,0,417,0,417,0,417,420,0,0,0,0,0,0,0,0,0,0,0,0,0,0,0,0,0,0,0,0,0,0,417,0,417,0,417,0,417,0,
425,0,425,0,425,0,425,0,425,0,425,428,0,0,0,0,0,0,0,0,0,0,0,0,0,0,0,0,0,0,0,0,0,0,425,0,425,0,425,0,425,0,
417,0,417,0,417,0,417,0,417,0,417,420,0,0,0,0,0,0,0,0,0,0,0,0,0,0,0,0,0,0,0,0,0,0,417,0,417,0,417,0,417,0,
425,0,425,0,425,0,425,0,425,0,425,428,0,0,0,0,0,0,0,0,0,0,0,0,0,0,0,0,0,0,0,0,0,0,425,0,425,0,425,0,425,0,
417,0,417,0,417,0,417,0,417,0,417,420,0,0,0,0,0,0,0,0,0,0,0,0,0,0,0,0,0,0,0,0,0,0,417,0,417,0,417,0,417,0,
425,0,425,0,425,0,425,0,425,0,425,428,0,0,0,0,0,0,0,0,0,0,0,0,0,0,0,0,0,0,0,0,0,0,425,0,425,0,425,0,425,0,
417,0,417,0,417,0,417,0,417,0,417,420,0,0,0,0,0,0,0,0,0,0,0,0,0,0,0,0,0,0,0,0,0,0,417,0,417,0,417,0,417,0,
425,0,425,0,425,0,425,0,425,0,425,428,0,0,0,0,0,0,0,0,0,0,0,0,0,0,0,0,0,0,0,0,0,0,425,0,425,0,425,0,425,0,
417,0,417,0,417,0,417,0,417,0,417,420,439,0,0,0,0,0,0,0,0,0,0,0,0,0,0,0,0,0,0,440,0,0,417,0,417,0,417,0,417,0,
425,0,425,0,425,0,425,0,425,0,425,0,525,526,0,0,0,0,0,0,0,0,0,0,0,0,0,0,0,0,525,526,425,0,425,0,425,0,425,0,425,0,
417,0,417,0,0,0,0,0,0,0,0,0,0,436,0,0,0,0,0,0,0,0,0,0,0,0,0,0,0,0,0,0,417,0,417,0,417,0,417,0,417,0,
0,0,0,0,0,0,0,0,0,0,0,0,0,0,0,0,0,0,0,0,0,0,0,0,0,0,0,0,0,0,0,0,425,0,425,0,425,0,425,0,425,0,
0,0,0,0,0,0,0,0,0,0,0,0,0,0,0,0,0,0,0,0,0,0,0,0,0,0,0,0,0,0,0,0,417,0,417,0,417,0,417,0,417,0,
0,0,0,0,0,0,0,0,0,0,0,0,0,0,0,0,0,0,0,0,0,0,0,0,0,0,0,0,0,0,0,0,425,0,425,0,425,0,425,0,425,0,
0,0,0,0,0,0,0,0,0,0,0,0,0,0,0,0,0,0,0,0,0,0,0,0,0,0,0,0,0,0,0,0,417,0,417,0,417,0,417,0,417,0,
0,0,0,0,0,0,0,0,0,0,0,0,0,0,0,0,0,0,0,0,0,0,0,0,0,0,0,0,0,0,0,0,425,0,425,0,425,0,425,0,425,0,
0,0,0,0,0,0,0,0,0,0,0,0,0,0,0,0,0,0,0,0,0,0,0,0,0,0,0,0,0,0,0,0,417,0,417,0,417,0,417,0,417,0,
0,0,0,0,0,0,0,0,0,0,0,0,0,0,0,0,0,0,0,0,0,0,0,0,0,0,0,0,0,0,0,0,425,0,425,0,425,0,425,0,425,0,
0,0,0,0,0,0,0,0,0,0,0,0,0,0,0,0,0,0,0,0,0,0,0,0,0,0,0,0,0,0,0,0,417,0,417,0,417,0,417,0,417,0,
0,0,0,0,0,0,0,0,0,0,0,0,0,0,0,0,0,0,0,0,0,0,0,0,0,0,0,0,0,0,0,0,0,0,425,0,425,0,425,0,425,0,
0,0,0,0,0,0,0,0,0,0,0,0,0,0,0,0,0,0,0,0,0,0,0,0,0,0,0,0,0,0,0,0,0,0,417,0,417,0,417,0,417,0,
0,0,0,0,0,0,0,0,0,0,0,0,0,0,0,0,0,0,0,0,0,0,0,0,0,0,0,0,0,0,0,0,0,0,425,0,425,0,425,0,425,0,
0,0,0,0,0,0,0,0,0,0,0,0,0,0,0,0,0,0,0,0,0,0,0,0,0,0,0,0,0,0,0,0,0,0,417,0,417,0,417,0,417,0,
0,0,0,0,0,0,0,0,0,0,0,0,0,0,0,0,0,0,0,0,0,0,0,0,0,0,0,0,0,0,0,0,0,0,425,0,425,0,425,0,425,0,
0,0,0,0,0,0,0,0,0,0,0,0,0,0,0,0,0,0,0,0,0,0,0,0,0,0,0,0,0,0,0,0,0,0,0,0,0,0,0,436,417,0,
0,0,0,0,0,0,0,0,0,0,0,0,0,0,0,0,0,0,0,0,0,0,0,0,0,0,0,0,0,0,0,0,0,0,0,0,0,0,0,0,0,0,
0,0,0,0,0,0,0,0,0,0,0,0,0,0,0,0,0,0,0,0,0,0,0,0,0,0,0,0,0,0,0,0,0,0,0,0,0,0,0,0,0,0
 </data>
 </layer>
 <layer id="7" name="upper_above" width="42" height="160">
  <data encoding="csv">
0,0,0,0,0,0,0,0,0,0,0,0,0,0,0,0,0,0,0,0,0,0,0,0,0,0,0,0,0,0,0,0,0,0,0,0,0,0,0,0,0,0,
412,413,412,413,412,413,412,413,412,413,412,413,412,413,412,413,0,0,0,0,0,0,0,0,0,0,0,0,412,413,412,413,412,413,412,413,412,413,412,413,412,413,
525,526,525,526,525,526,525,526,525,526,525,526,525,526,525,526,431,0,0,0,0,0,0,0,0,0,0,432,525,526,525,526,525,526,525,526,525,526,525,526,525,526,
0,0,0,0,0,0,0,0,0,0,0,0,0,0,0,0,439,0,0,0,0,0,0,0,0,0,0,440,0,0,0,0,0,0,0,0,0,0,0,0,0,0,
0,0,0,0,0,0,0,0,0,0,0,0,0,0,0,0,431,0,0,0,0,0,0,0,0,0,0,432,0,0,0,0,0,0,0,0,0,0,0,0,0,0,
0,0,0,0,0,0,0,0,0,0,0,0,0,0,0,0,439,0,0,0,0,0,0,0,0,0,0,440,0,0,0,0,0,0,0,0,0,0,0,0,0,0,
0,0,0,0,0,0,0,0,0,0,0,0,431,0,0,0,0,0,0,0,0,0,0,0,0,0,0,0,0,0,0,432,0,0,0,0,0,0,0,0,0,0,
0,0,0,0,0,0,0,0,0,0,0,0,439,0,0,0,0,0,0,0,0,0,0,0,0,0,0,0,0,0,0,440,0,0,0,0,0,0,0,0,0,0,
0,0,0,0,0,0,0,0,0,0,0,0,431,0,0,0,0,0,0,0,0,0,0,0,0,0,0,0,0,0,0,432,0,0,0,0,0,0,0,0,0,0,
0,0,0,0,0,0,0,0,0,0,0,0,439,0,0,0,0,0,0,0,0,0,0,0,0,0,0,0,0,0,0,440,0,0,0,0,0,0,0,0,0,0,
0,0,0,0,0,0,0,0,0,0,0,0,431,0,0,0,0,0,0,0,0,0,0,0,0,0,0,0,0,0,0,432,0,0,0,0,0,0,0,0,0,0,
0,0,0,0,0,0,0,0,0,0,0,0,439,0,0,0,0,0,0,0,0,0,0,0,0,0,0,0,0,0,0,440,0,0,0,0,0,0,0,0,0,0,
0,0,0,0,0,0,0,0,0,0,0,0,431,0,0,0,0,0,0,0,0,0,0,0,0,0,0,0,0,0,0,432,0,0,0,0,0,0,0,0,0,0,
0,0,0,0,0,0,0,0,0,0,0,0,439,0,0,0,0,0,0,0,0,0,0,0,0,0,0,0,0,0,0,440,0,0,0,0,0,0,0,0,0,0,
0,0,0,0,0,0,0,0,0,0,0,0,431,0,0,0,0,0,0,0,0,0,0,0,0,0,0,0,0,0,0,432,0,0,0,0,0,0,0,0,0,0,
0,0,0,0,0,0,0,0,0,0,0,0,439,0,0,0,0,0,0,0,0,0,0,0,0,0,0,0,0,0,0,440,0,0,0,0,0,0,0,0,0,0,
0,0,0,0,0,0,0,0,0,0,0,0,431,0,0,0,0,0,0,0,0,0,0,0,0,0,0,0,0,0,0,432,0,0,0,0,0,0,0,0,0,0,
0,0,0,0,0,0,0,0,0,0,0,0,439,0,0,0,0,0,0,0,0,0,0,0,0,0,0,0,0,0,0,440,0,0,0,0,0,0,0,0,0,0,
0,0,0,0,0,0,0,0,0,0,0,0,431,0,0,0,0,0,0,0,0,0,0,0,0,0,0,0,0,0,0,432,0,0,0,0,0,0,0,0,0,0,
0,0,0,0,0,0,0,0,0,0,0,0,439,0,0,0,0,0,0,0,0,0,0,0,0,0,0,0,0,0,0,440,0,0,0,0,0,0,0,0,0,0,
0,0,0,0,0,0,0,0,0,0,0,0,431,0,0,0,0,0,0,0,0,0,0,0,0,0,0,0,0,0,0,432,0,0,0,0,0,0,0,0,0,0,
0,0,0,0,0,0,0,0,0,0,0,0,439,0,0,0,0,0,0,0,0,0,0,0,0,0,0,0,0,0,0,440,0,0,0,0,0,0,0,0,0,0,
0,0,0,0,0,0,0,0,0,0,0,0,431,0,0,0,0,0,0,0,0,0,0,0,0,0,0,0,0,0,0,432,0,0,0,0,0,0,0,0,0,0,
0,0,0,0,0,0,0,0,0,0,0,0,439,0,0,0,0,0,0,0,0,0,0,0,0,0,0,0,0,0,0,440,0,0,0,0,0,0,0,0,0,0,
0,0,0,0,0,0,0,0,0,0,0,0,431,0,0,0,0,0,0,0,0,0,0,0,0,0,0,0,0,0,0,432,0,0,0,0,0,0,0,0,0,0,
0,0,0,0,0,0,0,0,0,0,0,0,439,0,0,0,0,0,0,0,0,0,0,0,0,0,0,0,0,0,0,440,0,0,0,0,0,0,0,0,0,0,
0,0,0,0,0,0,0,0,0,0,0,0,431,0,0,0,0,0,0,0,0,0,0,0,0,0,0,0,0,0,0,432,0,0,0,0,0,0,0,0,0,0,
0,0,0,0,0,0,0,0,0,0,0,0,439,0,0,0,0,0,0,0,0,0,0,0,0,0,0,0,0,0,0,440,0,0,0,0,0,0,0,0,0,0,
0,0,0,0,0,0,0,0,0,0,0,0,431,0,0,0,0,0,0,0,0,0,0,0,0,0,0,0,0,0,0,432,0,0,0,0,0,0,0,0,0,0,
0,0,0,0,0,0,0,0,0,0,0,0,439,0,0,0,0,0,0,0,0,0,0,0,0,0,0,0,0,0,0,440,0,0,0,0,0,0,0,0,0,0,
0,0,0,0,0,0,0,0,0,0,0,0,431,0,0,0,0,0,0,0,0,0,0,0,0,0,0,0,0,0,0,432,0,0,0,0,0,0,0,0,0,0,
0,0,0,0,0,0,0,0,0,0,0,0,439,0,0,0,0,0,0,0,0,0,0,0,0,0,0,0,0,0,0,440,0,0,0,0,0,0,0,0,0,0,
0,0,0,0,0,0,0,0,0,0,0,0,431,0,0,0,0,0,0,0,0,0,0,0,0,0,0,0,0,0,0,432,0,0,0,0,0,0,0,0,0,0,
0,0,0,0,0,0,0,0,0,0,0,0,439,0,0,0,0,0,0,0,0,0,0,0,0,0,0,0,0,0,0,440,0,0,0,0,0,0,0,0,0,0,
0,0,0,0,0,0,0,0,0,0,0,0,431,0,0,0,0,0,0,0,0,0,0,0,0,0,0,0,0,0,0,432,0,0,0,0,0,0,0,0,0,0,
0,0,0,0,0,0,0,0,0,0,0,0,439,0,0,0,0,0,0,0,0,0,0,0,0,0,0,0,0,0,0,440,0,0,0,0,0,0,0,0,0,0,
0,0,0,0,0,0,0,0,0,0,0,0,431,0,0,0,0,0,0,0,0,0,0,0,0,0,0,0,0,0,0,432,0,0,0,0,0,0,0,0,0,0,
0,0,0,0,0,0,0,0,0,0,0,0,439,0,0,0,0,0,0,0,0,0,0,0,0,0,0,0,0,0,0,440,0,0,0,0,0,0,0,0,0,0,
0,0,0,0,0,0,0,0,0,0,0,0,431,0,0,0,0,0,0,0,0,0,0,0,0,0,0,0,0,0,0,432,0,0,0,0,0,0,0,0,0,0,
0,0,0,0,0,0,0,0,0,0,0,0,439,0,0,0,0,0,0,0,0,0,0,0,0,0,0,0,0,0,0,440,0,0,0,0,0,0,0,0,0,0,
0,0,0,0,0,0,0,0,0,0,0,0,431,0,0,0,0,0,0,0,0,0,0,0,0,0,0,0,0,0,0,432,0,0,0,0,0,0,0,0,0,0,
0,0,0,0,0,0,0,0,0,0,0,0,439,0,0,0,0,0,0,0,0,0,0,0,0,0,0,0,0,0,0,440,0,0,0,0,0,0,0,0,0,0,
0,0,0,0,0,0,0,0,0,0,0,0,431,0,0,0,0,0,0,0,0,0,0,0,0,0,0,0,0,0,0,432,0,0,0,0,0,0,0,0,0,0,
0,0,0,0,0,0,0,0,0,0,0,0,439,0,0,0,0,0,0,0,0,0,0,0,0,0,0,0,0,0,0,440,0,0,0,0,0,0,0,0,0,0,
0,0,0,0,0,0,0,0,0,0,0,0,431,0,0,0,0,0,0,0,0,0,0,0,0,0,0,0,0,0,0,432,0,0,0,0,0,0,0,0,0,0,
0,0,0,0,0,0,0,0,0,0,0,0,439,0,0,0,0,0,0,0,0,0,0,0,0,0,0,0,0,0,0,440,0,0,0,0,0,0,0,0,0,0,
0,0,0,0,0,0,0,0,0,0,0,0,0,0,0,0,0,0,0,0,0,0,0,0,0,0,0,0,0,0,0,432,0,0,0,0,0,0,0,0,0,0,
0,0,0,0,0,0,0,0,0,0,0,0,0,0,0,0,0,0,0,0,0,0,0,0,0,0,0,0,0,0,0,440,0,0,0,0,0,0,0,0,0,0,
0,0,0,0,0,0,0,0,0,0,0,0,431,0,0,0,0,0,0,0,0,0,0,0,0,0,0,0,0,0,0,432,0,0,0,0,0,0,0,0,0,0,
0,0,0,0,0,0,0,0,0,0,0,0,439,0,0,0,0,0,0,0,0,0,0,0,0,0,0,0,0,0,0,440,0,0,0,0,0,0,0,0,0,0,
0,0,0,0,0,0,0,0,0,0,0,0,431,0,0,0,0,0,0,0,0,0,0,0,0,0,0,0,0,0,0,432,0,0,0,0,0,0,0,0,0,0,
0,0,0,0,0,0,0,0,0,0,0,0,439,0,0,0,0,0,0,0,0,0,0,0,0,0,0,0,0,0,0,440,0,0,0,0,0,0,0,0,0,0,
0,0,0,0,0,0,0,0,0,0,0,0,431,0,0,0,0,0,0,0,0,0,0,0,0,0,0,0,0,0,0,432,0,0,0,0,0,0,0,0,0,0,
0,0,0,0,0,0,0,0,0,0,0,0,439,0,0,0,0,0,0,0,0,0,0,0,0,0,0,0,0,0,0,440,0,0,0,0,0,0,0,0,0,0,
0,0,0,0,0,0,0,0,0,0,0,0,431,0,0,0,0,0,0,0,0,0,0,0,0,0,0,0,0,0,0,432,0,0,0,0,0,0,0,0,0,0,
0,0,0,0,0,0,0,0,0,0,0,0,439,0,0,0,0,0,0,0,0,0,0,0,0,0,0,0,0,0,0,440,0,0,0,0,0,0,0,0,0,0,
0,0,0,0,0,0,0,0,0,0,0,0,431,0,0,0,0,0,0,0,0,0,0,0,0,0,0,0,0,0,0,432,0,0,0,0,0,0,0,0,0,0,
0,0,0,0,0,0,0,0,0,0,0,0,439,0,0,0,0,0,0,0,0,0,0,0,0,0,0,0,0,0,0,440,0,0,0,0,0,0,0,0,0,0,
0,0,0,0,0,0,0,0,0,0,0,0,431,0,0,0,0,0,0,0,0,0,0,0,0,0,0,0,0,0,0,432,0,0,0,0,0,0,0,0,0,0,
0,0,0,0,0,0,0,0,0,0,0,0,439,0,0,0,0,0,0,0,0,0,0,0,0,0,0,0,0,0,0,440,0,0,0,0,0,0,0,0,0,0,
0,0,0,0,0,0,0,0,0,0,0,0,431,0,0,0,0,0,0,0,0,0,0,0,0,0,0,0,0,0,0,432,0,0,0,0,0,0,0,0,0,0,
0,0,0,0,0,0,0,0,0,0,0,0,439,0,0,0,0,0,0,0,0,0,0,0,0,0,0,0,0,0,0,440,0,0,0,0,0,0,0,0,0,0,
0,0,0,0,0,0,0,0,0,0,0,0,431,0,0,0,0,0,0,0,0,0,0,0,0,0,0,0,0,0,0,432,0,0,0,0,0,0,0,0,0,0,
0,0,0,0,0,0,0,0,0,0,0,0,439,0,0,0,0,0,0,0,0,0,0,0,0,0,0,0,0,0,0,440,0,0,0,0,0,0,0,0,0,0,
0,0,0,0,0,0,0,0,0,0,0,0,431,0,0,0,0,0,0,0,0,0,0,0,0,0,0,0,0,0,0,432,0,0,0,0,0,0,0,0,0,0,
0,0,0,0,0,0,0,0,0,0,0,0,439,0,0,0,0,0,0,0,0,0,0,0,0,0,0,0,0,0,0,440,0,0,0,0,0,0,0,0,0,0,
0,0,0,0,0,0,0,0,0,0,0,0,431,0,0,0,0,0,0,0,0,0,0,0,0,0,0,0,0,0,0,432,0,0,0,0,0,0,0,0,0,0,
0,0,0,0,0,0,0,0,0,0,0,0,439,0,0,0,0,0,0,0,0,0,0,0,0,0,0,0,0,0,0,440,0,0,0,0,0,0,0,0,0,0,
0,0,0,0,0,0,0,0,0,0,0,0,431,0,0,0,0,0,0,0,0,0,0,0,0,0,0,0,0,0,0,432,0,0,0,0,0,0,0,0,0,0,
0,0,0,0,0,0,0,0,0,0,0,0,439,0,0,0,0,0,0,0,0,0,0,0,0,0,0,0,0,0,0,440,0,0,0,0,0,0,0,0,0,0,
0,0,0,0,0,0,0,0,0,0,0,0,431,0,0,0,0,0,0,0,0,0,0,0,0,0,0,0,0,0,0,432,0,0,0,0,0,0,0,0,0,0,
0,0,0,0,0,0,0,0,0,0,0,0,439,0,0,0,0,0,0,0,0,0,0,0,0,0,0,0,0,0,0,440,0,0,0,0,0,0,0,0,0,0,
0,0,0,0,0,0,0,0,0,0,0,0,431,0,0,0,0,0,0,0,0,0,0,0,0,0,0,0,0,0,0,432,0,0,0,0,0,0,0,0,0,0,
0,0,0,0,0,0,0,0,0,0,0,0,439,0,0,0,0,0,0,0,0,0,0,0,0,0,0,0,0,0,0,440,0,0,0,0,0,0,0,0,0,0,
0,0,0,0,0,0,0,0,0,0,0,0,431,0,0,0,0,0,0,0,0,0,0,0,0,0,0,0,0,0,0,432,0,0,0,0,0,0,0,0,0,0,
0,0,0,0,0,0,0,0,0,0,0,0,439,0,0,0,0,0,0,0,0,0,0,0,0,0,0,0,0,0,0,440,0,0,0,0,0,0,0,0,0,0,
0,0,0,0,0,0,0,0,0,0,0,0,431,0,0,0,0,0,0,0,0,0,0,0,0,0,0,0,0,0,0,432,0,0,0,0,0,0,0,0,0,0,
0,0,0,0,0,0,0,0,0,0,0,0,439,0,0,0,0,0,0,0,0,0,0,0,0,0,0,0,0,0,0,440,0,0,0,0,0,0,0,0,0,0,
0,0,0,0,0,0,0,0,0,0,0,0,431,0,0,0,0,0,0,0,0,0,0,0,0,0,0,0,0,0,0,432,0,0,0,0,0,0,0,0,0,0,
0,0,0,0,0,0,0,0,0,0,0,0,439,0,0,0,0,0,0,0,0,0,0,0,0,0,0,0,0,0,0,440,0,0,0,0,0,0,0,0,0,0,
0,0,0,0,0,0,0,0,0,0,0,0,431,0,0,0,0,0,0,0,0,0,0,0,0,0,0,0,0,0,0,432,0,0,0,0,0,0,0,0,0,0,
0,0,0,0,0,0,0,0,0,0,0,0,439,0,0,0,0,0,0,0,0,0,0,0,0,0,0,0,0,0,0,440,0,0,0,0,0,0,0,0,0,0,
0,0,0,0,0,0,0,0,0,0,0,0,431,0,0,0,0,0,0,0,0,0,0,0,0,0,0,0,0,0,0,432,0,0,0,0,0,0,0,0,0,0,
0,0,0,0,0,0,0,0,0,0,0,0,439,0,0,0,0,0,0,0,0,0,0,0,0,0,0,0,0,0,0,440,0,0,0,0,0,0,0,0,0,0,
0,0,0,0,0,0,0,0,0,0,0,0,431,0,0,0,0,0,0,0,0,0,0,0,0,0,0,0,0,0,0,432,0,0,0,0,0,0,0,0,0,0,
0,0,0,0,0,0,0,0,0,0,0,0,439,0,0,0,0,0,0,0,0,0,0,0,0,0,0,0,0,0,0,440,0,0,0,0,0,0,0,0,0,0,
0,0,0,0,0,0,0,0,0,0,0,0,431,0,0,0,0,0,0,0,0,0,0,0,0,0,0,0,0,0,0,432,0,0,0,0,0,0,0,0,0,0,
0,0,0,0,0,0,0,0,0,0,0,0,439,0,0,0,0,0,0,0,0,0,0,0,0,0,0,0,0,0,0,440,0,0,0,0,0,0,0,0,0,0,
0,0,0,0,0,0,0,0,0,0,0,0,431,0,0,0,0,0,0,0,0,0,0,0,0,0,0,0,0,0,0,432,0,0,0,0,0,0,0,0,0,0,
0,0,0,0,0,0,0,0,0,0,0,0,439,0,0,0,0,0,0,0,0,0,0,0,0,0,0,0,0,0,0,440,0,0,0,0,0,0,0,0,0,0,
0,0,0,0,0,0,0,0,0,0,0,0,431,0,0,0,0,0,0,0,0,0,0,0,0,0,0,0,0,0,0,432,0,0,0,0,0,0,0,0,0,0,
0,0,0,0,0,0,0,0,0,0,0,0,439,0,0,0,0,0,0,0,0,0,0,0,0,0,0,0,0,0,0,440,0,0,0,0,0,0,0,0,0,0,
0,0,0,0,0,0,0,0,0,0,0,0,431,0,0,0,0,0,0,0,0,0,0,0,0,0,0,0,0,0,0,432,0,0,0,0,0,0,0,0,0,0,
0,0,0,0,0,0,0,0,0,0,0,0,439,0,0,0,0,0,0,0,0,0,0,0,0,0,0,0,0,0,0,440,0,0,0,0,0,0,0,0,0,0,
0,0,0,0,0,0,0,0,0,0,0,0,431,0,0,0,0,0,0,0,0,0,0,0,0,0,0,0,0,0,0,432,0,0,0,0,0,0,0,0,0,0,
0,0,0,0,0,0,0,0,0,0,0,0,439,0,0,0,0,0,0,0,0,0,0,0,0,0,0,0,0,0,0,440,0,0,0,0,0,0,0,0,0,0,
0,0,0,0,0,0,0,0,0,0,0,0,431,0,0,0,0,0,0,0,0,0,0,0,0,0,0,0,0,0,0,432,0,0,0,0,0,0,0,0,0,0,
0,0,0,0,0,0,0,0,0,0,0,0,439,0,0,0,0,0,0,0,0,0,0,0,0,0,0,0,0,0,0,440,0,0,0,0,0,0,0,0,0,0,
0,0,0,0,0,0,0,0,0,0,0,0,431,0,0,0,0,0,0,0,0,0,0,0,0,0,0,0,0,0,0,432,0,0,0,0,0,0,0,0,0,0,
0,0,0,0,0,0,0,0,0,0,0,0,439,0,0,0,0,0,0,0,0,0,0,0,0,0,0,0,0,0,0,440,0,0,0,0,0,0,0,0,0,0,
0,0,0,0,0,0,0,0,0,0,0,0,431,0,0,0,0,0,0,0,0,0,0,0,0,0,0,0,0,0,0,432,0,0,0,0,0,0,0,0,0,0,
0,0,0,0,0,0,0,0,0,0,0,0,439,0,0,0,0,0,0,0,0,0,0,0,0,0,0,0,0,0,0,440,0,0,0,0,0,0,0,0,0,0,
0,0,0,0,0,0,0,0,0,0,0,0,431,0,0,0,0,0,0,0,0,0,0,0,0,0,0,0,0,0,0,432,0,0,0,0,0,0,0,0,0,0,
0,0,0,0,0,0,0,0,0,0,0,0,439,0,0,0,0,0,0,0,0,0,0,0,0,0,0,0,0,0,0,440,0,0,0,0,0,0,0,0,0,0,
0,0,0,0,0,0,0,0,0,0,0,0,431,0,0,0,0,0,0,0,0,0,0,0,0,0,0,0,0,0,0,432,0,0,0,0,0,0,0,0,0,0,
0,0,0,0,0,0,0,0,0,0,0,0,439,0,0,0,0,0,0,0,0,0,0,0,0,0,0,0,0,0,0,440,0,0,0,0,0,0,0,0,0,0,
0,0,0,0,0,0,0,0,0,0,0,0,431,0,0,0,0,0,0,0,0,0,0,0,0,0,0,0,0,0,0,432,0,0,0,0,0,0,0,0,0,0,
0,0,0,0,0,0,0,0,0,0,0,0,439,0,0,0,0,0,0,0,0,0,0,0,0,0,0,0,0,0,0,440,0,0,0,0,0,0,0,0,0,0,
0,0,0,0,0,0,0,0,0,0,0,0,431,0,0,0,0,0,0,0,0,0,0,0,0,0,0,0,0,0,0,432,0,0,0,0,0,0,0,0,0,0,
0,0,0,0,0,0,0,0,0,0,0,0,439,0,0,0,0,0,0,0,0,0,0,0,0,0,0,0,0,0,0,440,0,0,0,0,0,0,0,0,0,0,
0,0,0,0,0,0,0,0,0,0,0,0,431,0,0,0,0,0,0,0,0,0,0,0,0,0,0,0,0,0,0,432,0,0,0,0,0,0,0,0,0,0,
0,0,0,0,0,0,0,0,0,0,0,0,439,0,0,0,0,0,0,0,0,0,0,0,0,0,0,0,0,0,0,440,0,0,0,0,0,0,0,0,0,0,
0,0,0,0,0,0,0,0,0,0,0,0,431,0,0,0,0,0,0,0,0,0,0,0,0,0,0,0,0,0,0,432,0,0,0,0,0,0,0,0,0,0,
0,0,0,0,0,0,0,0,0,0,0,0,439,0,0,0,0,0,0,0,0,0,0,0,0,0,0,0,0,0,0,440,0,0,0,0,0,0,0,0,0,0,
0,0,0,0,0,0,0,0,0,0,0,0,431,0,0,0,0,0,0,0,0,0,0,0,0,0,0,0,0,0,0,432,0,0,0,0,0,0,0,0,0,0,
0,0,0,0,0,0,0,0,0,0,0,0,439,0,0,0,0,0,0,0,0,0,0,0,0,0,0,0,0,0,0,440,0,0,0,0,0,0,0,0,0,0,
0,0,0,0,0,0,0,0,0,0,0,0,431,0,0,0,0,0,0,0,0,0,0,0,0,0,0,0,0,0,0,432,0,0,0,0,0,0,0,0,0,0,
0,0,0,0,0,0,0,0,0,0,0,0,439,0,0,0,0,0,0,0,0,0,0,0,0,0,0,0,0,0,0,440,0,0,0,0,0,0,0,0,0,0,
0,0,0,0,0,0,0,0,0,0,0,0,431,0,0,0,0,0,0,0,0,0,0,0,0,0,0,0,0,0,0,432,0,0,0,0,0,0,0,0,0,0,
0,0,0,0,0,0,0,0,0,0,0,0,439,0,0,0,0,0,0,0,0,0,0,0,0,0,0,0,0,0,0,440,0,0,0,0,0,0,0,0,0,0,
0,0,0,0,0,0,0,0,0,0,0,0,431,0,0,0,0,0,0,0,0,0,0,0,0,0,0,0,0,0,0,432,0,0,0,0,0,0,0,0,0,0,
0,0,0,0,0,0,0,0,0,0,0,0,439,0,0,0,0,0,0,0,0,0,0,0,0,0,0,0,0,0,0,440,0,0,0,0,0,0,0,0,0,0,
0,0,0,0,0,0,0,0,0,0,0,0,431,0,0,0,0,0,0,0,0,0,0,0,0,0,0,0,0,0,0,432,0,0,0,0,0,0,0,0,0,0,
0,0,0,0,0,0,0,0,0,0,0,0,439,0,0,0,0,0,0,0,0,0,0,0,0,0,0,0,0,0,0,440,0,0,0,0,0,0,0,0,0,0,
0,0,0,0,0,0,0,0,0,0,0,0,431,0,0,0,0,0,0,0,0,0,0,0,0,0,0,0,0,0,0,432,0,0,0,0,0,0,0,0,0,0,
0,0,0,0,0,0,0,0,0,0,0,0,439,0,0,0,0,0,0,0,0,0,0,0,0,0,0,0,0,0,0,440,0,0,0,0,0,0,0,0,0,0,
0,0,0,0,0,0,0,0,0,0,0,0,431,0,0,0,0,0,0,0,0,0,0,0,0,0,0,0,0,0,0,432,0,0,0,0,0,0,0,0,0,0,
0,0,0,0,0,0,0,0,0,0,0,0,439,0,0,0,0,0,0,0,0,0,0,0,0,0,0,0,0,0,0,440,0,0,0,0,0,0,0,0,0,0,
0,0,0,0,0,0,0,0,0,0,0,0,431,0,0,0,0,0,0,0,0,0,0,0,0,0,0,0,0,0,0,432,0,0,0,0,0,0,0,0,0,0,
0,0,0,0,0,0,0,0,0,0,0,0,439,0,0,0,0,0,0,0,0,0,0,0,0,0,0,0,0,0,0,440,0,0,0,0,0,0,0,0,0,0,
0,0,0,0,0,0,0,0,0,0,0,0,431,0,0,0,0,0,0,0,0,0,0,0,0,0,0,0,0,0,0,432,0,0,0,0,0,0,0,0,0,0,
0,0,0,0,0,0,0,0,0,0,0,0,439,0,0,0,0,0,0,0,0,0,0,0,0,0,0,0,0,0,0,440,0,0,0,0,0,0,0,0,0,0,
0,0,0,0,0,0,0,0,0,0,0,0,431,0,0,0,0,0,0,0,0,0,0,0,0,0,0,0,0,0,0,432,0,0,0,0,0,0,0,0,0,0,
0,0,0,0,0,0,0,0,0,0,0,0,439,0,0,0,0,0,0,0,0,0,0,0,0,0,0,0,0,0,0,440,0,0,0,0,0,0,0,0,0,0,
0,0,0,0,0,0,0,0,0,0,0,0,431,0,0,0,0,0,0,0,0,0,0,0,0,0,0,0,0,0,0,432,0,0,0,0,0,0,0,0,0,0,
0,0,0,0,0,0,0,0,0,0,0,0,439,0,0,0,0,0,0,0,0,0,0,0,0,0,0,0,0,0,0,440,0,0,0,0,0,0,0,0,0,0,
0,0,0,0,0,0,0,0,0,0,0,0,431,0,0,0,0,0,0,0,0,0,0,0,0,0,0,0,0,0,0,432,0,0,0,0,0,0,0,0,0,0,
0,0,0,0,0,0,0,0,0,0,0,0,439,0,0,0,0,0,0,0,0,0,0,0,0,0,0,0,0,0,0,440,0,0,0,0,0,0,0,0,0,0,
0,0,0,0,0,0,0,0,0,0,0,0,431,0,0,0,0,0,0,0,0,0,0,0,0,0,0,0,0,0,0,432,0,0,0,0,0,0,0,0,0,0,
0,0,0,0,0,0,0,0,0,0,0,0,439,0,0,0,0,0,0,0,0,0,0,0,0,0,0,0,0,0,0,440,0,0,0,0,0,0,0,0,0,0,
0,0,0,0,0,0,0,0,0,0,0,0,431,0,0,0,0,0,0,0,0,0,0,0,0,0,0,0,0,0,0,0,0,0,0,0,0,0,0,0,0,0,
0,0,0,0,0,0,0,0,0,0,0,0,412,413,0,0,0,0,0,0,0,0,0,0,0,0,0,0,0,0,412,413,0,0,0,0,0,0,0,0,0,0,
0,0,0,0,0,0,0,0,0,0,0,0,0,0,0,0,0,0,0,0,0,0,0,0,0,0,0,0,0,0,0,0,0,0,0,0,0,0,0,0,0,0,
0,0,0,0,0,0,0,0,0,0,0,0,0,0,0,0,0,0,0,0,0,0,0,0,0,0,0,0,0,440,0,0,0,0,0,0,0,0,0,0,0,0,
0,0,0,0,0,0,0,0,0,0,0,0,0,0,0,0,0,0,0,0,0,0,0,0,0,0,0,0,0,432,0,0,0,0,0,0,0,0,0,0,0,0,
0,0,0,0,0,0,0,0,0,0,0,0,0,0,0,0,0,0,0,0,0,0,0,0,0,0,0,0,0,440,0,0,0,0,0,0,0,0,0,0,0,0,
0,0,0,0,0,0,0,0,0,0,0,0,0,0,0,0,0,0,0,0,0,0,0,0,0,0,0,0,0,432,0,0,0,0,0,0,0,0,0,0,0,0,
0,0,0,0,0,0,0,0,0,0,0,0,0,0,0,0,0,0,0,0,0,0,0,0,0,0,0,0,0,440,0,0,0,0,0,0,0,0,0,0,0,0,
0,0,0,0,0,0,0,0,0,0,0,0,0,0,0,0,0,0,0,0,0,0,0,0,0,0,0,0,0,432,0,0,0,0,0,0,0,0,0,0,0,0,
0,0,0,0,0,0,0,0,0,0,0,0,0,0,0,0,0,0,0,0,0,0,0,0,0,0,0,0,0,440,0,0,0,0,0,0,0,0,0,0,0,0,
0,0,0,0,0,0,0,0,0,0,0,0,0,0,0,0,0,0,0,0,0,0,0,0,0,0,0,0,0,432,0,0,0,0,0,0,0,0,0,0,0,0,
0,0,0,0,0,0,0,0,0,0,0,0,0,0,0,0,0,0,0,0,0,0,0,0,0,0,0,0,0,440,0,0,0,0,0,0,0,0,0,0,0,0,
0,0,0,0,0,0,0,0,0,0,0,0,0,0,0,0,0,0,0,0,0,0,0,0,0,0,0,0,0,0,0,432,0,0,0,0,0,0,0,0,0,0,
0,0,0,0,0,0,0,0,0,0,0,0,0,0,0,0,0,0,0,0,0,0,0,0,0,0,0,0,0,0,0,440,0,0,0,0,0,0,0,0,0,0,
0,0,0,0,0,0,0,0,0,0,0,0,0,0,0,0,0,0,0,0,0,0,0,0,0,0,0,0,0,0,0,432,0,0,0,0,0,0,0,0,0,0,
0,0,0,0,0,0,0,0,0,0,0,0,0,0,0,0,0,0,0,0,0,0,0,0,0,0,0,0,0,0,0,440,0,0,0,0,0,0,0,0,0,0,
0,0,0,0,0,0,0,0,0,0,0,0,0,0,0,0,0,0,0,0,0,0,0,0,0,0,0,0,0,0,0,432,0,0,0,0,0,0,0,0,0,0,
0,0,0,0,0,0,0,0,0,0,0,0,0,0,0,0,0,0,0,0,0,0,0,0,0,0,0,0,0,0,0,440,0,0,0,0,0,0,0,0,0,0,
0,0,0,0,0,0,0,0,0,0,0,0,0,0,0,0,0,0,0,0,0,0,0,0,0,0,0,0,0,0,0,0,0,0,0,0,0,0,0,0,0,0,
0,0,0,0,0,0,0,0,0,0,0,0,0,502,517,518,517,518,502,517,518,517,518,501,0,0,0,0,0,0,0,0,0,0,0,0,0,0,0,0,0,0
  </data>
 </layer>
 </group>
</map>
