<?xml version="1.0" encoding="UTF-8"?>
<map version="1.10" tiledversion="1.10.2" orientation="orthogonal" renderorder="right-down" compressionlevel="0" width="48" height="118" tilewidth="32" tileheight="32" infinite="0" nextlayerid="4" nextobjectid="1">
 <tileset firstgid="1" source="RMXP-JohtoCompactExterior.tsx"/>
 <tileset firstgid="2401" source="RMXP-auto-tfj-waterfall.tsx"/>
 <tileset firstgid="2449" source="RMXP-auto-sand.tsx"/>
 <tileset firstgid="2497" source="RMXP-auto-still.tsx"/>
 <tileset firstgid="2545" source="RMXP-auto-noanimsea.tsx"/>
 <tileset firstgid="2593" source="RMXP-auto-hgss-sea.tsx"/>
 <tileset firstgid="2641" source="RMXP-auto-lake.tsx"/>
 <tileset firstgid="2689" source="RMXP-auto-r49water.tsx"/>
 <layer id="1" name="lower" width="48" height="118">
  <data encoding="csv">
0,0,0,0,13,11,13,11,13,11,11,11,11,11,2465,2449,2449,2449,2449,2473,11,11,11,11,11,11,11,11,11,11,13,11,13,11,13,11,13,11,13,11,13,11,0,0,0,0,0,0,
0,0,0,0,11,13,11,13,11,11,11,11,11,11,2465,2449,2449,2449,2449,2473,11,11,11,11,11,11,11,11,11,13,11,13,11,13,11,13,11,13,11,13,11,13,0,0,0,0,0,0,
11,11,11,11,13,11,13,11,13,11,11,11,11,11,2465,2449,2449,2449,2449,2473,11,11,11,11,11,11,11,11,11,11,13,11,13,11,13,11,13,11,13,11,13,11,0,0,0,0,0,0,
13,13,13,13,11,13,11,13,11,13,11,13,11,13,2489,2457,2449,2449,2453,2487,11,13,11,13,58,13,11,13,11,13,11,13,11,13,11,13,11,13,11,13,11,13,11,13,0,0,0,0,
11,11,11,11,13,11,13,11,13,11,13,11,13,11,13,2465,2449,2449,2473,11,13,11,13,58,13,11,13,11,13,11,13,11,13,11,13,11,13,11,13,11,13,11,13,11,0,0,0,0,
13,13,13,13,11,13,11,13,11,13,11,13,11,13,11,2465,2449,2449,2473,13,11,13,58,13,11,13,11,13,11,13,11,13,11,13,11,13,11,13,11,13,11,13,11,13,0,0,0,0,
11,11,11,11,13,11,13,11,13,58,13,58,13,11,13,2465,2449,2449,2473,11,13,58,13,11,13,11,13,11,13,11,13,11,13,11,13,11,13,11,13,11,13,11,13,11,0,0,0,0,
13,13,13,13,11,13,11,13,11,13,58,13,58,13,11,2465,2449,2449,2473,13,11,13,11,13,11,13,11,13,11,13,11,13,11,13,11,33,11,13,11,13,11,13,11,13,0,0,0,0,
11,11,11,11,13,11,13,11,13,11,13,11,13,11,13,2465,2449,2449,2451,2469,2469,2469,2469,2469,2469,2469,2469,2469,2485,11,13,11,13,11,13,33,13,11,13,11,13,11,13,11,0,0,0,0,
13,13,13,13,11,13,11,13,11,13,11,13,1,1,11,2489,2477,2477,2477,2477,2477,2477,2477,2477,2477,2477,2457,2453,2487,13,11,13,11,13,11,33,11,58,11,13,11,13,11,13,0,0,0,0,
11,11,11,11,13,11,13,11,13,11,13,11,1,1,13,11,13,11,13,11,13,11,13,11,13,11,2465,2473,13,11,13,11,13,11,13,33,13,11,58,11,13,11,13,11,0,0,0,0,
13,13,13,13,11,13,11,13,11,13,11,13,11,13,11,13,11,13,11,13,11,13,11,13,11,13,2465,2473,11,13,11,13,11,13,11,33,11,13,11,58,11,13,11,13,0,0,0,0,
11,11,11,11,13,11,13,11,13,11,13,11,13,11,13,11,13,11,13,11,13,11,13,11,13,11,2465,2473,13,11,13,11,13,11,13,33,13,11,13,11,58,11,13,11,0,0,0,0,
13,13,13,13,11,13,11,13,11,13,11,13,11,13,11,13,11,13,11,13,11,13,11,13,11,13,2465,2473,11,13,11,13,11,13,11,33,11,13,11,13,58,58,11,13,0,0,0,0,
11,11,11,11,13,11,13,11,13,11,13,11,13,11,13,13,13,13,13,11,13,11,58,11,26,26,2465,2473,26,26,26,26,26,26,26,28,13,11,13,11,13,11,58,11,0,0,0,0,
13,13,13,13,11,13,11,13,11,13,11,13,11,13,13,13,13,13,11,13,11,13,11,13,11,13,2465,2473,11,33,11,13,11,13,11,13,58,13,11,13,11,13,11,1,1,1,1,1,
11,11,11,11,13,11,13,11,13,11,13,11,13,11,13,13,13,13,13,11,13,11,13,11,13,11,2465,2473,13,33,13,11,13,11,13,11,13,58,13,11,13,11,13,1,1,1,1,1,
13,13,13,13,11,13,11,13,11,13,11,13,11,13,11,13,11,13,11,13,11,13,11,13,28,13,2465,2473,11,33,11,13,11,13,11,13,11,13,33,13,11,13,11,1,1,1,1,1,
11,11,11,11,13,11,13,11,13,11,13,11,13,11,13,11,13,11,13,11,13,11,13,11,58,26,2465,2473,26,28,13,11,13,11,13,11,13,11,33,11,13,11,13,1,1,1,1,1,
13,13,13,13,11,13,11,13,11,13,11,13,11,13,11,13,11,13,11,13,11,13,11,13,11,13,2465,2473,11,13,33,13,11,13,11,13,11,13,33,13,11,13,11,1,1,1,1,1,
11,11,11,11,13,11,13,11,13,11,13,11,13,11,13,11,13,11,13,11,13,11,13,28,13,11,2465,2473,13,11,33,11,13,11,13,11,13,11,33,11,13,11,13,1,1,1,1,1,
13,13,13,13,11,13,11,58,11,58,11,13,11,13,11,13,11,13,11,13,11,13,33,13,58,13,2465,2473,11,13,33,13,11,13,11,13,11,13,33,13,11,13,11,1,1,1,1,1,
11,11,11,11,13,11,13,11,58,13,58,11,13,11,13,11,13,1,1,1,1,11,33,11,13,26,2465,2473,26,26,28,11,13,11,13,11,13,11,33,11,13,11,13,1,1,1,1,1,
13,13,13,13,11,13,11,13,11,58,11,26,26,26,26,26,26,26,26,26,26,26,28,2492,2494,13,2465,2473,11,13,11,13,11,25,26,26,26,26,28,13,11,13,11,1,1,1,1,1,
11,11,11,11,13,11,13,11,13,11,58,11,13,11,13,11,13,11,13,11,13,11,13,58,13,11,2465,2451,2469,2469,2469,2469,2485,33,13,11,13,11,13,33,13,11,13,1,1,1,1,1,
13,13,13,13,11,13,11,13,11,13,11,58,11,13,11,13,11,13,11,13,11,13,11,13,58,13,2489,2477,2477,2477,2477,2477,2487,33,2483,2469,2469,2469,2485,33,11,13,11,1,1,1,1,1,
11,11,11,11,13,11,13,11,13,11,13,11,58,11,13,11,13,11,13,11,13,11,13,11,13,26,26,26,26,26,26,26,26,28,2489,2477,2477,2457,2473,33,13,11,13,1,1,1,1,1,
13,13,13,13,11,13,11,13,11,13,11,13,11,13,11,13,11,13,11,13,11,13,11,13,11,13,11,13,11,13,11,13,11,13,11,13,11,2465,2473,33,11,13,11,1,1,1,1,1,
11,11,11,11,13,11,13,11,13,11,13,11,13,11,1,11,13,1,1,1,2483,2469,2469,2469,2469,2469,2469,2469,2469,2469,2469,2469,2469,2469,2469,2469,2469,2450,2473,33,13,11,13,1,1,1,1,1,
13,13,13,13,11,13,11,13,11,13,11,13,11,13,1,1,11,1,1,1,2465,2449,2449,2449,2449,2449,2449,2449,2449,2449,2449,2449,2449,2449,2449,2449,2449,2449,2473,33,11,13,11,1,1,1,1,1,
11,11,11,11,13,11,13,11,13,11,13,11,13,11,1,1,13,11,13,11,2465,2453,2477,2477,2477,2477,2477,2477,2477,2477,2477,2477,2477,2477,2477,2477,2477,2477,2487,33,13,11,13,1,1,1,1,1,
13,13,13,13,11,13,11,13,11,13,11,13,11,13,11,13,11,13,11,13,2465,2473,11,13,11,13,11,13,11,13,11,13,11,13,11,13,11,13,11,33,11,13,11,1,1,1,1,1,
11,11,11,11,13,11,13,11,13,11,13,11,58,58,58,58,58,58,13,11,2465,2473,13,11,13,11,13,11,13,11,13,11,13,11,13,11,13,11,13,33,13,11,13,1,1,1,1,1,
13,13,13,13,11,13,11,13,11,13,11,58,58,58,58,58,58,13,11,13,2465,2473,11,13,11,13,11,13,11,13,11,13,11,13,11,13,11,13,11,33,11,13,11,1,1,1,1,1,
11,11,11,11,13,11,13,11,13,11,58,58,58,58,58,58,13,11,13,11,2465,2473,13,11,13,11,13,11,13,11,13,11,13,11,13,11,13,11,13,33,13,11,13,1,1,1,1,1,
13,13,13,13,11,13,11,13,11,58,58,58,58,58,58,13,11,13,11,13,2465,2473,11,13,11,13,11,13,11,13,11,13,11,13,11,13,11,13,11,33,11,13,11,1,1,1,1,1,
11,11,11,11,13,11,13,11,58,58,58,58,58,58,13,11,13,11,13,26,2465,2473,26,26,26,26,26,26,26,26,26,26,26,26,26,26,26,26,26,28,13,11,13,1,1,1,1,1,
13,13,13,13,11,13,11,58,58,58,58,58,58,13,11,13,11,13,11,13,2465,2473,11,13,11,13,11,13,11,13,11,13,11,13,11,13,11,13,11,13,11,13,11,1,1,1,1,1,
11,11,11,11,13,11,13,11,13,11,13,11,13,11,13,11,13,11,13,11,2465,2451,2469,2469,2469,2485,13,11,13,11,13,11,13,11,13,11,13,11,13,11,13,11,13,11,0,0,0,0,
13,13,13,13,11,13,11,13,11,13,11,13,11,13,11,13,11,13,11,13,2465,2449,2449,2449,2449,2451,2485,13,11,13,11,13,11,13,11,13,11,13,11,13,11,13,11,13,0,0,0,0,
11,11,11,11,13,11,13,11,13,11,13,11,13,11,13,11,13,11,13,11,2465,2453,2477,2477,2457,2449,2473,11,13,11,13,11,13,11,13,11,13,11,13,11,13,11,13,11,0,0,0,0,
13,13,13,13,11,13,11,13,11,13,11,13,11,13,11,13,11,13,11,13,2465,2473,13,13,2465,2449,2473,13,11,13,11,13,11,13,11,13,11,13,11,13,11,13,11,13,0,0,0,0,
11,11,11,11,13,11,13,11,13,11,13,11,13,11,13,11,13,11,13,11,2465,2473,13,13,2465,2449,2473,11,13,11,13,11,13,11,13,11,13,11,13,11,13,11,13,11,0,0,0,0,
13,13,13,13,11,13,11,13,11,13,11,13,11,13,11,13,11,13,11,13,2465,2473,13,13,2489,2457,2451,2469,2469,2469,2469,2469,2469,2485,11,13,11,13,11,13,11,13,11,13,0,0,0,0,
11,11,11,11,13,11,13,11,13,11,13,11,13,11,13,11,13,11,13,11,2465,2451,2485,13,13,2489,2477,2477,2477,2477,2477,2457,2449,2451,2485,11,13,11,13,11,13,11,13,11,0,0,0,0,
13,13,13,13,11,13,11,13,11,13,11,13,11,13,11,13,11,13,11,13,2465,2449,2473,2531,2517,2517,2517,2517,2517,2533,13,2489,2477,2477,2487,13,11,13,11,13,11,13,11,13,0,0,0,0,
11,11,11,11,13,11,13,11,13,11,13,11,13,11,13,11,13,11,13,11,2465,2449,2473,2513,2497,2497,2497,2497,2497,2499,2517,2517,2517,2517,2533,11,13,11,13,11,13,11,13,11,0,0,0,0,
13,13,13,13,11,13,11,13,11,13,11,13,11,13,11,13,11,13,11,13,2465,2449,2473,2513,2497,2497,2497,2497,2497,2497,2497,2497,2497,2497,2521,13,11,13,11,13,11,13,11,13,0,0,0,0,
11,11,11,11,13,58,13,11,13,11,13,11,58,11,13,11,13,11,13,11,2465,2449,2473,2513,2497,2497,2497,2497,2497,2497,2497,2497,2497,2497,2521,11,13,11,13,11,13,11,13,11,0,0,0,0,
13,13,13,13,11,13,58,13,11,13,11,13,11,58,11,13,11,13,11,13,2465,2449,2473,2537,2525,2505,2497,2497,2497,2497,2497,2497,2497,2497,2521,13,11,13,11,13,11,13,11,13,0,0,0,0,
11,11,11,11,13,11,13,58,13,11,13,11,13,11,58,11,13,11,13,11,2465,2449,2473,13,13,2513,2497,2497,2497,2497,2497,2497,2497,2497,2521,11,13,11,13,11,13,11,13,11,0,0,0,0,
13,13,13,13,11,13,11,13,58,13,11,13,11,13,11,58,11,13,11,13,2465,2449,2473,13,13,2537,2525,2505,2497,2497,2497,2501,2525,2525,2535,13,11,13,11,13,11,13,11,13,0,0,0,0,
11,11,11,11,13,11,13,11,13,58,13,11,13,11,13,11,58,11,13,11,2465,2449,2473,13,13,13,13,2537,2525,2525,2525,2535,13,11,13,11,13,11,13,11,13,11,13,11,0,0,0,0,
13,13,13,13,11,13,11,13,11,13,58,13,11,13,11,13,11,58,11,13,2465,2449,2451,2469,2469,2469,2469,2469,2469,2469,2469,2485,11,13,11,13,11,13,11,13,11,13,11,13,0,0,0,0,
11,11,11,11,13,11,13,11,13,11,13,58,13,11,13,11,13,11,58,11,2465,2449,2449,2449,2449,2449,2449,2449,2449,2449,2449,2451,2485,11,13,11,13,11,13,11,13,11,13,11,0,0,0,0,
13,13,13,13,11,13,11,13,11,13,11,13,58,13,11,13,11,13,11,13,2489,2477,2477,2477,2477,2477,2477,2477,2477,2477,2477,2457,2473,13,11,13,11,13,11,13,11,13,11,13,0,0,0,0,
11,11,11,11,13,11,13,11,13,11,13,11,13,1,1,1,1,1,1,1,1,1,1,1,1,1,1,1,13,11,13,2465,2473,11,13,11,13,11,13,11,13,11,13,11,0,0,0,0,
13,13,13,13,11,13,11,13,11,13,11,13,11,1,1,1,1,1,1,1,1,1,1,1,1,1,1,1,1,1,11,2465,2451,2469,2485,13,11,13,11,13,11,13,11,13,0,0,0,0,
11,11,11,11,13,11,13,11,13,11,13,11,13,1,1,11,13,13,11,13,13,11,13,11,1,1,1,1,1,1,13,2465,2449,2449,2473,11,13,11,13,11,13,11,13,11,0,0,0,0,
13,13,13,13,11,13,11,13,11,13,11,13,11,1,1,13,11,13,11,13,11,13,11,13,11,13,11,2495,11,13,11,2465,2449,2449,2473,13,11,13,11,13,11,13,11,13,0,0,0,0,
11,11,11,11,13,11,13,11,13,11,13,11,13,1,1,1,13,11,13,11,13,11,13,11,13,11,13,11,13,11,13,2465,2449,2449,2473,11,13,11,13,11,13,11,13,11,0,0,0,0,
13,13,13,13,11,13,11,13,11,13,11,13,11,1,1,1,13,13,11,13,11,13,11,13,11,13,11,13,11,13,11,2465,2449,2449,2473,13,11,13,11,13,11,13,11,13,0,0,0,0,
11,11,11,11,13,11,13,11,13,11,13,11,13,1,1,13,11,11,13,11,13,11,13,11,13,11,13,11,13,11,13,2465,2449,2449,2473,11,13,11,13,11,13,11,13,11,0,0,0,0,
13,13,13,13,11,13,11,13,11,13,11,13,11,1,1,1,13,13,11,13,11,13,11,13,11,13,11,13,11,13,11,2465,2449,2449,2473,13,11,13,11,13,11,13,11,13,0,0,0,0,
11,11,11,11,13,11,13,11,13,11,13,11,13,1,1,11,13,11,13,11,13,11,13,11,13,11,13,11,13,11,13,2465,2449,2449,2473,11,13,11,13,11,13,11,13,11,0,0,0,0,
13,13,13,13,11,13,11,13,11,13,11,13,11,13,13,13,11,13,11,13,11,13,11,13,11,13,11,13,11,13,11,2465,2449,2449,2473,13,11,13,11,13,11,13,11,13,0,0,0,0,
11,11,11,11,13,11,13,11,13,11,13,11,13,13,13,13,13,11,13,11,13,11,13,11,13,11,13,11,13,11,13,2465,2449,2449,2473,11,13,11,13,11,13,11,13,11,0,0,0,0,
13,13,13,13,11,58,11,13,11,13,11,13,11,13,13,13,11,13,11,13,11,13,11,13,11,13,11,13,11,13,11,2465,2449,2449,2473,13,11,13,11,13,11,13,11,13,0,0,0,0,
11,11,11,11,13,11,58,11,13,11,13,11,13,1,13,1,1,1,1,11,13,11,13,11,13,11,13,11,13,11,13,2465,2449,2449,2473,11,13,11,13,11,13,11,13,11,0,0,0,0,
13,13,13,13,11,13,11,58,11,13,11,13,11,1,13,13,1,1,1,13,11,13,11,13,11,13,11,13,11,13,11,2465,2449,2449,2473,13,11,13,11,13,11,13,11,13,0,0,0,0,
11,11,11,11,13,11,13,11,58,11,13,11,13,11,13,11,13,11,11,11,13,11,13,11,13,11,13,11,13,11,13,2465,2449,2449,2473,11,13,11,13,11,13,11,13,11,0,0,0,0,
13,13,13,13,11,13,11,13,11,58,11,13,11,13,11,13,11,11,11,13,11,13,11,13,11,13,11,13,11,13,11,2465,2449,2449,2473,13,11,13,11,13,11,13,11,13,0,0,0,0,
11,11,11,11,58,11,13,11,13,11,58,11,13,11,13,11,13,11,13,11,13,11,13,11,13,11,13,11,13,11,13,2465,2449,2449,2473,11,13,11,13,11,13,11,13,11,0,0,0,0,
58,58,58,58,13,58,11,13,11,13,11,58,11,13,11,13,11,13,11,13,11,13,11,13,11,13,11,13,11,13,11,2489,2477,2477,2487,13,11,13,11,13,11,13,11,13,0,0,0,0,
13,13,13,13,58,13,58,11,13,11,13,11,13,11,13,11,13,11,13,11,13,11,13,11,13,13,13,11,13,11,13,11,13,1,1,11,13,11,13,11,13,11,13,11,0,0,0,0,
58,58,58,58,11,58,13,58,11,13,11,13,11,13,11,13,11,13,11,13,11,13,11,13,11,13,13,13,11,13,11,13,11,1,1,13,11,13,11,13,11,13,11,13,0,0,0,0,
11,11,11,11,13,11,58,13,58,11,13,11,13,11,13,11,13,11,13,11,13,11,13,11,13,13,13,11,13,11,13,11,13,1,1,11,13,11,13,11,13,11,13,11,0,0,0,0,
13,13,13,13,11,13,11,58,11,26,26,26,26,26,26,26,26,26,26,27,11,13,11,13,11,13,13,13,11,13,11,13,11,1,1,13,11,13,11,13,11,13,11,13,0,0,0,0,
11,11,11,11,13,11,13,11,58,11,13,11,13,11,13,11,13,11,13,35,13,11,13,11,13,11,13,11,13,11,13,11,1,1,1,11,13,11,13,11,13,11,13,11,0,0,0,0,
13,13,13,13,11,13,11,13,11,58,11,13,11,13,11,13,11,13,11,35,11,13,11,13,11,11,13,13,11,13,11,13,1,1,1,13,11,13,11,13,11,13,11,13,0,0,0,0,
11,11,11,11,13,11,13,11,13,11,13,11,13,11,13,11,13,11,13,35,13,11,13,1,1,1,1,11,13,11,13,1,1,1,1,11,13,11,13,11,13,11,13,11,0,0,0,0,
13,13,13,13,11,13,11,13,11,13,97,98,98,98,99,13,11,13,11,35,11,13,11,1,1,1,1,1,11,13,11,1,1,1,1,13,11,13,11,13,11,13,11,13,0,0,0,0,
11,11,11,11,13,11,13,11,13,11,105,106,106,106,112,98,99,13,13,35,1,11,13,11,13,1,1,1,1,11,13,1,1,1,1,11,13,11,13,11,13,11,13,11,0,0,0,0,
13,13,13,13,11,13,11,13,11,13,113,114,114,119,106,106,107,13,13,35,1,13,11,13,11,1,1,1,1,1,11,13,11,13,11,13,11,13,11,13,11,13,11,13,0,0,0,0,
11,11,11,11,13,11,13,11,13,11,13,11,13,113,114,114,115,11,13,35,13,11,13,1,1,11,13,11,13,11,13,11,13,11,13,11,13,11,13,11,13,11,13,11,0,0,0,0,
13,13,13,13,58,13,11,13,11,13,11,13,11,13,11,13,11,13,11,29,26,26,26,26,26,27,11,13,11,13,11,13,11,13,11,13,11,13,11,13,11,13,11,13,0,0,0,0,
58,58,58,58,13,58,13,11,13,11,13,11,13,97,98,98,98,98,106,11,13,11,13,11,13,35,13,11,13,11,13,11,13,11,13,11,13,11,13,11,13,11,13,11,13,11,13,11,
11,13,58,13,11,13,58,13,11,13,11,13,97,111,106,106,106,106,106,106,106,106,106,13,11,35,11,13,11,13,11,13,11,13,11,13,11,13,11,13,11,13,11,13,11,13,11,13,
13,11,13,58,13,11,13,58,13,11,13,11,105,106,2579,2565,2565,2565,2565,13,13,2565,2581,106,13,35,13,11,13,11,13,11,13,11,13,11,13,11,13,11,13,11,13,11,13,11,13,11,
11,13,11,13,11,13,11,13,58,13,11,97,111,106,2561,2545,2545,2545,2545,13,13,2545,2569,106,11,29,26,26,26,26,26,26,26,26,26,26,26,26,26,26,26,26,26,26,26,26,26,26,
13,11,13,11,13,11,13,11,13,11,13,105,2579,2565,2546,2545,2545,2545,2545,13,13,2545,2569,106,58,11,13,11,13,11,13,11,13,11,13,11,13,11,13,11,13,11,13,11,13,11,13,11,
11,13,11,13,11,13,11,13,11,13,97,111,2561,2545,2545,2545,2545,2545,2545,13,13,2545,2569,106,106,106,106,106,106,106,106,106,106,106,106,106,106,106,106,106,106,106,106,106,106,106,106,106,
13,11,13,11,13,11,13,11,13,11,105,106,2561,2545,2545,2545,2545,2545,2545,13,13,2545,2547,2565,2565,2565,2565,2565,2565,2565,2565,2565,2565,2565,2565,2565,2565,2565,2565,2565,2565,2565,2565,2565,2565,2565,2565,2565,
11,13,11,13,11,13,11,13,11,13,105,106,2561,2545,2545,2545,2545,2545,2545,13,13,2545,2545,2545,2545,2545,2545,2545,2545,2545,2545,2545,2545,2545,2545,2545,2545,2545,2545,2545,2545,2545,2545,2545,2545,2545,2545,2545,
13,11,13,11,13,11,13,11,13,11,13,106,2561,2545,2545,2545,2545,2545,2545,13,13,2545,2545,2545,2545,2545,2545,2545,2545,2545,2545,2545,2545,2545,2545,2545,2545,2545,2545,2545,2545,2545,2545,2545,2545,2545,2545,2545,
11,13,11,13,11,13,11,13,106,106,106,106,2561,2545,2545,2545,2545,2545,2545,13,13,2545,2545,2545,2545,2545,2545,2545,2545,2545,2545,2545,2545,2545,2545,2545,2545,2545,2545,2545,2545,2545,2545,2545,2545,2545,2545,2545,
13,11,13,11,13,11,13,11,106,2579,2565,2565,2546,2545,2545,2545,2545,2545,2545,13,13,2545,2545,2545,2545,2545,2545,2545,2545,2545,2545,2545,2545,2545,2545,2545,2545,2545,2545,2545,2545,2545,2545,2545,2545,2545,2545,2545,
106,106,106,106,106,106,106,106,106,2561,2545,2545,2545,2545,2549,2573,2573,2573,2573,13,13,2573,2573,2553,2545,2545,2545,2545,2545,2545,2545,2545,2545,2545,2545,2545,2545,2545,2545,2545,2545,2545,2545,2545,2545,2545,2545,2545,
2565,2565,2565,2565,2565,2565,2565,2565,2565,2546,2545,2545,2545,2545,2569,106,106,106,106,106,106,106,106,2561,2545,2545,2545,2545,2545,2545,2545,2545,2545,2545,2545,2545,2545,2545,2545,2545,2545,2545,2545,2545,2545,2545,2545,2545,
2545,2545,2545,2545,2545,2545,2545,2545,2545,2545,2545,2545,2545,2545,2569,106,106,106,106,106,106,106,106,2561,2545,2545,2545,2545,2545,2545,2545,2545,2545,2545,2545,2545,2545,2545,2545,2545,2545,2545,2545,2545,2545,2545,2545,2545,
13,13,13,13,13,13,13,13,13,13,13,13,13,13,13,106,106,106,106,106,106,106,106,2561,2545,2545,2545,2545,2545,2545,2545,2545,2545,2545,2545,2545,2545,2545,2545,2545,2545,2545,2545,2545,2545,2545,2545,2545,
13,13,13,13,13,13,13,13,13,13,13,13,13,13,13,106,106,106,106,106,106,106,106,2561,2545,2545,2545,2545,2545,2545,2545,2545,2545,2545,2545,2545,2545,2545,2545,2545,2545,2545,2545,2545,2545,2545,2545,2545,
2545,2545,2545,2545,2545,2545,2545,2545,2545,2545,2545,2545,2545,2545,2569,106,106,106,106,106,106,106,106,2561,2545,2545,2545,2545,2545,2545,2545,2545,2545,2545,2545,2545,2545,2545,2545,2545,2545,2545,2545,2545,2545,2545,2545,2545,
2545,2545,2545,2545,2545,2545,2545,2545,2545,2545,2545,2545,2545,2545,2569,106,106,106,106,106,106,106,106,2561,2545,2545,2545,2545,2545,2545,2545,2545,2545,2545,2545,2545,2545,2545,2545,2545,2545,2545,2545,2545,2545,2545,2545,2545,
2545,2545,2545,2545,2545,2545,2545,2545,2545,2545,2545,2545,2545,2545,2547,2565,2565,2565,2565,2565,2565,2565,2565,2546,2545,2545,2545,2545,2545,2545,2545,2545,2545,2545,2545,2545,2545,2545,2545,2545,2545,2545,2545,2545,2545,2545,2545,2545,
2545,2545,2545,2545,2545,2545,2545,2545,2545,2545,2545,2545,2545,2545,2545,2545,2545,2545,2545,2545,2545,2545,2545,2545,2545,2545,2545,2545,2545,2545,2545,2545,2545,2545,2545,2545,2545,2545,2545,2545,2545,2545,2545,2545,2545,2545,2545,2545,
2545,2545,2545,2545,2545,2545,2545,2545,2545,2545,2545,2545,2545,2545,2545,2545,2545,2545,2545,2545,2545,2545,2545,2545,2545,2545,2545,2545,2545,2545,2545,2545,2545,2545,2545,2545,2545,2545,2545,2545,2545,2545,2545,2545,2545,2545,2545,2545,
2545,2545,2545,2545,2545,2545,2545,2545,2545,2545,2545,2545,2545,2545,2545,2545,2545,2545,2545,2545,2545,2545,2545,2545,2545,2545,2545,2545,2545,2545,2545,2545,2545,2545,2545,2545,2545,2545,2545,2545,2545,2545,2545,2545,2545,2545,2545,2545,
2545,2545,2545,2545,2545,2545,2545,2545,2545,2545,2545,2545,2545,2545,2545,2545,2545,2545,2545,2545,2545,2545,2545,2545,2545,2545,2545,2545,2545,2545,2545,2545,2545,2545,2545,2545,2545,2545,2545,2545,2545,2545,2545,2545,2545,2545,2545,2545,
2545,2545,2545,2545,2545,2545,2545,2545,2545,2545,2545,2545,2545,2545,2545,2545,2545,2545,2545,2545,2545,2545,2545,2545,2545,2545,2545,2545,2545,2545,2545,2545,2545,2545,2545,2545,2545,2545,2545,2545,2545,2545,2545,2545,2545,2545,2545,2545,
2545,2545,2545,2545,2545,2545,2545,2545,2545,2545,2545,2545,2545,2545,2545,2545,2545,2545,2545,2545,2545,2545,2545,2545,2545,2545,2545,2545,2545,2545,2545,2545,2545,2545,2545,2545,2545,2545,2545,2545,2545,2545,2545,2545,2545,2545,2545,2545,
2545,2545,2545,2545,2545,2545,2545,2545,2545,2545,2545,2545,2545,2545,2545,2545,2545,2545,2545,2545,2545,2545,2545,2545,2545,2545,2545,2545,2545,2545,2545,2545,2545,2545,2545,2545,2545,2545,2545,2545,2545,2545,2545,2545,2545,2545,2545,2545,
2545,2545,2545,2545,2545,2545,2545,2545,2545,2545,2545,2545,2545,2545,2545,2545,2545,2545,2545,2545,2545,2545,2545,2545,2545,2545,2545,2545,2545,2545,2545,2545,2545,2545,2545,2545,2545,2545,2545,2545,2545,2545,2545,2545,2545,2545,2545,2545,
2545,2545,2545,2545,2545,2545,2545,2545,2545,2545,2545,2545,2545,2545,2545,2545,2545,2545,2545,2545,2545,2545,2545,2545,2545,2545,2545,2545,2545,2545,2545,2545,2545,2545,2545,2545,2545,2545,2545,2545,2545,2545,2545,2545,2545,2545,2545,2545,
2545,2545,2545,2545,2545,2545,2545,2545,2545,2545,2545,2545,2545,2545,2545,2545,2545,2545,2545,2545,2545,2545,2545,2545,2545,2545,2545,2545,2545,2545,2545,2545,2545,2545,2545,2545,2545,2545,2545,2545,2545,2545,2545,2545,2545,2545,2545,2545,
2545,2545,2545,2545,2545,2545,2545,2545,2545,2545,2545,2545,2545,2545,2545,2545,2545,2545,2545,2545,2545,2545,2545,2545,2545,2545,2545,2545,2545,2545,2545,2545,2545,2545,2545,2545,2545,2545,2545,2545,2545,2545,2545,2545,2545,2545,2545,2545,
2545,2545,2545,2545,2545,2545,2545,2545,2545,2545,2545,2545,2545,2545,2545,2545,2545,2545,2545,2545,2545,2545,2545,2545,2545,2545,2545,2545,2545,2545,2545,2545,2545,2545,2545,2545,2545,2545,2545,2545,2545,2545,2545,2545,2545,2545,2545,2545,
2545,2545,2545,2545,2545,2545,2545,2545,2545,2545,2545,2545,2545,2545,2545,2545,2545,2545,2545,2545,2545,2545,2545,2545,2545,2545,2545,2545,2545,2545,2545,2545,2545,2545,2545,2545,2545,2545,2545,2545,2545,2545,2545,2545,2545,2545,2545,2545
  </data>
 </layer>
 <layer id="2" name="middle" width="48" height="118">
  <data encoding="csv">
58,58,58,58,58,58,58,58,58,58,58,59,59,59,1201,1202,1203,1203,1204,1205,57,57,57,57,57,58,58,58,58,58,58,58,58,58,58,58,58,58,58,58,58,58,58,58,58,58,58,58,
58,58,58,58,58,58,58,58,58,58,58,59,59,59,1201,1202,1203,1203,1204,1205,57,57,57,57,57,58,58,58,58,58,58,58,58,58,58,58,58,58,58,58,58,58,58,58,58,58,58,58,
58,58,58,58,58,58,58,58,58,58,58,59,59,59,1201,1202,1203,1203,1204,1205,57,57,57,57,57,58,58,58,58,58,58,58,58,58,58,58,58,58,58,58,58,58,58,58,58,58,58,58,
58,58,58,58,58,58,58,58,58,58,58,59,59,59,1201,1534,1584,1584,1536,1205,57,57,57,57,65,66,66,66,66,66,66,66,66,66,66,66,66,66,66,66,66,66,66,66,66,66,66,66,
58,58,58,58,58,58,58,58,58,58,58,59,59,59,1541,1542,1592,1592,1544,1585,57,57,57,65,66,66,66,66,66,66,66,66,66,66,66,66,66,66,66,66,66,66,66,66,66,66,66,66,
58,58,58,58,58,58,58,58,58,58,58,59,59,59,1549,1550,1600,1600,1552,1593,57,57,65,66,66,66,66,66,66,66,66,66,66,66,66,66,66,66,66,66,66,66,66,66,66,66,66,66,
58,58,58,58,58,58,58,58,58,23,66,67,59,59,1557,1558,1608,1608,1560,1601,57,65,66,66,66,66,66,66,66,66,66,66,66,66,66,66,66,66,66,66,66,66,66,66,66,66,66,66,
58,58,58,58,58,58,58,58,58,59,23,66,67,59,743,743,743,743,743,743,65,66,66,66,66,66,66,66,66,66,66,66,66,66,66,66,66,66,66,66,66,66,66,66,66,66,66,66,
58,58,58,58,58,58,58,58,58,59,59,23,66,67,0,0,0,0,0,0,0,0,0,0,0,0,0,0,0,49,50,50,51,49,50,51,23,66,66,66,66,66,66,66,66,66,66,66,
58,58,58,58,58,58,58,58,58,59,59,59,0,0,0,0,0,0,0,0,0,0,0,0,0,0,0,0,0,57,58,58,59,57,58,59,59,23,66,66,66,66,66,66,66,66,66,66,
58,58,58,58,58,58,58,58,58,59,59,59,0,0,0,0,0,0,0,49,50,50,50,50,51,0,0,0,0,65,66,66,67,57,58,59,59,59,23,66,66,66,66,66,66,66,66,66,
58,58,58,58,58,58,58,58,58,59,59,59,19,19,19,19,19,19,19,57,58,58,58,58,59,0,0,0,0,0,0,0,0,57,58,59,59,59,59,23,66,66,66,66,66,66,66,66,
58,58,58,58,58,58,58,58,58,59,59,59,0,0,0,0,0,0,0,57,58,58,58,58,59,0,0,0,0,0,0,0,0,57,58,59,59,59,59,59,23,66,66,66,66,66,66,66,
58,58,58,58,58,58,58,58,58,59,59,59,19,19,19,19,19,19,19,57,58,58,58,58,59,0,0,0,0,0,0,0,0,57,58,59,59,59,59,59,59,23,66,66,66,66,66,66,
58,58,58,58,58,58,58,58,58,59,59,59,0,0,70,70,70,70,49,46,58,58,58,58,59,0,0,0,0,0,0,0,0,65,66,67,59,59,59,59,59,59,23,66,66,66,66,66,
58,58,58,58,58,58,58,58,58,59,59,59,0,0,70,70,70,70,57,58,58,58,58,58,59,23,326,328,66,66,66,66,66,66,66,66,67,59,59,59,59,59,59,0,0,0,0,0,
58,58,58,58,58,58,58,58,58,59,59,59,0,0,0,70,70,70,57,58,58,58,58,58,59,59,0,0,311,312,23,66,66,66,66,66,66,67,59,59,59,59,59,0,0,0,0,0,
58,58,58,58,58,58,58,58,58,59,59,59,19,19,19,19,19,19,57,58,58,58,58,23,67,59,0,0,315,316,59,23,66,66,66,66,66,66,67,59,59,59,59,0,0,0,0,0,
58,58,58,58,58,58,58,58,58,59,59,59,0,0,0,0,0,0,57,58,58,58,58,59,23,67,0,0,323,324,59,59,311,312,0,0,0,0,0,59,59,59,59,0,0,0,0,0,
58,58,58,58,58,58,58,58,58,59,59,59,19,19,19,19,19,19,57,58,58,58,58,59,59,23,326,328,66,66,67,59,315,316,0,0,0,0,0,59,59,59,59,0,0,0,0,0,
58,58,58,58,58,58,58,58,58,59,59,59,0,0,0,0,0,0,57,58,58,58,23,67,59,59,0,0,0,0,0,59,323,324,0,0,311,312,0,59,59,59,59,0,0,0,0,0,
58,58,58,58,58,58,58,23,66,67,59,59,19,19,19,19,19,19,65,66,66,66,67,23,67,59,0,0,0,0,0,59,0,0,0,0,315,316,0,59,59,59,59,0,0,0,0,0,
58,58,58,58,58,58,58,59,23,66,67,59,0,0,0,0,0,0,0,0,0,49,51,59,23,67,0,0,0,0,0,59,0,0,0,0,323,324,0,59,59,59,59,0,0,0,0,0,
58,58,58,58,58,58,58,59,59,23,66,67,0,0,0,0,0,0,0,0,0,65,67,59,59,23,326,328,66,66,66,67,0,0,0,0,0,0,0,59,59,59,59,0,0,0,0,0,
58,58,58,58,58,58,58,59,59,59,23,66,66,66,66,326,328,66,66,66,66,66,66,67,59,59,0,0,0,0,0,0,0,0,23,66,66,66,66,67,59,59,59,0,0,0,0,0,
58,58,58,58,58,58,58,59,59,59,59,23,66,66,66,326,328,66,66,66,66,66,66,66,67,59,0,0,0,0,0,0,0,0,0,0,0,0,0,0,59,59,59,0,0,0,0,0,
58,58,58,58,58,58,58,59,59,59,59,59,23,66,66,326,328,66,66,66,66,66,66,66,66,67,0,0,0,0,0,0,0,0,59,0,0,0,0,0,59,59,59,0,0,0,0,0,
58,58,58,58,58,58,58,59,59,59,59,59,59,23,66,326,328,66,66,66,66,66,66,66,66,66,66,66,66,66,66,66,66,66,67,0,0,0,0,0,59,59,59,0,0,0,0,0,
58,58,58,58,58,58,58,59,59,59,59,59,59,59,0,0,0,0,0,0,0,0,0,0,0,0,0,0,0,0,0,0,0,0,0,0,0,0,0,0,59,59,59,0,0,0,0,0,
58,58,58,58,58,58,58,59,59,59,59,59,59,59,0,0,0,0,0,0,0,0,0,0,0,0,0,0,0,0,0,0,0,0,0,0,0,0,0,0,59,59,59,0,0,0,0,0,
58,58,58,58,58,58,58,59,59,59,59,59,59,59,0,0,0,0,0,0,0,0,311,312,311,312,311,312,311,312,311,312,311,312,311,312,311,312,311,312,59,59,59,0,0,0,0,0,
58,58,58,58,58,58,58,59,59,59,59,59,59,45,50,50,50,50,51,0,0,0,315,314,315,314,315,314,315,314,315,314,315,314,315,314,315,314,315,316,59,59,59,0,0,0,0,0,
58,58,58,58,58,58,58,59,59,59,59,59,45,50,50,50,50,51,59,0,0,0,307,306,307,306,307,306,307,306,307,306,307,306,307,306,307,306,307,308,59,59,59,0,0,0,0,0,
58,58,58,58,58,58,58,59,59,59,59,45,50,50,50,50,51,59,59,0,0,0,315,314,315,314,315,314,315,314,315,314,315,314,315,314,315,314,315,316,59,59,59,0,0,0,0,0,
58,58,58,58,58,58,58,59,59,59,45,50,50,50,50,51,59,59,59,0,0,0,307,306,307,306,307,306,307,306,307,306,307,306,307,306,307,306,307,308,59,59,59,0,0,0,0,0,
58,58,58,58,58,58,58,59,59,45,50,50,50,50,51,59,59,59,59,0,0,0,315,314,315,314,315,314,315,314,315,314,315,314,315,314,315,314,315,316,59,59,59,0,0,0,0,0,
58,58,58,58,58,58,58,59,45,50,50,50,50,51,59,59,59,59,59,0,0,0,323,324,323,324,323,324,323,324,323,324,323,324,323,324,323,324,323,324,59,59,59,0,0,0,0,0,
58,58,58,58,58,58,58,45,50,50,50,50,51,59,59,59,59,59,59,23,0,0,66,66,66,66,66,66,66,66,66,66,66,66,66,66,66,66,66,66,67,59,59,0,0,0,0,0,
58,58,58,58,58,58,58,58,58,58,58,58,59,59,59,59,59,59,59,59,0,0,0,0,0,0,0,0,0,0,0,749,750,751,752,313,314,313,314,313,314,313,314,313,314,313,314,313,
58,58,58,58,58,58,58,58,58,58,58,58,59,59,59,59,59,59,59,59,0,0,0,0,0,0,0,0,0,246,0,757,758,759,760,305,306,305,306,305,306,305,306,305,306,305,306,305,
58,58,58,58,58,58,58,58,58,58,58,58,59,59,59,59,59,59,59,59,0,0,0,0,0,0,0,0,0,254,0,765,766,767,768,313,314,313,314,313,314,313,314,313,314,313,314,313,
58,58,58,58,58,58,58,58,58,58,58,58,59,59,59,59,59,59,59,59,0,0,0,0,0,0,0,0,0,0,0,773,0,775,776,305,306,305,306,305,306,305,306,305,306,305,306,305,
58,58,58,58,58,58,58,58,58,58,58,58,59,59,59,59,59,59,59,59,0,0,0,0,0,0,0,0,0,0,0,742,743,743,743,313,314,313,314,313,314,313,314,313,314,313,314,313,
58,58,58,58,58,58,58,58,58,58,58,58,59,59,59,59,59,59,59,59,0,0,0,0,0,0,0,0,0,0,0,0,0,0,0,305,306,305,306,305,306,305,306,305,306,305,306,305,
58,58,58,58,58,58,58,58,58,58,58,58,59,59,59,59,59,59,59,59,0,0,0,0,0,0,0,0,0,0,0,0,0,0,0,313,314,313,314,313,314,313,314,313,314,313,314,313,
58,58,58,58,58,58,58,58,58,58,58,58,59,59,59,59,59,59,59,59,0,0,0,0,0,0,0,0,0,0,0,0,0,0,0,305,306,305,306,305,306,305,306,305,306,305,306,305,
58,58,58,58,58,58,58,58,58,58,58,58,59,59,59,59,59,59,59,59,0,0,0,0,0,0,0,0,0,0,0,0,0,0,0,313,314,313,314,313,314,313,314,313,314,313,314,313,
58,58,58,58,58,58,58,58,58,58,58,58,59,59,59,59,59,59,59,59,0,0,0,0,0,0,0,0,0,0,0,0,0,0,0,305,306,305,306,305,306,305,306,305,306,305,306,305,
58,58,58,58,58,23,66,66,66,66,66,66,67,59,59,59,59,59,59,59,0,0,0,0,0,0,0,0,0,0,0,0,0,0,0,313,314,313,314,313,314,313,314,313,314,313,314,313,
58,58,58,58,58,59,23,66,66,66,66,66,66,67,59,59,59,59,59,59,0,0,0,0,0,0,0,0,0,0,0,0,0,0,0,305,306,305,306,305,306,305,306,305,306,305,306,305,
58,58,58,58,58,59,59,23,66,66,66,66,66,66,67,59,59,59,59,59,0,0,0,0,0,0,0,0,0,0,0,0,0,0,0,313,314,313,314,313,314,313,314,313,314,313,314,313,
58,58,58,58,58,59,59,59,23,66,66,66,66,66,66,67,59,59,59,59,0,0,0,0,0,0,0,0,0,0,0,0,0,0,0,305,306,305,306,305,306,305,306,305,306,305,306,305,
58,58,58,58,58,59,59,59,59,23,66,66,66,66,66,66,67,59,59,59,0,0,0,0,0,0,0,0,0,0,0,0,0,0,0,313,314,313,314,313,314,313,314,313,314,313,314,313,
58,58,58,58,58,59,59,59,59,59,23,66,66,66,66,66,66,67,59,59,0,0,0,0,0,0,0,0,0,0,0,0,0,0,0,305,306,305,306,305,306,305,306,305,306,305,306,305,
58,58,58,58,58,59,59,59,59,59,59,23,66,66,66,66,66,66,67,59,0,0,0,0,0,0,0,0,0,0,0,0,0,0,0,313,314,313,314,313,314,313,314,313,314,313,314,313,
58,58,58,58,58,59,59,59,59,59,59,59,23,66,66,66,66,66,66,67,21,19,19,19,19,19,19,19,19,19,22,0,0,21,19,305,306,305,306,305,306,305,306,305,306,305,306,305,
58,58,58,58,58,59,59,59,59,59,59,59,59,0,0,0,0,0,0,0,0,0,0,0,0,0,0,0,0,0,0,0,0,0,0,313,314,313,314,313,314,313,314,313,314,313,314,313,
58,58,58,58,58,59,59,59,59,59,59,59,59,0,0,0,0,0,0,0,0,0,0,0,0,0,0,0,0,0,0,0,0,0,0,305,306,305,306,305,306,305,306,305,306,305,306,305,
58,58,58,58,58,59,59,59,59,59,59,59,59,0,0,0,0,0,0,0,0,0,0,0,0,0,0,0,0,0,0,0,0,0,0,313,314,313,314,313,314,313,314,313,314,313,314,313,
58,58,58,58,58,59,59,59,59,59,59,59,59,0,0,0,0,311,312,311,312,311,312,311,312,311,312,311,312,311,312,0,0,0,0,305,306,305,306,305,306,305,306,305,306,305,306,305,
58,58,58,58,58,59,59,59,59,59,59,59,59,0,0,0,0,313,314,313,314,313,314,313,314,313,314,313,314,313,316,0,0,0,0,313,314,313,314,313,314,313,314,313,314,313,314,313,
58,58,58,58,58,59,59,59,59,59,59,59,59,0,0,0,0,305,306,305,306,305,306,305,306,305,306,305,306,305,308,0,0,0,0,305,306,305,306,305,306,305,306,305,306,305,306,305,
58,58,58,58,58,59,59,59,59,59,59,59,59,0,0,0,0,313,314,313,314,313,314,313,314,313,314,313,314,313,316,0,0,0,0,313,314,313,314,313,314,313,314,313,314,313,314,313,
58,58,58,58,58,59,59,59,59,59,59,59,59,0,0,1375,1376,323,324,323,324,305,306,305,306,305,306,305,306,305,308,0,0,0,0,305,306,305,306,305,306,305,306,305,306,305,306,305,
58,58,58,58,58,59,59,59,59,59,59,59,59,1381,1382,1383,1384,0,0,0,0,313,314,313,314,313,314,313,314,313,316,0,0,0,0,313,314,313,314,313,314,313,314,313,314,313,314,313,
58,58,58,58,58,59,59,59,59,59,59,59,59,1389,1390,1391,1392,0,0,0,0,305,306,305,306,305,306,305,306,305,308,0,0,0,0,305,306,305,306,305,306,305,306,305,306,305,306,305,
58,58,58,58,58,59,59,59,59,59,59,59,59,1397,1398,1399,1400,736,0,0,0,313,314,313,314,313,314,313,314,313,316,0,0,0,0,313,314,313,314,313,314,313,314,313,314,313,314,313,
66,66,66,66,66,67,59,59,59,59,59,59,59,1405,0,1407,1408,736,0,0,0,305,306,305,306,305,306,305,306,305,308,0,0,0,0,305,306,305,306,305,306,305,306,305,306,305,306,305,
66,66,66,66,66,66,67,59,59,59,59,59,59,742,743,743,743,744,0,0,0,313,314,313,314,313,314,313,314,313,316,0,0,0,0,313,314,313,314,313,314,313,314,313,314,313,314,313,
58,58,58,58,23,66,66,67,59,59,59,59,59,0,0,0,0,0,0,0,0,305,306,305,306,305,306,305,306,305,308,0,0,0,0,305,306,305,306,305,306,305,306,305,306,305,306,305,
58,58,58,58,59,23,66,66,67,59,59,59,59,0,0,0,0,0,0,0,0,313,314,313,314,313,314,313,314,313,316,0,0,0,0,313,314,313,314,313,314,313,314,313,314,313,314,313,
58,58,58,58,59,59,23,66,66,67,59,59,59,0,0,311,312,311,312,311,312,305,306,305,306,305,306,305,306,305,308,0,0,0,0,305,306,305,306,305,306,305,306,305,306,305,306,305,
66,66,66,66,67,59,59,23,66,66,67,59,59,19,19,315,314,313,314,313,314,313,314,313,314,313,314,313,314,313,316,0,0,0,0,313,314,313,314,313,314,313,314,313,314,313,314,313,
66,66,66,66,66,67,59,59,23,66,66,67,59,0,310,305,306,305,306,305,306,305,306,305,306,305,306,305,306,305,308,0,0,0,0,305,306,305,306,305,306,305,306,305,306,305,306,305,
58,58,58,58,23,66,67,59,59,23,66,66,67,0,0,315,314,313,314,313,314,313,314,313,314,313,314,313,314,313,316,0,0,0,0,313,314,313,314,313,314,313,314,313,314,313,314,313,
58,58,58,58,59,23,66,67,59,59,0,0,0,0,0,307,306,305,306,305,306,305,306,305,306,305,306,305,306,305,308,19,22,0,0,305,306,305,306,305,306,305,306,305,306,305,306,305,
58,58,58,58,59,59,23,66,67,59,0,0,0,0,0,315,314,313,314,313,314,313,314,313,314,313,314,313,314,313,316,0,0,0,0,313,314,313,314,313,314,313,314,313,314,313,314,313,
58,58,58,58,59,59,59,23,66,67,0,0,0,0,0,323,324,323,324,323,324,323,324,323,324,323,324,323,324,323,324,0,0,0,0,305,306,305,306,305,306,305,306,305,306,305,306,305,
58,58,58,58,59,59,59,59,23,66,66,66,0,0,66,66,66,66,24,0,0,0,0,0,0,0,0,0,0,0,0,0,0,0,0,313,314,313,314,313,314,313,314,313,314,313,314,313,
58,58,58,58,59,59,59,59,59,23,66,66,0,0,66,66,66,24,57,0,0,0,0,0,0,0,0,0,0,0,0,0,0,0,0,305,306,305,306,305,306,305,306,305,306,305,306,305,
58,58,58,58,59,59,59,59,59,59,0,0,0,0,0,0,0,57,57,0,0,0,0,0,0,0,0,0,0,0,0,0,0,0,0,313,314,313,314,313,314,313,314,313,314,313,314,313,
58,58,58,58,59,59,59,59,59,59,0,0,0,0,0,0,0,57,57,19,19,19,22,0,0,0,0,0,0,0,0,0,0,0,0,305,306,305,306,305,306,305,306,305,306,305,306,305,
58,58,58,58,59,59,59,59,59,59,0,0,0,0,0,0,0,57,57,0,0,0,0,0,0,0,0,0,0,0,0,0,0,0,0,313,314,313,314,313,314,313,314,313,314,313,314,313,
58,58,58,58,59,59,59,59,59,59,0,0,0,0,0,0,0,57,57,0,0,0,0,0,0,311,312,311,312,311,312,311,312,311,312,305,306,305,306,305,306,305,306,305,306,305,306,305,
58,58,58,58,59,59,59,59,59,59,0,0,0,0,0,0,0,57,57,0,0,0,0,0,0,313,314,313,314,313,314,313,314,313,314,313,314,313,314,313,314,313,314,313,314,313,314,313,
66,66,66,66,67,59,59,59,59,59,0,0,0,0,0,0,0,57,57,0,0,0,0,0,0,307,306,307,306,307,306,307,306,307,306,305,306,305,306,305,306,305,306,305,306,305,306,305,
66,66,66,66,66,67,59,59,59,59,0,0,0,0,0,0,0,57,65,612,614,66,66,66,24,315,314,315,314,315,314,315,314,315,314,315,314,315,314,315,314,315,314,315,314,313,314,313,
66,66,66,66,66,66,67,59,59,59,0,0,0,0,0,0,0,65,66,612,614,66,66,24,57,307,306,307,306,307,306,307,306,307,306,307,306,307,306,307,306,307,306,307,306,307,306,307,
66,66,66,66,66,66,66,67,59,59,0,0,0,0,0,0,0,0,0,612,614,0,0,57,57,315,314,315,314,315,314,315,314,315,314,315,314,315,314,315,314,315,314,315,314,315,314,315,
66,66,66,66,66,66,66,66,67,59,0,0,0,0,0,0,0,0,0,612,614,0,0,57,57,323,324,323,324,323,324,323,324,323,324,323,324,323,324,323,324,323,324,323,324,323,324,323,
66,66,66,66,66,66,66,66,66,67,0,0,0,0,0,0,0,0,0,612,614,0,0,57,65,66,66,66,66,66,66,66,66,66,66,66,66,66,66,66,66,66,66,66,66,66,66,66,
0,0,0,0,0,0,0,0,0,0,0,0,0,0,0,0,0,0,0,612,614,0,0,65,66,66,66,66,66,66,66,66,66,66,66,66,66,66,66,66,66,66,66,66,66,66,66,66,
0,0,0,0,0,0,0,0,0,0,0,0,0,0,0,0,0,0,0,612,614,0,0,401,402,0,0,0,0,0,0,0,0,0,0,0,0,0,0,0,0,0,0,0,0,0,0,0,
50,50,50,50,50,50,50,50,50,50,50,51,0,0,0,0,0,0,0,612,614,0,0,409,410,0,0,0,0,0,0,0,0,0,0,0,0,0,0,0,0,0,0,0,0,0,0,0,
58,58,58,58,58,58,58,58,58,58,58,59,0,0,0,0,0,0,0,612,614,0,0,0,0,401,402,0,0,0,0,0,0,0,0,0,0,0,0,0,0,0,0,0,0,0,0,0,
58,58,58,58,58,58,58,58,23,66,66,67,0,0,0,0,0,0,0,0,0,0,0,0,0,409,410,0,0,0,0,0,0,0,0,0,0,0,0,0,0,0,0,0,0,0,0,0,
58,58,58,58,58,58,58,58,59,0,0,0,0,0,0,0,0,0,0,0,0,0,0,0,0,0,417,418,0,0,0,0,0,0,0,0,0,0,0,0,0,0,0,0,0,0,0,0,
66,66,66,66,66,66,66,66,67,0,0,0,0,0,0,0,0,0,0,0,0,0,0,0,0,0,425,426,0,0,0,0,0,0,0,0,0,0,0,0,0,0,0,0,0,0,0,0,
0,0,0,0,0,0,0,0,0,0,0,0,0,0,0,49,50,50,50,0,0,50,51,0,0,401,402,0,0,0,0,0,0,0,0,0,0,0,0,0,0,0,0,0,0,0,0,0,
0,0,0,0,0,0,0,0,0,0,0,0,0,0,0,57,49,50,50,0,0,51,59,0,0,409,410,0,0,0,0,0,0,0,0,0,0,0,0,0,0,0,0,0,0,0,0,0,
640,640,640,640,640,640,640,640,640,640,640,640,640,640,0,0,0,58,58,58,58,59,59,0,0,0,417,418,0,0,0,0,0,0,0,0,0,0,0,0,0,0,0,0,0,0,0,0,
656,656,656,656,656,656,656,656,656,656,656,656,656,656,0,0,0,58,58,58,58,59,59,0,0,0,425,426,0,0,0,0,0,0,0,0,0,0,0,0,0,0,0,0,0,0,0,0,
0,0,0,0,0,0,0,0,0,0,0,0,0,0,0,57,65,66,66,66,66,67,59,0,0,401,402,0,0,0,0,0,0,0,0,0,0,0,0,0,0,0,0,0,0,0,0,0,
0,0,0,0,0,0,0,0,0,0,0,0,0,0,0,65,66,66,66,66,66,66,67,0,0,409,410,0,0,0,0,0,0,0,0,0,0,0,0,0,0,0,0,0,0,0,0,0,
0,0,0,0,0,0,0,0,0,0,0,0,0,0,0,0,0,0,0,0,0,0,0,0,0,0,417,418,0,0,0,0,0,0,0,0,0,0,0,0,0,0,0,0,0,0,0,0,
0,0,0,0,0,0,0,0,0,0,0,0,0,0,0,0,0,0,0,0,0,0,0,0,0,0,425,426,0,0,0,0,0,0,0,0,0,0,0,0,0,0,0,0,0,0,0,0,
0,0,0,0,0,0,0,0,0,0,0,0,0,0,0,0,0,0,0,0,0,0,0,0,0,401,402,0,0,0,0,0,0,0,0,0,0,0,0,0,0,0,0,0,0,0,0,0,
0,0,0,0,0,0,0,0,0,0,0,0,0,0,0,0,0,0,0,0,0,0,0,0,0,409,410,0,0,0,0,0,0,0,0,0,0,0,0,0,0,0,0,0,0,0,0,0,
417,418,0,0,417,418,0,0,417,418,0,0,417,418,0,0,417,418,0,0,417,418,0,0,417,418,0,0,0,0,0,0,0,0,0,0,0,0,0,0,0,0,0,0,0,0,0,0,
425,426,401,402,425,426,401,402,425,426,401,402,425,426,401,402,425,426,401,402,425,426,401,402,425,426,0,0,0,0,0,0,0,0,0,0,0,0,0,0,0,0,0,0,0,0,0,0,
0,0,409,410,0,0,409,410,0,0,409,410,0,0,409,410,0,0,409,410,0,0,409,410,0,0,0,0,0,0,0,0,0,0,0,0,0,0,0,0,0,0,0,0,0,0,0,0,
0,0,0,0,0,0,0,0,0,0,0,0,0,0,0,0,0,0,0,0,0,0,0,0,0,0,0,0,0,0,0,0,0,0,0,0,0,0,0,0,0,0,0,0,0,0,0,0,
0,0,0,0,0,0,0,0,0,0,0,0,0,0,0,0,0,0,0,0,0,0,0,0,0,0,0,0,0,0,0,0,0,0,0,0,0,0,0,0,0,0,0,0,0,0,0,0,
0,0,0,0,0,0,0,0,0,0,0,0,0,0,0,0,0,0,0,0,0,0,0,0,0,0,0,0,0,0,0,0,0,0,0,0,0,0,0,0,0,0,0,0,0,0,0,0,
0,0,0,0,0,0,0,0,0,0,0,0,0,0,0,0,0,0,0,0,0,0,0,0,0,0,0,0,0,0,0,0,0,0,0,0,0,0,0,0,0,0,0,0,0,0,0,0,
0,0,0,0,0,0,0,0,0,0,0,0,0,0,0,0,0,0,0,0,0,0,0,0,0,0,0,0,0,0,0,0,0,0,0,0,0,0,0,0,0,0,0,0,0,0,0,0,
0,0,0,0,0,0,0,0,0,0,0,0,0,0,0,0,0,0,0,0,0,0,0,0,0,0,0,0,0,0,0,0,0,0,0,0,0,0,0,0,0,0,0,0,0,0,0,0,
0,0,0,0,0,0,0,0,0,0,0,0,0,0,0,0,0,0,0,0,0,0,0,0,0,0,0,0,0,0,0,0,0,0,0,0,0,0,0,0,0,0,0,0,0,0,0,0
  </data>
 </layer>
 <layer id="3" name="upper" width="48" height="118">
  <data encoding="csv">
0,0,0,0,0,0,0,0,0,0,0,0,0,0,0,0,0,0,0,0,0,0,0,0,0,0,0,0,0,0,0,0,0,0,0,0,0,0,0,0,0,0,0,0,0,0,0,0,
0,0,0,0,0,0,0,0,0,0,0,0,0,0,0,0,0,0,0,0,0,0,0,0,0,63,64,0,0,0,0,0,0,0,0,0,0,0,0,0,0,0,0,0,0,0,0,0,
0,0,0,0,0,0,0,0,0,0,0,0,0,0,0,0,0,0,0,0,0,0,0,0,0,71,72,0,0,0,0,0,0,0,0,0,0,0,0,0,0,0,0,0,0,0,0,0,
0,0,0,0,0,0,0,0,0,0,0,0,0,0,0,0,0,0,0,0,0,0,0,0,0,0,0,0,0,0,0,0,0,0,0,0,0,0,0,0,0,0,0,0,0,0,0,0,
0,0,0,0,0,0,0,0,0,0,0,0,0,0,0,0,0,0,0,0,0,0,0,0,0,0,0,0,0,0,0,0,0,0,0,0,0,0,0,0,0,0,0,0,0,0,0,0,
0,0,0,0,0,0,0,0,0,0,0,0,0,0,0,0,0,0,0,0,0,0,0,0,0,0,0,0,0,0,0,0,0,0,0,0,0,0,0,0,0,0,0,0,0,0,0,0,
0,0,0,0,0,0,0,0,0,0,0,0,0,0,0,0,0,0,0,0,0,0,0,0,0,0,0,0,0,0,0,0,0,0,0,0,0,0,0,0,0,0,0,0,0,0,0,0,
0,0,0,0,0,0,0,0,0,0,0,0,0,0,5,1510,1511,1511,1512,0,0,0,0,0,0,0,0,0,0,0,0,0,0,0,0,0,0,0,0,0,0,0,0,0,0,0,0,0,
0,0,0,0,0,0,0,0,0,0,0,0,0,0,0,0,0,0,0,0,0,0,0,0,0,0,0,0,0,0,0,0,0,0,0,0,0,0,0,0,0,0,0,0,0,0,0,0,
0,0,0,0,0,0,0,0,0,0,0,0,0,0,0,0,0,0,0,0,0,0,0,0,0,0,0,0,0,0,0,0,0,0,0,0,0,0,0,0,0,0,0,0,0,0,0,0,
0,0,0,0,0,0,0,0,0,0,0,0,0,0,0,0,0,0,0,0,0,0,0,0,0,0,0,0,0,0,0,0,0,0,0,0,0,0,0,0,0,0,0,0,0,0,0,0,
0,0,0,0,0,0,0,63,64,0,0,0,0,0,0,0,0,0,0,0,0,0,0,0,0,0,0,0,0,0,0,0,0,0,0,0,0,0,0,0,0,0,0,0,0,0,0,0,
0,0,0,0,0,0,0,71,72,0,0,0,0,0,0,0,0,0,0,0,0,0,0,0,0,0,0,0,0,0,0,0,0,0,0,0,0,0,0,0,0,0,0,0,0,0,0,0,
0,0,0,0,0,0,0,0,0,0,0,0,0,0,0,0,0,0,0,0,0,0,0,0,0,0,0,0,0,0,0,63,64,0,0,0,0,0,0,0,0,0,0,0,0,0,0,0,
0,0,0,0,0,0,0,0,0,0,0,0,0,0,0,0,0,0,0,0,0,0,0,0,0,0,0,0,0,0,0,71,72,0,0,0,0,0,0,0,0,0,0,0,0,0,0,0,
0,0,0,0,0,0,0,0,0,0,0,0,0,0,0,0,0,0,0,0,0,0,0,0,0,325,0,0,319,0,0,0,0,0,0,0,0,0,0,0,0,0,0,0,0,0,0,0,
0,0,0,0,0,0,0,0,0,0,0,0,0,0,0,0,0,0,0,0,0,0,0,0,0,0,0,310,0,0,309,0,0,0,0,0,0,0,0,0,0,0,0,0,0,0,0,0,
0,0,0,0,0,0,0,0,0,0,0,0,0,0,0,0,0,0,0,0,63,64,0,0,0,0,0,318,0,0,317,0,0,0,0,0,0,0,0,0,0,0,0,0,0,0,0,0,
0,0,0,0,0,0,0,0,0,0,0,0,0,0,0,0,0,0,0,0,71,72,0,0,0,0,0,0,0,0,0,310,0,0,309,0,0,63,64,0,0,0,0,0,0,0,0,0,
0,0,0,0,0,0,0,0,0,0,0,0,0,0,0,0,0,0,0,0,0,0,0,0,0,325,0,0,319,0,0,318,0,0,317,0,0,71,72,0,0,0,0,0,0,0,0,0,
0,0,0,0,0,0,0,0,0,0,0,0,0,0,0,0,0,0,0,0,0,0,0,0,0,0,0,0,0,0,0,0,0,0,0,310,0,0,309,0,0,0,0,0,0,0,0,0,
0,0,0,0,0,0,0,0,0,0,0,0,0,0,0,0,0,0,0,0,0,0,0,0,0,0,0,0,0,0,0,0,0,0,0,318,0,0,317,0,0,0,0,0,0,0,0,0,
0,0,0,0,0,0,0,0,0,0,0,0,0,0,0,0,0,0,0,0,0,0,0,0,0,0,0,0,0,0,0,0,0,0,0,0,0,0,0,0,0,0,0,0,0,0,0,0,
0,0,0,0,0,0,0,0,0,0,0,0,0,0,0,0,0,0,0,0,0,0,0,0,0,325,0,0,319,0,0,0,0,0,0,0,0,0,0,0,0,0,0,0,0,0,0,0,
0,0,0,0,0,0,0,0,0,0,0,0,0,0,325,0,0,319,0,0,0,0,0,0,0,0,0,0,0,0,0,0,0,0,375,0,0,0,0,0,0,0,0,0,0,0,0,0,
0,0,0,0,0,0,0,0,0,0,0,0,0,0,325,0,0,319,0,0,0,0,0,0,0,0,0,0,0,0,0,0,0,0,383,0,0,0,0,0,0,0,0,0,0,0,0,0,
0,0,0,0,0,0,0,0,0,0,0,0,0,0,325,0,0,319,0,0,0,0,0,0,0,0,0,0,0,0,0,0,0,0,399,0,0,0,0,0,0,0,0,0,0,0,0,0,
0,0,0,0,0,0,0,0,0,0,0,0,0,0,325,0,0,319,0,0,0,0,0,0,0,0,0,0,0,0,0,0,0,0,407,0,0,0,0,0,0,0,0,0,0,0,0,0,
0,0,0,0,0,0,0,0,0,0,0,0,0,0,0,0,0,0,0,0,0,0,0,0,0,0,0,0,0,0,0,0,0,0,0,0,0,0,0,0,0,0,0,0,0,0,0,0,
0,0,0,0,0,0,0,0,0,0,0,0,0,0,0,0,0,0,0,0,0,0,0,0,0,0,0,0,0,0,0,0,0,0,0,0,0,0,0,0,0,0,0,0,0,0,0,0,
0,0,0,0,0,0,0,0,0,0,0,0,0,0,0,0,0,0,0,0,0,310,0,0,0,0,0,0,0,0,0,0,0,0,0,0,0,0,0,0,309,0,0,0,0,0,0,0,
0,0,0,0,0,0,0,0,0,0,0,0,0,0,0,0,0,0,0,0,0,318,0,0,0,0,0,0,0,0,0,0,0,0,0,0,0,0,0,0,317,0,0,0,0,0,0,0,
0,0,0,0,0,0,0,0,0,0,0,0,0,0,0,0,0,0,0,0,0,310,0,0,0,0,0,0,0,0,0,0,0,0,0,0,0,0,0,0,309,0,0,0,0,0,0,0,
0,0,0,0,0,0,0,0,0,0,0,0,0,0,0,0,0,0,0,0,0,318,0,0,0,0,0,0,0,0,0,0,0,0,0,0,0,0,0,0,317,0,0,0,0,0,0,0,
0,0,0,0,0,0,0,0,0,0,0,0,0,0,0,0,0,0,0,0,0,310,0,0,0,0,0,0,0,0,0,0,0,0,0,0,0,0,0,0,309,0,0,0,0,0,0,0,
0,0,0,0,0,0,0,0,0,0,0,0,0,0,0,0,0,0,0,0,0,318,0,0,0,0,0,0,0,0,0,0,0,0,0,0,0,0,0,0,317,0,0,0,0,0,0,0,
0,0,0,0,0,0,0,0,0,0,0,0,0,0,0,0,0,0,0,0,0,0,0,0,0,0,0,0,0,0,0,0,0,0,0,0,0,0,0,0,0,0,0,0,0,0,0,0,
0,0,0,0,0,0,0,0,0,0,0,0,0,0,0,0,0,0,0,325,326,328,319,0,0,0,0,0,0,0,0,0,0,0,310,311,312,311,312,311,312,311,312,311,312,311,312,311,
0,0,0,0,0,0,0,0,0,0,63,64,0,0,0,0,0,0,0,0,0,0,0,0,0,0,0,0,0,0,0,0,0,0,318,0,0,0,0,0,0,0,0,0,0,0,0,0,
0,0,0,0,0,0,0,0,0,0,71,72,0,0,0,0,0,0,0,0,0,0,0,0,0,0,0,0,0,0,0,0,0,0,310,0,0,0,0,0,0,0,0,0,0,0,0,0,
0,0,0,0,0,0,0,0,0,0,0,0,0,0,0,0,0,0,0,0,0,0,0,0,0,0,0,0,0,0,0,0,0,0,318,0,0,0,0,0,0,0,0,0,0,0,0,0,
0,0,0,0,0,0,0,0,0,0,0,0,0,0,0,0,0,0,0,0,0,0,0,0,0,0,0,0,0,0,0,0,0,0,310,0,0,0,0,0,0,0,0,0,0,0,0,0,
0,0,0,0,0,0,0,0,0,0,0,0,0,0,0,0,0,0,0,0,0,0,0,0,0,0,0,0,0,0,0,0,0,0,318,0,0,0,0,0,0,0,0,0,0,0,0,0,
0,0,0,0,0,0,0,0,0,0,0,0,0,0,0,0,0,0,0,0,0,0,0,0,0,0,0,0,0,0,0,0,0,0,310,0,0,0,0,0,0,0,0,0,0,0,0,0,
0,0,0,0,0,0,0,0,0,0,0,0,0,0,0,0,0,0,0,0,0,0,0,0,0,0,0,0,0,0,0,0,0,0,318,0,0,0,0,0,0,0,0,0,0,0,0,0,
0,0,0,0,0,0,0,0,0,0,0,0,0,0,0,0,0,0,0,0,0,0,0,0,0,0,0,0,0,0,0,0,0,0,310,0,0,0,0,0,0,0,0,0,0,0,0,0,
0,0,0,0,0,0,0,0,0,0,0,0,0,0,0,0,0,0,0,0,0,0,0,0,0,0,0,0,0,0,0,0,0,0,318,0,0,0,0,0,0,0,0,0,0,0,0,0,
0,0,0,0,0,0,0,0,0,0,0,0,0,0,0,0,0,0,0,0,0,0,0,0,0,0,0,0,0,0,0,0,0,0,310,0,0,0,0,0,0,0,0,0,0,0,0,0,
0,0,0,0,0,0,0,0,0,0,0,0,0,0,0,0,0,0,0,0,0,0,0,0,0,0,0,0,0,0,0,0,0,0,318,0,0,0,0,0,0,0,0,0,0,0,0,0,
0,0,0,0,0,0,0,0,0,0,0,0,0,0,0,0,0,0,0,0,0,0,0,0,0,0,0,0,0,0,0,0,0,0,310,0,0,0,0,0,0,0,0,0,0,0,0,0,
0,0,0,0,0,0,0,0,0,0,0,0,0,0,0,0,0,0,0,0,0,0,0,0,0,0,0,0,0,0,0,0,0,0,318,0,0,0,0,0,0,0,0,0,0,0,0,0,
0,0,0,0,0,0,0,0,0,0,0,0,0,0,0,0,0,0,0,0,0,0,0,0,0,0,0,0,0,0,0,0,0,0,310,0,0,0,0,0,0,0,0,0,0,0,0,0,
0,0,0,0,0,0,0,0,0,0,0,0,0,0,0,0,0,0,0,0,0,0,0,0,0,0,0,0,0,0,0,0,0,0,318,0,0,0,0,0,0,0,0,0,0,0,0,0,
0,0,0,0,0,0,0,0,0,0,0,0,0,0,0,0,0,0,0,0,0,0,0,0,0,0,0,0,0,0,0,0,0,0,310,0,0,0,0,0,0,0,0,0,0,0,0,0,
0,0,0,0,0,0,0,0,0,0,0,0,0,0,0,0,0,0,0,0,0,0,0,0,0,0,0,0,0,0,0,0,0,0,318,0,0,0,0,0,0,0,0,0,0,0,0,0,
0,0,0,0,0,0,0,0,0,0,0,0,0,0,0,0,0,0,0,0,0,0,0,0,0,0,0,0,0,0,0,0,0,0,310,0,0,0,0,0,0,0,0,0,0,0,0,0,
0,0,0,0,0,0,0,0,0,0,0,0,0,0,0,0,0,0,0,0,0,0,0,0,0,0,0,0,0,0,0,0,0,0,318,0,0,0,0,0,0,0,0,0,0,0,0,0,
0,0,0,0,0,0,0,0,0,0,0,0,0,0,0,0,0,0,0,0,0,0,0,0,0,0,0,0,0,0,0,0,0,0,310,0,0,0,0,0,0,0,0,0,0,0,0,0,
0,0,0,0,0,0,0,0,0,0,0,0,0,0,0,0,0,0,0,0,0,0,0,0,0,0,0,0,0,0,0,0,0,0,318,0,0,0,0,0,0,0,0,0,0,0,0,0,
0,0,0,0,0,0,0,0,0,0,0,0,0,0,0,0,310,0,0,0,0,0,0,0,0,0,0,0,0,0,0,309,0,0,310,0,0,0,0,0,0,0,0,0,0,0,0,0,
0,0,0,0,0,0,0,0,0,0,0,0,0,0,0,0,318,0,0,0,0,0,0,0,0,0,0,0,0,0,0,317,0,0,318,0,0,0,0,0,0,0,0,0,0,0,0,0,
0,0,0,0,0,0,0,0,0,0,0,0,0,0,0,0,310,0,0,0,0,0,0,0,0,0,0,0,0,0,0,309,0,0,310,0,0,0,0,0,0,0,0,0,0,0,0,0,
0,0,0,0,0,0,0,0,0,0,0,0,0,0,0,0,318,0,0,0,0,0,0,0,0,0,0,0,0,0,0,317,0,0,318,0,0,0,0,0,0,0,0,0,0,0,0,0,
0,0,0,0,0,0,0,0,0,0,0,0,0,0,0,0,0,0,0,0,310,0,0,0,0,0,0,0,0,0,0,309,0,0,310,0,0,0,0,0,0,0,0,0,0,0,0,0,
0,0,0,0,0,0,0,0,0,0,0,0,0,0,0,0,0,0,0,0,318,0,0,0,0,0,0,0,0,0,0,317,0,0,318,0,0,0,0,0,0,0,0,0,0,0,0,0,
0,0,0,0,0,0,0,0,0,0,0,0,0,0,0,0,0,0,0,0,310,0,0,0,0,0,0,0,0,0,0,309,0,0,310,0,0,0,0,0,0,0,0,0,0,0,0,0,
0,0,0,0,0,0,0,0,0,0,0,0,0,0,0,0,0,0,0,0,318,0,0,0,0,0,0,0,0,0,0,317,0,0,318,0,0,0,0,0,0,0,0,0,0,0,0,0,
0,0,0,0,0,0,0,0,0,0,0,0,0,0,0,0,0,0,0,0,310,0,0,0,0,0,0,0,0,0,0,309,0,0,310,0,0,0,0,0,0,0,0,0,0,0,0,0,
0,0,0,0,0,0,0,0,0,0,0,0,0,0,0,0,0,0,0,0,318,0,0,0,0,0,0,0,0,0,0,317,0,0,318,0,0,0,0,0,0,0,0,0,0,0,0,0,
0,0,0,0,0,0,0,0,0,0,0,0,0,0,0,0,0,0,0,0,310,0,0,0,0,0,0,0,0,0,0,309,0,0,310,0,0,0,0,0,0,0,0,0,0,0,0,0,
0,0,0,0,0,0,0,0,0,0,0,0,0,0,0,0,0,0,0,0,318,0,0,0,0,0,0,0,0,0,0,317,0,0,318,0,0,0,0,0,0,0,0,0,0,0,0,0,
0,0,0,0,0,0,0,0,0,0,0,0,0,0,310,0,0,0,0,0,0,0,0,0,0,0,0,0,0,0,0,309,0,0,310,0,0,0,0,0,0,0,0,0,0,0,0,0,
0,0,0,0,0,0,0,0,0,0,0,0,0,0,318,0,0,0,0,0,0,0,0,0,0,0,0,0,0,0,0,317,0,0,318,0,0,0,0,0,0,0,0,0,0,0,0,0,
0,0,0,0,0,0,0,0,0,0,0,0,0,0,310,0,0,0,0,0,0,0,0,0,0,0,0,0,0,0,0,309,0,0,310,0,0,0,0,0,0,0,0,0,0,0,0,0,
0,0,0,0,0,0,0,0,0,0,0,0,0,0,318,0,0,0,0,0,0,0,0,0,0,0,0,0,0,0,0,317,0,0,318,0,0,0,0,0,0,0,0,0,0,0,0,0,
0,0,0,0,0,0,0,0,0,0,0,0,0,0,310,0,0,0,0,0,0,0,0,0,0,0,0,0,0,0,0,309,0,0,310,0,0,0,0,0,0,0,0,0,0,0,0,0,
0,0,0,0,0,0,0,0,0,0,0,0,0,0,318,0,0,0,0,0,0,0,0,0,0,0,0,0,0,0,0,317,0,0,318,0,0,0,0,0,0,0,0,0,0,0,0,0,
0,0,0,0,0,0,0,0,0,0,0,0,0,0,0,0,0,0,0,0,0,0,0,0,0,0,0,0,0,0,0,0,0,0,310,0,0,0,0,0,0,0,0,0,0,0,0,0,
0,0,0,0,0,0,0,0,0,0,0,325,326,328,319,0,0,0,0,0,0,0,0,0,0,0,0,0,0,0,0,0,0,0,318,0,0,0,0,0,0,0,0,0,0,0,0,0,
0,0,0,0,0,0,0,0,0,0,0,325,326,328,319,0,0,0,0,0,0,0,0,0,0,0,0,0,0,0,0,0,0,0,310,0,0,0,0,0,0,0,0,0,0,0,0,0,
0,0,0,0,0,0,0,0,0,0,0,0,0,0,0,0,0,0,0,0,0,0,0,0,0,0,0,0,0,0,0,0,0,0,318,0,0,0,0,0,0,0,0,0,0,0,0,0,
0,0,0,0,0,0,0,0,0,0,0,0,0,0,0,0,0,0,0,0,0,0,0,0,0,0,0,0,0,0,0,0,0,0,310,0,0,0,0,0,0,0,0,0,0,0,0,0,
0,0,0,0,0,0,0,0,0,0,0,0,0,0,0,0,0,0,0,0,0,0,0,0,0,0,0,0,0,0,0,0,0,0,318,0,0,0,0,0,0,0,0,0,0,0,0,0,
0,0,63,64,0,0,0,0,0,0,0,0,0,0,0,0,0,0,0,0,0,0,0,0,310,0,0,0,0,0,0,0,0,0,0,0,0,0,0,0,0,0,0,0,0,0,0,0,
0,0,71,72,0,0,0,0,0,0,0,0,0,0,0,0,0,0,0,0,0,0,0,0,318,0,0,0,0,0,0,0,0,0,0,0,0,0,0,0,0,0,0,0,0,0,0,0,
0,0,0,0,0,0,0,0,0,0,0,0,0,0,0,0,0,0,0,0,0,0,0,0,310,0,0,0,0,0,0,0,0,0,0,0,0,0,0,0,0,0,0,0,0,0,0,0,
0,0,0,0,0,0,0,0,0,0,0,0,0,0,0,0,0,0,0,0,0,0,0,0,318,0,0,0,0,0,0,0,0,0,0,0,0,0,0,0,0,0,0,0,0,0,0,0,
0,0,0,0,0,0,0,0,0,0,0,0,0,0,0,0,0,0,0,0,0,0,0,0,310,0,0,0,0,0,0,0,0,0,0,0,0,0,0,0,0,0,0,0,0,0,0,0,
0,0,0,0,0,0,0,0,0,0,0,0,0,0,0,0,0,0,0,0,0,0,0,0,318,0,0,0,0,0,0,0,0,0,0,0,0,0,0,0,0,0,0,0,0,0,0,0,
0,0,0,0,0,0,0,0,0,0,0,0,0,0,0,0,0,0,0,0,0,0,0,0,0,0,0,0,0,0,0,0,0,0,0,0,0,0,0,0,0,0,0,0,0,0,0,0,
0,0,0,0,0,0,0,0,0,0,0,0,0,0,0,0,0,0,0,0,0,0,0,0,0,0,0,0,0,0,0,0,0,0,0,0,0,0,0,0,0,0,0,0,0,0,0,0,
0,0,0,0,0,0,0,0,0,0,0,0,0,0,0,0,0,0,0,0,0,0,0,0,0,0,0,0,0,0,0,0,0,0,0,0,0,0,0,0,0,0,0,0,0,0,0,0,
0,0,0,0,0,0,0,0,0,0,0,0,0,0,0,0,0,0,0,0,0,0,0,0,0,0,0,0,0,0,0,0,0,0,0,0,0,0,0,0,0,0,0,0,0,0,0,0,
0,63,64,0,0,0,0,0,0,0,0,0,0,0,0,0,0,0,0,0,0,0,0,0,0,0,0,0,0,0,0,0,0,0,0,0,0,0,0,0,0,0,0,0,0,0,0,0,
0,71,72,0,0,0,0,0,0,0,0,0,0,0,0,0,0,0,0,0,0,0,0,0,0,0,0,0,0,0,0,0,0,0,0,0,0,0,0,0,0,0,0,0,0,0,0,0,
0,0,0,0,0,0,63,64,0,0,0,0,0,0,0,0,0,0,0,612,614,0,0,0,0,0,0,0,0,0,0,0,0,0,0,0,0,0,0,0,0,0,0,0,0,0,0,0,
0,0,0,0,0,0,71,72,0,0,0,0,0,0,0,0,0,0,0,612,614,0,0,0,0,0,0,0,0,0,0,0,0,0,0,0,0,0,0,0,0,0,0,0,0,0,0,0,
0,0,0,0,0,0,0,0,0,0,0,0,0,0,0,0,0,0,0,612,614,0,0,0,0,0,0,0,0,0,0,0,0,0,0,0,0,0,0,0,0,0,0,0,0,0,0,0,
0,0,0,0,0,0,0,0,0,0,0,0,0,0,0,0,0,0,0,612,614,0,0,0,0,0,0,0,0,0,0,0,0,0,0,0,0,0,0,0,0,0,0,0,0,0,0,0,
0,0,0,0,0,0,0,0,0,0,0,0,0,0,0,0,0,0,0,612,614,0,0,0,0,0,0,0,0,0,0,0,0,0,0,0,0,0,0,0,0,0,0,0,0,0,0,0,
0,0,0,0,0,0,0,0,0,0,0,0,0,0,640,640,640,0,0,0,0,0,0,0,0,0,0,0,0,0,0,0,0,0,0,0,0,0,0,0,0,0,0,0,0,0,0,0,
0,0,0,0,0,0,0,0,0,0,0,0,0,0,656,656,656,0,0,0,0,0,0,0,0,0,0,0,0,0,0,0,0,0,0,0,0,0,0,0,0,0,0,0,0,0,0,0,
0,0,0,0,0,0,0,0,0,0,0,0,0,0,0,0,0,0,0,0,0,0,0,0,0,0,0,0,0,0,0,0,0,0,0,0,0,0,0,0,0,0,0,0,0,0,0,0,
0,0,0,0,0,0,0,0,0,0,0,0,0,0,0,0,0,0,0,0,0,0,0,0,0,0,0,0,0,0,0,0,0,0,0,0,0,0,0,0,0,0,0,0,0,0,0,0,
0,0,0,0,0,0,0,0,0,0,0,0,0,0,0,0,0,0,0,0,0,0,0,0,0,0,0,0,0,0,0,0,0,0,0,0,0,0,0,0,0,0,0,0,0,0,0,0,
0,0,0,0,0,0,0,0,0,0,0,0,0,0,0,0,0,0,0,0,0,0,0,0,0,0,0,0,0,0,0,0,0,0,0,0,0,0,0,0,0,0,0,0,0,0,0,0,
0,0,0,0,0,0,0,0,0,0,0,0,0,0,0,0,0,0,0,0,0,0,0,0,0,0,0,0,0,0,0,0,0,0,0,0,0,0,0,0,0,0,0,0,0,0,0,0,
0,0,0,0,0,0,0,0,0,0,0,0,0,0,0,0,0,0,0,0,0,0,0,0,0,0,0,0,0,0,0,0,0,0,0,0,0,0,0,0,0,0,0,0,0,0,0,0,
0,0,0,0,0,0,0,0,0,0,0,0,0,0,0,0,0,0,0,0,0,0,0,0,0,0,0,0,0,0,0,0,0,0,0,0,0,0,0,0,0,0,0,0,0,0,0,0,
0,0,0,0,0,0,0,0,0,0,0,0,0,0,0,0,0,0,0,0,0,0,0,0,0,0,0,0,0,0,0,0,0,0,0,0,0,0,0,0,0,0,0,0,0,0,0,0,
0,0,0,0,0,0,0,0,0,0,0,0,0,0,0,0,0,0,0,0,0,0,0,0,0,0,0,0,0,0,0,0,0,0,0,0,0,0,0,0,0,0,0,0,0,0,0,0,
0,0,0,0,0,0,0,0,0,0,0,0,0,0,0,0,0,0,0,0,0,0,0,0,0,0,0,0,0,0,0,0,0,0,0,0,0,0,0,0,0,0,0,0,0,0,0,0,
0,0,0,0,0,0,0,0,0,0,0,0,0,0,0,0,0,0,0,0,0,0,0,0,0,0,0,0,0,0,0,0,0,0,0,0,0,0,0,0,0,0,0,0,0,0,0,0,
0,0,0,0,0,0,0,0,0,0,0,0,0,0,0,0,0,0,0,0,0,0,0,0,0,0,0,0,0,0,0,0,0,0,0,0,0,0,0,0,0,0,0,0,0,0,0,0,
0,0,0,0,0,0,0,0,0,0,0,0,0,0,0,0,0,0,0,0,0,0,0,0,0,0,0,0,0,0,0,0,0,0,0,0,0,0,0,0,0,0,0,0,0,0,0,0,
0,0,0,0,0,0,0,0,0,0,0,0,0,0,0,0,0,0,0,0,0,0,0,0,0,0,0,0,0,0,0,0,0,0,0,0,0,0,0,0,0,0,0,0,0,0,0,0,
0,0,0,0,0,0,0,0,0,0,0,0,0,0,0,0,0,0,0,0,0,0,0,0,0,0,0,0,0,0,0,0,0,0,0,0,0,0,0,0,0,0,0,0,0,0,0,0,
0,0,0,0,0,0,0,0,0,0,0,0,0,0,0,0,0,0,0,0,0,0,0,0,0,0,0,0,0,0,0,0,0,0,0,0,0,0,0,0,0,0,0,0,0,0,0,0
  </data>
 </layer>
 <objectgroup id="4" name="events"/>
</map>
