<?xml version="1.0" encoding="UTF-8"?>
<map version="1.10" tiledversion="1.10.2" orientation="orthogonal" renderorder="right-down" compressionlevel="0" width="26" height="67" tilewidth="32" tileheight="32" infinite="0" nextlayerid="4" nextobjectid="1">
 <tileset firstgid="1" source="RMXP-KANTO50S_OUT.tsx"/>
 <tileset firstgid="2225" source="RMXP-auto-hgss-sea.tsx"/>
 <tileset firstgid="2273" source="RMXP-auto-noanimsea.tsx"/>
 <tileset firstgid="2321" source="RMXP-auto-a-beach.tsx"/>
 <tileset firstgid="2369" source="RMXP-auto-a-flowred.tsx"/>
 <tileset firstgid="2417" source="RMXP-auto-a-flow.tsx"/>
 <tileset firstgid="2465" source="RMXP-auto-land2-2.tsx"/>
 <tileset firstgid="2513" source="RMXP-auto-still.tsx"/>
 <layer id="1" name="lower" width="26" height="67">
  <data encoding="csv">
4,4,4,4,4,4,4,4,4,4,4,4,4,4,4,4,4,4,4,4,4,4,4,4,4,4,
4,4,4,4,4,4,4,4,4,4,4,4,4,4,4,4,4,4,4,4,4,4,4,6,4,4,
4,4,4,4,4,4,4,4,4,4,4,4,4,4,4,4,4,4,4,4,4,4,4,4,4,4,
4,4,4,4,4,4,4,4,4,4,4,4,4,4,4,4,4,4,4,4,4,4,4,6,4,4,
4,4,4,4,4,4,4,4,4,4,4,4,4,4,4,4,4,4,4,4,4,4,4,6,4,4,
4,4,4,4,4,4,4,4,4,4,4,4,4,4,4,4,4,4,4,4,4,4,4,6,4,4,
4,4,4,4,4,4,4,4,4,4,4,4,4,4,4,4,4,4,4,4,4,4,4,6,4,4,
4,4,4,4,4,4,4,3,4,4,4,4,4,4,4,4,4,4,4,4,4,4,4,4,4,4,
4,4,4,4,4,4,4,5,7,7,7,7,7,7,7,7,7,7,7,7,7,7,7,7,7,7,
4,4,4,4,4,4,4,3,7,7,7,7,7,7,7,7,7,7,7,7,7,7,7,7,7,7,
4,4,4,4,4,4,4,6,7,7,7,7,7,7,7,7,7,7,7,7,7,7,7,7,7,7,
4,4,4,4,4,4,4,3,7,7,7,7,7,7,7,7,7,7,7,7,7,7,7,7,7,7,
4,4,4,4,4,4,4,6,7,7,7,7,7,7,7,7,7,7,7,7,7,7,7,7,7,7,
4,4,4,4,4,4,4,3,7,7,7,7,7,7,7,7,7,7,7,7,7,7,7,7,7,7,
4,4,4,4,4,4,4,6,7,7,7,7,7,7,3,3,3,3,3,7,7,7,7,7,7,7,
4,4,4,4,4,4,4,3,7,3,7,7,7,3,154,155,156,3,4,3,4,7,7,7,3,7,
4,4,4,4,4,4,4,6,7,7,7,7,7,5,162,163,164,3,6,6,6,6,6,6,7,7,
4,4,4,4,4,4,4,3,7,7,7,7,4,3,162,163,164,5,4,4,4,4,4,6,4,4,
4,4,4,4,4,4,4,5,7,7,7,7,3,2,162,163,164,5,4,4,4,4,4,6,73,74,
4,4,4,4,4,4,4,3,4,4,4,4,4,3,162,163,164,5,4,4,4,4,4,6,81,2307,
4,4,4,4,4,4,4,3,4,4,4,4,4,6,162,163,164,5,4,4,4,4,4,6,81,2289,
4,4,4,4,4,4,4,3,7,7,7,7,4,4,162,163,164,5,4,4,4,4,4,6,81,2289,
4,4,4,4,4,4,4,3,7,7,7,7,4,4,162,163,164,5,4,4,4,4,4,6,81,2289,
4,4,40,32,40,32,4,3,7,7,4,7,4,4,162,163,164,5,4,4,4,4,4,6,81,2289,
4,4,32,40,32,40,4,3,7,7,7,7,4,4,162,163,164,5,4,4,4,4,4,4,81,2289,
4,4,40,32,40,32,4,3,7,7,7,7,4,4,162,163,164,5,73,74,74,74,74,75,81,2289,
4,4,32,40,32,40,4,3,7,7,7,7,4,4,162,163,164,5,81,2307,2293,2293,2309,77,76,2289,
4,4,40,32,40,32,4,3,4,3,4,2,4,4,162,163,164,5,81,2289,2273,2273,2275,2293,2293,2274,
4,4,32,40,32,40,4,3,3,3,3,3,4,4,162,163,164,5,81,2289,2273,2273,2273,2273,2273,2273,
4,4,40,32,40,32,4,3,4,154,155,156,4,4,162,163,164,5,81,2289,2273,2273,2273,2273,2273,2273,
4,4,32,40,32,40,4,5,5,162,163,164,4,4,162,163,164,5,81,2313,2301,2301,2301,2281,2273,2273,
4,4,266,267,267,267,268,4,4,162,163,164,4,4,162,163,164,5,89,90,90,90,84,2289,2273,2273,
4,4,282,283,283,283,284,4,5,162,163,164,4,4,162,163,164,5,5,4,5,4,81,2289,2273,2273,
4,4,266,267,267,267,268,5,4,162,163,164,4,4,162,163,164,3,6,6,6,5,81,2289,2273,2273,
4,4,282,283,283,283,284,4,6,162,163,164,4,4,162,163,164,3,4,3,4,5,81,2289,2273,2273,
4,4,266,267,267,267,268,4,5,162,163,164,4,4,162,163,164,5,7,7,7,4,81,2289,2273,2273,
4,4,282,283,283,283,284,4,6,162,163,164,4,4,162,163,164,3,7,7,7,5,81,2289,2273,2273,
4,4,266,267,267,267,268,5,4,162,163,164,5,6,162,163,164,5,7,7,7,5,81,2289,2273,2273,
4,4,282,283,283,283,284,4,5,162,163,164,6,3,162,163,164,4,7,7,7,4,81,2289,2273,2273,
4,4,4,4,4,4,4,5,6,162,163,164,4,4,162,163,164,5,7,7,7,5,81,2289,2273,2273,
5,4,154,155,155,155,155,155,155,166,163,164,4,4,162,163,164,4,7,7,7,4,81,2289,2273,2273,
4,5,162,163,163,163,163,163,163,163,163,164,4,4,162,163,164,5,7,7,7,5,81,2289,2273,2273,
4,5,170,171,171,171,171,171,171,171,171,172,4,4,162,163,164,4,7,7,7,4,81,2289,2273,2273,
5,4,4,4,4,4,4,5,5,4,5,5,4,4,162,163,164,5,7,7,7,5,81,2289,2273,2273,
4,4,5,4,5,4,4,5,4,5,5,4,4,4,162,163,164,3,7,7,7,5,81,2289,2273,2273,
5,4,4,5,5,4,5,4,5,4,4,5,4,4,162,163,164,4,7,7,7,4,81,2289,2273,2273,
4,5,5,4,4,5,4,4,4,5,4,5,4,5,162,163,164,3,7,7,7,5,81,2289,2273,2273,
155,155,155,155,155,155,155,155,155,155,155,155,155,155,166,163,164,5,7,7,7,4,81,2289,2273,2273,
163,163,163,163,163,163,163,163,163,163,163,163,163,163,163,163,164,4,3,3,2,4,81,2289,2273,2273,
171,171,171,171,171,171,171,171,171,171,171,171,171,171,171,171,172,3,6,5,5,5,81,2289,2273,2273,
4,4,4,4,3,4,4,4,4,4,4,4,3,4,4,4,4,4,4,3,2,5,81,2289,2273,2273,
4,3,4,4,3,4,3,4,3,4,4,3,4,4,3,4,4,4,3,4,3,4,81,2289,2273,2273,
4,4,4,4,4,4,4,4,4,4,4,4,4,4,4,4,4,4,4,4,4,3,81,2289,2273,2273,
0,0,0,0,0,0,0,0,0,0,0,0,0,0,0,0,0,0,0,4,4,4,81,2289,2273,2273,
0,0,0,0,0,0,0,0,0,0,0,0,0,0,0,0,0,0,0,4,4,4,81,2289,2273,2273,
0,0,0,0,0,0,0,0,0,0,0,0,0,0,0,0,0,0,0,0,0,0,81,2289,2273,2273,
0,0,0,0,0,0,0,0,0,0,0,0,0,0,0,0,0,0,0,0,0,0,81,2289,2273,2273,
0,0,0,0,0,0,0,0,0,0,0,0,0,0,0,0,0,0,0,0,0,0,81,2289,2273,2273,
0,0,0,0,0,0,0,0,0,0,0,0,0,0,0,0,0,0,0,0,0,0,81,2289,2273,2273,
0,0,0,0,0,0,0,0,0,0,0,0,0,0,0,0,0,0,0,0,0,0,81,2289,2273,2273,
0,0,0,0,0,0,0,0,0,0,0,0,0,0,0,0,0,0,0,0,0,0,81,2289,2273,2273,
0,0,0,0,0,0,0,0,0,0,0,0,0,0,0,0,0,0,0,0,0,0,81,2289,2273,2273,
0,0,0,0,0,0,0,0,0,0,0,0,0,0,0,0,0,0,0,0,0,0,81,2289,2273,2273,
0,0,0,0,0,0,0,0,0,0,0,0,0,0,0,0,0,0,0,0,0,0,81,2289,2273,2273,
0,0,0,0,0,0,0,0,0,0,0,0,0,0,0,0,0,0,0,0,0,0,81,2289,2273,2273,
0,0,0,0,0,0,0,0,0,0,0,0,0,0,0,0,0,0,0,0,0,0,81,2289,2273,2273,
0,0,0,0,0,0,0,0,0,0,0,0,0,0,0,0,0,0,0,0,0,0,81,2289,2273,2273
  </data>
 </layer>
 <layer id="2" name="middle" width="26" height="67">
  <data encoding="csv">
491,490,491,490,491,490,491,490,491,490,491,490,491,490,491,490,491,490,491,490,491,490,491,490,491,490,
499,498,499,498,499,498,499,498,499,498,499,498,499,498,499,498,499,498,499,498,499,498,499,498,499,498,
491,490,491,490,491,490,491,490,491,490,491,490,491,490,491,490,491,490,491,490,491,490,491,490,491,490,
499,498,499,498,499,498,499,498,499,498,499,498,499,498,499,498,499,498,499,498,499,498,499,498,499,498,
491,490,491,490,491,490,491,490,491,490,491,490,491,490,491,490,491,490,491,490,491,490,491,490,491,490,
499,498,499,498,499,498,499,498,499,498,499,498,499,498,499,498,499,498,499,498,499,498,499,498,499,498,
491,490,491,490,491,490,491,492,507,506,507,506,507,506,507,506,507,506,507,506,507,506,507,506,507,508,
499,498,499,498,499,498,499,500,1334,1334,1334,1334,1334,1334,1334,1334,1334,1334,1334,1334,1334,1334,1334,1334,1334,1334,
491,490,491,490,491,490,491,492,0,0,0,0,0,0,0,0,0,0,0,0,0,0,0,0,0,0,
499,498,499,498,499,498,499,500,0,0,0,0,0,0,0,0,0,0,0,0,0,0,0,0,0,0,
491,490,491,490,491,490,491,492,0,0,0,0,0,0,0,0,0,0,0,0,0,0,0,0,0,0,
499,498,499,498,499,498,499,500,0,0,0,0,0,0,0,0,0,0,0,0,0,0,0,0,0,0,
491,490,491,490,491,490,491,492,0,0,0,0,0,0,0,0,0,0,0,0,0,0,0,0,0,0,
499,498,499,498,499,498,499,500,0,0,0,0,0,0,0,0,0,0,0,0,0,0,0,0,0,0,
491,490,491,490,491,490,491,492,0,0,0,0,0,0,0,0,0,954,0,0,0,0,0,0,0,0,
499,498,499,498,499,498,499,500,0,0,0,0,0,0,0,0,0,0,0,0,0,0,0,0,0,0,
491,490,491,490,491,490,491,492,0,0,0,0,0,0,0,0,0,1318,1334,1334,1334,1334,1334,1334,0,0,
499,498,499,498,499,498,499,500,0,0,0,0,0,0,0,0,0,1325,497,498,499,498,499,500,686,687,
491,490,491,490,491,490,491,490,517,518,517,518,517,518,0,0,0,1325,489,490,491,490,491,492,0,0,
499,498,499,498,499,498,499,498,499,498,499,498,499,500,0,0,0,1325,497,498,499,498,499,500,0,0,
491,490,491,490,491,490,491,492,507,508,507,508,491,492,0,0,0,1325,489,490,491,490,491,492,0,0,
499,498,499,498,499,498,499,500,0,0,0,0,499,500,0,0,0,1325,497,498,499,498,499,500,0,0,
507,508,507,508,507,508,489,492,0,0,0,0,491,492,0,0,0,1325,489,490,491,490,491,492,0,0,
0,1316,0,0,0,0,497,500,0,0,0,0,499,500,0,0,0,1325,497,498,499,498,499,500,0,0,
497,500,0,0,0,0,489,492,0,0,0,0,491,492,0,0,0,1325,507,508,507,508,507,508,0,0,
489,492,0,0,0,0,497,500,0,0,0,0,499,500,0,0,0,1325,0,0,0,0,0,0,0,0,
497,500,0,0,0,0,489,492,0,0,0,0,491,492,0,0,0,1325,0,0,0,0,0,0,0,0,
489,492,0,0,0,0,497,500,0,0,0,0,499,500,0,0,0,1325,0,0,0,0,0,0,0,0,
497,500,0,0,0,0,489,492,0,811,829,815,491,492,0,0,0,1325,0,0,0,0,0,0,0,0,
489,492,0,0,0,0,497,500,0,0,0,0,499,500,0,0,0,1325,0,0,0,0,0,0,0,0,
497,500,0,0,0,0,507,508,0,0,0,0,491,492,0,0,0,1325,0,0,0,0,0,0,0,0,
489,492,0,0,0,0,0,0,0,0,0,0,499,500,0,0,0,1325,0,0,0,0,0,0,0,0,
497,500,0,0,0,0,0,1325,0,0,0,0,491,492,0,0,0,1325,0,0,0,0,0,0,0,0,
489,492,0,0,0,0,0,1325,0,0,0,0,499,500,0,0,0,1326,1334,1334,1334,1317,0,0,0,0,
497,500,0,0,0,0,0,1325,0,0,0,0,491,492,0,0,0,0,0,0,0,1325,0,0,0,0,
489,492,0,0,0,0,0,1325,0,0,0,0,499,500,0,0,0,0,0,0,0,1325,0,0,0,0,
497,500,0,0,0,0,0,1325,0,0,0,0,491,492,0,0,0,0,0,0,0,1325,0,0,0,0,
507,508,0,0,0,0,0,1325,0,0,0,0,499,500,0,0,0,0,0,0,0,1325,0,0,0,0,
0,0,0,0,0,0,0,1325,0,0,0,0,507,508,0,0,0,0,0,0,0,1325,0,0,0,0,
476,0,1334,1334,1334,1334,1334,1333,0,0,0,0,0,0,0,0,0,0,0,0,0,1325,0,0,0,0,
0,0,0,0,0,0,0,0,0,0,0,0,517,518,0,0,0,0,0,0,0,1325,0,0,0,0,
0,0,0,0,0,0,0,0,0,0,0,0,499,500,0,0,0,0,0,0,0,1325,0,0,0,0,
0,0,0,0,0,0,0,0,0,0,0,0,491,492,0,0,0,0,0,0,0,1325,0,0,0,0,
0,823,1334,1334,1334,1334,1334,1334,0,0,0,0,499,500,0,0,0,0,0,0,0,1325,0,0,0,0,
829,830,0,0,0,0,0,0,0,0,0,0,491,492,0,0,0,0,0,0,0,1325,0,0,0,0,
0,0,0,0,0,0,0,0,0,0,0,0,499,500,0,0,0,0,0,0,0,1325,0,0,0,0,
0,0,0,0,0,0,0,0,0,0,0,0,507,508,0,0,0,0,0,0,0,1325,0,0,0,0,
0,0,0,0,0,0,0,0,0,0,0,0,0,0,0,0,0,0,0,0,0,1325,0,0,0,0,
0,0,0,0,0,0,0,0,0,0,0,0,0,0,0,0,0,0,0,0,0,1325,0,0,0,0,
0,0,0,0,0,0,0,0,0,0,0,0,0,0,0,0,0,0,0,0,0,1325,0,0,0,0,
1334,1334,1334,1334,1334,1334,1334,1334,1334,1334,1334,1334,1334,1334,1334,1334,1334,1334,1334,1334,1334,1333,0,0,0,0,
517,518,517,518,517,518,517,518,517,518,517,518,517,518,517,518,517,0,517,518,0,924,0,0,0,0,
499,498,499,498,499,498,499,498,499,498,499,498,499,498,499,498,499,498,499,500,924,0,0,0,0,0,
491,490,491,490,491,490,491,490,491,490,491,490,491,490,491,490,491,490,491,490,517,518,0,0,0,0,
499,498,499,498,499,498,499,498,499,498,499,498,499,498,499,498,499,498,499,498,499,500,501,0,0,0,
491,490,491,490,491,490,491,490,491,490,491,490,491,490,491,490,491,490,491,490,491,492,0,0,0,0,
499,498,499,498,499,498,499,498,499,498,499,498,499,498,499,498,499,498,499,498,499,500,0,0,0,0,
491,490,491,490,491,490,491,490,491,490,491,490,491,490,491,490,491,490,491,490,491,492,0,0,0,0,
499,498,499,498,499,498,499,498,499,498,499,498,499,498,499,498,499,498,499,498,499,500,0,0,0,0,
491,490,491,490,491,490,491,490,491,490,491,490,491,490,491,490,491,490,491,490,491,492,1334,0,0,0,
499,498,499,498,499,498,499,498,499,498,499,498,499,498,499,498,499,498,499,498,499,500,0,0,0,0,
491,490,491,490,491,490,491,490,491,490,491,490,491,490,491,490,491,490,491,490,491,492,0,0,0,0,
499,498,499,498,499,498,499,498,499,498,499,498,499,498,499,498,499,498,499,498,499,500,0,0,0,0,
491,490,491,490,491,490,491,490,491,490,491,490,491,490,491,490,491,490,491,490,491,492,0,0,0,0,
499,498,499,498,499,498,499,498,499,498,499,498,499,498,499,498,499,498,499,498,499,500,0,0,0,0,
491,490,491,490,491,490,491,490,491,490,491,490,491,490,491,490,491,490,491,490,491,492,0,0,0,0,
499,498,499,498,499,498,499,498,499,498,499,498,499,498,499,498,499,498,499,498,499,500,0,0,0,0
  </data>
 </layer>
 <layer id="3" name="upper" width="26" height="67">
  <data encoding="csv">
0,0,0,0,0,0,0,0,0,0,0,0,0,0,0,0,0,0,0,0,0,0,0,0,0,0,
0,0,0,0,0,0,0,0,0,0,0,0,0,0,0,0,0,0,0,0,0,0,0,0,0,0,
0,0,0,0,0,0,0,0,0,0,0,0,0,0,0,0,0,0,0,0,0,0,0,0,0,0,
0,0,0,0,0,0,0,0,0,0,0,0,0,0,0,0,0,0,0,0,0,0,0,0,0,0,
0,0,0,0,0,0,0,0,0,0,0,0,0,0,0,0,0,0,0,0,0,0,0,0,0,0,
0,0,0,0,0,0,0,0,0,0,0,0,0,0,0,0,0,0,0,0,0,0,0,0,0,0,
0,0,0,0,0,0,0,0,501,0,0,0,0,0,0,0,0,0,0,0,0,0,0,0,0,0,
0,0,0,0,0,0,0,0,509,0,0,0,0,0,0,0,0,0,0,0,0,0,0,0,0,0,
0,0,0,0,0,0,0,0,501,0,0,0,0,0,0,0,0,0,0,0,0,0,0,0,0,0,
0,0,0,0,0,0,0,0,509,0,0,0,0,0,0,0,0,0,0,0,0,0,0,0,0,0,
0,0,0,0,0,0,0,0,501,0,0,0,0,0,0,0,0,0,0,0,0,0,0,0,0,0,
0,0,0,0,0,0,0,0,509,0,0,0,0,0,0,0,0,0,0,0,0,0,0,0,0,0,
0,0,0,0,0,0,0,0,501,0,0,0,0,0,0,0,0,0,0,0,0,0,0,0,0,0,
0,0,0,0,0,0,0,0,509,0,0,0,0,0,0,0,0,0,0,0,0,0,0,0,0,0,
0,0,0,0,0,0,0,0,501,0,0,0,0,0,0,0,0,0,0,0,0,0,0,0,0,0,
0,0,0,0,0,0,0,0,509,0,0,0,0,0,0,0,0,0,0,0,0,0,0,0,0,0,
0,0,0,0,0,0,0,0,501,0,0,0,0,0,0,0,0,502,517,518,517,518,517,518,501,0,
0,0,0,0,0,0,0,0,509,0,0,0,0,0,0,0,0,510,0,0,0,502,0,0,509,0,
0,0,0,0,0,0,0,0,0,0,0,0,0,0,501,0,0,502,0,0,0,0,0,0,501,0,
0,0,0,0,0,0,0,0,0,0,0,0,0,0,509,0,0,510,0,0,0,0,0,0,509,0,
0,0,0,0,0,0,0,0,501,0,0,502,0,0,501,0,0,502,0,0,0,0,0,0,501,0,
0,0,0,0,0,0,0,0,509,0,0,510,0,0,509,0,0,510,0,0,0,0,0,0,509,0,
0,0,0,0,0,502,0,0,501,0,97,502,0,0,501,0,0,502,0,0,0,0,0,0,501,0,
517,518,501,0,0,510,0,0,509,0,105,510,0,0,509,0,0,510,0,0,0,0,0,0,509,0,
0,0,509,0,0,502,0,0,501,0,0,502,0,0,501,0,0,0,0,0,0,0,0,0,0,0,
0,0,501,0,0,510,0,0,509,0,0,510,0,0,509,0,0,0,0,0,0,0,0,0,0,0,
0,0,509,0,0,502,0,0,501,0,0,502,0,0,501,0,0,0,0,0,0,0,0,0,0,0,
0,0,501,0,0,510,0,0,509,0,0,510,0,0,509,0,0,0,0,0,0,0,0,0,0,0,
0,0,509,0,0,502,0,0,501,0,0,502,0,0,501,0,0,0,0,0,0,0,0,0,0,0,
0,0,501,0,0,510,0,0,509,0,0,510,0,0,509,0,0,0,0,0,0,0,0,0,0,0,
0,0,509,0,0,0,0,0,0,0,0,502,0,0,501,0,0,0,0,0,0,0,0,0,0,0,
0,0,501,0,0,0,0,1317,0,0,0,510,0,0,509,0,0,0,0,0,0,0,0,0,0,0,
0,0,509,0,0,0,0,0,0,0,0,502,0,0,501,0,0,0,0,0,0,0,0,0,0,0,
0,0,501,0,0,0,0,0,0,0,0,510,0,0,509,0,0,0,0,0,0,0,0,0,0,0,
0,0,509,0,0,0,0,0,0,0,0,502,0,0,501,0,0,0,0,0,0,0,0,0,0,0,
0,0,501,0,0,0,0,0,0,0,0,510,0,0,509,0,0,0,0,0,0,0,0,0,0,0,
0,0,509,0,0,0,0,0,0,0,0,502,0,0,501,0,0,0,0,0,0,0,0,0,0,0,
0,0,0,0,0,0,0,0,0,0,0,510,0,0,509,0,0,0,0,0,0,0,0,0,0,0,
0,471,0,0,0,0,0,0,0,0,0,0,0,0,0,0,0,0,0,0,0,0,0,0,0,0,
0,479,0,0,0,0,0,0,0,0,0,0,0,0,0,0,0,0,0,0,0,0,0,0,0,0,
0,0,0,0,0,0,0,0,0,0,0,502,0,0,501,0,0,0,0,0,0,0,0,0,0,0,
0,0,0,0,0,0,0,0,0,0,0,510,0,0,509,0,0,0,0,0,0,0,0,0,0,0,
0,0,0,0,0,0,0,0,0,0,0,502,0,0,501,0,0,0,0,0,0,0,0,0,0,0,
0,0,0,0,0,0,0,0,0,0,0,510,0,0,509,0,0,0,0,0,0,0,0,0,0,0,
0,0,0,0,0,0,0,0,0,0,0,502,0,0,501,0,0,0,0,0,0,0,0,0,0,0,
0,0,0,0,0,0,0,0,0,0,0,510,0,0,509,0,0,0,0,0,0,0,0,0,0,0,
0,0,0,0,0,0,0,0,0,0,0,0,0,0,0,0,0,0,0,0,0,0,0,0,0,0,
0,0,0,0,0,0,0,0,0,0,0,0,0,0,0,0,0,0,0,0,0,0,0,0,0,0,
0,0,0,0,0,0,0,0,0,0,0,0,0,0,0,0,0,0,0,0,0,0,0,0,0,0,
0,0,0,0,0,0,0,0,0,0,0,0,0,0,0,0,0,0,0,0,0,0,0,0,0,0,
0,0,0,0,0,0,0,0,0,0,0,0,0,0,0,0,0,0,0,0,0,0,0,0,0,0,
0,0,0,0,0,0,0,0,0,0,0,0,0,0,0,0,0,518,0,0,501,0,0,0,0,0,
0,0,0,0,0,0,0,0,0,0,0,0,0,0,0,0,0,0,0,0,509,0,0,0,0,0,
0,0,0,0,0,0,0,0,0,0,0,0,0,0,0,0,0,0,0,0,0,0,501,0,0,0,
0,0,0,0,0,0,0,0,0,0,0,0,0,0,0,0,0,0,0,0,0,0,509,0,0,0,
0,0,0,0,0,0,0,0,0,0,0,0,0,0,0,0,0,0,0,0,0,0,501,0,0,0,
0,0,0,0,0,0,0,0,0,0,0,0,0,0,0,0,0,0,0,0,0,0,509,0,0,0,
0,0,0,0,0,0,0,0,0,0,0,0,0,0,0,0,0,0,0,0,0,0,501,0,0,0,
0,0,0,0,0,0,0,0,0,0,0,0,0,0,0,0,0,0,0,0,0,0,509,0,0,0,
0,0,0,0,0,0,0,0,0,0,0,0,0,0,0,0,0,0,0,0,0,0,501,0,0,0,
0,0,0,0,0,0,0,0,0,0,0,0,0,0,0,0,0,0,0,0,0,0,509,0,0,0,
0,0,0,0,0,0,0,0,0,0,0,0,0,0,0,0,0,0,0,0,0,0,501,0,0,0,
0,0,0,0,0,0,0,0,0,0,0,0,0,0,0,0,0,0,0,0,0,0,509,0,0,0,
0,0,0,0,0,0,0,0,0,0,0,0,0,0,0,0,0,0,0,0,0,0,501,0,0,0,
0,0,0,0,0,0,0,0,0,0,0,0,0,0,0,0,0,0,0,0,0,0,509,0,0,0,
0,0,0,0,0,0,0,0,0,0,0,0,0,0,0,0,0,0,0,0,0,0,501,0,0,0,
0,0,0,0,0,0,0,0,0,0,0,0,0,0,0,0,0,0,0,0,0,0,0,0,0,0
  </data>
 </layer>
 <objectgroup id="4" name="events"/>
</map>
