<?xml version="1.0" encoding="UTF-8"?>
<map version="1.10" tiledversion="1.11.0" orientation="orthogonal" renderorder="right-down" compressionlevel="0" width="48" height="96" tilewidth="32" tileheight="32" infinite="0" nextlayerid="207" nextobjectid="1">
 <tileset firstgid="1" source="TECH-borders.tsx"/>
 <tileset firstgid="361" source="TECH-Assets.tsx"/>
 <tileset firstgid="8169" source="TECH-Nature.tsx"/>
 <tileset firstgid="11433" source="TECH-Buildings.tsx"/>
 <tileset firstgid="36009" source="TECH-Mounts.tsx"/>
 <tileset firstgid="47049" source="TECH-Animations.tsx"/>
 
 <layer id="5" name="Grass_1+2" width="48" height="96">
  <data encoding="csv">
8219,8220,8219,8220,8219,8220,8219,8220,8219,8220,8219,8220,8219,8220,8219,8220,8219,8220,8219,8220,8219,8220,8219,8220,8219,8220,8219,8220,8219,8220,8219,8220,8219,8220,8219,8220,8219,8220,8219,8220,8219,8220,8219,8220,8219,8220,8219,8220,
8267,8268,8267,8268,8267,8268,8267,8268,8267,8268,8267,8268,8267,8268,8267,8268,8267,8268,8267,8268,8267,8268,8267,8268,8267,8268,8267,8268,8267,8268,8267,8268,8267,8268,8267,8268,8267,8268,8267,8268,8267,8268,8267,8268,8267,8268,8267,8268,
8219,8220,8219,8220,8219,8220,8219,8220,8219,8220,8219,8220,8219,8220,8219,8220,8219,8220,8219,8220,8219,8220,8219,8220,8219,8220,8219,8220,8219,8220,8219,8220,8219,8220,8219,8220,8219,8220,8219,8220,8219,8220,8219,8220,8219,8220,8219,8220,
8267,8268,8267,8268,8267,8268,8267,8268,8267,8268,8267,8268,8267,8268,8267,8268,8267,8268,8267,8268,8267,8268,8267,8268,8267,8268,8267,8268,8267,8268,8267,8268,8267,8268,8267,8268,8267,8268,8267,8268,8267,8268,8267,8268,8267,8268,8267,8268,
8219,8220,8219,8220,8219,8220,8219,8220,8219,8220,8219,8220,8219,8220,8219,8220,8219,8220,8219,8220,8219,8220,8219,8220,8219,8220,8219,8220,8219,8220,8219,8220,8219,8220,8219,8220,8219,8220,8219,8220,8219,8220,8219,8220,8219,8220,8219,8220,
8267,8268,8267,8268,8267,8268,8267,8268,8267,8268,8267,8268,8267,8268,8267,8268,8267,8268,8267,8268,8267,8268,8267,8268,8267,8268,8267,8268,8267,8268,8267,8268,8267,8268,8267,8268,8267,8268,8267,8268,8267,8268,8267,8268,8267,8268,8267,8268,
8219,8220,8219,8220,8219,8220,8219,8220,8219,8220,8219,8220,8219,8220,8219,8220,8219,8220,8219,8220,8219,8220,8219,8220,8219,8220,8219,8220,8219,8220,8219,8220,8219,8220,8219,8220,8219,8220,8219,8220,8219,8220,8219,8220,8219,8220,8219,8220,
8267,8268,8267,8268,8267,8268,8267,8268,8267,8268,8267,8268,8267,8268,8267,8268,8267,8268,8267,8268,8267,8268,8267,8268,8267,8268,8267,8268,8267,8268,8267,8268,8267,8268,8267,8268,8267,8268,8267,8268,8267,8268,8267,8268,8267,8268,8267,8268,
8219,8220,8219,8220,8219,8220,8219,8220,8219,8220,8219,8220,8219,8220,8219,8220,8219,8220,8219,8220,8219,8220,8219,8220,8219,8220,8219,8220,8219,8220,8219,8220,8219,8220,8219,8220,8219,8220,8219,8220,8219,8220,8219,8220,8219,8220,8219,8220,
8267,8268,8267,8268,8267,8268,8267,8268,8267,8268,8267,8268,8267,8268,8267,8268,8267,8268,8267,8268,8267,8268,8267,8268,8267,8268,8267,8268,8267,8268,8267,8268,8267,8268,8267,8268,8267,8268,8267,8268,8267,8268,8267,8268,8267,8268,8267,8268,
8219,8220,8219,8220,8219,8220,8219,8220,8219,8220,8219,8220,8219,8220,8219,8220,8219,8220,8219,8220,8219,8220,8219,8220,8219,8220,8219,8220,8219,8220,8219,8220,8219,8220,8219,8220,8219,8220,8219,8220,8219,8220,8219,8220,8219,8220,8219,8220,
8267,8268,8267,8268,8267,8268,8267,8268,8267,8268,8267,8268,8267,8268,8267,8268,8267,8268,8267,8268,8267,8268,8267,8268,8267,8268,8267,8268,8267,8268,8267,8268,8267,8268,8267,8268,8267,8268,8267,8268,8267,8268,8267,8268,8267,8268,8267,8268,
8219,8220,8219,8220,8219,8220,8219,8220,8219,8220,8219,8220,8219,8220,8219,8220,8219,8220,8219,8220,8219,8220,8219,8220,8219,8220,8219,8220,8219,8220,8219,8220,8219,8220,8219,8220,8219,8220,8219,8220,8219,8220,8219,8220,8219,8220,8219,8220,
8267,8268,8267,8268,8267,8268,8267,8268,8267,8268,8267,8268,8267,8268,8267,8268,8267,8268,8267,8268,8267,8268,8267,8268,8267,8268,8267,8268,8267,8268,8267,8268,8267,8268,8267,8268,8267,8268,8267,8268,8267,8268,8267,8268,8267,8268,8267,8268,
8219,8220,8219,8220,8219,8220,8219,8220,8219,8220,8219,8220,8219,8220,8219,8220,8219,8220,8219,8220,8219,8220,8219,8220,8219,8220,8219,8220,8219,8220,8219,8220,8219,8220,8219,8220,8219,8220,8219,8220,8219,8220,8219,8220,8219,8220,8219,8220,
8267,8268,8267,8268,8267,8268,8267,8268,8267,8268,8267,8268,8267,8268,8267,8268,8267,8268,8267,8268,8267,8268,8267,8268,8267,8268,8267,8268,8267,8268,8267,8268,8267,8268,8267,8268,8267,8268,8267,8268,8267,8268,8267,8268,8267,8268,8267,8268,
8219,8220,8219,8220,8219,8220,8219,8220,8219,8220,8219,8220,8219,8220,8219,8220,8219,8220,8219,8220,8219,8220,8219,8220,8219,8220,8219,8220,8219,8220,8219,8220,8219,8220,8219,8220,8219,8220,8219,8220,8219,8220,8219,8220,8219,8220,8219,8220,
8267,8268,8267,8268,8267,8268,8267,8268,8267,8268,8267,8268,8267,8268,8267,8268,8267,8268,8267,8268,8267,8268,8267,8268,8267,8268,8267,8268,8267,8268,8267,8268,8267,8268,8267,8268,8267,8268,8267,8268,8267,8268,8267,8268,8267,8268,8267,8268,
8219,8220,8219,8220,8219,8220,8219,8220,8219,8220,8219,8220,8219,8220,8219,8220,8219,8220,8219,8220,8219,8220,8219,8220,8219,8220,8219,8220,8219,8220,8219,8220,8219,8220,8219,8220,8219,8220,8219,8220,8219,8220,8219,8220,8219,8220,8219,8220,
8267,8268,8267,8268,8267,8268,8267,8268,8267,8268,8267,8268,8267,8268,8267,8268,8267,8268,8267,8268,8267,8268,8267,8268,8267,8268,8267,8268,8267,8268,8267,8268,8267,8268,8267,8268,8267,8268,8267,8268,8267,8268,8267,8268,8267,8268,8267,8268,
8219,8220,8219,8220,8219,8220,8219,8220,8219,8220,8219,8220,8219,8220,8219,8220,8219,8220,8219,8220,8219,8220,8219,8220,8219,8220,8219,8220,8219,8220,8219,8220,8219,8220,8219,8220,8219,8220,8219,8220,8219,8220,8219,8220,8219,8220,8219,8220,
8267,8268,8267,8268,8267,8268,8267,8268,8267,8268,8267,8268,8267,8268,8267,8268,8267,8268,8267,8268,8267,8268,8267,8268,8267,8268,8267,8268,8267,8268,8267,8268,8267,8268,8267,8268,8267,8268,8267,8268,8267,8268,8267,8268,8267,8268,8267,8268,
8219,8220,8219,8220,8219,8220,8219,8220,8219,8220,8219,8220,8219,8220,8219,8220,8219,8220,8219,8220,8219,8220,8219,8220,8219,8220,8219,8220,8219,8220,8219,8220,8219,8220,8219,8220,8219,8220,8219,8220,8219,8220,8219,8220,8219,8220,8219,8220,
8267,8268,8267,8268,8267,8268,8267,8268,8267,8268,8267,8268,8267,8268,8267,8268,8267,8268,8267,8268,8267,8268,8267,8268,8267,8268,8267,8268,8267,8268,8267,8268,8267,8268,8267,8268,8267,8268,8267,8268,8267,8268,8267,8268,8267,8268,8267,8268,
8219,8220,8219,8220,8219,8220,8219,8220,8219,8220,8219,8220,8219,8220,8219,8220,8219,8220,8219,8220,8219,8220,8219,8220,8219,8220,8219,8220,8219,8220,8219,8220,8219,8220,8219,8220,8219,8220,8219,8220,8219,8220,8219,8220,8219,8220,8219,8220,
8267,8268,8267,8268,8267,8268,8267,8268,8267,8268,8267,8268,8267,8268,8267,8268,8267,8268,8267,8268,8267,8268,8267,8268,8267,8268,8267,8268,8267,8268,8267,8268,8267,8268,8267,8268,8267,8268,8267,8268,8267,8268,8267,8268,8267,8268,8267,8268,
8219,8220,8219,8220,8219,8220,8219,8220,8219,8220,8219,8220,8219,8220,8219,8220,8219,8220,8219,8220,8219,8220,8219,8220,8219,8220,8219,8220,8219,8220,8219,8220,8219,8220,8219,8220,8219,8220,8219,8220,8219,8220,8219,8220,8219,8220,8219,8220,
8267,8268,8267,8268,8267,8268,8267,8268,8267,8268,8267,8268,8267,8268,8267,8268,8267,8268,8267,8268,8267,8268,8267,8268,8267,8268,8267,8268,8267,8268,8267,8268,8267,8268,8267,8268,8267,8268,8267,8268,8267,8268,8267,8268,8267,8268,8267,8268,
8219,8220,8219,8220,8219,8220,8219,8220,8219,8220,8219,8220,8219,8220,8219,8220,8219,8220,8219,8220,8219,8220,8219,8220,8219,8220,8219,8220,8219,8220,8219,8220,8219,8220,8219,8220,8219,8220,8219,8220,8219,8220,8219,8220,8219,8220,8219,8220,
8267,8268,8267,8268,8267,8268,8267,8268,8267,8268,8267,8268,8267,8268,8267,8268,8267,8268,8267,8268,8267,8268,8267,8268,8267,8268,8267,8268,8267,8268,8267,8268,8267,8268,8267,8268,8267,8268,8267,8268,8267,8268,8267,8268,8267,8268,8267,8268,
8219,8220,8219,8220,8219,8220,8219,8220,8219,8220,8219,8220,8219,8220,8219,8220,8219,8220,8219,8220,8219,8220,8219,8220,8219,8220,8219,8220,8219,8220,8219,8220,8219,8220,8219,8220,8219,8220,8219,8220,8219,8220,8219,8220,8219,8220,8219,8220,
8267,8268,8267,8268,8267,8268,8267,8268,8267,8268,8267,8268,8267,8268,8267,8268,8267,8268,8267,8268,8267,8268,8267,8268,8267,8268,8267,8268,8267,8268,8267,8268,8267,8268,8267,8268,8267,8268,8267,8268,8267,8268,8267,8268,8267,8268,8267,8268,
8219,8220,8219,8220,8219,8220,8219,8220,8219,8220,8219,8220,8219,8220,8219,8220,8219,8220,8219,8220,8219,8220,8219,8220,8219,8220,8219,8220,8219,8220,8219,8220,8219,8220,8219,8220,8219,8220,8219,8220,8219,8220,8219,8220,8219,8220,8219,8220,
8267,8268,8267,8268,8267,8268,8267,8268,8267,8268,8267,8268,8267,8268,8267,8268,8267,8268,8267,8268,8267,8268,8267,8268,8267,8268,8267,8268,8267,8268,8267,8268,8267,8268,8267,8268,8267,8268,8267,8268,8267,8268,8267,8268,8267,8268,8267,8268,
8219,8220,8219,8220,8219,8220,8219,8220,8219,8220,8219,8220,8219,8220,8219,8220,8219,8220,8219,8220,8219,8220,8219,8220,8219,8220,8219,8220,8219,8220,8219,8220,8219,8220,8219,8220,8219,8220,8219,8220,8219,8220,8219,8220,8219,8220,8219,8220,
8267,8268,8267,8268,8267,8268,8267,8268,8267,8268,8267,8268,8267,8268,8267,8268,8267,8268,8267,8268,8267,8268,8267,8268,8267,8268,8267,8268,8267,8268,8267,8268,8267,8268,8267,8268,8267,8268,8267,8268,8267,8268,8267,8268,8267,8268,8267,8268,
8219,8220,8219,8220,8219,8220,8219,8220,8219,8220,8219,8220,8219,8220,8219,8220,8219,8220,8219,8220,8219,8220,8219,8220,8219,8220,8219,8220,8219,8220,8219,8220,8219,8220,8219,8220,8219,8220,8219,8220,8219,8220,8219,8220,8219,8220,8219,8220,
8267,8268,8267,8268,8267,8268,8267,8268,8267,8268,8267,8268,8267,8268,8267,8268,8267,8268,8267,8268,8267,8268,8267,8268,8267,8268,8267,8268,8267,8268,8267,8268,8267,8268,8267,8268,8267,8268,8267,8268,8267,8268,8267,8268,8267,8268,8267,8268,
8219,8220,8219,8220,8219,8220,8219,8220,8219,8220,8219,8220,8219,8220,8219,8220,8219,8220,8219,8220,8219,8220,8219,8220,8219,8220,8219,8220,8219,8220,8219,8220,8219,8220,8219,8220,8219,8220,8219,8220,8219,8220,8219,8220,8219,8220,8219,8220,
8267,8268,8267,8268,8267,8268,8267,8268,8267,8268,8267,8268,8267,8268,8267,8268,8267,8268,8267,8268,8267,8268,8267,8268,8267,8268,8267,8268,8267,8268,8267,8268,8267,8268,8267,8268,8267,8268,8267,8268,8267,8268,8267,8268,8267,8268,8267,8268,
8219,8220,8219,8220,8219,8220,8219,8220,8219,8220,8219,8220,8219,8220,8219,8220,8219,8220,8219,8220,8219,8220,8219,8220,8219,8220,8219,8220,8219,8220,8219,8220,8219,8220,8219,8220,8219,8220,8219,8220,8219,8220,8219,8220,8219,8220,8219,8220,
8267,8268,8267,8268,8267,8268,8267,8268,8267,8268,8267,8268,8267,8268,8267,8268,8267,8268,8267,8268,8267,8268,8267,8268,8267,8268,8267,8268,8267,8268,8267,8268,8267,8268,8267,8268,8267,8268,8267,8268,8267,8268,8267,8268,8267,8268,8267,8268,
8219,8220,8219,8220,8219,8220,8219,8220,8219,8220,8219,8220,8219,8220,8219,8220,8219,8220,8219,8220,8219,8220,8219,8220,8219,8220,8219,8220,8219,8220,8219,8220,8219,8220,8219,8220,8219,8220,8219,8220,8219,8220,8219,8220,8219,8220,8219,8220,
8267,8268,8267,8268,8267,8268,8267,8268,8267,8268,8267,8268,8267,8268,8267,8268,8267,8268,8267,8268,8267,8268,8267,8268,8267,8268,8267,8268,8267,8268,8267,8268,8267,8268,8267,8268,8267,8268,8267,8268,8267,8268,8267,8268,8267,8268,8267,8268,
8219,8220,8219,8220,8219,8220,8219,8220,8219,8220,8219,8220,8219,8220,8219,8220,8219,8220,8219,8220,8219,8220,8219,8220,8219,8220,8219,8220,8219,8220,8219,8220,8219,8220,8219,8220,8219,8220,8219,8220,8219,8220,8219,8220,8219,8220,8219,8220,
8267,8268,8267,8268,8267,8268,8267,8268,8267,8268,8267,8268,8267,8268,8267,8268,8267,8268,8267,8268,8267,8268,8267,8268,8267,8268,8267,8268,8267,8268,8267,8268,8267,8268,8267,8268,8267,8268,8267,8268,8267,8268,8267,8268,8267,8268,8267,8268,
8219,8220,8219,8220,8219,8220,8219,8220,8219,8220,8219,8220,8219,8220,8219,8220,8219,8220,8219,8220,8219,8220,8219,8220,8219,8220,8219,8220,8219,8220,8219,8220,8219,8220,8219,8220,8219,8220,8219,8220,8219,8220,8219,8220,8219,8220,8219,8220,
8267,8268,8267,8268,8267,8268,8267,8268,8267,8268,8267,8268,8267,8268,8267,8268,8267,8268,8267,8268,8267,8268,8267,8268,8267,8268,8267,8268,8267,8268,8267,8268,8267,8268,8267,8268,8267,8268,8267,8268,8267,8268,8267,8268,8267,8268,8267,8268,
8219,8220,8219,8220,8219,8220,8219,8220,8219,8220,8219,8220,8219,8220,8219,8220,8219,8220,8219,8220,8219,8220,8219,8220,8219,8220,8219,8220,8219,8220,8219,8220,8219,8220,8219,8220,8219,8220,8219,8220,8219,8220,8219,8220,8219,8220,8219,8220,
8267,8268,8267,8268,8267,8268,8267,8268,8267,8268,8267,8268,8267,8268,8267,8268,8267,8268,8267,8268,8267,8268,8267,8268,8267,8268,8267,8268,8267,8268,8267,8268,8267,8268,8267,8268,8267,8268,8267,8268,8267,8268,8267,8268,8267,8268,8267,8268,
36705,36706,36705,36706,8219,8220,8219,8220,8219,8220,8219,8220,8219,8220,8219,8220,8219,8220,8219,8220,8219,8220,8219,8220,8219,8220,8219,8220,8219,8220,8219,8220,8219,8220,8219,8220,8219,8220,8219,8220,8219,8220,8219,8220,8219,8220,8219,8220,
36820,36821,36820,36821,8267,8268,8267,8268,8267,8268,8267,8268,8267,8268,8267,8268,8267,8268,8267,8268,8267,8268,8267,8268,8267,8268,8267,8268,8267,8268,8267,8268,8267,8268,8267,8268,8267,8268,8267,8268,8267,8268,8267,8268,8267,8268,8267,8268,
0,0,0,36706,36705,36706,36705,36706,36705,8220,8219,8220,8219,8220,8219,8220,8219,8220,8219,8220,8219,8220,8219,8220,8219,8220,8219,8220,8219,8220,8219,8220,8219,8220,8219,8220,8219,8220,8219,8220,8219,8220,8219,8220,8219,8220,8219,8220,
0,0,0,36821,36820,36821,36820,36821,36820,36821,8267,8268,8267,8268,8267,8268,8267,8268,8267,8268,8267,8268,8267,8268,8267,8268,8267,8268,8267,8268,8267,8268,8267,8268,8267,8268,8267,8268,8267,8268,8267,8268,8267,8268,8267,8268,8267,8268,
50284,50285,0,0,0,0,0,0,36705,36706,36705,36706,8219,8220,8219,8220,8219,8220,8219,8220,8219,8220,8219,8220,8219,8220,8219,8220,8219,8220,8219,8220,8219,8220,8219,8220,8219,8220,8219,8220,8219,8220,8219,8220,8219,8220,8219,8220,
50382,50383,0,0,0,0,0,0,36820,36821,36820,36821,8267,8268,8267,8268,8267,8268,8267,8268,8267,8268,8267,8268,8267,8268,8267,8268,8267,8268,8267,8268,8267,8268,8267,8268,8267,8268,8267,8268,8267,8268,8267,8268,8267,8268,8267,8268,
50284,50285,50284,50285,50284,50285,50284,0,0,0,0,36706,8219,8220,8219,8220,8219,8220,8219,8220,8219,8220,8219,8220,8219,8220,8219,8220,8219,8220,8219,8220,8219,8220,8219,8220,8219,8220,8219,8220,8219,8220,8219,8220,8219,8220,8219,8220,
50382,50383,50382,50383,50382,50383,50382,0,0,0,0,36821,8267,8268,8267,8268,8267,8268,8267,8268,8267,8268,8267,8268,8267,8268,8267,8268,8267,8268,8267,8268,8267,8268,8267,8268,8267,8268,8267,8268,8267,8268,8267,8268,8267,8268,8267,8268,
50284,50285,50284,50285,50284,50285,50284,50285,50284,50285,0,36706,36705,8220,8219,8220,8219,8220,8219,8220,8219,8220,8219,8220,8219,8220,8219,8220,8219,8220,8219,8220,8219,8220,8219,8220,8219,8220,8219,8220,8219,8220,8219,8220,8219,8220,8219,8220,
50382,50383,50382,50383,50382,50383,50382,50383,50382,50383,0,36821,36820,36821,8267,8268,8267,8268,8267,8268,8267,8268,8267,8268,8267,8268,8267,8268,8267,8268,8267,8268,8267,8268,8267,8268,8267,8268,8267,8268,8267,8268,8267,8268,8267,8268,8267,8268,
50284,50285,50284,50285,50284,50285,50284,50285,50284,50285,0,0,36705,36706,36705,36706,36705,36706,36705,36706,36705,36706,36705,36706,8219,8220,8219,8220,8219,8220,8219,8220,8219,8220,8219,8220,8219,8220,8219,8220,8219,8220,8219,8220,8219,8220,8219,8220,
50382,50383,50382,50383,50382,50383,50382,50383,50382,50383,0,0,36820,36821,36820,36821,36820,36821,36820,36821,36820,36821,36820,36821,8267,8268,8267,8268,8267,8268,8267,8268,8267,8268,8267,8268,8267,8268,8267,8268,8267,8268,8267,8268,8267,8268,8267,8268,
50284,50285,50284,50285,50284,50285,50284,50285,50284,50285,50284,0,0,0,0,0,0,0,0,0,0,0,36705,36706,36705,36706,36705,36706,36705,36706,36705,36706,36705,36706,36705,36706,36705,36706,36705,36706,36705,36706,36705,36706,36705,36706,36705,36706,
50382,50383,50382,50383,50382,50383,50382,50383,50382,50383,50382,0,0,0,0,0,0,0,0,0,0,0,0,36821,36820,36821,36820,36821,36820,36821,36820,36821,36820,36821,36820,36821,36820,36821,36820,36821,36820,36821,36820,36821,36820,36821,36820,36821,
50284,50285,50284,50285,50284,50285,50284,50285,50284,50285,50284,50285,50284,50285,50284,50285,50284,50285,50284,50285,50284,0,0,0,0,0,0,0,0,0,0,0,0,0,0,0,0,0,0,0,0,0,0,0,0,0,0,0,
50382,50383,50382,50383,50382,50383,50382,50383,50382,50383,50382,50383,50382,50383,50382,50383,50382,50383,50382,50383,50382,50383,0,0,0,0,0,0,0,0,0,0,0,0,0,0,0,0,0,0,0,0,0,0,0,0,0,0,
50284,50285,50284,50285,50284,50285,50284,50285,50284,50285,50284,50285,50284,50285,50284,50285,50284,50285,50284,50285,50284,50285,50284,50285,50284,50285,50284,50285,50284,50285,50284,50285,50284,50285,50284,50285,50284,50285,50284,50285,50284,50285,50284,50285,50284,50285,50284,50285,
50382,50383,50382,50383,50382,50383,50382,50383,50382,50383,50382,50383,50382,50383,50382,50383,50382,50383,50382,50383,50382,50383,50382,50383,50382,50383,50382,50383,50382,50383,50382,50383,50382,50383,50382,50383,50382,50383,50382,50383,50382,50383,50382,50383,50382,50383,50382,50383,
50284,50285,50284,50285,50284,50285,50284,50285,50284,50285,50284,50285,50284,50285,50284,50285,50284,50285,50284,50285,50284,50285,50284,50285,50284,50285,50284,50285,50284,50285,50284,50285,50284,50285,50284,50285,50284,50285,50284,50285,50284,50285,50284,50285,50284,50285,50284,50285,
50382,50383,50382,50383,50382,50383,50382,50383,50382,50383,50382,50383,50382,50383,50382,50383,50382,50383,50382,50383,50382,50383,50382,50383,50382,50383,50382,50383,50382,50383,50382,50383,50382,50383,50382,50383,50382,50383,50382,50383,50382,50383,50382,50383,50382,50383,50382,50383,
50284,50285,50284,50285,50284,50285,50284,50285,50284,50285,50284,50285,50284,50285,50284,50285,50284,50285,50284,50285,50284,50285,50284,50285,50284,50285,50284,50285,50284,50285,50284,50285,50284,50285,50284,50285,50284,50285,50284,50285,50284,50285,50284,50285,50284,50285,50284,50285,
50382,50383,50382,50383,50382,50383,50382,50383,50382,50383,50382,50383,50382,50383,50382,50383,50382,50383,50382,50383,50382,50383,50382,50383,50382,50383,50382,50383,50382,50383,50382,50383,50382,50383,50382,50383,50382,50383,50382,50383,50382,50383,50382,50383,50382,50383,50382,50383,
50284,50285,50284,50285,50284,50285,50284,50285,50284,50285,50284,50285,50284,50285,50284,50285,50284,50285,50284,50285,50284,50285,50284,50285,50284,50285,50284,50285,50284,50285,50284,50285,50284,50285,50284,50285,50284,50285,50284,50285,50284,50285,50284,50285,50284,50285,50284,50285,
50382,50383,50382,50383,50382,50383,50382,50383,50382,50383,50382,50383,50382,50383,50382,50383,50382,50383,50382,50383,50382,50383,50382,50383,50382,50383,50382,50383,50382,50383,50382,50383,50382,50383,50382,50383,50382,50383,50382,50383,50382,50383,50382,50383,50382,50383,50382,50383,
50284,50285,50284,50285,50284,50285,50284,50285,50284,50285,50284,50285,50284,50285,50284,50285,50284,50285,50284,50285,50284,50285,50284,50285,50284,50285,50284,50285,50284,50285,50284,50285,50284,50285,50284,50285,50284,50285,50284,50285,50284,50285,50284,50285,50284,50285,50284,50285,
50382,50383,50382,50383,50382,50383,50382,50383,50382,50383,50382,50383,50382,50383,50382,50383,50382,50383,50382,50383,50382,50383,50382,50383,50382,50383,50382,50383,50382,50383,50382,50383,50382,50383,50382,50383,50382,50383,50382,50383,50382,50383,50382,50383,50382,50383,50382,50383,
50284,50285,50284,50285,50284,50285,50284,50285,50284,50285,50284,50285,50284,50285,50284,50285,50284,50285,50284,50285,50284,50285,50284,50285,50284,50285,50284,50285,50284,50285,50284,50285,50284,50285,50284,50285,50284,50285,50284,50285,50284,50285,50284,50285,50284,50285,50284,50285,
50382,50383,50382,50383,50382,50383,50382,50383,50382,50383,50382,50383,50382,50383,50382,50383,50382,50383,50382,50383,50382,50383,50382,50383,50382,50383,50382,50383,50382,50383,50382,50383,50382,50383,50382,50383,50382,50383,50382,50383,50382,50383,50382,50383,50382,50383,50382,50383,
50284,50285,50284,50285,50284,50285,50284,50285,50284,50285,50284,50285,50284,50285,50284,50285,50284,50285,50284,50285,50284,50285,50284,50285,50284,50285,50284,50285,50284,50285,50284,50285,50284,50285,50284,50285,50284,50285,50284,50285,50284,50285,50284,50285,50284,50285,50284,50285,
50382,50383,50382,50383,50382,50383,50382,50383,50382,50383,50382,50383,50382,50383,50382,50383,50382,50383,50382,50383,50382,50383,50382,50383,50382,50383,50382,50383,50382,50383,50382,50383,50382,50383,50382,50383,50382,50383,50382,50383,50382,50383,50382,50383,50382,50383,50382,50383,
50284,50285,50284,50285,50284,50285,50284,50285,50284,50285,50284,50285,50284,50285,50284,50285,50284,50285,50284,50285,50284,50285,50284,50285,50284,50285,50284,50285,50284,50285,50284,50285,50284,50285,50284,50285,50284,50285,50284,50285,50284,50285,50284,50285,50284,50285,50284,50285,
50382,50383,50382,50383,50382,50383,50382,50383,50382,50383,50382,50383,50382,50383,50382,50383,50382,50383,50382,50383,50382,50383,50382,50383,50382,50383,50382,50383,50382,50383,50382,50383,50382,50383,50382,50383,50382,50383,50382,50383,50382,50383,50382,50383,50382,50383,50382,50383,
50284,50285,50284,50285,50284,50285,50284,50285,50284,50285,50284,50285,50284,50285,50284,50285,50284,50285,50284,50285,50284,50285,50284,50285,50284,50285,50284,50285,50284,50285,50284,50285,50284,50285,50284,50285,50284,50285,50284,50285,50284,50285,50284,50285,50284,50285,50284,50285,
50382,50383,50382,50383,50382,50383,50382,50383,50382,50383,50382,50383,50382,50383,50382,50383,50382,50383,50382,50383,50382,50383,50382,50383,50382,50383,50382,50383,50382,50383,50382,50383,50382,50383,50382,50383,50382,50383,50382,50383,50382,50383,50382,50383,50382,50383,50382,50383,
50284,50285,50284,50285,50284,50285,50284,50285,50284,50285,50284,50285,50284,50285,50284,50285,50284,50285,50284,50285,50284,50285,50284,50285,50284,50285,50284,50285,50284,50285,50284,50285,50284,50285,50284,50285,50284,50285,50284,50285,50284,50285,50284,50285,50284,50285,50284,50285,
50382,50383,50382,50383,50382,50383,50382,50383,50382,50383,50382,50383,50382,50383,50382,50383,50382,50383,50382,50383,50382,50383,50382,50383,50382,50383,50382,50383,50382,50383,50382,50383,50382,50383,50382,50383,50382,50383,50382,50383,50382,50383,50382,50383,50382,50383,50382,50383,
50284,50285,50284,50285,50284,50285,50284,50285,50284,50285,50284,50285,50284,50285,50284,50285,50284,50285,50284,50285,50284,50285,50284,50285,50284,50285,50284,50285,50284,50285,50284,50285,50284,50285,50284,50285,50284,50285,50284,50285,50284,50285,50284,50285,50284,50285,50284,50285,
50382,50383,50382,50383,50382,50383,50382,50383,50382,50383,50382,50383,50382,50383,50382,50383,50382,50383,50382,50383,50382,50383,50382,50383,50382,50383,50382,50383,50382,50383,50382,50383,50382,50383,50382,50383,50382,50383,50382,50383,50382,50383,50382,50383,50382,50383,50382,50383,
50284,50285,50284,50285,50284,50285,50284,50285,50284,50285,50284,50285,50284,50285,50284,50285,50284,50285,50284,50285,50284,50285,50284,50285,50284,50285,50284,50285,50284,50285,50284,50285,50284,50285,50284,50285,50284,50285,50284,50285,50284,50285,50284,50285,50284,50285,50284,50285,
50382,50383,50382,50383,50382,50383,50382,50383,50382,50383,50382,50383,50382,50383,50382,50383,50382,50383,50382,50383,50382,50383,50382,50383,50382,50383,50382,50383,50382,50383,50382,50383,50382,50383,50382,50383,50382,50383,50382,50383,50382,50383,50382,50383,50382,50383,50382,50383,
50284,50285,50284,50285,50284,50285,50284,50285,50284,50285,50284,50285,50284,50285,50284,50285,50284,50285,50284,50285,50284,50285,50284,50285,50284,50285,50284,50285,50284,50285,50284,50285,50284,50285,50284,50285,50284,50285,50284,50285,50284,50285,50284,50285,50284,50285,50284,50285,
50382,50383,50382,50383,50382,50383,50382,50383,50382,50383,50382,50383,50382,50383,50382,50383,50382,50383,50382,50383,50382,50383,50382,50383,50382,50383,50382,50383,50382,50383,50382,50383,50382,50383,50382,50383,50382,50383,50382,50383,50382,50383,50382,50383,50382,50383,50382,50383,
50284,50285,50284,50285,50284,50285,50284,50285,50284,50285,50284,50285,50284,50285,50284,50285,50284,50285,50284,50285,50284,50285,50284,50285,50284,50285,50284,50285,50284,50285,50284,50285,50284,50285,50284,50285,50284,50285,50284,50285,50284,50285,50284,50285,50284,50285,50284,50285,
50382,50383,50382,50383,50382,50383,50382,50383,50382,50383,50382,50383,50382,50383,50382,50383,50382,50383,50382,50383,50382,50383,50382,50383,50382,50383,50382,50383,50382,50383,50382,50383,50382,50383,50382,50383,50382,50383,50382,50383,50382,50383,50382,50383,50382,50383,50382,50383,
50284,50285,50284,50285,50284,50285,50284,50285,50284,50285,50284,50285,50284,50285,50284,50285,50284,50285,50284,50285,50284,50285,50284,50285,50284,50285,50284,50285,50284,50285,50284,50285,50284,50285,50284,50285,50284,50285,50284,50285,50284,50285,50284,50285,50284,50285,50284,50285,
50382,50383,50382,50383,50382,50383,50382,50383,50382,50383,50382,50383,50382,50383,50382,50383,50382,50383,50382,50383,50382,50383,50382,50383,50382,50383,50382,50383,50382,50383,50382,50383,50382,50383,50382,50383,50382,50383,50382,50383,50382,50383,50382,50383,50382,50383,50382,50383
 </data>
 </layer>
 <layer id="6" name="Path_A_1" width="48" height="96">
  <data encoding="csv">
0,0,0,0,0,0,0,0,0,0,0,0,0,0,0,0,0,0,0,0,0,0,0,0,0,0,0,0,0,0,0,0,0,0,0,0,0,0,0,0,0,0,0,0,0,0,0,0,
0,0,0,0,0,0,0,0,0,0,0,0,0,0,0,0,0,0,0,0,0,0,0,0,0,0,0,0,0,0,0,0,0,0,0,0,0,0,0,0,0,0,0,0,0,0,0,0,
0,0,0,0,0,0,0,0,0,0,0,0,0,0,0,0,0,0,0,0,0,0,0,0,0,0,0,0,0,0,0,0,0,0,0,0,0,0,0,0,0,0,0,0,0,0,0,0,
0,0,0,0,0,0,0,0,0,0,0,0,0,0,0,0,0,0,0,0,0,0,0,0,0,0,0,0,0,0,0,0,0,0,0,0,0,0,0,0,0,0,0,0,0,0,0,0,
0,0,0,0,0,0,0,0,0,0,0,0,0,0,0,0,0,0,0,0,0,0,0,0,0,0,0,0,0,0,0,0,0,0,0,0,0,0,0,0,0,0,0,0,0,0,0,0,
0,0,0,0,0,0,0,0,0,0,0,0,0,0,0,0,0,0,0,0,0,0,0,0,0,0,0,0,0,0,0,0,0,0,0,0,0,0,0,0,0,0,0,0,0,0,0,0,
0,0,0,0,0,0,0,0,0,0,0,0,0,0,0,0,0,0,0,0,0,0,0,0,0,0,0,0,0,0,0,0,0,0,0,0,0,0,0,0,0,0,0,0,0,0,0,0,
0,0,0,0,0,0,0,0,0,0,0,0,0,0,0,0,0,0,0,0,0,0,0,0,0,0,0,0,0,0,0,0,0,0,0,0,0,0,0,0,0,0,0,0,0,0,0,0,
0,0,0,0,0,0,0,0,0,0,0,0,0,0,0,0,0,0,0,0,0,0,0,0,0,0,0,0,0,0,0,0,0,0,0,0,0,0,0,0,0,0,0,0,0,0,0,0,
0,0,0,0,0,0,0,0,0,0,0,0,0,0,0,0,0,0,0,0,0,0,0,0,0,0,0,0,0,0,0,0,0,0,0,0,0,0,0,0,0,0,0,0,0,0,0,0,
0,0,0,0,0,0,0,0,0,0,0,0,0,0,0,0,0,0,0,0,0,0,0,0,0,0,0,0,0,0,0,0,0,0,0,0,0,0,0,0,0,0,0,0,0,0,0,0,
0,0,0,0,0,0,0,0,0,0,0,0,0,0,0,0,0,0,0,0,0,0,0,0,0,0,0,0,0,0,0,0,0,0,0,0,0,0,0,0,0,0,0,0,0,0,0,0,
0,0,0,0,0,0,0,0,0,0,0,0,0,0,0,0,0,0,0,0,0,0,0,0,0,0,0,0,0,0,0,0,0,0,0,0,0,0,0,0,0,0,0,0,0,0,0,0,
0,0,0,0,0,0,0,0,0,0,0,0,0,0,0,0,0,0,0,0,0,0,0,0,0,0,0,0,0,0,0,0,0,0,0,0,0,0,0,0,0,0,0,0,0,0,0,0,
0,0,0,0,0,0,0,0,0,0,0,0,0,0,0,0,0,0,0,0,0,0,0,0,0,0,0,0,0,0,0,0,0,0,0,0,0,0,0,0,0,0,0,0,0,0,0,0,
0,0,0,0,0,0,0,0,0,0,0,0,0,0,0,0,0,0,0,0,0,0,0,0,0,0,0,0,0,0,0,0,0,0,0,0,0,0,0,0,0,0,0,0,0,0,0,0,
0,0,0,0,0,0,0,0,0,0,0,0,0,0,0,0,0,0,0,0,0,0,0,0,0,0,0,0,0,0,0,0,0,0,0,0,0,0,0,0,0,0,0,0,0,0,0,0,
0,0,0,0,0,0,0,0,0,0,0,0,0,0,0,0,0,0,0,0,0,0,0,0,0,0,0,0,0,0,0,0,0,0,0,0,0,0,0,0,0,0,0,0,0,0,0,0,
0,0,0,0,0,0,0,0,0,0,0,0,0,0,0,0,0,0,0,0,0,0,0,0,0,0,0,0,0,0,0,0,0,0,0,0,0,0,0,0,0,0,0,0,0,0,0,0,
0,0,0,0,0,0,0,0,0,0,0,0,0,0,0,0,0,0,0,0,0,0,0,0,0,0,0,0,0,0,0,0,0,0,0,0,0,0,0,0,0,0,0,0,0,0,0,0,
0,0,0,0,0,0,0,0,0,0,0,0,0,0,0,0,0,0,0,0,0,0,0,0,0,0,0,0,0,0,0,0,0,0,0,0,0,0,0,0,0,0,0,0,0,0,0,0,
0,0,0,0,0,0,0,0,0,0,0,0,0,0,0,0,0,0,0,0,0,0,0,0,0,0,0,0,0,0,0,0,0,0,0,0,0,0,0,0,0,0,0,0,0,0,0,0,
0,0,0,0,0,0,0,0,0,0,0,0,0,0,0,0,0,0,0,0,0,0,0,0,0,0,0,0,0,0,0,0,0,0,0,0,0,0,0,0,0,0,0,0,0,0,0,0,
0,0,8794,8795,8796,8795,8796,8797,0,0,0,0,0,8794,8795,8796,8795,8796,8795,8796,8795,8796,8797,0,0,0,0,0,0,0,0,0,0,0,0,0,0,0,0,0,0,0,0,0,0,0,0,0,
0,0,8842,8798,8799,8798,8799,8845,0,0,0,0,0,8890,8798,8799,8798,8799,8798,8799,8798,8799,8845,0,0,0,0,0,0,0,0,0,0,0,0,0,0,0,0,0,0,0,0,0,0,0,0,0,
0,0,8890,8846,8843,8939,8940,8941,0,0,0,0,0,8938,8939,8940,8939,8940,8939,8940,8844,8847,8893,0,0,0,0,0,0,0,0,0,0,0,0,0,0,0,0,0,0,0,0,0,0,0,0,0,
0,0,8842,8798,8845,0,0,0,0,0,0,0,0,0,0,0,0,0,0,0,8890,8799,8845,0,0,0,0,0,0,0,0,0,0,0,0,0,0,0,0,0,0,0,0,0,0,0,0,0,
0,0,8890,8846,8893,0,0,0,0,0,0,0,0,0,0,0,0,0,0,0,8938,8940,8941,0,0,0,0,0,0,0,0,0,0,0,0,0,0,0,0,0,0,0,0,0,0,0,0,0,
0,0,8938,8939,8941,0,0,0,0,0,0,0,0,0,0,0,0,0,0,0,0,0,0,0,0,0,0,0,0,0,0,0,0,0,0,0,0,0,0,0,0,0,0,0,0,0,0,0,
0,0,0,0,0,0,0,0,0,0,0,0,0,0,0,0,0,0,0,0,0,0,0,0,0,0,0,0,0,0,0,0,0,0,0,0,0,0,0,0,0,0,0,0,0,0,0,0,
0,0,0,0,0,0,0,0,0,0,0,0,0,0,0,0,0,0,0,0,0,0,0,0,0,0,0,0,0,0,0,0,0,0,0,0,0,0,0,0,0,0,0,0,0,0,0,0,
0,0,0,0,0,0,0,0,0,0,0,0,0,0,0,0,0,0,0,0,8794,8795,8797,0,0,0,0,0,0,0,0,0,0,0,0,0,0,0,0,0,0,0,0,0,0,0,0,0,
0,0,0,0,0,0,0,0,0,0,0,0,0,0,0,0,0,0,0,0,8890,8799,8845,0,8602,8603,8605,0,0,0,0,0,0,0,0,0,0,0,0,0,0,0,0,0,0,0,0,0,
0,0,0,0,0,0,0,0,0,0,0,0,0,0,0,8602,8603,8604,8605,0,8842,8847,8893,0,8650,8606,8653,0,0,0,0,0,0,0,0,0,0,0,0,0,0,0,0,0,0,0,0,0,
0,0,0,0,0,0,0,0,0,0,0,0,0,0,0,8698,8606,8606,8653,0,8890,8799,8845,0,8698,8606,8701,0,0,0,0,0,0,0,0,0,0,0,0,0,0,0,0,0,0,0,0,0,
0,0,0,0,0,0,0,0,0,0,0,0,0,0,0,8746,8747,8748,8749,0,8842,8847,8893,0,8746,8748,8749,0,0,0,0,0,0,0,0,0,0,0,0,0,0,0,0,0,0,0,0,0,
0,0,0,0,0,0,0,0,0,8794,8797,0,0,0,0,0,0,0,0,0,8890,8799,8845,0,0,0,0,0,0,0,0,0,0,0,0,0,0,0,0,0,0,0,0,0,0,0,0,0,
0,0,0,0,0,0,0,0,0,8842,8891,8795,8796,8795,8796,8795,8796,8795,8796,8795,8892,8847,8893,0,0,0,0,0,0,0,0,0,0,0,0,0,0,0,0,0,0,0,0,0,0,0,0,0,
0,0,0,0,0,0,0,8794,8795,8892,8798,8799,8798,8799,8798,8799,8798,8799,8798,8799,8798,8799,8845,0,0,0,0,0,0,0,0,0,0,0,0,0,0,0,0,0,0,0,0,0,0,0,0,0,
0,0,0,0,0,0,0,8938,8939,8940,8939,8940,8939,8940,8939,8940,8939,8940,8939,8940,8844,8847,8893,0,0,0,0,0,0,0,0,0,0,0,0,0,0,0,0,0,0,0,0,0,0,0,0,0,
0,0,0,0,0,0,0,0,0,0,0,0,0,0,0,0,0,0,0,0,8938,8940,8941,0,0,0,0,0,0,0,0,0,0,0,0,0,0,0,0,0,0,0,0,0,0,0,0,0,
0,0,0,0,0,0,0,0,0,0,0,0,0,0,0,0,0,0,0,0,0,0,0,0,0,0,0,0,0,0,0,0,0,0,0,0,0,0,0,0,0,0,0,0,0,0,0,0,
0,0,0,0,0,0,0,0,0,0,0,0,0,0,0,0,0,0,0,0,0,0,0,0,0,0,0,0,0,0,0,0,0,0,0,0,0,0,0,0,0,0,0,0,0,0,0,0,
0,0,0,0,0,0,0,0,0,0,0,0,0,0,0,0,0,0,0,0,8794,8795,8797,0,0,0,0,0,0,0,0,0,0,0,0,0,0,0,0,0,0,0,0,0,0,0,0,0,
8796,8795,8796,8795,8796,8795,8796,8795,8796,8795,8796,8797,0,0,0,0,0,0,8794,8795,8892,8798,8845,0,0,0,0,0,0,0,0,0,0,0,0,0,0,0,0,0,0,0,0,0,0,0,0,0,
8799,8798,8799,8798,8799,8798,8799,8798,8799,8798,8799,8845,0,0,0,0,0,0,8890,8846,8847,8846,8893,0,0,0,0,0,0,0,0,0,0,0,0,0,0,0,0,0,0,0,0,0,0,0,0,0,
8940,8939,8940,8939,8940,8939,8940,8939,8940,8939,8940,8941,0,0,0,0,0,0,8938,8940,8939,8940,8941,0,0,0,0,0,0,0,0,0,0,0,0,0,0,0,0,0,0,0,0,0,0,0,0,0,
0,0,0,0,0,0,0,0,0,0,0,0,0,0,0,0,0,0,0,0,0,0,0,0,0,0,0,0,0,0,0,0,0,0,0,0,0,0,0,0,0,0,0,0,0,0,0,0,
0,0,0,0,0,0,0,0,0,0,0,0,0,0,0,0,0,0,0,0,0,0,0,0,0,0,0,0,0,0,0,0,0,0,0,0,0,0,0,0,0,0,0,0,0,0,0,0,
0,0,0,0,0,0,0,0,0,0,0,0,0,0,0,0,0,0,0,0,0,0,0,0,0,0,0,0,0,0,0,0,0,0,0,0,0,0,0,0,0,0,0,0,0,0,0,0,
0,0,0,0,0,0,0,0,0,0,0,0,0,0,0,0,0,0,0,0,0,0,0,0,0,0,0,0,0,0,0,0,0,0,0,0,0,0,0,0,0,0,0,0,0,0,0,0,
0,0,0,0,0,0,0,0,0,0,0,0,0,0,0,0,0,0,0,0,0,0,0,0,0,0,0,0,0,0,0,0,0,0,0,0,0,0,0,0,0,0,0,0,0,0,0,0,
0,0,0,0,0,0,0,0,0,0,0,0,0,0,0,0,0,0,0,0,0,0,0,0,0,0,0,0,0,0,0,0,0,0,0,0,0,0,0,0,0,0,0,0,0,0,0,0,
0,0,0,0,0,0,0,0,0,0,0,0,0,0,0,0,0,0,0,0,0,0,0,0,0,0,0,0,0,0,0,0,0,0,0,0,0,0,0,0,0,0,0,0,0,0,0,0,
0,0,0,0,0,0,0,0,0,0,0,0,0,0,0,0,0,0,0,0,0,0,0,0,0,0,0,0,0,0,0,0,0,0,0,0,0,0,0,0,0,0,0,0,0,0,0,0,
0,0,0,0,0,0,0,0,0,0,0,0,0,0,0,0,0,0,0,0,0,0,0,0,0,0,0,0,0,0,0,0,0,0,0,0,0,0,0,0,0,0,0,0,0,0,0,0,
0,0,0,0,0,0,0,0,0,0,0,0,0,0,0,0,0,0,0,0,0,0,0,0,0,0,0,0,0,0,0,0,0,0,0,0,0,0,0,0,0,0,0,0,0,0,0,0,
0,0,0,0,0,0,0,0,0,0,0,0,0,0,0,0,0,0,0,0,0,0,0,0,0,0,0,0,0,0,0,0,0,0,0,0,0,0,0,0,0,0,0,0,0,0,0,0,
0,0,0,0,0,0,0,0,0,0,0,0,0,0,0,0,0,0,0,0,0,0,0,0,0,0,0,0,0,0,0,0,0,0,0,0,0,0,0,0,0,0,0,0,0,0,0,0,
0,0,0,0,0,0,0,0,0,0,0,0,0,0,0,0,0,0,0,0,0,0,0,0,0,0,0,0,0,0,0,0,0,0,0,0,0,0,0,0,0,0,0,0,0,0,0,0,
0,0,0,0,0,0,0,0,0,0,0,0,0,0,0,0,0,0,0,0,0,0,0,0,0,0,0,0,0,0,0,0,0,0,0,0,0,0,0,0,0,0,0,0,0,0,0,0,
0,0,0,0,0,0,0,0,0,0,0,0,0,0,0,0,0,0,0,0,0,0,0,0,0,0,0,0,0,0,0,0,0,0,0,0,0,0,0,0,0,0,0,0,0,0,0,0,
0,0,0,0,0,0,0,0,0,0,0,0,0,0,0,0,0,0,0,0,0,0,0,0,0,0,0,0,0,0,0,0,0,0,0,0,0,0,0,0,0,0,0,0,0,0,0,0,
0,0,0,0,0,0,0,0,0,0,0,0,0,0,0,0,0,0,0,0,0,0,0,0,0,0,0,0,0,0,0,0,0,0,0,0,0,0,0,0,0,0,0,0,0,0,0,0,
0,0,0,0,0,0,0,0,0,0,0,0,0,0,0,0,0,0,0,0,0,0,0,0,0,0,0,0,0,0,0,0,0,0,0,0,0,0,0,0,0,0,0,0,0,0,0,0,
0,0,0,0,0,0,0,0,0,0,0,0,0,0,0,0,0,0,0,0,0,0,0,0,0,0,0,0,0,0,0,0,0,0,0,0,0,0,0,0,0,0,0,0,0,0,0,0,
0,0,0,0,0,0,0,0,0,0,0,0,0,0,0,0,0,0,0,0,0,0,0,0,0,0,0,0,0,0,0,0,0,0,0,0,0,0,0,0,0,0,0,0,0,0,0,0,
0,0,0,0,0,0,0,0,0,0,0,0,0,0,0,0,0,0,0,0,0,0,0,0,0,0,0,0,0,0,0,0,0,0,0,0,0,0,0,0,0,0,0,0,0,0,0,0,
0,0,0,0,0,0,0,0,0,0,0,0,0,0,0,0,0,0,0,0,0,0,0,0,0,0,0,0,0,0,0,0,0,0,0,0,0,0,0,0,0,0,0,0,0,0,0,0,
0,0,0,0,0,0,0,0,0,0,0,0,0,0,0,0,0,0,0,0,0,0,0,0,0,0,0,0,0,0,0,0,0,0,0,0,0,0,0,0,0,0,0,0,0,0,0,0,
0,0,0,0,0,0,0,0,0,0,0,0,0,0,0,0,0,0,0,0,0,0,0,0,0,0,0,0,0,0,0,0,0,0,0,0,0,0,0,0,0,0,0,0,0,0,0,0,
0,0,0,0,0,0,0,0,0,0,0,0,0,0,0,0,0,0,0,0,0,0,0,0,0,0,0,0,0,0,0,0,0,0,0,0,0,0,0,0,0,0,0,0,0,0,0,0,
0,0,0,0,0,0,0,0,0,0,0,0,0,0,0,0,0,0,0,0,0,0,0,0,0,0,0,0,0,0,0,0,0,0,0,0,0,0,0,0,0,0,0,0,0,0,0,0,
0,0,0,0,0,0,0,0,0,0,0,0,0,0,0,0,0,0,0,0,0,0,0,0,0,0,0,0,0,0,0,0,0,0,0,0,0,0,0,0,0,0,0,0,0,0,0,0,
0,0,0,0,0,0,0,0,0,0,0,0,0,0,0,0,0,0,0,0,0,0,0,0,0,0,0,0,0,0,0,0,0,0,0,0,0,0,0,0,0,0,0,0,0,0,0,0,
0,0,0,0,0,0,0,0,0,0,0,0,0,0,0,0,0,0,0,0,0,0,0,0,0,0,0,0,0,0,0,0,0,0,0,0,0,0,0,0,0,0,0,0,0,0,0,0,
0,0,0,0,0,0,0,0,0,0,0,0,0,0,0,0,0,0,0,0,0,0,0,0,0,0,0,0,0,0,0,0,0,0,0,0,0,0,0,0,0,0,0,0,0,0,0,0,
0,0,0,0,0,0,0,0,0,0,0,0,0,0,0,0,0,0,0,0,0,0,0,0,0,0,0,0,0,0,0,0,0,0,0,0,0,0,0,0,0,0,0,0,0,0,0,0,
0,0,0,0,0,0,0,0,0,0,0,0,0,0,0,0,0,0,0,0,0,0,0,0,0,0,0,0,0,0,0,0,0,0,0,0,0,0,0,0,0,0,0,0,0,0,0,0,
0,0,0,0,0,0,0,0,0,0,0,0,0,0,0,0,0,0,0,0,0,0,0,0,0,0,0,0,0,0,0,0,0,0,0,0,0,0,0,0,0,0,0,0,0,0,0,0,
0,0,0,0,0,0,0,0,0,0,0,0,0,0,0,0,0,0,0,0,0,0,0,0,0,0,0,0,0,0,0,0,0,0,0,0,0,0,0,0,0,0,0,0,0,0,0,0,
0,0,0,0,0,0,0,0,0,0,0,0,0,0,0,0,0,0,0,0,0,0,0,0,0,0,0,0,0,0,0,0,0,0,0,0,0,0,0,0,0,0,0,0,0,0,0,0,
0,0,0,0,0,0,0,0,0,0,0,0,0,0,0,0,0,0,0,0,0,0,0,0,0,0,0,0,0,0,0,0,0,0,0,0,0,0,0,0,0,0,0,0,0,0,0,0,
0,0,0,0,0,0,0,0,0,0,0,0,0,0,0,0,0,0,0,0,0,0,0,0,0,0,0,0,0,0,0,0,0,0,0,0,0,0,0,0,0,0,0,0,0,0,0,0,
0,0,0,0,0,0,0,0,0,0,0,0,0,0,0,0,0,0,0,0,0,0,0,0,0,0,0,0,0,0,0,0,0,0,0,0,0,0,0,0,0,0,0,0,0,0,0,0,
0,0,0,0,0,0,0,0,0,0,0,0,0,0,0,0,0,0,0,0,0,0,0,0,0,0,0,0,0,0,0,0,0,0,0,0,0,0,0,0,0,0,0,0,0,0,0,0,
0,0,0,0,0,0,0,0,0,0,0,0,0,0,0,0,0,0,0,0,0,0,0,0,0,0,0,0,0,0,0,0,0,0,0,0,0,0,0,0,0,0,0,0,0,0,0,0,
0,0,0,0,0,0,0,0,0,0,0,0,0,0,0,0,0,0,0,0,0,0,0,0,0,0,0,0,0,0,0,0,0,0,0,0,0,0,0,0,0,0,0,0,0,0,0,0,
0,0,0,0,0,0,0,0,0,0,0,0,0,0,0,0,0,0,0,0,0,0,0,0,0,0,0,0,0,0,0,0,0,0,0,0,0,0,0,0,0,0,0,0,0,0,0,0,
0,0,0,0,0,0,0,0,0,0,0,0,0,0,0,0,0,0,0,0,0,0,0,0,0,0,0,0,0,0,0,0,0,0,0,0,0,0,0,0,0,0,0,0,0,0,0,0,
0,0,0,0,0,0,0,0,0,0,0,0,0,0,0,0,0,0,0,0,0,0,0,0,0,0,0,0,0,0,0,0,0,0,0,0,0,0,0,0,0,0,0,0,0,0,0,0,
0,0,0,0,0,0,0,0,0,0,0,0,0,0,0,0,0,0,0,0,0,0,0,0,0,0,0,0,0,0,0,0,0,0,0,0,0,0,0,0,0,0,0,0,0,0,0,0,
0,0,0,0,0,0,0,0,0,0,0,0,0,0,0,0,0,0,0,0,0,0,0,0,0,0,0,0,0,0,0,0,0,0,0,0,0,0,0,0,0,0,0,0,0,0,0,0,
0,0,0,0,0,0,0,0,0,0,0,0,0,0,0,0,0,0,0,0,0,0,0,0,0,0,0,0,0,0,0,0,0,0,0,0,0,0,0,0,0,0,0,0,0,0,0,0,
0,0,0,0,0,0,0,0,0,0,0,0,0,0,0,0,0,0,0,0,0,0,0,0,0,0,0,0,0,0,0,0,0,0,0,0,0,0,0,0,0,0,0,0,0,0,0,0,
0,0,0,0,0,0,0,0,0,0,0,0,0,0,0,0,0,0,0,0,0,0,0,0,0,0,0,0,0,0,0,0,0,0,0,0,0,0,0,0,0,0,0,0,0,0,0,0
</data>
 </layer>
 <layer id="7" name="Path_B_1+3" width="48" height="96">
  <data encoding="csv">
8524,8525,8524,8525,8524,8525,8524,8525,8524,8525,8524,8525,8524,8525,8524,8525,8524,8525,8524,8525,8524,8525,8524,8525,8524,8525,8524,8525,8524,8525,8524,8525,8524,8525,8524,8525,8524,8525,8524,8525,8524,8525,8524,8525,8524,8525,8524,8525,
8572,8573,8572,8573,8572,8573,8572,8573,8572,8573,8572,8573,8572,8573,8572,8573,8572,8573,8572,8573,8572,8573,8572,8573,8572,8573,8572,8573,8572,8573,8572,8573,8572,8573,8572,8573,8572,8573,8572,8573,8572,8573,8572,8573,8572,8573,8572,8573,
8524,8525,8524,8525,8524,8525,8524,8525,8524,8525,8524,8525,8524,8525,8524,8525,8524,8525,8524,8525,8524,8525,8524,8525,8524,8525,8524,8525,8524,8525,8524,8525,8524,8525,8524,8525,8524,8525,8524,8525,8524,8525,8524,8525,8524,8525,8524,8525,
8572,8573,8572,8573,8572,8573,8572,8573,8572,8573,8572,8573,8572,8573,8572,8573,8572,8573,8572,8573,8572,8573,8572,8573,8572,8573,8572,8573,8572,8573,8572,8573,8572,8573,8572,8573,8572,8573,8572,8573,8572,8573,8572,8573,8572,8573,8572,8573,
8524,8525,8524,8525,8524,8525,8524,8525,8524,8525,8524,8525,8524,8525,8524,8525,8524,8525,8524,8525,8524,8525,8524,8525,8524,8525,8524,8525,8524,8525,8524,8525,8524,8525,8524,8525,8524,8525,8524,8525,8524,8525,8524,8525,8524,8525,8524,8525,
8572,8573,8572,8573,8572,8573,8572,8573,8572,8573,8572,8573,8572,8573,8572,8573,8572,8573,8572,8573,8572,8573,8572,8573,8572,8573,8572,8573,8572,8573,8572,8573,8572,8573,8572,8573,8572,8573,8572,8573,8572,8573,8572,8573,8572,8573,8572,8573,
8524,8525,8524,8525,8524,8525,8524,8525,8524,8525,8524,8525,8524,8525,8524,8525,8524,8525,8524,8525,8524,8525,8524,8525,8524,8525,8524,8525,8524,8525,8524,8525,8524,8525,8524,8525,8524,8525,8524,8525,8524,8525,8524,8525,8524,8525,8524,8525,
8572,8573,8572,8573,8572,8573,8572,8573,8572,8573,8572,8573,8572,8573,8572,8573,8572,8573,8572,8573,8572,8573,8572,8573,8572,8573,8572,8573,8572,8573,8572,8573,8572,8573,8572,8573,8572,8573,8572,8573,8572,8573,8572,8573,8572,8573,8572,8573,
8524,8525,8524,8525,8524,8525,8524,8525,8524,8525,8524,8525,8524,8525,8524,8525,8524,8525,8524,8525,8524,8525,8524,8525,8524,8525,8524,8525,8524,8525,8524,8525,8524,8525,8524,8525,8524,8525,8524,8525,8524,8525,8524,8525,8524,8525,8524,8525,
8572,8573,8572,8573,8572,8573,8572,8573,8572,8573,8572,8573,8572,8573,8572,8573,8572,8573,8572,8573,8572,8573,8572,8573,8572,8573,8572,8573,8572,8573,8572,8573,8572,8573,8572,8573,8572,8573,8572,8573,8572,8573,8572,8573,8572,8573,8572,8573,
8524,8525,8524,8525,8524,8525,8524,8525,8524,8525,8524,8525,8524,8525,8524,8525,8524,8525,8524,8525,8524,8525,8524,8525,8524,8525,8524,8525,8524,8525,8524,8525,8524,8525,8524,8525,8524,8525,8524,8525,8524,8525,8524,8525,8524,8525,8524,8525,
8572,8573,8572,8573,8572,8573,8572,8573,8572,8573,8572,8573,8572,8573,8572,8573,8572,8573,8572,8573,8572,8573,8572,8573,8572,8573,8572,8573,8572,8573,8572,8573,8572,8573,8572,8573,8572,8573,8572,8573,8572,8573,8572,8573,8572,8573,8572,8573,
8524,8525,8524,8525,8524,8525,8524,8525,8524,8525,8524,8525,8524,8525,8524,8525,8524,8525,8524,8525,8524,8525,8524,8525,8524,8525,8524,8525,8524,8525,8524,8525,8524,8525,8524,8525,8524,8525,8524,8525,8524,8525,8524,8525,8524,8525,8524,8525,
8572,8573,8572,8573,8572,8573,8572,8573,8572,8573,8572,8573,8572,8573,8572,8573,8572,8573,8572,8573,8572,8573,8572,8573,8572,8573,8572,8573,8572,8573,8572,8573,8572,8573,8572,8573,8572,8573,8572,8573,8572,8573,8572,8573,8572,8573,8572,8573,
8524,8525,8524,8525,8524,8525,8524,8525,8524,8525,8524,8525,8524,8525,8524,8525,8524,8525,8524,8525,8524,8525,8524,8525,8524,8525,8524,8525,8524,8525,8524,8525,8524,8525,8524,8525,8524,8525,8524,8525,8524,8525,8524,8525,8524,8525,8524,8525,
8572,8573,8572,8573,8572,8573,8572,8573,8572,8573,8572,8573,8572,8573,8572,8573,8572,8573,8572,8573,8572,8573,8572,8573,8572,8573,8572,8573,8572,8573,8572,8573,8572,8573,8572,8573,8572,8573,8572,8573,8572,8573,8572,8573,8572,8573,8572,8573,
8524,8525,8524,8525,8524,8525,8524,8525,8524,8525,8524,8525,8524,8525,8524,8525,8524,8525,8524,8525,8524,8525,8524,8525,8524,8525,8524,8525,8524,8525,8524,8525,8524,8525,8524,8525,8524,8525,8524,8525,8524,8525,8524,8525,8524,8525,8524,8525,
8572,8573,8572,8573,8572,8573,8572,8573,8572,8573,8572,8573,8572,8573,8572,8573,8572,8573,8572,8573,8572,8573,8572,8573,8572,8573,8572,8573,8572,8573,8572,8573,8572,8573,8572,8573,8572,8573,8572,8573,8572,8573,8572,8573,8572,8573,8572,8573,
8524,8525,8524,8525,8524,8525,8524,8525,8524,8525,8524,8525,8524,8525,8524,8525,8524,8525,8524,8525,8524,8525,8524,8525,8524,8525,8524,8525,8524,8525,8524,8525,8524,8525,8524,8525,8524,8525,8524,8525,8524,8525,8524,8525,8524,8525,8524,8525,
8572,8573,8572,8573,8572,8573,8572,8573,8572,8573,8572,8573,8572,8573,8572,8573,8572,8573,8572,8573,8572,8573,8572,8573,8572,8573,8572,8573,8572,8573,8572,8573,8572,8573,8572,8573,8572,8573,8572,8573,8572,8573,8572,8573,8572,8573,8572,8573,
8524,8525,8524,8525,8524,8525,8524,8525,8524,8525,8524,8525,8524,8525,8524,8525,8524,8525,8524,8525,8524,8525,8524,8525,8524,8525,8524,8525,8524,8525,8524,8525,8524,8525,8524,8525,8524,8525,8524,8525,8524,8525,8524,8525,8524,8525,8524,8525,
8572,8573,8572,8573,8572,8573,8572,8573,8572,8573,8572,8573,8572,8573,8572,8573,8572,8573,8572,8573,8572,8573,8572,8573,8572,8573,8572,8573,8572,8573,8572,8573,8572,8573,8572,8573,8572,8573,8572,8573,8572,8573,8572,8573,8572,8573,8572,8573,
8524,8525,52440,52440,52440,52440,0,0,0,0,0,0,0,0,0,0,0,8317,0,0,0,0,0,0,0,0,0,0,0,0,8524,8525,8524,8525,8524,8525,8524,8525,8524,8525,8524,8525,8524,8525,8524,8525,8524,8525,
8572,8573,0,0,0,0,0,0,0,0,0,0,0,0,0,0,0,0,0,0,0,0,0,0,0,0,0,0,0,0,8572,8573,8572,8573,8572,8573,8572,8573,8572,8573,8572,8573,8572,8573,8572,8573,8572,8573,
8524,8525,0,8800,8801,0,0,0,0,0,0,0,0,0,0,0,8894,0,0,0,0,0,0,0,0,0,0,0,0,0,8524,8525,8524,8525,8524,8525,8524,8525,8524,8525,8524,8525,8524,8525,8524,8525,8524,8525,
8572,8573,0,8848,8849,0,0,0,0,0,0,0,0,0,0,0,0,0,0,0,0,8894,0,0,0,0,0,0,0,0,8572,8573,8572,8573,8572,8573,8572,8573,8572,8573,8572,8573,8572,8573,8572,8573,8572,8573,
8524,8525,0,0,0,8317,0,0,0,0,0,0,0,0,0,0,0,0,0,0,0,0,0,0,0,0,0,0,0,0,8524,8525,8524,8525,8524,8525,8524,8525,8524,8525,8524,8525,8524,8525,8524,8525,8524,8525,
8572,8573,0,0,0,0,0,0,8317,0,0,8524,8525,8524,8525,8524,8525,8524,8525,0,0,0,0,0,0,0,0,0,0,0,8572,8573,8572,8573,8572,8573,8572,8573,8572,8573,8572,8573,8572,8573,8572,8573,8572,8573,
0,0,0,0,0,8302,8303,8303,8303,8303,8304,8572,8573,8572,8573,8572,8573,8572,8573,8302,8303,8303,8303,8304,8524,8525,8524,8525,8524,8525,8524,8525,8524,8525,8524,8525,8524,8525,8524,8525,8524,8525,8524,8525,8524,8525,8524,8525,
0,0,0,0,0,0,0,0,0,0,0,8524,8525,8524,8525,8524,8525,8524,8525,0,0,0,0,0,8572,8573,8572,8573,8572,8573,8572,8573,8572,8573,8572,8573,8572,8573,8572,8573,8572,8573,8572,8573,8572,8573,8572,8573,
0,0,0,0,0,0,0,0,0,0,0,8572,8573,8572,8573,8572,8573,8572,8573,0,0,0,0,8317,0,0,8524,8525,8524,8525,8524,8525,8524,8525,8524,8525,8524,8525,8524,8525,8524,8525,8524,8525,8524,8525,8524,8525,
0,0,0,0,0,0,0,0,0,0,0,8524,8525,8524,8525,0,8317,52440,52440,0,0,0,0,0,8317,0,8572,8573,8572,8573,8572,8573,8572,8573,8572,8573,8572,8573,8572,8573,8572,8573,8572,8573,8572,8573,8572,8573,
0,0,0,0,0,0,0,0,0,0,0,8572,8573,8572,8573,0,0,8317,0,0,0,0,0,0,0,0,0,52440,52440,52440,8524,8525,8524,8525,8524,8525,8524,8525,8524,8525,8524,8525,8524,8525,8524,8525,8524,8525,
0,0,0,0,0,0,0,0,0,0,0,8524,8525,8524,8525,0,0,0,0,0,0,0,0,0,0,0,0,0,52440,52440,8572,8573,8572,8573,8572,8573,8572,8573,8572,8573,8572,8573,8572,8573,8572,8573,8572,8573,
0,0,0,0,0,0,0,0,0,0,0,8572,8573,8572,8573,0,0,0,0,0,0,0,0,0,0,0,0,0,0,0,8524,8525,8524,8525,8524,8525,8524,8525,8524,8525,8524,8525,8524,8525,8524,8525,8524,8525,
0,0,0,0,0,0,0,0,0,0,0,8524,8525,8524,8525,0,0,0,0,0,0,0,0,0,0,0,0,0,8320,8320,8572,8573,8572,8573,8572,8573,8572,8573,8572,8573,8572,8573,8572,8573,8572,8573,8572,8573,
0,0,0,0,0,0,0,0,0,0,0,8572,8573,8572,8573,0,0,0,0,0,0,0,0,0,0,0,0,0,0,8320,8524,8525,8524,8525,8524,8525,8524,8525,8524,8525,8524,8525,8524,8525,8524,8525,8524,8525,
0,0,0,0,0,0,0,0,0,0,0,0,0,0,0,0,0,0,0,0,8800,8801,0,0,8524,8525,0,0,0,0,8572,8573,8572,8573,8572,8573,8572,8573,8572,8573,8572,8573,8572,8573,8572,8573,8572,8573,
0,0,0,0,0,0,0,0,0,8942,8943,0,0,0,0,0,0,0,0,0,8848,8849,0,0,8572,8573,0,0,0,0,8524,8525,8524,8525,8524,8525,8524,8525,8524,8525,8524,8525,8524,8525,8524,8525,8524,8525,
0,0,0,0,0,0,0,0,0,0,0,0,0,0,0,0,0,0,0,0,0,0,0,0,8524,8525,0,0,0,0,8572,8573,8572,8573,8572,8573,8572,8573,8572,8573,8572,8573,8572,8573,8572,8573,8572,8573,
8524,8525,0,0,0,0,0,0,0,0,0,0,0,0,0,0,0,0,0,0,0,0,0,0,8572,8573,0,0,0,0,8524,8525,8524,8525,8524,8525,8524,8525,8524,8525,8524,8525,8524,8525,8524,8525,8524,8525,
8572,8573,8302,8303,8303,8303,8303,8303,8303,8303,8304,8524,8525,8524,8525,8524,8525,8524,8525,8302,8303,8303,8303,8304,8524,8525,0,0,0,0,8572,8573,8572,8573,8572,8573,8572,8573,8572,8573,8572,8573,8572,8573,8572,8573,8572,8573,
8524,8525,52440,52440,0,0,8317,0,0,8320,8320,8572,8573,8572,8573,8572,8573,8572,8573,0,0,0,0,0,8572,8573,0,0,0,0,8524,8525,8524,8525,8524,8525,8524,8525,8524,8525,8524,8525,8524,8525,8524,8525,8524,8525,
8572,8573,0,0,0,8317,0,0,0,8317,0,8320,0,0,0,0,0,0,0,8317,0,0,0,0,0,0,0,0,0,0,8572,8573,8572,8573,8572,8573,8572,8573,8572,8573,8572,8573,8572,8573,8572,8573,8572,8573,
0,0,0,0,0,0,0,0,0,0,0,0,0,0,0,0,0,0,0,0,0,0,0,0,0,0,0,0,0,0,8524,8525,8524,8525,8524,8525,8524,8525,8524,8525,8524,8525,8524,8525,8524,8525,8524,8525,
0,0,0,0,8894,0,0,0,0,0,0,0,0,0,0,0,0,0,0,0,8894,0,0,0,0,0,0,0,0,0,8572,8573,8572,8573,8572,8573,8572,8573,8572,8573,8572,8573,8572,8573,8572,8573,8572,8573,
0,0,0,0,0,0,0,0,0,0,0,0,0,0,0,0,0,0,0,0,0,0,0,0,0,0,0,0,0,0,8524,8525,8524,8525,8524,8525,8524,8525,8524,8525,8524,8525,8524,8525,8524,8525,8524,8525,
0,0,0,0,0,0,0,0,0,0,0,0,0,0,0,0,0,0,0,0,0,0,0,0,0,0,0,0,0,0,8572,8573,8572,8573,8572,8573,8572,8573,8572,8573,8572,8573,8572,8573,8572,8573,8572,8573,
8524,8525,8524,8525,8524,8525,8524,8525,8524,8525,8524,8525,8524,8525,8524,8525,8524,8525,8524,8525,8524,8525,8524,8525,8524,8525,8524,8525,8524,8525,8524,8525,8524,8525,8524,8525,8524,8525,8524,8525,8524,8525,8524,8525,8524,8525,8524,8525,
8572,8573,8572,8573,8572,8573,8572,8573,8572,8573,8572,8573,8572,8573,8572,8573,8572,8573,8572,8573,8572,8573,8572,8573,8572,8573,8572,8573,8572,8573,8572,8573,8572,8573,8572,8573,8572,8573,8572,8573,8572,8573,8572,8573,8572,8573,8572,8573,
36472,36473,36472,36356,8524,8525,8524,8525,8524,8525,8524,8525,8524,8525,8524,8525,8524,8525,8524,8525,8524,8525,8524,8525,8524,8525,8524,8525,8524,8525,8524,8525,8524,8525,8524,8525,8524,8525,8524,8525,8524,8525,8524,8525,8524,8525,8524,8525,
36587,36588,36587,36356,8572,8573,8572,8573,8572,8573,8572,8573,8572,8573,8572,8573,8572,8573,8572,8573,8572,8573,8572,8573,8572,8573,8572,8573,8572,8573,8572,8573,8572,8573,8572,8573,8572,8573,8572,8573,8572,8573,8572,8573,8572,8573,8572,8573,
36502,36501,36356,36471,36472,36473,36472,36473,36356,0,8524,8525,8524,8525,8524,8525,8524,8525,8524,8525,8524,8525,8524,8525,8524,8525,8524,8525,8524,8525,8524,8525,8524,8525,8524,8525,8524,8525,8524,8525,8524,8525,8524,8525,8524,8525,8524,8525,
36617,36616,36356,36586,36587,36588,36587,36588,36471,36356,8572,8573,8572,8573,8572,8573,8572,8573,8572,8573,8572,8573,8572,8573,8572,8573,8572,8573,8572,8573,8572,8573,8572,8573,8572,8573,8572,8573,8572,8573,8572,8573,8572,8573,8572,8573,8572,8573,
0,0,36471,36472,36473,36472,36473,36356,36586,36471,36472,36356,8524,8525,8524,8525,8524,8525,8524,8525,8524,8525,8524,8525,8524,8525,8524,8525,8524,8525,8524,8525,8524,8525,8524,8525,8524,8525,8524,8525,8524,8525,8524,8525,8524,8525,8524,8525,
0,0,36586,36587,36588,36587,36588,36356,0,36586,36587,36356,8572,8573,8572,8573,8572,8573,8572,8573,8572,8573,8572,8573,8572,8573,8572,8573,8572,8573,8572,8573,8572,8573,8572,8573,8572,8573,8572,8573,8572,8573,8572,8573,8572,8573,8572,8573,
0,0,0,0,0,0,0,36471,36472,36473,36356,36356,8524,8525,8524,8525,8524,8525,8524,8525,8524,8525,8524,8525,8524,8525,8524,8525,8524,8525,8524,8525,8524,8525,8524,8525,8524,8525,8524,8525,8524,8525,8524,8525,8524,8525,8524,8525,
0,0,0,0,0,0,0,36586,36587,36588,36356,36356,8572,8573,8572,8573,8572,8573,8572,8573,8572,8573,8572,8573,8572,8573,8572,8573,8572,8573,8572,8573,8572,8573,8572,8573,8572,8573,8572,8573,8572,8573,8572,8573,8572,8573,8572,8573,
0,0,0,0,0,0,0,0,0,0,36356,36471,36356,0,8524,8525,8524,8525,8524,8525,8524,8525,8524,8525,8524,8525,8524,8525,8524,8525,8524,8525,8524,8525,8524,8525,8524,8525,8524,8525,8524,8525,8524,8525,8524,8525,8524,8525,
0,0,0,0,0,0,0,0,0,0,36356,36586,36471,36356,8572,8573,8572,8573,8572,8573,8572,8573,8572,8573,8572,8573,8572,8573,8572,8573,8572,8573,8572,8573,8572,8573,8572,8573,8572,8573,8572,8573,8572,8573,8572,8573,8572,8573,
0,0,0,0,0,0,0,0,0,0,36471,36356,36586,36471,36472,36473,36472,36473,36472,36473,36472,36473,36472,36356,8524,8525,8524,8525,8524,8525,8524,8525,8524,8525,8524,8525,8524,8525,8524,8525,8524,8525,8524,8525,8524,8525,8524,8525,
0,0,0,0,0,0,0,0,0,0,36586,36356,0,36586,36587,36588,36587,36588,36587,36588,36587,36588,36587,36356,8572,8573,8572,8573,8572,8573,8572,8573,8572,8573,8572,8573,8572,8573,8572,8573,8572,8573,8572,8573,8572,8573,8572,8573,
0,0,0,0,0,0,0,0,0,0,0,36471,36472,36473,36472,36473,36472,36473,36472,36473,36472,36356,0,36471,36472,36473,36472,36473,36472,36473,36472,36473,36472,36473,36472,36473,36472,36473,36472,36473,36472,36473,36472,36473,36472,36473,36472,36473,
0,0,0,0,0,0,0,0,0,0,0,36586,36587,36588,36587,36588,36587,36588,36587,36588,36587,36471,36356,36586,36587,36588,36587,36588,36587,36588,36587,36588,36587,36588,36587,36588,36587,36588,36587,36588,36587,36588,36587,36588,36587,36588,36587,36588,
0,0,0,0,0,0,0,0,0,0,0,0,0,0,0,0,0,0,0,0,0,36586,36471,36472,36473,36472,36473,36472,36473,36472,36473,36472,36473,36472,36473,36472,36473,36472,36473,36472,36473,36472,36473,36472,36473,36472,36473,36472,
0,0,0,0,0,0,0,0,0,0,0,0,0,0,0,0,0,0,0,0,0,0,36586,36587,36588,36587,36588,36587,36588,36587,36588,36587,36588,36587,36588,36587,36588,36587,36588,36587,36588,36587,36588,36587,36588,36587,36588,36587,
0,0,0,0,0,0,0,0,0,0,0,0,0,0,0,0,0,0,0,0,0,0,0,0,0,0,0,0,0,0,0,0,0,0,0,0,0,0,0,0,0,0,0,0,0,0,0,0,
0,0,0,0,0,0,0,0,0,0,0,0,0,0,0,0,0,0,0,0,0,0,0,0,0,0,0,0,0,0,0,0,0,0,0,0,0,0,0,0,0,0,0,0,0,0,0,0,
0,0,0,0,0,0,0,0,0,0,0,0,0,0,0,0,0,0,0,0,0,0,0,0,0,0,0,0,0,0,0,0,0,0,0,0,0,0,0,0,0,0,0,0,0,0,0,0,
0,0,0,0,0,0,0,0,0,0,0,0,0,0,0,0,0,0,0,0,0,0,0,0,0,0,0,0,0,0,0,0,0,0,0,0,0,0,0,0,0,0,0,0,0,0,0,0,
0,0,0,0,0,0,0,0,0,0,0,0,0,0,0,0,0,0,0,0,0,0,0,0,0,0,0,0,0,0,0,0,0,0,0,0,0,0,0,0,0,0,0,0,0,0,0,0,
0,0,0,0,0,0,0,0,0,0,0,0,0,0,0,0,0,0,0,0,0,0,0,0,0,0,0,0,0,0,0,0,0,0,0,0,0,0,0,0,0,0,0,0,0,0,0,0,
0,0,0,0,0,0,0,0,0,0,0,0,0,0,0,0,0,0,0,0,0,0,0,0,0,0,0,0,0,0,0,0,0,0,0,0,0,0,0,0,0,0,0,0,0,0,0,0,
0,0,0,0,0,0,0,0,0,0,0,0,0,0,0,0,0,0,0,0,0,0,0,0,0,0,0,0,0,0,0,0,0,0,0,0,0,0,0,0,0,0,0,0,0,0,0,0,
0,0,0,0,0,0,0,0,0,0,0,0,0,0,0,0,0,0,0,0,0,0,0,0,0,0,0,0,0,0,0,0,0,0,0,0,0,0,0,0,0,0,0,0,0,0,0,0,
0,0,0,0,0,0,0,0,0,0,0,0,0,0,0,0,0,0,0,0,0,0,0,0,0,0,0,0,0,0,0,0,0,0,0,0,0,0,0,0,0,0,0,0,0,0,0,0,
0,0,0,0,0,0,0,0,0,0,0,0,0,0,0,0,0,0,0,0,0,0,0,0,0,0,0,0,0,0,0,0,0,0,0,0,0,0,0,0,0,0,0,0,0,0,0,0,
0,0,0,0,0,0,0,0,0,0,0,0,0,0,0,0,0,0,0,0,0,0,0,0,0,0,0,0,0,0,0,0,0,0,0,0,0,0,0,0,0,0,0,0,0,0,0,0,
0,0,0,0,0,0,0,0,0,0,0,0,0,0,0,0,0,0,0,0,0,0,0,0,0,0,0,0,0,0,0,0,0,0,0,0,0,0,0,0,0,0,0,0,0,0,0,0,
0,0,0,0,0,0,0,0,0,0,0,0,0,0,0,0,0,0,0,0,0,0,0,0,0,0,0,0,0,0,0,0,0,0,0,0,0,0,0,0,0,0,0,0,0,0,0,0,
0,0,0,0,0,0,0,0,0,0,0,0,0,0,0,0,0,0,0,0,0,0,0,0,0,0,0,0,0,0,0,0,0,0,0,0,0,0,0,0,0,0,0,0,0,0,0,0,
0,0,0,0,0,0,0,0,0,0,0,0,0,0,0,0,0,0,0,0,0,0,0,0,0,0,0,0,0,0,0,0,0,0,0,0,0,0,0,0,0,0,0,0,0,0,0,0,
0,0,0,0,0,0,0,0,0,0,0,0,0,0,0,0,0,0,0,0,0,0,0,0,0,0,0,0,0,0,0,0,0,0,0,0,0,0,0,0,0,0,0,0,0,0,0,0,
0,0,0,0,0,0,0,0,0,0,0,0,0,0,0,0,0,0,0,0,0,0,0,0,0,0,0,0,0,0,0,0,0,0,0,0,0,0,0,0,0,0,0,0,0,0,0,0,
0,0,0,0,0,0,0,0,0,0,0,0,0,0,0,0,0,0,0,0,0,0,0,0,0,0,0,0,0,0,0,0,0,0,0,0,0,0,0,0,0,0,0,0,0,0,0,0,
0,0,0,0,0,0,0,0,0,0,0,0,0,0,0,0,0,0,0,0,0,0,0,0,0,0,0,0,0,0,0,0,0,0,0,0,0,0,0,0,0,0,0,0,0,0,0,0,
0,0,0,0,0,0,0,0,0,0,0,0,0,0,0,0,0,0,0,0,0,0,0,0,0,0,0,0,0,0,0,0,0,0,0,0,0,0,0,0,0,0,0,0,0,0,0,0,
0,0,0,0,0,0,0,0,0,0,0,0,0,0,0,0,0,0,0,0,0,0,0,0,0,0,0,0,0,0,0,0,0,0,0,0,0,0,0,0,0,0,0,0,0,0,0,0,
0,0,0,0,0,0,0,0,0,0,0,0,0,0,0,0,0,0,0,0,0,0,0,0,0,0,0,0,0,0,0,0,0,0,0,0,0,0,0,0,0,0,0,0,0,0,0,0,
0,0,0,0,0,0,0,0,0,0,0,0,0,0,0,0,0,0,0,0,0,0,0,0,0,0,0,0,0,0,0,0,0,0,0,0,0,0,0,0,0,0,0,0,0,0,0,0,
0,0,0,0,0,0,0,0,0,0,0,0,0,0,0,0,0,0,0,0,0,0,0,0,0,0,0,0,0,0,0,0,0,0,0,0,0,0,0,0,0,0,0,0,0,0,0,0,
0,0,0,0,0,0,0,0,0,0,0,0,0,0,0,0,0,0,0,0,0,0,0,0,0,0,0,0,0,0,0,0,0,0,0,0,0,0,0,0,0,0,0,0,0,0,0,0,
0,0,0,0,0,0,0,0,0,0,0,0,0,0,0,0,0,0,0,0,0,0,0,0,0,0,0,0,0,0,0,0,0,0,0,0,0,0,0,0,0,0,0,0,0,0,0,0,
0,0,0,0,0,0,0,0,0,0,0,0,0,0,0,0,0,0,0,0,0,0,0,0,0,0,0,0,0,0,0,0,0,0,0,0,0,0,0,0,0,0,0,0,0,0,0,0,
0,0,0,0,0,0,0,0,0,0,0,0,0,0,0,0,0,0,0,0,0,0,0,0,0,0,0,0,0,0,0,0,0,0,0,0,0,0,0,0,0,0,0,0,0,0,0,0,
0,0,0,0,0,0,0,0,0,0,0,0,0,0,0,0,0,0,0,0,0,0,0,0,0,0,0,0,0,0,0,0,0,0,0,0,0,0,0,0,0,0,0,0,0,0,0,0
 </data>
 </layer>
 <layer id="188" name="♦_Top_A_1" width="48" height="96">
  <data encoding="csv">
0,0,0,0,0,0,0,0,0,0,0,0,0,0,0,0,0,0,0,0,0,0,0,0,0,0,0,0,0,0,0,0,0,0,0,0,0,0,0,0,0,0,0,0,0,0,0,0,
0,0,0,0,0,0,0,0,0,0,0,0,0,0,0,0,0,0,0,0,0,0,0,0,0,0,0,0,0,0,0,0,0,0,0,0,0,0,0,0,0,0,0,0,0,0,0,0,
0,0,0,0,0,0,0,0,0,0,0,0,0,0,0,0,0,0,0,0,0,0,0,0,0,0,0,0,0,0,0,0,0,0,0,0,0,0,0,0,0,0,0,0,0,0,0,0,
0,0,0,0,0,0,0,0,0,0,0,0,0,0,0,0,0,0,0,0,0,0,0,0,0,0,0,0,0,0,0,0,0,0,0,0,0,0,0,0,0,0,0,0,0,0,0,0,
0,0,0,0,0,0,0,0,0,0,0,0,0,0,0,0,0,0,0,0,0,0,0,0,0,0,0,0,0,0,0,0,0,0,0,0,0,0,0,0,0,0,0,0,0,0,0,0,
0,0,0,0,0,0,0,0,0,0,0,0,0,0,0,0,0,0,0,0,0,0,0,0,0,0,0,0,0,0,0,0,0,0,0,0,0,0,0,0,0,0,0,0,0,0,0,0,
0,0,0,0,0,0,0,0,0,0,0,0,0,0,0,0,0,0,0,0,0,0,0,0,0,0,0,0,0,0,0,0,0,0,0,0,0,0,0,0,0,0,0,0,0,0,0,0,
0,0,0,0,0,0,0,0,0,0,0,0,0,0,0,0,0,0,0,0,0,0,0,0,0,0,0,0,0,0,0,0,0,0,0,0,0,0,0,0,0,0,0,0,0,0,0,0,
0,0,0,0,0,0,0,0,0,0,0,0,0,0,0,0,0,0,0,0,0,0,0,0,0,0,0,0,0,0,0,0,0,0,0,0,0,0,0,0,0,0,0,0,0,0,0,0,
0,0,0,0,0,0,0,0,0,0,0,0,0,0,0,0,0,0,0,0,0,0,0,0,0,0,0,0,0,0,0,0,0,0,0,0,0,0,0,0,0,0,0,0,0,0,0,0,
0,0,0,0,0,0,0,0,0,0,0,0,0,0,0,0,0,0,0,0,0,0,0,0,0,0,0,0,0,0,0,0,0,0,0,0,0,0,0,0,0,0,0,0,0,0,0,0,
0,0,0,0,0,0,0,0,0,0,0,0,0,0,0,0,0,0,0,0,0,0,0,0,0,0,0,0,0,0,0,0,0,0,0,0,0,0,0,0,0,0,0,0,0,0,0,0,
0,0,0,0,0,0,0,0,0,0,0,0,0,0,0,0,0,0,0,0,0,0,0,0,0,0,0,0,0,0,0,0,0,0,0,0,0,0,0,0,0,0,0,0,0,0,0,0,
0,0,0,0,0,0,0,0,0,0,0,0,0,0,0,0,0,0,0,0,0,0,0,0,0,0,0,0,0,0,0,0,0,0,0,0,0,0,0,0,0,0,0,0,0,0,0,0,
0,0,0,0,0,0,0,0,0,0,0,0,0,0,0,0,0,0,0,0,0,0,0,0,0,0,0,0,0,0,0,0,0,0,0,0,0,0,0,0,0,0,0,0,0,0,0,0,
0,0,0,0,0,0,0,0,0,0,0,0,0,0,0,0,0,0,0,0,0,0,0,0,0,0,0,0,0,0,0,0,0,0,0,0,0,0,0,0,0,0,0,0,0,0,0,0,
0,0,0,0,0,0,0,0,0,0,0,0,0,0,0,0,0,0,0,0,0,0,0,0,0,0,0,0,0,0,0,0,0,0,0,0,0,0,0,0,0,0,0,0,0,0,0,0,
0,0,0,0,0,0,0,0,0,0,0,0,0,0,0,0,0,0,0,0,0,0,0,0,0,0,0,0,0,0,0,0,0,0,0,0,0,0,0,0,0,0,0,0,0,0,0,0,
0,0,0,0,0,0,0,0,0,0,0,0,0,0,0,0,0,0,0,0,0,0,0,0,0,0,0,0,0,0,0,0,0,0,0,0,0,0,0,0,0,0,0,0,0,0,0,0,
0,0,0,0,0,0,0,0,0,0,0,0,0,0,0,0,0,0,0,0,0,0,0,0,0,0,0,0,0,0,0,0,0,0,0,0,0,0,0,0,0,0,0,0,0,0,0,0,
0,0,0,0,0,0,0,0,0,0,0,0,0,0,0,0,0,0,0,0,0,0,0,0,0,0,0,0,0,0,0,0,0,0,0,0,0,0,0,0,0,0,0,0,0,0,0,0,
0,0,0,0,0,0,0,0,0,0,0,0,0,0,0,0,0,0,0,0,0,0,0,0,0,0,0,0,0,0,0,0,0,0,0,0,0,0,0,0,0,0,0,0,0,0,0,0,
0,0,0,0,0,0,0,0,0,0,0,0,0,0,0,0,0,0,0,0,0,0,0,0,0,0,0,0,0,0,0,0,0,0,0,0,0,0,0,0,0,0,0,0,0,0,0,0,
0,0,0,0,0,0,0,0,0,0,0,0,0,0,0,0,0,0,0,0,0,0,0,0,0,0,0,0,0,0,0,0,0,0,0,0,0,0,0,0,0,0,0,0,0,0,0,0,
0,0,0,0,0,0,0,0,0,0,0,0,0,0,0,0,0,0,0,0,0,0,0,0,0,0,0,0,0,0,0,0,0,0,0,0,0,0,0,0,0,0,0,0,0,0,0,0,
0,0,0,0,0,0,0,0,0,0,0,0,0,0,0,0,0,0,0,0,0,0,0,0,0,0,0,0,0,0,0,0,0,0,0,0,0,0,0,0,0,0,0,0,0,0,0,0,
0,0,0,0,0,0,0,0,0,0,0,0,0,0,0,0,0,0,0,0,0,0,0,0,0,0,0,0,0,0,0,0,0,0,0,0,0,0,0,0,0,0,0,0,0,0,0,0,
0,0,0,0,0,0,0,0,0,0,0,0,0,0,0,0,0,0,0,0,0,0,0,0,0,0,0,0,0,0,0,0,0,0,0,0,0,0,0,0,0,0,0,0,0,0,0,0,
0,0,0,0,0,0,0,0,0,0,0,0,0,0,0,0,0,0,0,0,0,0,0,0,0,0,0,0,0,0,0,0,0,0,0,0,0,0,0,0,0,0,0,0,0,0,0,0,
0,0,0,0,0,0,0,0,0,0,0,0,0,0,0,0,0,0,0,0,0,0,0,0,0,0,0,0,0,0,0,0,0,0,0,0,0,0,0,0,0,0,0,0,0,0,0,0,
0,0,0,0,0,0,0,0,0,0,0,0,0,0,0,0,0,0,0,0,0,0,0,0,0,0,0,0,0,0,0,0,0,0,0,0,0,0,0,0,0,0,0,0,0,0,0,0,
0,0,0,0,0,0,0,0,0,0,0,0,0,0,0,0,0,0,0,0,0,0,0,0,0,0,0,0,0,0,0,0,0,0,0,0,0,0,0,0,0,0,0,0,0,0,0,0,
0,0,0,0,0,0,0,0,0,0,0,0,0,0,0,0,0,0,0,0,0,0,0,0,0,0,0,0,0,0,0,0,0,0,0,0,0,0,0,0,0,0,0,0,0,0,0,0,
0,0,0,0,0,0,0,0,0,0,0,0,0,0,0,0,0,0,0,0,0,0,0,0,0,0,0,0,0,0,0,0,0,0,0,0,0,0,0,0,0,0,0,0,0,0,0,0,
0,0,0,0,0,0,0,0,0,0,0,0,0,0,0,0,0,0,0,0,0,0,0,0,0,0,0,0,0,0,0,0,0,0,0,0,0,0,0,0,0,0,0,0,0,0,0,0,
0,0,0,0,0,0,0,0,0,0,0,0,0,0,0,0,0,0,0,0,0,0,0,0,0,0,0,0,0,0,0,0,0,0,0,0,0,0,0,0,0,0,0,0,0,0,0,0,
0,0,0,0,0,0,0,0,0,0,0,0,0,0,0,0,0,0,0,0,0,0,0,0,0,0,0,0,0,0,0,0,0,0,0,0,0,0,0,0,0,0,0,0,0,0,0,0,
0,0,0,0,0,0,0,0,0,0,0,0,0,0,0,0,0,0,0,0,0,0,0,0,0,0,0,0,0,0,0,0,0,0,0,0,0,0,0,0,0,0,0,0,0,0,0,0,
0,0,0,0,0,0,0,0,0,0,0,0,0,0,0,0,0,0,0,0,0,0,0,0,0,0,0,0,0,0,0,0,0,0,0,0,0,0,0,0,0,0,0,0,0,0,0,0,
0,0,0,0,0,0,0,0,0,0,0,0,0,0,0,0,0,0,0,0,0,0,0,0,0,0,0,0,0,0,0,0,0,0,0,0,0,0,0,0,0,0,0,0,0,0,0,0,
0,0,0,0,0,0,0,0,0,0,0,0,0,0,0,0,0,0,0,0,0,0,0,0,0,0,0,0,0,0,0,0,0,0,0,0,0,0,0,0,0,0,0,0,0,0,0,0,
0,0,0,0,0,0,0,0,0,0,0,0,0,0,0,0,0,0,0,0,0,0,0,0,0,0,0,0,0,0,0,0,0,0,0,0,0,0,0,0,0,0,0,0,0,0,0,0,
0,0,0,0,0,0,0,0,0,0,0,0,0,0,0,0,0,0,0,0,0,0,0,0,0,0,0,0,0,0,0,0,0,0,0,0,0,0,0,0,0,0,0,0,0,0,0,0,
0,0,0,0,0,0,0,0,0,0,0,0,0,0,0,0,0,0,0,0,0,0,0,0,0,0,0,0,0,0,0,0,0,0,0,0,0,0,0,0,0,0,0,0,0,0,0,0,
0,0,0,0,0,0,0,0,0,0,0,0,0,0,0,0,0,0,0,0,0,0,0,0,0,0,0,0,0,0,0,0,0,0,0,0,0,0,0,0,0,0,0,0,0,0,0,0,
0,0,0,0,0,0,0,0,0,0,0,0,0,0,0,0,0,0,0,0,0,0,0,0,0,0,0,0,0,0,0,0,0,0,0,0,0,0,0,0,0,0,0,0,0,0,0,0,
0,0,0,0,0,0,0,0,0,0,0,0,0,0,0,0,0,0,0,0,0,0,0,0,0,0,0,0,0,0,0,0,0,0,0,0,0,0,0,0,0,0,0,0,0,0,0,0,
0,0,0,0,0,0,0,0,0,0,0,0,0,0,0,0,0,0,0,0,0,0,0,0,0,0,0,0,0,0,0,0,0,0,0,0,0,0,0,0,0,0,0,0,0,0,0,0,
0,0,0,0,0,0,0,0,0,0,0,0,0,0,0,0,0,0,0,0,0,0,0,0,0,0,0,0,0,0,0,0,0,0,0,0,0,0,0,0,0,0,0,0,0,0,0,0,
0,0,0,0,0,0,0,0,0,0,0,0,0,0,0,0,0,0,0,0,0,0,0,0,0,0,0,0,0,0,0,0,0,0,0,0,0,0,0,0,0,0,0,0,0,0,0,0,
36535,36536,36535,36536,0,0,0,0,0,0,0,0,0,0,0,0,0,0,0,0,0,0,0,0,0,0,0,0,0,0,0,0,0,0,0,0,0,0,0,0,0,0,0,0,0,0,0,0,
0,0,0,36419,0,0,0,0,0,0,0,0,0,0,0,0,0,0,0,0,0,0,0,0,0,0,0,0,0,0,0,0,0,0,0,0,0,0,0,0,0,0,0,0,0,0,0,0,
0,0,0,36534,36535,36536,36535,36536,0,0,0,0,0,0,0,0,0,0,0,0,0,0,0,0,0,0,0,0,0,0,0,0,0,0,0,0,0,0,0,0,0,0,0,0,0,0,0,0,
0,0,0,0,0,0,0,0,36534,0,0,0,0,0,0,0,0,0,0,0,0,0,0,0,0,0,0,0,0,0,0,0,0,0,0,0,0,0,0,0,0,0,0,0,0,0,0,0,
0,0,0,0,0,0,0,0,0,36534,36535,0,0,0,0,0,0,0,0,0,0,0,0,0,0,0,0,0,0,0,0,0,0,0,0,0,0,0,0,0,0,0,0,0,0,0,0,0,
0,0,0,0,0,0,0,0,0,0,0,36419,0,0,0,0,0,0,0,0,0,0,0,0,0,0,0,0,0,0,0,0,0,0,0,0,0,0,0,0,0,0,0,0,0,0,0,0,
0,0,0,0,0,0,0,0,0,0,0,36419,0,0,0,0,0,0,0,0,0,0,0,0,0,0,0,0,0,0,0,0,0,0,0,0,0,0,0,0,0,0,0,0,0,0,0,0,
0,0,0,0,0,0,0,0,0,0,0,36419,0,0,0,0,0,0,0,0,0,0,0,0,0,0,0,0,0,0,0,0,0,0,0,0,0,0,0,0,0,0,0,0,0,0,0,0,
0,0,0,0,0,0,0,0,0,0,0,36534,0,0,0,0,0,0,0,0,0,0,0,0,0,0,0,0,0,0,0,0,0,0,0,0,0,0,0,0,0,0,0,0,0,0,0,0,
0,0,0,0,0,0,0,0,0,0,0,0,36534,0,0,0,0,0,0,0,0,0,0,0,0,0,0,0,0,0,0,0,0,0,0,0,0,0,0,0,0,0,0,0,0,0,0,0,
0,0,0,0,0,0,0,0,0,0,0,0,0,36534,36535,36536,36535,36536,36535,36536,36535,36536,36535,0,0,0,0,0,0,0,0,0,0,0,0,0,0,0,0,0,0,0,0,0,0,0,0,0,
0,0,0,0,0,0,0,0,0,0,0,0,0,0,0,0,0,0,0,0,0,0,0,36419,0,0,0,0,0,0,0,0,0,0,0,0,0,0,0,0,0,0,0,0,0,0,0,0,
0,0,0,0,0,0,0,0,0,0,0,0,0,0,0,0,0,0,0,0,0,0,0,36534,36535,36536,36535,36536,36535,36536,36535,36536,36535,36536,36535,36536,36535,36536,36535,36536,36535,36536,36535,36536,36535,36536,36535,36536,
0,0,0,0,0,0,0,0,0,0,0,0,0,0,0,0,0,0,0,0,0,0,0,0,0,0,0,0,0,0,0,0,0,0,0,0,0,0,0,0,0,0,0,0,0,0,0,0,
0,0,0,0,0,0,0,0,0,0,0,0,0,0,0,0,0,0,0,0,0,0,0,0,0,0,0,0,0,0,0,0,0,0,0,0,0,0,0,0,0,0,0,0,0,0,0,0,
0,0,0,0,0,0,0,0,0,0,0,0,0,0,0,0,0,0,0,0,0,0,0,0,0,0,0,0,0,0,0,0,0,0,0,0,0,0,0,0,0,0,0,0,0,0,0,0,
0,0,0,0,0,0,0,0,0,0,0,0,0,0,0,0,0,0,0,0,0,0,0,0,0,0,0,0,0,0,0,0,0,0,0,0,0,0,0,0,0,0,0,0,0,0,0,0,
0,0,0,0,0,0,0,0,0,0,0,0,0,0,0,0,0,0,0,0,0,0,0,0,0,0,0,0,0,0,0,0,0,0,0,0,0,0,0,0,0,0,0,0,0,0,0,0,
0,0,0,0,0,0,0,0,0,0,0,0,0,0,0,0,0,0,0,0,0,0,0,0,0,0,0,0,0,0,0,0,0,0,0,0,0,0,0,0,0,0,0,0,0,0,0,0,
0,0,0,0,0,0,0,0,0,0,0,0,0,0,0,0,0,0,0,0,0,0,0,0,0,0,0,0,0,0,0,0,0,0,0,0,0,0,0,0,0,0,0,0,0,0,0,0,
0,0,0,0,0,0,0,0,0,0,0,0,0,0,0,0,0,0,0,0,0,0,0,0,0,0,0,0,0,0,0,0,0,0,0,0,0,0,0,0,0,0,0,0,0,0,0,0,
0,0,0,0,0,0,0,0,0,0,0,0,0,0,0,0,0,0,0,0,0,0,0,0,0,0,0,0,0,0,0,0,0,0,0,0,0,0,0,0,0,0,0,0,0,0,0,0,
0,0,0,0,0,0,0,0,0,0,0,0,0,0,0,0,0,0,0,0,0,0,0,0,0,0,0,0,0,0,0,0,0,0,0,0,0,0,0,0,0,0,0,0,0,0,0,0,
0,0,0,0,0,0,0,0,0,0,0,0,0,0,0,0,0,0,0,0,0,0,0,0,0,0,0,0,0,0,0,0,0,0,0,0,0,0,0,0,0,0,0,0,0,0,0,0,
0,0,0,0,0,0,0,0,0,0,0,0,0,0,0,0,0,0,0,0,0,0,0,0,0,0,0,0,0,0,0,0,0,0,0,0,0,0,0,0,0,0,0,0,0,0,0,0,
0,0,0,0,0,0,0,0,0,0,0,0,0,0,0,0,0,0,0,0,0,0,0,0,0,0,0,0,0,0,0,0,0,0,0,0,0,0,0,0,0,0,0,0,0,0,0,0,
0,0,0,0,0,0,0,0,0,0,0,0,0,0,0,0,0,0,0,0,0,0,0,0,0,0,0,0,0,0,0,0,0,0,0,0,0,0,0,0,0,0,0,0,0,0,0,0,
0,0,0,0,0,0,0,0,0,0,0,0,0,0,0,0,0,0,0,0,0,0,0,0,0,0,0,0,0,0,0,0,0,0,0,0,0,0,0,0,0,0,0,0,0,0,0,0,
0,0,0,0,0,0,0,0,0,0,0,0,0,0,0,0,0,0,0,0,0,0,0,0,0,0,0,0,0,0,0,0,0,0,0,0,0,0,0,0,0,0,0,0,0,0,0,0,
0,0,0,0,0,0,0,0,0,0,0,0,0,0,0,0,0,0,0,0,0,0,0,0,0,0,0,0,0,0,0,0,0,0,0,0,0,0,0,0,0,0,0,0,0,0,0,0,
0,0,0,0,0,0,0,0,0,0,0,0,0,0,0,0,0,0,0,0,0,0,0,0,0,0,0,0,0,0,0,0,0,0,0,0,0,0,0,0,0,0,0,0,0,0,0,0,
0,0,0,0,0,0,0,0,0,0,0,0,0,0,0,0,0,0,0,0,0,0,0,0,0,0,0,0,0,0,0,0,0,0,0,0,0,0,0,0,0,0,0,0,0,0,0,0,
0,0,0,0,0,0,0,0,0,0,0,0,0,0,0,0,0,0,0,0,0,0,0,0,0,0,0,0,0,0,0,0,0,0,0,0,0,0,0,0,0,0,0,0,0,0,0,0,
0,0,0,0,0,0,0,0,0,0,0,0,0,0,0,0,0,0,0,0,0,0,0,0,0,0,0,0,0,0,0,0,0,0,0,0,0,0,0,0,0,0,0,0,0,0,0,0,
0,0,0,0,0,0,0,0,0,0,0,0,0,0,0,0,0,0,0,0,0,0,0,0,0,0,0,0,0,0,0,0,0,0,0,0,0,0,0,0,0,0,0,0,0,0,0,0,
0,0,0,0,0,0,0,0,0,0,0,0,0,0,0,0,0,0,0,0,0,0,0,0,0,0,0,0,0,0,0,0,0,0,0,0,0,0,0,0,0,0,0,0,0,0,0,0,
0,0,0,0,0,0,0,0,0,0,0,0,0,0,0,0,0,0,0,0,0,0,0,0,0,0,0,0,0,0,0,0,0,0,0,0,0,0,0,0,0,0,0,0,0,0,0,0,
0,0,0,0,0,0,0,0,0,0,0,0,0,0,0,0,0,0,0,0,0,0,0,0,0,0,0,0,0,0,0,0,0,0,0,0,0,0,0,0,0,0,0,0,0,0,0,0,
0,0,0,0,0,0,0,0,0,0,0,0,0,0,0,0,0,0,0,0,0,0,0,0,0,0,0,0,0,0,0,0,0,0,0,0,0,0,0,0,0,0,0,0,0,0,0,0,
0,0,0,0,0,0,0,0,0,0,0,0,0,0,0,0,0,0,0,0,0,0,0,0,0,0,0,0,0,0,0,0,0,0,0,0,0,0,0,0,0,0,0,0,0,0,0,0,
0,0,0,0,0,0,0,0,0,0,0,0,0,0,0,0,0,0,0,0,0,0,0,0,0,0,0,0,0,0,0,0,0,0,0,0,0,0,0,0,0,0,0,0,0,0,0,0,
0,0,0,0,0,0,0,0,0,0,0,0,0,0,0,0,0,0,0,0,0,0,0,0,0,0,0,0,0,0,0,0,0,0,0,0,0,0,0,0,0,0,0,0,0,0,0,0,
0,0,0,0,0,0,0,0,0,0,0,0,0,0,0,0,0,0,0,0,0,0,0,0,0,0,0,0,0,0,0,0,0,0,0,0,0,0,0,0,0,0,0,0,0,0,0,0,
0,0,0,0,0,0,0,0,0,0,0,0,0,0,0,0,0,0,0,0,0,0,0,0,0,0,0,0,0,0,0,0,0,0,0,0,0,0,0,0,0,0,0,0,0,0,0,0,
0,0,0,0,0,0,0,0,0,0,0,0,0,0,0,0,0,0,0,0,0,0,0,0,0,0,0,0,0,0,0,0,0,0,0,0,0,0,0,0,0,0,0,0,0,0,0,0,
0,0,0,0,0,0,0,0,0,0,0,0,0,0,0,0,0,0,0,0,0,0,0,0,0,0,0,0,0,0,0,0,0,0,0,0,0,0,0,0,0,0,0,0,0,0,0,0
</data>
 </layer>
 <layer id="189" name="♦_Mnt_B_1" width="48" height="96">
  <data encoding="csv">
0,0,0,0,0,0,0,0,0,0,0,0,0,0,0,0,0,0,0,0,0,0,0,0,0,0,0,0,0,0,0,0,0,0,0,0,0,0,0,0,0,0,0,0,0,0,0,0,
0,0,0,0,0,0,0,0,0,0,0,0,0,0,0,0,0,0,0,0,0,0,0,0,0,0,0,0,0,0,0,0,0,0,0,0,0,0,0,0,0,0,0,0,0,0,0,0,
0,0,0,0,0,0,0,0,0,0,0,0,0,0,0,0,0,0,0,0,0,0,0,0,0,0,0,0,0,0,0,0,0,0,0,0,0,0,0,0,0,0,0,0,0,0,0,0,
0,0,0,0,0,0,0,0,0,0,0,0,0,0,0,0,0,0,0,0,0,0,0,0,0,0,0,0,0,0,0,0,0,0,0,0,0,0,0,0,0,0,0,0,0,0,0,0,
0,0,0,0,0,0,0,0,0,0,0,0,0,0,0,0,0,0,0,0,0,0,0,0,0,0,0,0,0,0,0,0,0,0,0,0,0,0,0,0,0,0,0,0,0,0,0,0,
0,0,0,0,0,0,0,0,0,0,0,0,0,0,0,0,0,0,0,0,0,0,0,0,0,0,0,0,0,0,0,0,0,0,0,0,0,0,0,0,0,0,0,0,0,0,0,0,
0,0,0,0,0,0,0,0,0,0,0,0,0,0,0,0,0,0,0,0,0,0,0,0,0,0,0,0,0,0,0,0,0,0,0,0,0,0,0,0,0,0,0,0,0,0,0,0,
0,0,0,0,0,0,0,0,0,0,0,0,0,0,0,0,0,0,0,0,0,0,0,0,0,0,0,0,0,0,0,0,0,0,0,0,0,0,0,0,0,0,0,0,0,0,0,0,
0,0,0,0,0,0,0,0,0,0,0,0,0,0,0,0,0,0,0,0,0,0,0,0,0,0,0,0,0,0,0,0,0,0,0,0,0,0,0,0,0,0,0,0,0,0,0,0,
0,0,0,0,0,0,0,0,0,0,0,0,0,0,0,0,0,0,0,0,0,0,0,0,0,0,0,0,0,0,0,0,0,0,0,0,0,0,0,0,0,0,0,0,0,0,0,0,
0,0,0,0,0,0,0,0,0,0,0,0,0,0,0,0,0,0,0,0,0,0,0,0,0,0,0,0,0,0,0,0,0,0,0,0,0,0,0,0,0,0,0,0,0,0,0,0,
0,0,0,0,0,0,0,0,0,0,0,0,0,0,0,0,0,0,0,0,0,0,0,0,0,0,0,0,0,0,0,0,0,0,0,0,0,0,0,0,0,0,0,0,0,0,0,0,
0,0,0,0,0,0,0,0,0,0,0,0,0,0,0,0,0,0,0,0,0,0,0,0,0,0,0,0,0,0,0,0,0,0,0,0,0,0,0,0,0,0,0,0,0,0,0,0,
0,0,0,0,0,0,0,0,0,0,0,0,0,0,0,0,0,0,0,0,0,0,0,0,0,0,0,0,0,0,0,0,0,0,0,0,0,0,0,0,0,0,0,0,0,0,0,0,
0,0,0,0,0,0,0,0,0,0,0,0,0,0,0,0,0,0,0,0,0,0,0,0,0,0,0,0,0,0,0,0,0,0,0,0,0,0,0,0,0,0,0,0,0,0,0,0,
0,0,0,0,0,0,0,0,0,0,0,0,0,0,0,0,0,0,0,0,0,0,0,0,0,0,0,0,0,0,0,0,0,0,0,0,0,0,0,0,0,0,0,0,0,0,0,0,
0,0,0,0,0,0,0,0,0,0,0,0,0,0,0,0,0,0,0,0,0,0,0,0,0,0,0,0,0,0,0,0,0,0,0,0,0,0,0,0,0,0,0,0,0,0,0,0,
0,0,0,0,0,0,0,0,0,0,0,0,0,0,0,0,0,0,0,0,0,0,0,0,0,0,0,0,0,0,0,0,0,0,0,0,0,0,0,0,0,0,0,0,0,0,0,0,
0,0,0,0,0,0,0,0,0,0,0,0,0,0,0,0,0,0,0,0,0,0,0,0,0,0,0,0,0,0,0,0,0,0,0,0,0,0,0,0,0,0,0,0,0,0,0,0,
0,0,0,0,0,0,0,0,0,0,0,0,0,0,0,0,0,0,0,0,0,0,0,0,0,0,0,0,0,0,0,0,0,0,0,0,0,0,0,0,0,0,0,0,0,0,0,0,
0,0,0,0,0,0,0,0,0,0,0,0,0,0,0,0,0,0,0,0,0,0,0,0,0,0,0,0,0,0,0,0,0,0,0,0,0,0,0,0,0,0,0,0,0,0,0,0,
0,0,0,0,0,0,0,0,0,0,0,0,0,0,0,0,0,0,0,0,0,0,0,0,0,0,0,0,0,0,0,0,0,0,0,0,0,0,0,0,0,0,0,0,0,0,0,0,
0,0,0,0,0,0,0,0,0,0,0,0,0,0,0,0,0,0,0,0,0,0,0,0,0,0,0,0,0,0,0,0,0,0,0,0,0,0,0,0,0,0,0,0,0,0,0,0,
0,0,0,0,0,0,0,0,0,0,0,0,0,0,0,0,0,0,0,0,0,0,0,0,0,0,0,0,0,0,0,0,0,0,0,0,0,0,0,0,0,0,0,0,0,0,0,0,
0,0,0,0,0,0,0,0,0,0,0,0,0,0,0,0,0,0,0,0,0,0,0,0,0,0,0,0,0,0,0,0,0,0,0,0,0,0,0,0,0,0,0,0,0,0,0,0,
0,0,0,0,0,0,0,0,0,0,0,0,0,0,0,0,0,0,0,0,0,0,0,0,0,0,0,0,0,0,0,0,0,0,0,0,0,0,0,0,0,0,0,0,0,0,0,0,
0,0,0,0,0,0,0,0,0,0,0,0,0,0,0,0,0,0,0,0,0,0,0,0,0,0,0,0,0,0,0,0,0,0,0,0,0,0,0,0,0,0,0,0,0,0,0,0,
0,0,0,0,0,0,0,0,0,0,0,0,0,0,0,0,0,0,0,0,0,0,0,0,0,0,0,0,0,0,0,0,0,0,0,0,0,0,0,0,0,0,0,0,0,0,0,0,
0,0,0,0,0,0,0,0,0,0,0,0,0,0,0,0,0,0,0,0,0,0,0,0,0,0,0,0,0,0,0,0,0,0,0,0,0,0,0,0,0,0,0,0,0,0,0,0,
0,0,0,0,0,0,0,0,0,0,0,0,0,0,0,0,0,0,0,0,0,0,0,0,0,0,0,0,0,0,0,0,0,0,0,0,0,0,0,0,0,0,0,0,0,0,0,0,
0,0,0,0,0,0,0,0,0,0,0,0,0,0,0,0,0,0,0,0,0,0,0,0,0,0,0,0,0,0,0,0,0,0,0,0,0,0,0,0,0,0,0,0,0,0,0,0,
0,0,0,0,0,0,0,0,0,0,0,0,0,0,0,0,0,0,0,0,0,0,0,0,0,0,0,0,0,0,0,0,0,0,0,0,0,0,0,0,0,0,0,0,0,0,0,0,
0,0,0,0,0,0,0,0,0,0,0,0,0,0,0,0,0,0,0,0,0,0,0,0,0,0,0,0,0,0,0,0,0,0,0,0,0,0,0,0,0,0,0,0,0,0,0,0,
0,0,0,0,0,0,0,0,0,0,0,0,0,0,0,0,0,0,0,0,0,0,0,0,0,0,0,0,0,0,0,0,0,0,0,0,0,0,0,0,0,0,0,0,0,0,0,0,
0,0,0,0,0,0,0,0,0,0,0,0,0,0,0,0,0,0,0,0,0,0,0,0,0,0,0,0,0,0,0,0,0,0,0,0,0,0,0,0,0,0,0,0,0,0,0,0,
0,0,0,0,0,0,0,0,0,0,0,0,0,0,0,0,0,0,0,0,0,0,0,0,0,0,0,0,0,0,0,0,0,0,0,0,0,0,0,0,0,0,0,0,0,0,0,0,
0,0,0,0,0,0,0,0,0,0,0,0,0,0,0,0,0,0,0,0,0,0,0,0,0,0,0,0,0,0,0,0,0,0,0,0,0,0,0,0,0,0,0,0,0,0,0,0,
0,0,0,0,0,0,0,0,0,0,0,0,0,0,0,0,0,0,0,0,0,0,0,0,0,0,0,0,0,0,0,0,0,0,0,0,0,0,0,0,0,0,0,0,0,0,0,0,
0,0,0,0,0,0,0,0,0,0,0,0,0,0,0,0,0,0,0,0,0,0,0,0,0,0,0,0,0,0,0,0,0,0,0,0,0,0,0,0,0,0,0,0,0,0,0,0,
0,0,0,0,0,0,0,0,0,0,0,0,0,0,0,0,0,0,0,0,0,0,0,0,0,0,0,0,0,0,0,0,0,0,0,0,0,0,0,0,0,0,0,0,0,0,0,0,
0,0,0,0,0,0,0,0,0,0,0,0,0,0,0,0,0,0,0,0,0,0,0,0,0,0,0,0,0,0,0,0,0,0,0,0,0,0,0,0,0,0,0,0,0,0,0,0,
0,0,0,0,0,0,0,0,0,0,0,0,0,0,0,0,0,0,0,0,0,0,0,0,0,0,0,0,0,0,0,0,0,0,0,0,0,0,0,0,0,0,0,0,0,0,0,0,
0,0,0,0,0,0,0,0,0,0,0,0,0,0,0,0,0,0,0,0,0,0,0,0,0,0,0,0,0,0,0,0,0,0,0,0,0,0,0,0,0,0,0,0,0,0,0,0,
0,0,0,0,0,0,0,0,0,0,0,0,0,0,0,0,0,0,0,0,0,0,0,0,0,0,0,0,0,0,0,0,0,0,0,0,0,0,0,0,0,0,0,0,0,0,0,0,
0,0,0,0,0,0,0,0,0,0,0,0,0,0,0,0,0,0,0,0,0,0,0,0,0,0,0,0,0,0,0,0,0,0,0,0,0,0,0,0,0,0,0,0,0,0,0,0,
0,0,0,0,0,0,0,0,0,0,0,0,0,0,0,0,0,0,0,0,0,0,0,0,0,0,0,0,0,0,0,0,0,0,0,0,0,0,0,0,0,0,0,0,0,0,0,0,
0,0,0,0,0,0,0,0,0,0,0,0,0,0,0,0,0,0,0,0,0,0,0,0,0,0,0,0,0,0,0,0,0,0,0,0,0,0,0,0,0,0,0,0,0,0,0,0,
0,0,0,0,0,0,0,0,0,0,0,0,0,0,0,0,0,0,0,0,0,0,0,0,0,0,0,0,0,0,0,0,0,0,0,0,0,0,0,0,0,0,0,0,0,0,0,0,
0,0,0,0,0,0,0,0,0,0,0,0,0,0,0,0,0,0,0,0,0,0,0,0,0,0,0,0,0,0,0,0,0,0,0,0,0,0,0,0,0,0,0,0,0,0,0,0,
0,0,0,0,0,0,0,0,0,0,0,0,0,0,0,0,0,0,0,0,0,0,0,0,0,0,0,0,0,0,0,0,0,0,0,0,0,0,0,0,0,0,0,0,0,0,0,0,
0,0,0,36163,0,0,0,0,0,0,0,0,0,0,0,0,0,0,0,0,0,0,0,0,0,0,0,0,0,0,0,0,0,0,0,0,0,0,0,0,0,0,0,0,0,0,0,0,
0,0,0,36278,0,0,0,0,0,0,0,0,0,0,0,0,0,0,0,0,0,0,0,0,0,0,0,0,0,0,0,0,0,0,0,0,0,0,0,0,0,0,0,0,0,0,0,0,
0,0,36163,0,0,0,0,0,36163,0,0,0,0,0,0,0,0,0,0,0,0,0,0,0,0,0,0,0,0,0,0,0,0,0,0,0,0,0,0,0,0,0,0,0,0,0,0,0,
0,0,36278,0,0,0,0,0,36278,36163,0,0,0,0,0,0,0,0,0,0,0,0,0,0,0,0,0,0,0,0,0,0,0,0,0,0,0,0,0,0,0,0,0,0,0,0,0,0,
0,0,0,0,0,0,0,36163,0,36278,0,36163,0,0,0,0,0,0,0,0,0,0,0,0,0,0,0,0,0,0,0,0,0,0,0,0,0,0,0,0,0,0,0,0,0,0,0,0,
0,0,0,0,0,0,0,36278,0,0,0,36278,0,0,0,0,0,0,0,0,0,0,0,0,0,0,0,0,0,0,0,0,0,0,0,0,0,0,0,0,0,0,0,0,0,0,0,0,
0,0,0,0,0,0,0,0,0,0,36163,0,0,0,0,0,0,0,0,0,0,0,0,0,0,0,0,0,0,0,0,0,0,0,0,0,0,0,0,0,0,0,0,0,0,0,0,0,
0,0,0,0,0,0,0,0,0,0,36278,0,0,0,0,0,0,0,0,0,0,0,0,0,0,0,0,0,0,0,0,0,0,0,0,0,0,0,0,0,0,0,0,0,0,0,0,0,
0,0,0,0,0,0,0,0,0,0,0,0,36163,0,0,0,0,0,0,0,0,0,0,0,0,0,0,0,0,0,0,0,0,0,0,0,0,0,0,0,0,0,0,0,0,0,0,0,
0,0,0,0,0,0,0,0,0,0,0,0,36278,36163,0,0,0,0,0,0,0,0,0,0,0,0,0,0,0,0,0,0,0,0,0,0,0,0,0,0,0,0,0,0,0,0,0,0,
0,0,0,0,0,0,0,0,0,0,0,36163,0,36278,0,0,0,0,0,0,0,0,0,36163,0,0,0,0,0,0,0,0,0,0,0,0,0,0,0,0,0,0,0,0,0,0,0,0,
0,0,0,0,0,0,0,0,0,0,0,36278,0,0,0,0,0,0,0,0,0,0,0,36278,0,0,0,0,0,0,0,0,0,0,0,0,0,0,0,0,0,0,0,0,0,0,0,0,
0,0,0,0,0,0,0,0,0,0,0,0,0,0,0,0,0,0,0,0,0,36163,0,0,0,0,0,0,0,0,0,0,0,0,0,0,0,0,0,0,0,0,0,0,0,0,0,0,
0,0,0,0,0,0,0,0,0,0,0,0,0,0,0,0,0,0,0,0,0,36278,36163,0,0,0,0,0,0,0,0,0,0,0,0,0,0,0,0,0,0,0,0,0,0,0,0,0,
0,0,0,0,0,0,0,0,0,0,0,0,0,0,0,0,0,0,0,0,0,0,36278,0,0,0,0,0,0,0,0,0,0,0,0,0,0,0,0,0,0,0,0,0,0,0,0,0,
0,0,0,0,0,0,0,0,0,0,0,0,0,0,0,0,0,0,0,0,0,0,0,0,0,0,0,0,0,0,0,0,0,0,0,0,0,0,0,0,0,0,0,0,0,0,0,0,
0,0,0,0,0,0,0,0,0,0,0,0,0,0,0,0,0,0,0,0,0,0,0,0,0,0,0,0,0,0,0,0,0,0,0,0,0,0,0,0,0,0,0,0,0,0,0,0,
0,0,0,0,0,0,0,0,0,0,0,0,0,0,0,0,0,0,0,0,0,0,0,0,0,0,0,0,0,0,0,0,0,0,0,0,0,0,0,0,0,0,0,0,0,0,0,0,
0,0,0,0,0,0,0,0,0,0,0,0,0,0,0,0,0,0,0,0,0,0,0,0,0,0,0,0,0,0,0,0,0,0,0,0,0,0,0,0,0,0,0,0,0,0,0,0,
0,0,0,0,0,0,0,0,0,0,0,0,0,0,0,0,0,0,0,0,0,0,0,0,0,0,0,0,0,0,0,0,0,0,0,0,0,0,0,0,0,0,0,0,0,0,0,0,
0,0,0,0,0,0,0,0,0,0,0,0,0,0,0,0,0,0,0,0,0,0,0,0,0,0,0,0,0,0,0,0,0,0,0,0,0,0,0,0,0,0,0,0,0,0,0,0,
0,0,0,0,0,0,0,0,0,0,0,0,0,0,0,0,0,0,0,0,0,0,0,0,0,0,0,0,0,0,0,0,0,0,0,0,0,0,0,0,0,0,0,0,0,0,0,0,
0,0,0,0,0,0,0,0,0,0,0,0,0,0,0,0,0,0,0,0,0,0,0,0,0,0,0,0,0,0,0,0,0,0,0,0,0,0,0,0,0,0,0,0,0,0,0,0,
0,0,0,0,0,0,0,0,0,0,0,0,0,0,0,0,0,0,0,0,0,0,0,0,0,0,0,0,0,0,0,0,0,0,0,0,0,0,0,0,0,0,0,0,0,0,0,0,
0,0,0,0,0,0,0,0,0,0,0,0,0,0,0,0,0,0,0,0,0,0,0,0,0,0,0,0,0,0,0,0,0,0,0,0,0,0,0,0,0,0,0,0,0,0,0,0,
0,0,0,0,0,0,0,0,0,0,0,0,0,0,0,0,0,0,0,0,0,0,0,0,0,0,0,0,0,0,0,0,0,0,0,0,0,0,0,0,0,0,0,0,0,0,0,0,
0,0,0,0,0,0,0,0,0,0,0,0,0,0,0,0,0,0,0,0,0,0,0,0,0,0,0,0,0,0,0,0,0,0,0,0,0,0,0,0,0,0,0,0,0,0,0,0,
0,0,0,0,0,0,0,0,0,0,0,0,0,0,0,0,0,0,0,0,0,0,0,0,0,0,0,0,0,0,0,0,0,0,0,0,0,0,0,0,0,0,0,0,0,0,0,0,
0,0,0,0,0,0,0,0,0,0,0,0,0,0,0,0,0,0,0,0,0,0,0,0,0,0,0,0,0,0,0,0,0,0,0,0,0,0,0,0,0,0,0,0,0,0,0,0,
0,0,0,0,0,0,0,0,0,0,0,0,0,0,0,0,0,0,0,0,0,0,0,0,0,0,0,0,0,0,0,0,0,0,0,0,0,0,0,0,0,0,0,0,0,0,0,0,
0,0,0,0,0,0,0,0,0,0,0,0,0,0,0,0,0,0,0,0,0,0,0,0,0,0,0,0,0,0,0,0,0,0,0,0,0,0,0,0,0,0,0,0,0,0,0,0,
0,0,0,0,0,0,0,0,0,0,0,0,0,0,0,0,0,0,0,0,0,0,0,0,0,0,0,0,0,0,0,0,0,0,0,0,0,0,0,0,0,0,0,0,0,0,0,0,
0,0,0,0,0,0,0,0,0,0,0,0,0,0,0,0,0,0,0,0,0,0,0,0,0,0,0,0,0,0,0,0,0,0,0,0,0,0,0,0,0,0,0,0,0,0,0,0,
0,0,0,0,0,0,0,0,0,0,0,0,0,0,0,0,0,0,0,0,0,0,0,0,0,0,0,0,0,0,0,0,0,0,0,0,0,0,0,0,0,0,0,0,0,0,0,0,
0,0,0,0,0,0,0,0,0,0,0,0,0,0,0,0,0,0,0,0,0,0,0,0,0,0,0,0,0,0,0,0,0,0,0,0,0,0,0,0,0,0,0,0,0,0,0,0,
0,0,0,0,0,0,0,0,0,0,0,0,0,0,0,0,0,0,0,0,0,0,0,0,0,0,0,0,0,0,0,0,0,0,0,0,0,0,0,0,0,0,0,0,0,0,0,0,
0,0,0,0,0,0,0,0,0,0,0,0,0,0,0,0,0,0,0,0,0,0,0,0,0,0,0,0,0,0,0,0,0,0,0,0,0,0,0,0,0,0,0,0,0,0,0,0,
0,0,0,0,0,0,0,0,0,0,0,0,0,0,0,0,0,0,0,0,0,0,0,0,0,0,0,0,0,0,0,0,0,0,0,0,0,0,0,0,0,0,0,0,0,0,0,0,
0,0,0,0,0,0,0,0,0,0,0,0,0,0,0,0,0,0,0,0,0,0,0,0,0,0,0,0,0,0,0,0,0,0,0,0,0,0,0,0,0,0,0,0,0,0,0,0,
0,0,0,0,0,0,0,0,0,0,0,0,0,0,0,0,0,0,0,0,0,0,0,0,0,0,0,0,0,0,0,0,0,0,0,0,0,0,0,0,0,0,0,0,0,0,0,0,
0,0,0,0,0,0,0,0,0,0,0,0,0,0,0,0,0,0,0,0,0,0,0,0,0,0,0,0,0,0,0,0,0,0,0,0,0,0,0,0,0,0,0,0,0,0,0,0,
0,0,0,0,0,0,0,0,0,0,0,0,0,0,0,0,0,0,0,0,0,0,0,0,0,0,0,0,0,0,0,0,0,0,0,0,0,0,0,0,0,0,0,0,0,0,0,0,
0,0,0,0,0,0,0,0,0,0,0,0,0,0,0,0,0,0,0,0,0,0,0,0,0,0,0,0,0,0,0,0,0,0,0,0,0,0,0,0,0,0,0,0,0,0,0,0,
0,0,0,0,0,0,0,0,0,0,0,0,0,0,0,0,0,0,0,0,0,0,0,0,0,0,0,0,0,0,0,0,0,0,0,0,0,0,0,0,0,0,0,0,0,0,0,0,
0,0,0,0,0,0,0,0,0,0,0,0,0,0,0,0,0,0,0,0,0,0,0,0,0,0,0,0,0,0,0,0,0,0,0,0,0,0,0,0,0,0,0,0,0,0,0,0,
0,0,0,0,0,0,0,0,0,0,0,0,0,0,0,0,0,0,0,0,0,0,0,0,0,0,0,0,0,0,0,0,0,0,0,0,0,0,0,0,0,0,0,0,0,0,0,0
</data>
 </layer>
 <layer id="190" name="♦_Top_B_1+2" width="48" height="96">
  <data encoding="csv">
8813,8814,8813,8814,8813,8814,8813,8814,8813,8814,8813,8814,8813,8814,8813,8814,8813,8814,8813,8814,8813,8814,8813,8814,8813,8814,8813,8814,8813,8814,8813,8814,8813,8814,8813,8814,8813,8814,8813,8814,8813,8814,8813,8814,8813,8814,8813,8814,
8861,8862,8861,8862,8861,8862,8861,8862,8861,8862,8861,8862,8861,8862,8861,8862,8861,8862,8861,8862,8861,8862,8861,8862,8861,8862,8861,8862,8861,8862,8861,8862,8861,8862,8861,8862,8861,8862,8861,8862,8861,8862,8861,8862,8861,8862,8861,8862,
8813,8814,8813,8814,8813,8814,8813,8814,8813,8814,8813,8814,8813,8814,8813,8814,8813,8814,8813,8814,8813,8814,8813,8814,8813,8814,8813,8814,8813,8814,8813,8814,8813,8814,8813,8814,8813,8814,8813,8814,8813,8814,8813,8814,8813,8814,8813,8814,
8861,8862,8861,8862,8861,8862,8861,8862,8861,8862,8861,8862,8861,8862,8861,8862,8861,8862,8861,8862,8861,8862,8861,8862,8861,8862,8861,8862,8861,8862,8861,8862,8861,8862,8861,8862,8861,8862,8861,8862,8861,8862,8861,8862,8861,8862,8861,8862,
8813,8814,8813,8814,8813,8814,8813,8814,8813,8814,8813,8814,8813,8814,8813,8814,8813,8814,8813,8814,8813,8814,8813,8814,8813,8814,8813,8814,8813,8814,8813,8814,8813,8814,8813,8814,8813,8814,8813,8814,8813,8814,8813,8814,8813,8814,8813,8814,
8861,8862,8861,8862,8861,8862,8861,8862,8861,8862,8861,8862,8861,8862,8861,8862,8861,8862,8861,8862,8861,8862,8861,8862,8861,8862,8861,8862,8861,8862,8861,8862,8861,8862,8861,8862,8861,8862,8861,8862,8861,8862,8861,8862,8861,8862,8861,8862,
8813,8814,8813,8814,8813,8814,8813,8814,8813,8814,8813,8814,8813,8814,8813,8814,8813,8814,8813,8814,8813,8814,8813,8814,8813,8814,8813,8814,8813,8814,8813,8814,8813,8814,8813,8814,8813,8814,8813,8814,8813,8814,8813,8814,8813,8814,8813,8814,
8861,8862,8861,8862,8861,8862,8861,8862,8861,8862,8861,8862,8861,8862,8861,8862,8861,8862,8861,8862,8861,8862,8861,8862,8861,8862,8861,8862,8861,8862,8861,8862,8861,8862,8861,8862,8861,8862,8861,8862,8861,8862,8861,8862,8861,8862,8861,8862,
8813,8814,8813,8814,8813,8814,8813,8814,8813,8814,8813,8814,8813,8814,8813,8814,8813,8814,8813,8814,8813,8814,8813,8814,8813,8814,8813,8814,8813,8814,8813,8814,8813,8814,8813,8814,8813,8814,8813,8814,8813,8814,8813,8814,8813,8814,8813,8814,
8861,8862,8861,8862,8861,8862,8861,8862,8861,8862,8861,8862,8861,8862,8861,8862,8861,8862,8861,8862,8861,8862,8861,8862,8861,8862,8861,8862,8861,8862,8861,8862,8861,8862,8861,8862,8861,8862,8861,8862,8861,8862,8861,8862,8861,8862,8861,8862,
8813,8814,8813,8814,8813,8814,8813,8814,8813,8814,8813,8814,8813,8814,8813,8814,8813,8814,8813,8814,8813,8814,8813,8814,8813,8814,8813,8814,8813,8814,8813,8814,8813,8814,8813,8814,8813,8814,8813,8814,8813,8814,8813,8814,8813,8814,8813,8814,
8861,8862,8861,8862,8861,8862,8861,8862,8861,8862,8861,8862,8861,8862,8861,8862,8861,8862,8861,8862,8861,8862,8861,8862,8861,8862,8861,8862,8861,8862,8861,8862,8861,8862,8861,8862,8861,8862,8861,8862,8861,8862,8861,8862,8861,8862,8861,8862,
8813,8814,8813,8814,8813,8814,8813,8814,8813,8814,8813,8814,8813,8814,8813,8814,8813,8814,8813,8814,8813,8814,8813,8814,8813,8814,8813,8814,8813,8814,8813,8814,8813,8814,8813,8814,8813,8814,8813,8814,8813,8814,8813,8814,8813,8814,8813,8814,
8861,8862,8861,8862,8861,8862,8861,8862,8861,8862,8861,8862,8861,8862,8861,8862,8861,8862,8861,8862,8861,8862,8861,8862,8861,8862,8861,8862,8861,8862,8861,8862,8861,8862,8861,8862,8861,8862,8861,8862,8861,8862,8861,8862,8861,8862,8861,8862,
8813,8814,8813,8814,8813,8814,8813,8814,8813,8814,8813,8814,8813,8814,8813,8814,8813,8814,8813,8814,8813,8814,8813,8814,8813,8814,8813,8814,8813,8814,8813,8814,8813,8814,8813,8814,8813,8814,8813,8814,8813,8814,8813,8814,8813,8814,8813,8814,
8861,8862,8861,8862,8861,8862,8861,8862,8861,8862,8861,8862,8861,8862,8861,8862,8861,8862,8861,8862,8861,8862,8861,8862,8861,8862,8861,8862,8861,8862,8861,8862,8861,8862,8861,8862,8861,8862,8861,8862,8861,8862,8861,8862,8861,8862,8861,8862,
8813,8814,8813,8814,8813,8814,8813,8814,8813,8814,8813,8814,8813,8814,8813,8814,8813,8814,8813,8814,8813,8814,8813,8814,8813,8814,8813,8814,8813,8814,8813,8814,8813,8814,8813,8814,8813,8814,8813,8814,8813,8814,8813,8814,8813,8814,8813,8814,
8861,8862,8861,8862,8861,8862,8861,8862,8861,8862,8861,8862,8861,8862,8861,8862,8861,8862,8861,8862,8861,8862,8861,8862,8861,8862,8861,8862,8861,8862,8861,8862,8861,8862,8861,8862,8861,8862,8861,8862,8861,8862,8861,8862,8861,8862,8861,8862,
8813,8814,8813,8814,8813,8814,8813,8814,8813,8814,8813,8814,8813,8814,8813,8814,8813,8814,8813,8814,8813,8814,8813,8814,8813,8814,8813,8814,8813,8814,8813,8814,8813,8814,8813,8814,8813,8814,8813,8814,8813,8814,8813,8814,8813,8814,8813,8814,
8861,8862,8861,8862,8861,8862,8861,8862,8861,8862,8861,8862,8861,8862,8861,8862,8861,8862,8861,8862,8861,8862,8861,8862,8861,8862,8861,8862,8861,8862,8861,8862,8861,8862,8861,8862,8861,8862,8861,8862,8861,8862,8861,8862,8861,8862,8861,8862,
8813,8814,8813,8814,8813,8814,8813,8814,8813,8814,8813,8814,8813,8814,8813,8814,8813,8814,8813,8814,8813,8814,8813,8814,8813,8814,8813,8814,8813,8814,8813,8814,8813,8814,8813,8814,8813,8814,8813,8814,8813,8814,8813,8814,8813,8814,8813,8814,
8861,8862,8861,8862,8861,8862,8861,8862,8861,8862,8861,8862,8861,8862,8861,8862,8861,8862,8861,8862,8861,8862,8861,8862,8861,8862,8861,8862,8861,8862,8861,8862,8861,8862,8861,8862,8861,8862,8861,8862,8861,8862,8861,8862,8861,8862,8861,8862,
8813,8814,0,0,0,0,0,0,0,0,0,0,0,0,0,0,0,0,0,0,0,0,0,0,0,0,0,0,0,0,8813,8814,8813,8814,8813,8814,8813,8814,8813,8814,8813,8814,8813,8814,8813,8814,8813,8814,
8861,8862,0,0,0,0,0,0,0,0,0,0,0,0,0,0,0,0,0,0,0,0,0,0,0,0,0,0,0,0,8861,8862,8861,8862,8861,8862,8861,8862,8861,8862,8861,8862,8861,8862,8861,8862,8861,8862,
8813,8814,0,0,0,0,0,0,0,0,0,0,0,0,0,0,0,0,0,0,0,0,0,0,0,0,0,0,0,0,8813,8814,8813,8814,8813,8814,8813,8814,8813,8814,8813,8814,8813,8814,8813,8814,8813,8814,
8861,8862,0,0,0,0,0,0,0,0,0,0,0,0,0,0,0,0,0,0,0,0,0,0,0,0,0,0,0,0,8861,8862,8861,8862,8861,8862,8861,8862,8861,8862,8861,8862,8861,8862,8861,8862,8861,8862,
8813,8814,0,0,0,0,0,0,0,0,0,0,0,0,0,0,0,0,0,0,0,0,0,0,0,0,0,0,0,0,8813,8814,8813,8814,8813,8814,8813,8814,8813,8814,8813,8814,8813,8814,8813,8814,8813,8814,
8861,8862,0,0,0,0,0,0,0,0,0,8813,8814,8813,8814,8813,8814,8813,8814,0,0,0,0,0,0,0,0,0,0,0,8861,8862,8861,8862,8861,8862,8861,8862,8861,8862,8861,8862,8861,8862,8861,8862,8861,8862,
0,0,0,0,0,0,0,0,0,0,0,8861,8862,8861,8862,8861,8862,8861,8862,0,0,0,0,0,8813,8814,8813,8814,8813,8814,8813,8814,8813,8814,8813,8814,8813,8814,8813,8814,8813,8814,8813,8814,8813,8814,8813,8814,
0,0,0,0,0,0,0,0,0,0,0,8813,8814,8813,8814,8813,8814,8813,8814,0,0,0,0,0,8861,8862,8861,8862,8861,8862,8861,8862,8861,8862,8861,8862,8861,8862,8861,8862,8861,8862,8861,8862,8861,8862,8861,8862,
0,0,0,0,0,0,0,0,0,0,0,8861,8862,8861,8862,8861,8862,8861,8862,0,0,0,0,0,0,0,8813,8814,8813,8814,8813,8814,8813,8814,8813,8814,8813,8814,8813,8814,8813,8814,8813,8814,8813,8814,8813,8814,
0,0,0,0,0,0,0,0,0,0,0,8813,8814,8813,8814,0,0,0,0,0,0,0,0,0,0,0,8861,8862,8861,8862,8861,8862,8861,8862,8861,8862,8861,8862,8861,8862,8861,8862,8861,8862,8861,8862,8861,8862,
0,0,0,0,0,0,0,0,0,0,0,8861,8862,8861,8862,0,0,0,0,0,0,0,0,0,0,0,0,0,0,0,8813,8814,8813,8814,8813,8814,8813,8814,8813,8814,8813,8814,8813,8814,8813,8814,8813,8814,
0,0,0,0,0,0,0,0,0,0,0,8813,8814,8813,8814,0,0,0,0,0,0,0,0,0,0,0,0,0,0,0,8861,8862,8861,8862,8861,8862,8861,8862,8861,8862,8861,8862,8861,8862,8861,8862,8861,8862,
0,0,0,0,0,0,0,0,0,0,0,8861,8862,8861,8862,0,0,0,0,0,0,0,0,0,0,0,0,0,0,0,8813,8814,8813,8814,8813,8814,8813,8814,8813,8814,8813,8814,8813,8814,8813,8814,8813,8814,
0,0,0,0,0,0,0,0,0,0,0,8813,8814,8813,8814,0,0,0,0,0,0,0,0,0,0,0,0,0,0,0,8861,8862,8861,8862,8861,8862,8861,8862,8861,8862,8861,8862,8861,8862,8861,8862,8861,8862,
0,0,0,0,0,0,0,0,0,0,0,8861,8862,8861,8862,0,0,0,0,0,0,0,0,0,0,0,0,0,0,0,8813,8814,8813,8814,8813,8814,8813,8814,8813,8814,8813,8814,8813,8814,8813,8814,8813,8814,
0,0,0,0,0,0,0,0,0,0,0,0,0,0,0,0,0,0,0,0,0,0,0,0,8813,8814,0,0,0,0,8861,8862,8861,8862,8861,8862,8861,8862,8861,8862,8861,8862,8861,8862,8861,8862,8861,8862,
0,0,0,0,0,0,0,0,0,0,0,0,0,0,0,0,0,0,0,0,0,0,0,0,8861,8862,0,0,0,0,8813,8814,8813,8814,8813,8814,8813,8814,8813,8814,8813,8814,8813,8814,8813,8814,8813,8814,
0,0,0,0,0,0,0,0,0,0,0,0,0,0,0,0,0,0,0,0,0,0,0,0,8813,8814,0,0,0,0,8861,8862,8861,8862,8861,8862,8861,8862,8861,8862,8861,8862,8861,8862,8861,8862,8861,8862,
8813,8814,0,0,0,0,0,0,0,0,0,0,0,0,0,0,0,0,0,0,0,0,0,0,8861,8862,0,0,0,0,8813,8814,8813,8814,8813,8814,8813,8814,8813,8814,8813,8814,8813,8814,8813,8814,8813,8814,
8861,8862,0,0,0,0,0,0,0,0,0,8813,8814,8813,8814,8813,8814,8813,8814,0,0,0,0,0,8813,8814,0,0,0,0,8861,8862,8861,8862,8861,8862,8861,8862,8861,8862,8861,8862,8861,8862,8861,8862,8861,8862,
8813,8814,0,0,0,0,0,0,0,0,0,8861,8862,8861,8862,8861,8862,8861,8862,0,0,0,0,0,8861,8862,0,0,0,0,8813,8814,8813,8814,8813,8814,8813,8814,8813,8814,8813,8814,8813,8814,8813,8814,8813,8814,
8861,8862,0,0,0,0,0,0,0,0,0,0,0,0,0,0,0,0,0,0,0,0,0,0,0,0,0,0,0,0,8861,8862,8861,8862,8861,8862,8861,8862,8861,8862,8861,8862,8861,8862,8861,8862,8861,8862,
0,0,0,0,0,0,0,0,0,0,0,0,0,0,0,0,0,0,0,0,0,0,0,0,0,0,0,0,0,0,8813,8814,8813,8814,8813,8814,8813,8814,8813,8814,8813,8814,8813,8814,8813,8814,8813,8814,
0,0,0,0,0,0,0,0,0,0,0,0,0,0,0,0,0,0,0,0,0,0,0,0,0,0,0,0,0,0,8861,8862,8861,8862,8861,8862,8861,8862,8861,8862,8861,8862,8861,8862,8861,8862,8861,8862,
0,0,0,0,0,0,0,0,0,0,0,0,0,0,0,0,0,0,0,0,0,0,0,0,0,0,0,0,0,0,8813,8814,8813,8814,8813,8814,8813,8814,8813,8814,8813,8814,8813,8814,8813,8814,8813,8814,
0,0,0,0,0,0,0,0,0,0,0,0,0,0,0,0,0,0,0,0,0,0,0,0,0,0,0,0,0,0,8861,8862,8861,8862,8861,8862,8861,8862,8861,8862,8861,8862,8861,8862,8861,8862,8861,8862,
8813,8814,8813,8814,8813,8814,8813,8814,8813,8814,8813,8814,8813,8814,8813,8814,8813,8814,8813,8814,8813,8814,8813,8814,8813,8814,8813,8814,8813,8814,8813,8814,8813,8814,8813,8814,8813,8814,8813,8814,8813,8814,8813,8814,8813,8814,8813,8814,
8861,8862,8861,8862,8861,8862,8861,8862,8861,8862,8861,8862,8861,8862,8861,8862,8861,8862,8861,8862,8861,8862,8861,8862,8861,8862,8861,8862,8861,8862,8861,8862,8861,8862,8861,8862,8861,8862,8861,8862,8861,8862,8861,8862,8861,8862,8861,8862,
0,0,0,36424,8813,8814,8813,8814,8813,8814,8813,8814,8813,8814,8813,8814,8813,8814,8813,8814,8813,8814,8813,8814,8813,8814,8813,8814,8813,8814,8813,8814,8813,8814,8813,8814,8813,8814,8813,8814,8813,8814,8813,8814,8813,8814,8813,8814,
0,0,0,0,8861,8862,8861,8862,8861,8862,8861,8862,8861,8862,8861,8862,8861,8862,8861,8862,8861,8862,8861,8862,8861,8862,8861,8862,8861,8862,8861,8862,8861,8862,8861,8862,8861,8862,8861,8862,8861,8862,8861,8862,8861,8862,8861,8862,
0,0,0,0,0,0,0,0,36424,0,8813,8814,8813,8814,8813,8814,8813,8814,8813,8814,8813,8814,8813,8814,8813,8814,8813,8814,8813,8814,8813,8814,8813,8814,8813,8814,8813,8814,8813,8814,8813,8814,8813,8814,8813,8814,8813,8814,
8592,8593,8594,0,0,0,0,0,0,36424,8861,8862,8861,8862,8861,8862,8861,8862,8861,8862,8861,8862,8861,8862,8861,8862,8861,8862,8861,8862,8861,8862,8861,8862,8861,8862,8861,8862,8861,8862,8861,8862,8861,8862,8861,8862,8861,8862,
54793,54794,8642,0,0,0,0,0,0,0,0,36424,8813,8814,8813,8814,8813,8814,8813,8814,8813,8814,8813,8814,8813,8814,8813,8814,8813,8814,8813,8814,8813,8814,8813,8814,8813,8814,8813,8814,8813,8814,8813,8814,8813,8814,8813,8814,
0,54892,8880,8592,8592,8592,8593,8594,0,0,0,0,8861,8862,8861,8862,8861,8862,8861,8862,8861,8862,8861,8862,8861,8862,8861,8862,8861,8862,8861,8862,8861,8862,8861,8862,8861,8862,8861,8862,8861,8862,8861,8862,8861,8862,8861,8862,
0,54990,54793,54793,54793,54793,54794,8642,0,0,0,0,8813,8814,8813,8814,8813,8814,8813,8814,8813,8814,8813,8814,8813,8814,8813,8814,8813,8814,8813,8814,8813,8814,8813,8814,8813,8814,8813,8814,8813,8814,8813,8814,8813,8814,8813,8814,
0,0,0,0,0,0,54892,8880,8592,8593,8594,0,8861,8862,8861,8862,8861,8862,8861,8862,8861,8862,8861,8862,8861,8862,8861,8862,8861,8862,8861,8862,8861,8862,8861,8862,8861,8862,8861,8862,8861,8862,8861,8862,8861,8862,8861,8862,
0,0,0,0,0,0,54990,54793,54793,54794,8642,0,36424,0,8813,8814,8813,8814,8813,8814,8813,8814,8813,8814,8813,8814,8813,8814,8813,8814,8813,8814,8813,8814,8813,8814,8813,8814,8813,8814,8813,8814,8813,8814,8813,8814,8813,8814,
0,0,0,0,0,0,0,0,0,54892,8690,0,0,36424,8861,8862,8861,8862,8861,8862,8861,8862,8861,8862,8861,8862,8861,8862,8861,8862,8861,8862,8861,8862,8861,8862,8861,8862,8861,8862,8861,8862,8861,8862,8861,8862,8861,8862,
0,0,0,0,0,0,0,0,0,54892,8690,0,0,0,0,0,0,0,0,0,0,0,0,36424,8813,8814,8813,8814,8813,8814,8813,8814,8813,8814,8813,8814,8813,8814,8813,8814,8813,8814,8813,8814,8813,8814,8813,8814,
0,0,0,0,0,0,0,0,0,54892,8880,8594,0,0,0,0,0,0,0,0,0,0,0,0,8861,8862,8861,8862,8861,8862,8861,8862,8861,8862,8861,8862,8861,8862,8861,8862,8861,8862,8861,8862,8861,8862,8861,8862,
0,0,0,0,0,0,0,0,0,54990,54794,8642,0,0,0,0,0,0,0,0,0,0,0,0,0,0,0,0,0,0,0,0,0,0,0,0,0,0,0,0,0,0,0,0,0,0,0,0,
0,0,0,0,0,0,0,0,0,0,54892,8880,8592,8592,8592,8592,8592,8592,8592,8592,8593,8594,0,0,0,0,0,0,0,0,0,0,0,0,0,0,0,0,0,0,0,0,0,0,0,0,0,0,
0,0,0,0,0,0,0,0,0,0,54990,54793,54793,54793,54793,54793,54793,54793,54793,54793,54794,8880,8594,0,0,0,0,0,0,0,0,0,0,0,0,0,0,0,0,0,0,0,0,0,0,0,0,0,
0,0,0,0,0,0,0,0,0,0,0,0,0,0,0,0,0,0,0,0,54990,54794,8880,8592,8592,8592,8592,8592,8592,8592,8592,8592,8592,8592,8592,8592,8592,8592,8592,8592,8592,8592,8592,8592,8592,8592,8592,8592,
0,0,0,0,0,0,0,0,0,0,0,0,0,0,0,0,0,0,0,0,0,54990,54793,54793,54793,54793,54793,54793,54793,54793,54793,54793,54793,54793,54793,54793,54793,54793,54793,54793,54793,54793,54793,54793,54793,54793,54793,54793,
0,0,0,0,0,0,0,0,0,0,0,0,0,0,0,0,0,0,0,0,0,0,0,0,0,0,0,0,0,0,0,0,0,0,0,0,0,0,0,0,0,0,0,0,0,0,0,0,
0,0,0,0,0,0,0,0,0,0,0,0,0,0,0,0,0,0,0,0,0,0,0,0,0,0,0,0,0,0,0,0,0,0,0,0,0,0,0,0,0,0,0,0,0,0,0,0,
0,0,0,0,0,0,0,0,0,0,0,0,0,0,0,0,0,0,0,0,0,0,0,0,0,0,0,0,0,0,0,0,0,0,0,0,0,0,0,0,0,0,0,0,0,0,0,0,
0,0,0,0,0,0,0,0,0,0,0,0,0,0,0,0,0,0,0,0,0,0,0,0,0,0,0,0,0,0,0,0,0,0,0,0,0,0,0,0,0,0,0,0,0,0,0,0,
0,0,0,0,0,0,0,0,0,0,0,0,0,0,0,0,0,0,0,0,0,0,0,0,0,0,0,0,0,0,0,0,0,0,0,0,0,0,0,0,0,0,0,0,0,0,0,0,
0,0,0,0,0,0,0,0,0,0,0,0,0,0,0,0,0,0,0,0,0,0,0,0,0,0,0,0,0,0,0,0,0,0,0,0,0,0,0,0,0,0,0,0,0,0,0,0,
0,0,0,0,0,0,0,0,0,0,0,0,0,0,0,0,0,0,0,0,0,0,0,0,0,0,0,0,0,0,0,0,0,0,0,0,0,0,0,0,0,0,0,0,0,0,0,0,
0,0,0,0,0,0,0,0,0,0,0,0,0,0,0,0,0,0,0,0,0,0,0,0,0,0,0,0,0,0,0,0,0,0,0,0,0,0,0,0,0,0,0,0,0,0,0,0,
0,0,0,0,0,0,0,0,0,0,0,0,0,0,0,0,0,0,0,0,0,0,0,0,0,0,0,0,0,0,0,0,0,0,0,0,0,0,0,0,0,0,0,0,0,0,0,0,
0,0,0,0,0,0,0,0,0,0,0,0,0,0,0,0,0,0,0,0,0,0,0,0,0,0,0,0,0,0,0,0,0,0,0,0,0,0,0,0,0,0,0,0,0,0,0,0,
0,0,0,0,0,0,0,0,0,0,0,0,0,0,0,0,0,0,0,0,0,0,0,0,0,0,0,0,0,0,0,0,0,0,0,0,0,0,0,0,0,0,0,0,0,0,0,0,
0,0,0,0,0,0,0,0,0,0,0,0,0,0,0,0,0,0,0,0,0,0,0,0,0,0,0,0,0,0,0,0,0,0,0,0,0,0,0,0,0,0,0,0,0,0,0,0,
0,0,0,0,0,0,0,0,0,0,0,0,0,0,0,0,0,0,0,0,0,0,0,0,0,0,0,0,0,0,0,0,0,0,0,0,0,0,0,0,0,0,0,0,0,0,0,0,
0,0,0,0,0,0,0,0,0,0,0,0,0,0,0,0,0,0,0,0,0,0,0,0,0,0,0,0,0,0,0,0,0,0,0,0,0,0,0,0,0,0,0,0,0,0,0,0,
0,0,0,0,0,0,0,0,0,0,0,0,0,0,0,0,0,0,0,0,0,0,0,0,0,0,0,0,0,0,0,0,0,0,0,0,0,0,0,0,0,0,0,0,0,0,0,0,
0,0,0,0,0,0,0,0,0,0,0,0,0,0,0,0,0,0,0,0,0,0,0,0,0,0,0,0,0,0,0,0,0,0,0,0,0,0,0,0,0,0,0,0,0,0,0,0,
0,0,0,0,0,0,0,0,0,0,0,0,0,0,0,0,0,0,0,0,0,0,0,0,0,0,0,0,0,0,0,0,0,0,0,0,0,0,0,0,0,0,0,0,0,0,0,0,
0,0,0,0,0,0,0,0,0,0,0,0,0,0,0,0,0,0,0,0,0,0,0,0,0,0,0,0,0,0,0,0,0,0,0,0,0,0,0,0,0,0,0,0,0,0,0,0,
0,0,0,0,0,0,0,0,0,0,0,0,0,0,0,0,0,0,0,0,0,0,0,0,0,0,0,0,0,0,0,0,0,0,0,0,0,0,0,0,0,0,0,0,0,0,0,0,
0,0,0,0,0,0,0,0,0,0,0,0,0,0,0,0,0,0,0,0,0,0,0,0,0,0,0,0,0,0,0,0,0,0,0,0,0,0,0,0,0,0,0,0,0,0,0,0,
0,0,0,0,0,0,0,0,0,0,0,0,0,0,0,0,0,0,0,0,0,0,0,0,0,0,0,0,0,0,0,0,0,0,0,0,0,0,0,0,0,0,0,0,0,0,0,0,
0,0,0,0,0,0,0,0,0,0,0,0,0,0,0,0,0,0,0,0,0,0,0,0,0,0,0,0,0,0,0,0,0,0,0,0,0,0,0,0,0,0,0,0,0,0,0,0,
0,0,0,0,0,0,0,0,0,0,0,0,0,0,0,0,0,0,0,0,0,0,0,0,0,0,0,0,0,0,0,0,0,0,0,0,0,0,0,0,0,0,0,0,0,0,0,0,
0,0,0,0,0,0,0,0,0,0,0,0,0,0,0,0,0,0,0,0,0,0,0,0,0,0,0,0,0,0,0,0,0,0,0,0,0,0,0,0,0,0,0,0,0,0,0,0,
0,0,0,0,0,0,0,0,0,0,0,0,0,0,0,0,0,0,0,0,0,0,0,0,0,0,0,0,0,0,0,0,0,0,0,0,0,0,0,0,0,0,0,0,0,0,0,0,
0,0,0,0,0,0,0,0,0,0,0,0,0,0,0,0,0,0,0,0,0,0,0,0,0,0,0,0,0,0,0,0,0,0,0,0,0,0,0,0,0,0,0,0,0,0,0,0,
0,0,0,0,0,0,0,0,0,0,0,0,0,0,0,0,0,0,0,0,0,0,0,0,0,0,0,0,0,0,0,0,0,0,0,0,0,0,0,0,0,0,0,0,0,0,0,0,
0,0,0,0,0,0,0,0,0,0,0,0,0,0,0,0,0,0,0,0,0,0,0,0,0,0,0,0,0,0,0,0,0,0,0,0,0,0,0,0,0,0,0,0,0,0,0,0,
0,0,0,0,0,0,0,0,0,0,0,0,0,0,0,0,0,0,0,0,0,0,0,0,0,0,0,0,0,0,0,0,0,0,0,0,0,0,0,0,0,0,0,0,0,0,0,0
 </data>
 </layer>
 <layer id="12" name="♣_Tree_rgt_btm_1+1" width="48" height="96">
  <data encoding="csv">
0,0,0,0,0,0,0,0,0,0,0,0,0,0,0,0,0,0,0,0,0,0,0,0,0,0,0,0,0,0,0,0,0,0,0,0,0,0,0,0,0,0,0,0,0,0,0,0,
8765,8766,8765,8766,8765,8766,8765,8766,8765,8766,8765,8766,8765,8766,8765,8766,8765,8766,8765,8766,8765,8766,8765,8766,8765,8766,8765,8766,8765,8766,8765,8766,8765,8766,8765,8766,8765,8766,8765,8766,8765,8766,8765,8766,8765,8766,8765,8766,
0,0,0,0,0,0,0,0,0,0,0,0,0,0,0,0,0,0,0,0,0,0,0,0,0,0,0,0,0,0,0,0,0,0,0,0,0,0,0,0,0,0,0,0,0,0,0,0,
8765,8766,8765,8766,8765,8766,8765,8766,8765,8766,8765,8766,8765,8766,8765,8766,8765,8766,8765,8766,8765,8766,8765,8766,8765,8766,8765,8766,8765,8766,8765,8766,8765,8766,8765,8766,8765,8766,8765,8766,8765,8766,8765,8766,8765,8766,8765,8766,
0,0,0,0,0,0,0,0,0,0,0,0,0,0,0,0,0,0,0,0,0,0,0,0,0,0,0,0,0,0,0,0,0,0,0,0,0,0,0,0,0,0,0,0,0,0,0,0,
8765,8766,8765,8766,8765,8766,8765,8766,8765,8766,8765,8766,8765,8766,8765,8766,8765,8766,8765,8766,8765,8766,8765,8766,8765,8766,8765,8766,8765,8766,8765,8766,8765,8766,8765,8766,8765,8766,8765,8766,8765,8766,8765,8766,8765,8766,8765,8766,
0,0,0,0,0,0,0,0,0,0,0,0,0,0,0,0,0,0,0,0,0,0,0,0,0,0,0,0,0,0,0,0,0,0,0,0,0,0,0,0,0,0,0,0,0,0,0,0,
8765,8766,8765,8766,8765,8766,8765,8766,8765,8766,8765,8766,8765,8766,8765,8766,8765,8766,8765,8766,8765,8766,8765,8766,8765,8766,8765,8766,8765,8766,8765,8766,8765,8766,8765,8766,8765,8766,8765,8766,8765,8766,8765,8766,8765,8766,8765,8766,
0,0,0,0,0,0,0,0,0,0,0,0,0,0,0,0,0,0,0,0,0,0,0,0,0,0,0,0,0,0,0,0,0,0,0,0,0,0,0,0,0,0,0,0,0,0,0,0,
8765,8766,8765,8766,8765,8766,8765,8766,8765,8766,8765,8766,8765,8766,8765,8766,8765,8766,8765,8766,8765,8766,8765,8766,8765,8766,8765,8766,8765,8766,8765,8766,8765,8766,8765,8766,8765,8766,8765,8766,8765,8766,8765,8766,8765,8766,8765,8766,
0,0,0,0,0,0,0,0,0,0,0,0,0,0,0,0,0,0,0,0,0,0,0,0,0,0,0,0,0,0,0,0,0,0,0,0,0,0,0,0,0,0,0,0,0,0,0,0,
8765,8766,8765,8766,8765,8766,8765,8766,8765,8766,8765,8766,8765,8766,8765,8766,8765,8766,8765,8766,8765,8766,8765,8766,8765,8766,8765,8766,8765,8766,8765,8766,8765,8766,8765,8766,8765,8766,8765,8766,8765,8766,8765,8766,8765,8766,8765,8766,
0,0,0,0,0,0,0,0,0,0,0,0,0,0,0,0,0,0,0,0,0,0,0,0,0,0,0,0,0,0,0,0,0,0,0,0,0,0,0,0,0,0,0,0,0,0,0,0,
8765,8766,8765,8766,8765,8766,8765,8766,8765,8766,8765,8766,8765,8766,8765,8766,8765,8766,8765,8766,8765,8766,8765,8766,8765,8766,8765,8766,8765,8766,8765,8766,8765,8766,8765,8766,8765,8766,8765,8766,8765,8766,8765,8766,8765,8766,8765,8766,
0,0,0,0,0,0,0,0,0,0,0,0,0,0,0,0,0,0,0,0,0,0,0,0,0,0,0,0,0,0,0,0,0,0,0,0,0,0,0,0,0,0,0,0,0,0,0,0,
8765,8766,8765,8766,8765,8766,8765,8766,8765,8766,8765,8766,8765,8766,8765,8766,8765,8766,8765,8766,8765,8766,8765,8766,8765,8766,8765,8766,8765,8766,8765,8766,8765,8766,8765,8766,8765,8766,8765,8766,8765,8766,8765,8766,8765,8766,8765,8766,
0,0,0,0,0,0,0,0,0,0,0,0,0,0,0,0,0,0,0,0,0,0,0,0,0,0,0,0,0,0,0,0,0,0,0,0,0,0,0,0,0,0,0,0,0,0,0,0,
8765,8766,8765,8766,8765,8766,8765,8766,8765,8766,8765,8766,8765,8766,8765,8766,8765,8766,8765,8766,8765,8766,8765,8766,8765,8766,8765,8766,8765,8766,8765,8766,8765,8766,8765,8766,8765,8766,8765,8766,8765,8766,8765,8766,8765,8766,8765,8766,
0,0,0,0,0,0,0,0,0,0,0,0,0,0,0,0,0,0,0,0,0,0,0,0,0,0,0,0,0,0,0,0,0,0,0,0,0,0,0,0,0,0,0,0,0,0,0,0,
8765,8766,8765,8766,8765,8766,8765,8766,8765,8766,8765,8766,8765,8766,8765,8766,8765,8766,8765,8766,8765,8766,8765,8766,8765,8766,8765,8766,8765,8766,8765,8766,8765,8766,8765,8766,8765,8766,8765,8766,8765,8766,8765,8766,8765,8766,8765,8766,
0,0,0,0,0,0,0,0,0,0,0,0,0,0,0,0,0,0,0,0,0,0,0,0,0,0,0,0,0,0,0,0,0,0,0,0,0,0,0,0,0,0,0,0,0,0,0,0,
8765,8766,8765,8766,8765,8766,8765,8766,8765,8766,8765,8766,8765,8766,8765,8766,8765,8766,8765,8766,8765,8766,8765,8766,8765,8766,8765,8766,8765,8766,8765,8766,8765,8766,8765,8766,8765,8766,8765,8766,8765,8766,8765,8766,8765,8766,8765,8766,
0,0,0,0,0,0,0,0,0,0,0,0,0,0,0,0,0,0,0,0,0,0,0,0,0,0,0,0,0,0,0,0,0,0,0,0,0,0,0,0,0,0,0,0,0,0,0,0,
8765,8766,0,0,0,0,0,0,0,0,0,0,0,0,0,0,0,0,0,0,0,0,0,0,0,0,0,0,0,0,8765,8766,8765,8766,8765,8766,8765,8766,8765,8766,8765,8766,8765,8766,8765,8766,8765,8766,
0,0,0,0,0,0,0,0,0,0,0,0,0,0,0,0,0,0,0,0,0,0,0,0,0,0,0,0,0,0,0,0,0,0,0,0,0,0,0,0,0,0,0,0,0,0,0,0,
8765,8766,0,0,0,0,0,0,0,0,0,0,0,0,0,0,0,0,0,0,0,0,0,0,0,0,0,0,0,0,8765,8766,8765,8766,8765,8766,8765,8766,8765,8766,8765,8766,8765,8766,8765,8766,8765,8766,
0,0,0,0,0,0,0,0,0,0,0,0,0,0,0,0,0,0,0,0,0,0,0,0,0,0,0,0,0,0,0,0,0,0,0,0,0,0,0,0,0,0,0,0,0,0,0,0,
8765,8766,0,0,0,0,0,0,0,0,0,0,0,0,0,0,0,0,0,0,0,0,0,0,0,0,0,0,0,0,8765,8766,8765,8766,8765,8766,8765,8766,8765,8766,8765,8766,8765,8766,8765,8766,8765,8766,
0,0,0,0,0,0,0,0,0,0,0,8765,8766,8765,8766,8765,8766,8765,8766,0,0,0,0,0,0,0,0,0,0,0,0,0,0,0,0,0,0,0,0,0,0,0,0,0,0,0,0,0,
0,0,0,0,0,0,0,0,0,0,0,0,0,0,0,0,0,0,0,0,0,0,0,0,8765,8766,8765,8766,8765,8766,8765,8766,8765,8766,8765,8766,8765,8766,8765,8766,8765,8766,8765,8766,8765,8766,8765,8766,
0,0,0,0,0,0,0,0,0,0,0,8765,8766,8765,8766,8765,8766,8765,8766,0,0,0,0,0,0,0,0,0,0,0,0,0,0,0,0,0,0,0,0,0,0,0,0,0,0,0,0,0,
0,0,0,0,0,0,0,0,0,0,0,0,0,0,0,0,0,0,0,0,0,0,0,0,0,0,8765,8766,8765,8766,8765,8766,8765,8766,8765,8766,8765,8766,8765,8766,8765,8766,8765,8766,8765,8766,8765,8766,
0,0,0,0,0,0,0,0,0,0,0,8765,8766,8765,8766,0,0,0,0,0,0,0,0,0,0,0,0,0,0,0,0,0,0,0,0,0,0,0,0,0,0,0,0,0,0,0,0,0,
0,0,0,0,0,0,0,0,0,0,0,0,0,0,0,0,0,0,0,0,0,0,0,0,0,0,0,0,0,0,8765,8766,8765,8766,8765,8766,8765,8766,8765,8766,8765,8766,8765,8766,8765,8766,8765,8766,
0,0,0,0,0,0,0,0,0,0,0,8765,8766,8765,8766,0,0,0,0,0,0,0,0,0,0,0,0,0,0,0,0,0,0,0,0,0,0,0,0,0,0,0,0,0,0,0,0,0,
0,0,0,0,0,0,0,0,0,0,0,0,0,0,0,0,0,0,0,0,0,0,0,0,0,0,0,0,0,0,8765,8766,8765,8766,8765,8766,8765,8766,8765,8766,8765,8766,8765,8766,8765,8766,8765,8766,
0,0,0,0,0,0,0,0,0,0,0,8765,8766,8765,8766,0,0,0,0,0,0,0,0,0,0,0,0,0,0,0,0,0,0,0,0,0,0,0,0,0,0,0,0,0,0,0,0,0,
0,0,0,0,0,0,0,0,0,0,0,0,0,0,0,0,0,0,0,0,0,0,0,0,0,0,0,0,0,0,8765,8766,8765,8766,8765,8766,8765,8766,8765,8766,8765,8766,8765,8766,8765,8766,8765,8766,
0,0,0,0,0,0,0,0,0,0,0,0,0,0,0,0,0,0,0,0,0,0,0,0,8765,8766,0,0,0,0,0,0,0,0,0,0,0,0,0,0,0,0,0,0,0,0,0,0,
0,0,0,0,0,0,0,0,0,0,0,0,0,0,0,0,0,0,0,0,0,0,0,0,0,0,0,0,0,0,8765,8766,8765,8766,8765,8766,8765,8766,8765,8766,8765,8766,8765,8766,8765,8766,8765,8766,
0,0,0,0,0,0,0,0,0,0,0,0,0,0,0,0,0,0,0,0,0,0,0,0,8765,8766,0,0,0,0,0,0,0,0,0,0,0,0,0,0,0,0,0,0,0,0,0,0,
8765,8766,0,0,0,0,0,0,0,0,0,0,0,0,0,0,0,0,0,0,0,0,0,0,0,0,0,0,0,0,8765,8766,8765,8766,8765,8766,8765,8766,8765,8766,8765,8766,8765,8766,8765,8766,8765,8766,
0,0,0,0,0,0,0,0,0,0,0,8765,8766,8765,8766,8765,8766,8765,8766,0,0,0,0,0,8765,8766,0,0,0,0,0,0,0,0,0,0,0,0,0,0,0,0,0,0,0,0,0,0,
8765,8766,0,0,0,0,0,0,0,0,0,0,0,0,0,0,0,0,0,0,0,0,0,0,0,0,0,0,0,0,8765,8766,8765,8766,8765,8766,8765,8766,8765,8766,8765,8766,8765,8766,8765,8766,8765,8766,
0,0,0,0,0,0,0,0,0,0,0,0,0,0,0,0,0,0,0,0,0,0,0,0,0,0,0,0,0,0,0,0,0,0,0,0,0,0,0,0,0,0,0,0,0,0,0,0,
0,0,0,0,0,0,0,0,0,0,0,0,0,0,0,0,0,0,0,0,0,0,0,0,0,0,0,0,0,0,8765,8766,8765,8766,8765,8766,8765,8766,8765,8766,8765,8766,8765,8766,8765,8766,8765,8766,
0,0,0,0,0,0,0,0,0,0,0,0,0,0,0,0,0,0,0,0,0,0,0,0,0,0,0,0,0,0,0,0,0,0,0,0,0,0,0,0,0,0,0,0,0,0,0,0,
0,0,0,0,0,0,0,0,0,0,0,0,0,0,0,0,0,0,0,0,0,0,0,0,0,0,0,0,0,0,8765,8766,8765,8766,8765,8766,8765,8766,8765,8766,8765,8766,8765,8766,8765,8766,8765,8766,
0,0,0,0,0,0,0,0,0,0,0,0,0,0,0,0,0,0,0,0,0,0,0,0,0,0,0,0,0,0,0,0,0,0,0,0,0,0,0,0,0,0,0,0,0,0,0,0,
8765,8766,8765,8766,8765,8766,8765,8766,8765,8766,8765,8766,8765,8766,8765,8766,8765,8766,8765,8766,8765,8766,8765,8766,8765,8766,8765,8766,8765,8766,8765,8766,8765,8766,8765,8766,8765,8766,8765,8766,8765,8766,8765,8766,8765,8766,8765,8766,
0,0,0,0,0,0,0,0,0,0,0,0,0,0,0,0,0,0,0,0,0,0,0,0,0,0,0,0,0,0,0,0,0,0,0,0,0,0,0,0,0,0,0,0,0,0,0,0,
0,0,0,0,8765,8766,8765,8766,8765,8766,8765,8766,8765,8766,8765,8766,8765,8766,8765,8766,8765,8766,8765,8766,8765,8766,8765,8766,8765,8766,8765,8766,8765,8766,8765,8766,8765,8766,8765,8766,8765,8766,8765,8766,8765,8766,8765,8766,
0,0,0,0,0,0,0,0,0,0,0,0,0,0,0,0,0,0,0,0,0,0,0,0,0,0,0,0,0,0,0,0,0,0,0,0,0,0,0,0,0,0,0,0,0,0,0,0,
0,0,0,0,0,0,0,0,0,0,8765,8766,8765,8766,8765,8766,8765,8766,8765,8766,8765,8766,8765,8766,8765,8766,8765,8766,8765,8766,8765,8766,8765,8766,8765,8766,8765,8766,8765,8766,8765,8766,8765,8766,8765,8766,8765,8766,
0,0,0,0,0,0,0,0,0,0,0,0,0,0,0,0,0,0,0,0,0,0,0,0,0,0,0,0,0,0,0,0,0,0,0,0,0,0,0,0,0,0,0,0,0,0,0,0,
0,0,0,0,0,0,0,0,0,0,0,0,8765,8766,8765,8766,8765,8766,8765,8766,8765,8766,8765,8766,8765,8766,8765,8766,8765,8766,8765,8766,8765,8766,8765,8766,8765,8766,8765,8766,8765,8766,8765,8766,8765,8766,8765,8766,
0,0,0,0,0,0,0,0,0,0,0,0,0,0,0,0,0,0,0,0,0,0,0,0,0,0,0,0,0,0,0,0,0,0,0,0,0,0,0,0,0,0,0,0,0,0,0,0,
0,0,0,0,0,0,0,0,0,0,0,0,8765,8766,8765,8766,8765,8766,8765,8766,8765,8766,8765,8766,8765,8766,8765,8766,8765,8766,8765,8766,8765,8766,8765,8766,8765,8766,8765,8766,8765,8766,8765,8766,8765,8766,8765,8766,
0,0,0,0,0,0,0,0,0,0,0,0,0,0,0,0,0,0,0,0,0,0,0,0,0,0,0,0,0,0,0,0,0,0,0,0,0,0,0,0,0,0,0,0,0,0,0,0,
0,0,0,0,0,0,0,0,0,0,0,0,0,0,8765,8766,8765,8766,8765,8766,8765,8766,8765,8766,8765,8766,8765,8766,8765,8766,8765,8766,8765,8766,8765,8766,8765,8766,8765,8766,8765,8766,8765,8766,8765,8766,8765,8766,
0,0,0,0,0,0,0,0,0,0,0,0,0,0,0,0,0,0,0,0,0,0,0,0,0,0,0,0,0,0,0,0,0,0,0,0,0,0,0,0,0,0,0,0,0,0,0,0,
0,0,0,0,0,0,0,0,0,0,0,0,0,0,0,0,0,0,0,0,0,0,0,0,8765,8766,8765,8766,8765,8766,8765,8766,8765,8766,8765,8766,8765,8766,8765,8766,8765,8766,8765,8766,8765,8766,8765,8766,
0,0,0,0,0,0,0,0,0,0,0,0,0,0,0,0,0,0,0,0,0,0,0,0,0,0,0,0,0,0,0,0,0,0,0,0,0,0,0,0,0,0,0,0,0,0,0,0,
0,0,0,0,0,0,0,0,0,0,0,0,0,0,0,0,0,0,0,0,0,0,0,0,0,0,0,0,0,0,0,0,0,0,0,0,0,0,0,0,0,0,0,0,0,0,0,0,
0,0,0,0,0,0,0,0,0,0,0,0,0,0,0,0,0,0,0,0,0,0,0,0,0,0,0,0,0,0,0,0,0,0,0,0,0,0,0,0,0,0,0,0,0,0,0,0,
0,0,0,0,0,0,0,0,0,0,0,0,0,0,0,0,0,0,0,0,0,0,0,0,0,0,0,0,0,0,0,0,0,0,0,0,0,0,0,0,0,0,0,0,0,0,0,0,
0,0,0,0,0,0,0,0,0,0,0,0,0,0,0,0,0,0,0,0,0,0,0,0,0,0,0,0,0,0,0,0,0,0,0,0,0,0,0,0,0,0,0,0,0,0,0,0,
0,0,0,0,0,0,0,0,0,0,0,0,0,0,0,0,0,0,0,0,0,0,0,0,0,0,0,0,0,0,0,0,0,0,0,0,0,0,0,0,0,0,0,0,0,0,0,0,
0,0,0,0,0,0,0,0,0,0,0,0,0,0,0,0,0,0,0,0,0,0,0,0,0,0,0,0,0,0,0,0,0,0,0,0,0,0,0,0,0,0,0,0,0,0,0,0,
0,0,0,0,0,0,0,0,0,0,0,0,0,0,0,0,0,0,0,0,0,0,0,0,0,0,0,0,0,0,0,0,0,0,0,0,0,0,0,0,0,0,0,0,0,0,0,0,
0,0,0,0,0,0,0,0,0,0,0,0,0,0,0,0,0,0,0,0,0,0,0,0,0,0,0,0,0,0,0,0,0,0,0,0,0,0,0,0,0,0,0,0,0,0,0,0,
0,0,0,0,0,0,0,0,0,0,0,0,0,0,0,0,0,0,0,0,0,0,0,0,0,0,0,0,0,0,0,0,0,0,0,0,0,0,0,0,0,0,0,0,0,0,0,0,
0,0,0,0,0,0,0,0,0,0,0,0,0,0,0,0,0,0,0,0,0,0,0,0,0,0,0,0,0,0,0,0,0,0,0,0,0,0,0,0,0,0,0,0,0,0,0,0,
0,0,0,0,0,0,0,0,0,0,0,0,0,0,0,0,0,0,0,0,0,0,0,0,0,0,0,0,0,0,0,0,0,0,0,0,0,0,0,0,0,0,0,0,0,0,0,0,
0,0,0,0,0,0,0,0,0,0,0,0,0,0,0,0,0,0,0,0,0,0,0,0,0,0,0,0,0,0,0,0,0,0,0,0,0,0,0,0,0,0,0,0,0,0,0,0,
0,0,0,0,0,0,0,0,0,0,0,0,0,0,0,0,0,0,0,0,0,0,0,0,0,0,0,0,0,0,0,0,0,0,0,0,0,0,0,0,0,0,0,0,0,0,0,0,
0,0,0,0,0,0,0,0,0,0,0,0,0,0,0,0,0,0,0,0,0,0,0,0,0,0,0,0,0,0,0,0,0,0,0,0,0,0,0,0,0,0,0,0,0,0,0,0,
0,0,0,0,0,0,0,0,0,0,0,0,0,0,0,0,0,0,0,0,0,0,0,0,0,0,0,0,0,0,0,0,0,0,0,0,0,0,0,0,0,0,0,0,0,0,0,0,
0,0,0,0,0,0,0,0,0,0,0,0,0,0,0,0,0,0,0,0,0,0,0,0,0,0,0,0,0,0,0,0,0,0,0,0,0,0,0,0,0,0,0,0,0,0,0,0,
0,0,0,0,0,0,0,0,0,0,0,0,0,0,0,0,0,0,0,0,0,0,0,0,0,0,0,0,0,0,0,0,0,0,0,0,0,0,0,0,0,0,0,0,0,0,0,0,
0,0,0,0,0,0,0,0,0,0,0,0,0,0,0,0,0,0,0,0,0,0,0,0,0,0,0,0,0,0,0,0,0,0,0,0,0,0,0,0,0,0,0,0,0,0,0,0,
0,0,0,0,0,0,0,0,0,0,0,0,0,0,0,0,0,0,0,0,0,0,0,0,0,0,0,0,0,0,0,0,0,0,0,0,0,0,0,0,0,0,0,0,0,0,0,0,
0,0,0,0,0,0,0,0,0,0,0,0,0,0,0,0,0,0,0,0,0,0,0,0,0,0,0,0,0,0,0,0,0,0,0,0,0,0,0,0,0,0,0,0,0,0,0,0,
0,0,0,0,0,0,0,0,0,0,0,0,0,0,0,0,0,0,0,0,0,0,0,0,0,0,0,0,0,0,0,0,0,0,0,0,0,0,0,0,0,0,0,0,0,0,0,0,
0,0,0,0,0,0,0,0,0,0,0,0,0,0,0,0,0,0,0,0,0,0,0,0,0,0,0,0,0,0,0,0,0,0,0,0,0,0,0,0,0,0,0,0,0,0,0,0,
0,0,0,0,0,0,0,0,0,0,0,0,0,0,0,0,0,0,0,0,0,0,0,0,0,0,0,0,0,0,0,0,0,0,0,0,0,0,0,0,0,0,0,0,0,0,0,0,
0,0,0,0,0,0,0,0,0,0,0,0,0,0,0,0,0,0,0,0,0,0,0,0,0,0,0,0,0,0,0,0,0,0,0,0,0,0,0,0,0,0,0,0,0,0,0,0,
0,0,0,0,0,0,0,0,0,0,0,0,0,0,0,0,0,0,0,0,0,0,0,0,0,0,0,0,0,0,0,0,0,0,0,0,0,0,0,0,0,0,0,0,0,0,0,0,
0,0,0,0,0,0,0,0,0,0,0,0,0,0,0,0,0,0,0,0,0,0,0,0,0,0,0,0,0,0,0,0,0,0,0,0,0,0,0,0,0,0,0,0,0,0,0,0,
0,0,0,0,0,0,0,0,0,0,0,0,0,0,0,0,0,0,0,0,0,0,0,0,0,0,0,0,0,0,0,0,0,0,0,0,0,0,0,0,0,0,0,0,0,0,0,0,
0,0,0,0,0,0,0,0,0,0,0,0,0,0,0,0,0,0,0,0,0,0,0,0,0,0,0,0,0,0,0,0,0,0,0,0,0,0,0,0,0,0,0,0,0,0,0,0,
0,0,0,0,0,0,0,0,0,0,0,0,0,0,0,0,0,0,0,0,0,0,0,0,0,0,0,0,0,0,0,0,0,0,0,0,0,0,0,0,0,0,0,0,0,0,0,0,
0,0,0,0,0,0,0,0,0,0,0,0,0,0,0,0,0,0,0,0,0,0,0,0,0,0,0,0,0,0,0,0,0,0,0,0,0,0,0,0,0,0,0,0,0,0,0,0,
0,0,0,0,0,0,0,0,0,0,0,0,0,0,0,0,0,0,0,0,0,0,0,0,0,0,0,0,0,0,0,0,0,0,0,0,0,0,0,0,0,0,0,0,0,0,0,0,
0,0,0,0,0,0,0,0,0,0,0,0,0,0,0,0,0,0,0,0,0,0,0,0,0,0,0,0,0,0,0,0,0,0,0,0,0,0,0,0,0,0,0,0,0,0,0,0,
0,0,0,0,0,0,0,0,0,0,0,0,0,0,0,0,0,0,0,0,0,0,0,0,0,0,0,0,0,0,0,0,0,0,0,0,0,0,0,0,0,0,0,0,0,0,0,0
 </data>
 </layer>
 <layer id="29" name="Tall_grass_A_1" width="48" height="96">
  <data encoding="csv">
0,0,0,0,0,0,0,0,0,0,0,0,0,0,0,0,0,0,0,0,0,0,0,0,0,0,0,0,0,0,0,0,0,0,0,0,0,0,0,0,0,0,0,0,0,0,0,0,
0,0,0,0,0,0,0,0,0,0,0,0,0,0,0,0,0,0,0,0,0,0,0,0,0,0,0,0,0,0,0,0,0,0,0,0,0,0,0,0,0,0,0,0,0,0,0,0,
0,0,0,0,0,0,0,0,0,0,0,0,0,0,0,0,0,0,0,0,0,0,0,0,0,0,0,0,0,0,0,0,0,0,0,0,0,0,0,0,0,0,0,0,0,0,0,0,
0,0,0,0,0,0,0,0,0,0,0,0,0,0,0,0,0,0,0,0,0,0,0,0,0,0,0,0,0,0,0,0,0,0,0,0,0,0,0,0,0,0,0,0,0,0,0,0,
0,0,0,0,0,0,0,0,0,0,0,0,0,0,0,0,0,0,0,0,0,0,0,0,0,0,0,0,0,0,0,0,0,0,0,0,0,0,0,0,0,0,0,0,0,0,0,0,
0,0,0,0,0,0,0,0,0,0,0,0,0,0,0,0,0,0,0,0,0,0,0,0,0,0,0,0,0,0,0,0,0,0,0,0,0,0,0,0,0,0,0,0,0,0,0,0,
0,0,0,0,0,0,0,0,0,0,0,0,0,0,0,0,0,0,0,0,0,0,0,0,0,0,0,0,0,0,0,0,0,0,0,0,0,0,0,0,0,0,0,0,0,0,0,0,
0,0,0,0,0,0,0,0,0,0,0,0,0,0,0,0,0,0,0,0,0,0,0,0,0,0,0,0,0,0,0,0,0,0,0,0,0,0,0,0,0,0,0,0,0,0,0,0,
0,0,0,0,0,0,0,0,0,0,0,0,0,0,0,0,0,0,0,0,0,0,0,0,0,0,0,0,0,0,0,0,0,0,0,0,0,0,0,0,0,0,0,0,0,0,0,0,
0,0,0,0,0,0,0,0,0,0,0,0,0,0,0,0,0,0,0,0,0,0,0,0,0,0,0,0,0,0,0,0,0,0,0,0,0,0,0,0,0,0,0,0,0,0,0,0,
0,0,0,0,0,0,0,0,0,0,0,0,0,0,0,0,0,0,0,0,0,0,0,0,0,0,0,0,0,0,0,0,0,0,0,0,0,0,0,0,0,0,0,0,0,0,0,0,
0,0,0,0,0,0,0,0,0,0,0,0,0,0,0,0,0,0,0,0,0,0,0,0,0,0,0,0,0,0,0,0,0,0,0,0,0,0,0,0,0,0,0,0,0,0,0,0,
0,0,0,0,0,0,0,0,0,0,0,0,0,0,0,0,0,0,0,0,0,0,0,0,0,0,0,0,0,0,0,0,0,0,0,0,0,0,0,0,0,0,0,0,0,0,0,0,
0,0,0,0,0,0,0,0,0,0,0,0,0,0,0,0,0,0,0,0,0,0,0,0,0,0,0,0,0,0,0,0,0,0,0,0,0,0,0,0,0,0,0,0,0,0,0,0,
0,0,0,0,0,0,0,0,0,0,0,0,0,0,0,0,0,0,0,0,0,0,0,0,0,0,0,0,0,0,0,0,0,0,0,0,0,0,0,0,0,0,0,0,0,0,0,0,
0,0,0,0,0,0,0,0,0,0,0,0,0,0,0,0,0,0,0,0,0,0,0,0,0,0,0,0,0,0,0,0,0,0,0,0,0,0,0,0,0,0,0,0,0,0,0,0,
0,0,0,0,0,0,0,0,0,0,0,0,0,0,0,0,0,0,0,0,0,0,0,0,0,0,0,0,0,0,0,0,0,0,0,0,0,0,0,0,0,0,0,0,0,0,0,0,
0,0,0,0,0,0,0,0,0,0,0,0,0,0,0,0,0,0,0,0,0,0,0,0,0,0,0,0,0,0,0,0,0,0,0,0,0,0,0,0,0,0,0,0,0,0,0,0,
0,0,0,0,0,0,0,0,0,0,0,0,0,0,0,0,0,0,0,0,0,0,0,0,0,0,0,0,0,0,0,0,0,0,0,0,0,0,0,0,0,0,0,0,0,0,0,0,
0,0,0,0,0,0,0,0,0,0,0,0,0,0,0,0,0,0,0,0,0,0,0,0,0,0,0,0,0,0,0,0,0,0,0,0,0,0,0,0,0,0,0,0,0,0,0,0,
0,0,0,0,0,0,0,0,0,0,0,0,0,0,0,0,0,0,0,0,0,0,0,0,0,0,0,0,0,0,0,0,0,0,0,0,0,0,0,0,0,0,0,0,0,0,0,0,
0,0,0,0,0,0,0,0,0,0,0,0,0,0,0,0,0,0,0,0,0,0,0,0,0,0,0,0,0,0,0,0,0,0,0,0,0,0,0,0,0,0,0,0,0,0,0,0,
0,0,0,0,0,0,0,8284,8285,8285,8285,8285,8285,8286,0,0,0,0,0,0,0,0,0,8284,8285,8285,8285,8285,8285,8285,8286,0,0,0,0,0,0,0,0,0,0,0,0,0,0,0,0,0,
0,0,0,0,0,0,0,8284,8285,8285,8285,8285,8285,8286,0,0,0,0,0,0,0,0,0,8284,8285,8285,8285,8285,8285,8285,8286,0,0,0,0,0,0,0,0,0,0,0,0,0,0,0,0,0,
0,0,0,0,0,0,0,8284,8285,8285,8285,8285,8285,8286,0,0,0,0,0,0,0,0,0,8284,8285,8285,8285,8285,8285,8333,8334,0,0,0,0,0,0,0,0,0,0,0,0,0,0,0,0,0,
0,0,0,0,0,0,0,8284,8285,8285,8285,8285,8285,8286,0,0,0,0,0,0,0,0,0,8284,8285,8285,8285,8285,8285,8285,8286,0,0,0,0,0,0,0,0,0,0,0,0,0,0,0,0,0,
0,0,0,0,0,0,0,8284,8285,8285,8285,8285,8285,8286,0,0,0,0,0,0,0,0,0,8284,8285,8285,8285,8285,8285,8285,8286,0,0,0,0,0,0,0,0,0,0,0,0,0,0,0,0,0,
0,0,0,0,0,0,0,8332,8333,8333,8333,8333,8333,8334,0,0,0,0,0,0,0,0,0,8284,8285,8285,8285,8285,8285,8285,8286,0,0,0,0,0,0,0,0,0,0,0,0,0,0,0,0,0,
8285,8285,8286,0,0,0,0,0,0,0,0,0,0,0,0,0,0,0,0,0,0,0,0,8332,8333,8333,8333,8333,8333,8333,8334,0,0,0,0,0,0,0,0,0,0,0,0,0,0,0,0,0,
8285,8285,8285,8285,8285,8285,8285,8285,8285,8285,8285,8286,0,0,0,0,0,0,0,0,0,0,0,0,0,0,0,0,0,0,0,0,0,0,0,0,0,0,0,0,0,0,0,0,0,0,0,0,
8285,8285,8285,8285,8285,8285,8285,8285,8285,8285,8285,8286,0,0,0,0,0,0,0,0,0,0,0,0,0,0,0,0,0,0,0,0,0,0,0,0,0,0,0,0,0,0,0,0,0,0,0,0,
8285,8285,8285,8285,8285,8285,8285,8285,8285,8285,8285,8286,0,0,0,0,0,0,0,0,0,0,0,0,0,0,0,0,0,0,0,0,0,0,0,0,0,0,0,0,0,0,0,0,0,0,0,0,
8285,8285,8285,8285,8285,8285,8285,8285,8285,8285,8285,8286,0,0,0,0,0,0,0,0,0,0,0,0,0,0,0,0,0,0,0,0,0,0,0,0,0,0,0,0,0,0,0,0,0,0,0,0,
8285,8285,8285,8285,8285,8285,8285,8285,8285,8285,8285,8286,0,0,0,0,0,0,0,0,0,0,0,0,0,0,0,0,0,0,0,0,0,0,0,0,0,0,0,0,0,0,0,0,0,0,0,0,
8285,8285,8285,8285,8285,8285,8285,8285,8285,8285,8285,8286,0,0,0,0,0,0,0,0,0,0,0,0,0,0,0,0,0,0,0,0,0,0,0,0,0,0,0,0,0,0,0,0,0,0,0,0,
8285,8285,8285,8285,8285,8285,8285,8285,8285,8285,8285,8286,0,0,0,0,0,0,0,0,0,0,0,0,0,0,0,0,0,0,0,0,0,0,0,0,0,0,0,0,0,0,0,0,0,0,0,0,
8285,8285,8285,8285,8285,8285,8285,8285,8285,8333,8333,8334,0,0,0,0,0,0,0,0,0,0,0,0,0,0,0,0,0,0,0,0,0,0,0,0,0,0,0,0,0,0,0,0,0,0,0,0,
8285,8285,8285,8285,8285,8285,8285,8285,8285,8286,0,0,0,0,0,0,0,0,0,0,0,0,0,0,0,8284,8285,8285,8285,8285,8286,0,0,0,0,0,0,0,0,0,0,0,0,0,0,0,0,0,
8285,8285,8285,8285,8285,8285,8285,8333,8333,8334,0,0,0,0,0,0,0,0,0,0,0,0,0,0,0,8284,8285,8285,8285,8285,8286,0,0,0,0,0,0,0,0,0,0,0,0,0,0,0,0,0,
8285,8285,8285,8285,8333,8333,8333,8334,0,0,0,0,0,0,0,0,0,0,0,0,0,0,0,0,0,8284,8285,8285,8285,8285,8286,0,0,0,0,0,0,0,0,0,0,0,0,0,0,0,0,0,
8333,8333,8333,8333,8334,0,0,0,0,0,0,0,0,0,0,0,0,0,0,0,0,0,0,0,0,8284,8285,8285,8285,8285,8286,0,0,0,0,0,0,0,0,0,0,0,0,0,0,0,0,0,
0,0,0,0,0,0,0,0,0,0,0,0,0,0,0,0,0,0,0,0,0,0,0,0,0,8284,8285,8285,8285,8285,8286,0,0,0,0,0,0,0,0,0,0,0,0,0,0,0,0,0,
0,0,0,0,0,0,0,0,0,0,0,0,0,0,0,0,0,0,0,0,0,0,0,0,0,8284,8285,8285,8285,8285,8286,0,0,0,0,0,0,0,0,0,0,0,0,0,0,0,0,0,
0,0,0,0,0,0,0,0,0,0,0,8284,8285,8285,8285,8285,8285,8285,8286,0,0,0,0,8284,8285,8285,8285,8285,8285,8285,8286,0,0,0,0,0,0,0,0,0,0,0,0,0,0,0,0,0,
0,0,0,0,0,0,0,0,0,0,0,8284,8285,8285,8285,8285,8285,8285,8286,0,0,0,0,8284,8285,8285,8285,8285,8285,8285,8286,0,0,0,0,0,0,0,0,0,0,0,0,0,0,0,0,0,
0,0,0,0,0,0,0,0,0,0,0,8284,8285,8285,8285,8285,8285,8285,8286,0,0,0,0,8284,8285,8285,8285,8285,8285,8285,8286,0,0,0,0,0,0,0,0,0,0,0,0,0,0,0,0,0,
0,0,0,0,0,0,0,0,0,0,0,8284,8285,8285,8285,8285,8285,8285,8286,0,0,0,0,8284,8285,8285,8285,8285,8285,8285,8286,0,0,0,0,0,0,0,0,0,0,0,0,0,0,0,0,0,
0,0,0,0,0,0,0,0,0,0,0,8284,8285,8285,8285,8285,8285,8285,8286,0,0,0,0,8284,8285,8285,8285,8285,8285,8285,8286,0,0,0,0,0,0,0,0,0,0,0,0,0,0,0,0,0,
0,0,0,0,0,0,0,0,0,0,0,8332,8333,8333,8333,8333,8333,8333,8334,0,0,0,0,8332,8333,8333,8333,8333,8333,8333,8334,0,0,0,0,0,0,0,0,0,0,0,0,0,0,0,0,0,
0,0,0,0,0,0,0,0,0,0,0,0,0,0,0,0,0,0,0,0,0,0,0,0,0,0,0,0,0,0,0,0,0,0,0,0,0,0,0,0,0,0,0,0,0,0,0,0,
0,0,0,0,0,0,0,0,0,0,0,0,0,0,0,0,0,0,0,0,0,0,0,0,0,0,0,0,0,0,0,0,0,0,0,0,0,0,0,0,0,0,0,0,0,0,0,0,
0,0,0,0,0,0,0,0,0,0,0,0,0,0,0,0,0,0,0,0,0,0,0,0,0,0,0,0,0,0,0,0,0,0,0,0,0,0,0,0,0,0,0,0,0,0,0,0,
0,0,0,0,0,0,0,0,0,0,0,0,0,0,0,0,0,0,0,0,0,0,0,0,0,0,0,0,0,0,0,0,0,0,0,0,0,0,0,0,0,0,0,0,0,0,0,0,
0,0,0,0,0,0,0,0,0,0,0,0,0,0,0,0,0,0,0,0,0,0,0,0,0,0,0,0,0,0,0,0,0,0,0,0,0,0,0,0,0,0,0,0,0,0,0,0,
0,0,0,0,0,0,0,0,0,0,0,0,0,0,0,0,0,0,0,0,0,0,0,0,0,0,0,0,0,0,0,0,0,0,0,0,0,0,0,0,0,0,0,0,0,0,0,0,
0,0,0,0,0,0,0,0,0,0,0,0,0,0,0,0,0,0,0,0,0,0,0,0,0,0,0,0,0,0,0,0,0,0,0,0,0,0,0,0,0,0,0,0,0,0,0,0,
0,0,0,0,0,0,0,0,0,0,0,0,0,0,0,0,0,0,0,0,0,0,0,0,0,0,0,0,0,0,0,0,0,0,0,0,0,0,0,0,0,0,0,0,0,0,0,0,
0,0,0,0,0,0,0,0,0,0,0,0,0,0,0,0,0,0,0,0,0,0,0,0,0,0,0,0,0,0,0,0,0,0,0,0,0,0,0,0,0,0,0,0,0,0,0,0,
0,0,0,0,0,0,0,0,0,0,0,0,0,0,0,0,0,0,0,0,0,0,0,0,0,0,0,0,0,0,0,0,0,0,0,0,0,0,0,0,0,0,0,0,0,0,0,0,
0,0,0,0,0,0,0,0,0,0,0,0,0,0,0,0,0,0,0,0,0,0,0,0,0,0,0,0,0,0,0,0,0,0,0,0,0,0,0,0,0,0,0,0,0,0,0,0,
0,0,0,0,0,0,0,0,0,0,0,0,0,0,0,0,0,0,0,0,0,0,0,0,0,0,0,0,0,0,0,0,0,0,0,0,0,0,0,0,0,0,0,0,0,0,0,0,
0,0,0,0,0,0,0,0,0,0,0,0,0,0,0,0,0,0,0,0,0,0,0,0,0,0,0,0,0,0,0,0,0,0,0,0,0,0,0,0,0,0,0,0,0,0,0,0,
0,0,0,0,0,0,0,0,0,0,0,0,0,0,0,0,0,0,0,0,0,0,0,0,0,0,0,0,0,0,0,0,0,0,0,0,0,0,0,0,0,0,0,0,0,0,0,0,
0,0,0,0,0,0,0,0,0,0,0,0,0,0,0,0,0,0,0,0,0,0,0,0,0,0,0,0,0,0,0,0,0,0,0,0,0,0,0,0,0,0,0,0,0,0,0,0,
0,0,0,0,0,0,0,0,0,0,0,0,0,0,0,0,0,0,0,0,0,0,0,0,0,0,0,0,0,0,0,0,0,0,0,0,0,0,0,0,0,0,0,0,0,0,0,0,
0,0,0,0,0,0,0,0,0,0,0,0,0,0,0,0,0,0,0,0,0,0,0,0,0,0,0,0,0,0,0,0,0,0,0,0,0,0,0,0,0,0,0,0,0,0,0,0,
0,0,0,0,0,0,0,0,0,0,0,0,0,0,0,0,0,0,0,0,0,0,0,0,0,0,0,0,0,0,0,0,0,0,0,0,0,0,0,0,0,0,0,0,0,0,0,0,
0,0,0,0,0,0,0,0,0,0,0,0,0,0,0,0,0,0,0,0,0,0,0,0,0,0,0,0,0,0,0,0,0,0,0,0,0,0,0,0,0,0,0,0,0,0,0,0,
0,0,0,0,0,0,0,0,0,0,0,0,0,0,0,0,0,0,0,0,0,0,0,0,0,0,0,0,0,0,0,0,0,0,0,0,0,0,0,0,0,0,0,0,0,0,0,0,
0,0,0,0,0,0,0,0,0,0,0,0,0,0,0,0,0,0,0,0,0,0,0,0,0,0,0,0,0,0,0,0,0,0,0,0,0,0,0,0,0,0,0,0,0,0,0,0,
0,0,0,0,0,0,0,0,0,0,0,0,0,0,0,0,0,0,0,0,0,0,0,0,0,0,0,0,0,0,0,0,0,0,0,0,0,0,0,0,0,0,0,0,0,0,0,0,
0,0,0,0,0,0,0,0,0,0,0,0,0,0,0,0,0,0,0,0,0,0,0,0,0,0,0,0,0,0,0,0,0,0,0,0,0,0,0,0,0,0,0,0,0,0,0,0,
0,0,0,0,0,0,0,0,0,0,0,0,0,0,0,0,0,0,0,0,0,0,0,0,0,0,0,0,0,0,0,0,0,0,0,0,0,0,0,0,0,0,0,0,0,0,0,0,
0,0,0,0,0,0,0,0,0,0,0,0,0,0,0,0,0,0,0,0,0,0,0,0,0,0,0,0,0,0,0,0,0,0,0,0,0,0,0,0,0,0,0,0,0,0,0,0,
0,0,0,0,0,0,0,0,0,0,0,0,0,0,0,0,0,0,0,0,0,0,0,0,0,0,0,0,0,0,0,0,0,0,0,0,0,0,0,0,0,0,0,0,0,0,0,0,
0,0,0,0,0,0,0,0,0,0,0,0,0,0,0,0,0,0,0,0,0,0,0,0,0,0,0,0,0,0,0,0,0,0,0,0,0,0,0,0,0,0,0,0,0,0,0,0,
0,0,0,0,0,0,0,0,0,0,0,0,0,0,0,0,0,0,0,0,0,0,0,0,0,0,0,0,0,0,0,0,0,0,0,0,0,0,0,0,0,0,0,0,0,0,0,0,
0,0,0,0,0,0,0,0,0,0,0,0,0,0,0,0,0,0,0,0,0,0,0,0,0,0,0,0,0,0,0,0,0,0,0,0,0,0,0,0,0,0,0,0,0,0,0,0,
0,0,0,0,0,0,0,0,0,0,0,0,0,0,0,0,0,0,0,0,0,0,0,0,0,0,0,0,0,0,0,0,0,0,0,0,0,0,0,0,0,0,0,0,0,0,0,0,
0,0,0,0,0,0,0,0,0,0,0,0,0,0,0,0,0,0,0,0,0,0,0,0,0,0,0,0,0,0,0,0,0,0,0,0,0,0,0,0,0,0,0,0,0,0,0,0,
0,0,0,0,0,0,0,0,0,0,0,0,0,0,0,0,0,0,0,0,0,0,0,0,0,0,0,0,0,0,0,0,0,0,0,0,0,0,0,0,0,0,0,0,0,0,0,0,
0,0,0,0,0,0,0,0,0,0,0,0,0,0,0,0,0,0,0,0,0,0,0,0,0,0,0,0,0,0,0,0,0,0,0,0,0,0,0,0,0,0,0,0,0,0,0,0,
0,0,0,0,0,0,0,0,0,0,0,0,0,0,0,0,0,0,0,0,0,0,0,0,0,0,0,0,0,0,0,0,0,0,0,0,0,0,0,0,0,0,0,0,0,0,0,0,
0,0,0,0,0,0,0,0,0,0,0,0,0,0,0,0,0,0,0,0,0,0,0,0,0,0,0,0,0,0,0,0,0,0,0,0,0,0,0,0,0,0,0,0,0,0,0,0,
0,0,0,0,0,0,0,0,0,0,0,0,0,0,0,0,0,0,0,0,0,0,0,0,0,0,0,0,0,0,0,0,0,0,0,0,0,0,0,0,0,0,0,0,0,0,0,0,
0,0,0,0,0,0,0,0,0,0,0,0,0,0,0,0,0,0,0,0,0,0,0,0,0,0,0,0,0,0,0,0,0,0,0,0,0,0,0,0,0,0,0,0,0,0,0,0,
0,0,0,0,0,0,0,0,0,0,0,0,0,0,0,0,0,0,0,0,0,0,0,0,0,0,0,0,0,0,0,0,0,0,0,0,0,0,0,0,0,0,0,0,0,0,0,0,
0,0,0,0,0,0,0,0,0,0,0,0,0,0,0,0,0,0,0,0,0,0,0,0,0,0,0,0,0,0,0,0,0,0,0,0,0,0,0,0,0,0,0,0,0,0,0,0,
0,0,0,0,0,0,0,0,0,0,0,0,0,0,0,0,0,0,0,0,0,0,0,0,0,0,0,0,0,0,0,0,0,0,0,0,0,0,0,0,0,0,0,0,0,0,0,0,
0,0,0,0,0,0,0,0,0,0,0,0,0,0,0,0,0,0,0,0,0,0,0,0,0,0,0,0,0,0,0,0,0,0,0,0,0,0,0,0,0,0,0,0,0,0,0,0,
0,0,0,0,0,0,0,0,0,0,0,0,0,0,0,0,0,0,0,0,0,0,0,0,0,0,0,0,0,0,0,0,0,0,0,0,0,0,0,0,0,0,0,0,0,0,0,0,
0,0,0,0,0,0,0,0,0,0,0,0,0,0,0,0,0,0,0,0,0,0,0,0,0,0,0,0,0,0,0,0,0,0,0,0,0,0,0,0,0,0,0,0,0,0,0,0,
0,0,0,0,0,0,0,0,0,0,0,0,0,0,0,0,0,0,0,0,0,0,0,0,0,0,0,0,0,0,0,0,0,0,0,0,0,0,0,0,0,0,0,0,0,0,0,0,
0,0,0,0,0,0,0,0,0,0,0,0,0,0,0,0,0,0,0,0,0,0,0,0,0,0,0,0,0,0,0,0,0,0,0,0,0,0,0,0,0,0,0,0,0,0,0,0,
0,0,0,0,0,0,0,0,0,0,0,0,0,0,0,0,0,0,0,0,0,0,0,0,0,0,0,0,0,0,0,0,0,0,0,0,0,0,0,0,0,0,0,0,0,0,0,0,
0,0,0,0,0,0,0,0,0,0,0,0,0,0,0,0,0,0,0,0,0,0,0,0,0,0,0,0,0,0,0,0,0,0,0,0,0,0,0,0,0,0,0,0,0,0,0,0
</data>
 </layer>
 <layer id="32" name="Tall_grass_B_1" width="48" height="96">
  <data encoding="csv">
0,0,0,0,0,0,0,0,0,0,0,0,0,0,0,0,0,0,0,0,0,0,0,0,0,0,0,0,0,0,0,0,0,0,0,0,0,0,0,0,0,0,0,0,0,0,0,0,
0,0,0,0,0,0,0,0,0,0,0,0,0,0,0,0,0,0,0,0,0,0,0,0,0,0,0,0,0,0,0,0,0,0,0,0,0,0,0,0,0,0,0,0,0,0,0,0,
0,0,0,0,0,0,0,0,0,0,0,0,0,0,0,0,0,0,0,0,0,0,0,0,0,0,0,0,0,0,0,0,0,0,0,0,0,0,0,0,0,0,0,0,0,0,0,0,
0,0,0,0,0,0,0,0,0,0,0,0,0,0,0,0,0,0,0,0,0,0,0,0,0,0,0,0,0,0,0,0,0,0,0,0,0,0,0,0,0,0,0,0,0,0,0,0,
0,0,0,0,0,0,0,0,0,0,0,0,0,0,0,0,0,0,0,0,0,0,0,0,0,0,0,0,0,0,0,0,0,0,0,0,0,0,0,0,0,0,0,0,0,0,0,0,
0,0,0,0,0,0,0,0,0,0,0,0,0,0,0,0,0,0,0,0,0,0,0,0,0,0,0,0,0,0,0,0,0,0,0,0,0,0,0,0,0,0,0,0,0,0,0,0,
0,0,0,0,0,0,0,0,0,0,0,0,0,0,0,0,0,0,0,0,0,0,0,0,0,0,0,0,0,0,0,0,0,0,0,0,0,0,0,0,0,0,0,0,0,0,0,0,
0,0,0,0,0,0,0,0,0,0,0,0,0,0,0,0,0,0,0,0,0,0,0,0,0,0,0,0,0,0,0,0,0,0,0,0,0,0,0,0,0,0,0,0,0,0,0,0,
0,0,0,0,0,0,0,0,0,0,0,0,0,0,0,0,0,0,0,0,0,0,0,0,0,0,0,0,0,0,0,0,0,0,0,0,0,0,0,0,0,0,0,0,0,0,0,0,
0,0,0,0,0,0,0,0,0,0,0,0,0,0,0,0,0,0,0,0,0,0,0,0,0,0,0,0,0,0,0,0,0,0,0,0,0,0,0,0,0,0,0,0,0,0,0,0,
0,0,0,0,0,0,0,0,0,0,0,0,0,0,0,0,0,0,0,0,0,0,0,0,0,0,0,0,0,0,0,0,0,0,0,0,0,0,0,0,0,0,0,0,0,0,0,0,
0,0,0,0,0,0,0,0,0,0,0,0,0,0,0,0,0,0,0,0,0,0,0,0,0,0,0,0,0,0,0,0,0,0,0,0,0,0,0,0,0,0,0,0,0,0,0,0,
0,0,0,0,0,0,0,0,0,0,0,0,0,0,0,0,0,0,0,0,0,0,0,0,0,0,0,0,0,0,0,0,0,0,0,0,0,0,0,0,0,0,0,0,0,0,0,0,
0,0,0,0,0,0,0,0,0,0,0,0,0,0,0,0,0,0,0,0,0,0,0,0,0,0,0,0,0,0,0,0,0,0,0,0,0,0,0,0,0,0,0,0,0,0,0,0,
0,0,0,0,0,0,0,0,0,0,0,0,0,0,0,0,0,0,0,0,0,0,0,0,0,0,0,0,0,0,0,0,0,0,0,0,0,0,0,0,0,0,0,0,0,0,0,0,
0,0,0,0,0,0,0,0,0,0,0,0,0,0,0,0,0,0,0,0,0,0,0,0,0,0,0,0,0,0,0,0,0,0,0,0,0,0,0,0,0,0,0,0,0,0,0,0,
0,0,0,0,0,0,0,0,0,0,0,0,0,0,0,0,0,0,0,0,0,0,0,0,0,0,0,0,0,0,0,0,0,0,0,0,0,0,0,0,0,0,0,0,0,0,0,0,
0,0,0,0,0,0,0,0,0,0,0,0,0,0,0,0,0,0,0,0,0,0,0,0,0,0,0,0,0,0,0,0,0,0,0,0,0,0,0,0,0,0,0,0,0,0,0,0,
0,0,0,0,0,0,0,0,0,0,0,0,0,0,0,0,0,0,0,0,0,0,0,0,0,0,0,0,0,0,0,0,0,0,0,0,0,0,0,0,0,0,0,0,0,0,0,0,
0,0,0,0,0,0,0,0,0,0,0,0,0,0,0,0,0,0,0,0,0,0,0,0,0,0,0,0,0,0,0,0,0,0,0,0,0,0,0,0,0,0,0,0,0,0,0,0,
0,0,0,0,0,0,0,0,0,0,0,0,0,0,0,0,0,0,0,0,0,0,0,0,0,0,0,0,0,0,0,0,0,0,0,0,0,0,0,0,0,0,0,0,0,0,0,0,
0,0,0,0,0,0,0,0,0,0,0,0,0,0,0,0,0,0,0,0,0,0,0,0,0,0,0,0,0,0,0,0,0,0,0,0,0,0,0,0,0,0,0,0,0,0,0,0,
0,0,0,0,0,0,0,0,0,0,0,0,0,0,0,0,0,0,0,0,0,0,0,0,0,0,0,0,0,0,0,0,0,0,0,0,0,0,0,0,0,0,0,0,0,0,0,0,
0,0,0,0,0,0,0,0,0,0,0,0,0,0,0,0,0,0,0,0,0,0,0,0,0,0,0,0,0,0,0,0,0,0,0,0,0,0,0,0,0,0,0,0,0,0,0,0,
0,0,0,0,0,0,0,0,0,0,0,0,0,0,0,0,0,0,0,0,0,0,0,0,0,0,0,0,0,8287,0,0,0,0,0,0,0,0,0,0,0,0,0,0,0,0,0,0,
0,0,0,0,0,0,0,0,0,0,0,0,0,0,0,0,0,0,0,0,0,0,0,0,0,0,0,0,0,0,0,0,0,0,0,0,0,0,0,0,0,0,0,0,0,0,0,0,
0,0,0,0,0,0,0,0,0,0,0,0,0,0,0,0,0,0,0,0,0,0,0,0,0,0,0,0,0,0,0,0,0,0,0,0,0,0,0,0,0,0,0,0,0,0,0,0,
0,0,0,0,0,0,0,0,0,0,0,0,0,0,0,0,0,0,0,0,0,0,0,0,0,0,0,0,0,0,0,0,0,0,0,0,0,0,0,0,0,0,0,0,0,0,0,0,
0,0,0,0,0,0,0,0,0,0,0,0,0,0,0,0,0,0,0,0,0,0,0,0,0,0,0,0,0,0,0,0,0,0,0,0,0,0,0,0,0,0,0,0,0,0,0,0,
0,0,0,0,0,0,0,0,0,0,0,0,0,0,0,0,0,0,0,0,0,0,0,0,0,0,0,0,0,0,0,0,0,0,0,0,0,0,0,0,0,0,0,0,0,0,0,0,
0,0,0,0,0,0,0,0,0,0,0,0,0,0,0,0,0,0,0,0,0,0,0,0,0,0,0,0,0,0,0,0,0,0,0,0,0,0,0,0,0,0,0,0,0,0,0,0,
0,0,0,0,0,0,0,0,0,0,0,0,0,0,0,0,0,0,0,0,0,0,0,0,0,0,0,0,0,0,0,0,0,0,0,0,0,0,0,0,0,0,0,0,0,0,0,0,
0,0,0,0,0,0,0,0,0,0,0,0,0,0,0,0,0,0,0,0,0,0,0,0,0,0,0,0,0,0,0,0,0,0,0,0,0,0,0,0,0,0,0,0,0,0,0,0,
0,0,0,0,0,0,0,0,0,0,0,0,0,0,0,0,0,0,0,0,0,0,0,0,0,0,0,0,0,0,0,0,0,0,0,0,0,0,0,0,0,0,0,0,0,0,0,0,
0,0,0,0,0,0,0,0,0,0,0,0,0,0,0,0,0,0,0,0,0,0,0,0,0,0,0,0,0,0,0,0,0,0,0,0,0,0,0,0,0,0,0,0,0,0,0,0,
0,0,0,0,0,0,0,0,0,0,0,0,0,0,0,0,0,0,0,0,0,0,0,0,0,0,0,0,0,0,0,0,0,0,0,0,0,0,0,0,0,0,0,0,0,0,0,0,
0,0,0,0,0,0,0,0,0,8287,0,0,0,0,0,0,0,0,0,0,0,0,0,0,0,0,0,0,0,0,0,0,0,0,0,0,0,0,0,0,0,0,0,0,0,0,0,0,
0,0,0,0,0,0,0,0,0,0,0,0,0,0,0,0,0,0,0,0,0,0,0,0,0,0,0,0,0,0,0,0,0,0,0,0,0,0,0,0,0,0,0,0,0,0,0,0,
0,0,0,0,0,0,0,8287,0,0,0,0,0,0,0,0,0,0,0,0,0,0,0,0,0,0,0,0,0,0,0,0,0,0,0,0,0,0,0,0,0,0,0,0,0,0,0,0,
0,0,0,0,8287,0,0,0,0,0,0,0,0,0,0,0,0,0,0,0,0,0,0,0,0,0,0,0,0,0,0,0,0,0,0,0,0,0,0,0,0,0,0,0,0,0,0,0,
0,0,0,0,0,0,0,0,0,0,0,0,0,0,0,0,0,0,0,0,0,0,0,0,0,0,0,0,0,0,0,0,0,0,0,0,0,0,0,0,0,0,0,0,0,0,0,0,
0,0,0,0,0,0,0,0,0,0,0,0,0,0,0,0,0,0,0,0,0,0,0,0,0,0,0,0,0,0,0,0,0,0,0,0,0,0,0,0,0,0,0,0,0,0,0,0,
0,0,0,0,0,0,0,0,0,0,0,0,0,0,0,0,0,0,0,0,0,0,0,0,0,0,0,0,0,0,0,0,0,0,0,0,0,0,0,0,0,0,0,0,0,0,0,0,
0,0,0,0,0,0,0,0,0,0,0,0,0,0,0,0,0,0,0,0,0,0,0,0,0,0,0,0,0,0,0,0,0,0,0,0,0,0,0,0,0,0,0,0,0,0,0,0,
0,0,0,0,0,0,0,0,0,0,0,0,0,0,0,0,0,0,0,0,0,0,0,0,0,0,0,0,0,0,0,0,0,0,0,0,0,0,0,0,0,0,0,0,0,0,0,0,
0,0,0,0,0,0,0,0,0,0,0,0,0,0,0,0,0,0,0,0,0,0,0,0,0,0,0,0,0,0,0,0,0,0,0,0,0,0,0,0,0,0,0,0,0,0,0,0,
0,0,0,0,0,0,0,0,0,0,0,0,0,0,0,0,0,0,0,0,0,0,0,0,0,0,0,0,0,0,0,0,0,0,0,0,0,0,0,0,0,0,0,0,0,0,0,0,
0,0,0,0,0,0,0,0,0,0,0,0,0,0,0,0,0,0,0,0,0,0,0,0,0,0,0,0,0,0,0,0,0,0,0,0,0,0,0,0,0,0,0,0,0,0,0,0,
0,0,0,0,0,0,0,0,0,0,0,0,0,0,0,0,0,0,0,0,0,0,0,0,0,0,0,0,0,0,0,0,0,0,0,0,0,0,0,0,0,0,0,0,0,0,0,0,
0,0,0,0,0,0,0,0,0,0,0,0,0,0,0,0,0,0,0,0,0,0,0,0,0,0,0,0,0,0,0,0,0,0,0,0,0,0,0,0,0,0,0,0,0,0,0,0,
0,0,0,0,0,0,0,0,0,0,0,0,0,0,0,0,0,0,0,0,0,0,0,0,0,0,0,0,0,0,0,0,0,0,0,0,0,0,0,0,0,0,0,0,0,0,0,0,
0,0,0,0,0,0,0,0,0,0,0,0,0,0,0,0,0,0,0,0,0,0,0,0,0,0,0,0,0,0,0,0,0,0,0,0,0,0,0,0,0,0,0,0,0,0,0,0,
0,0,0,0,0,0,0,0,0,0,0,0,0,0,0,0,0,0,0,0,0,0,0,0,0,0,0,0,0,0,0,0,0,0,0,0,0,0,0,0,0,0,0,0,0,0,0,0,
0,0,0,0,0,0,0,0,0,0,0,0,0,0,0,0,0,0,0,0,0,0,0,0,0,0,0,0,0,0,0,0,0,0,0,0,0,0,0,0,0,0,0,0,0,0,0,0,
0,0,0,0,0,0,0,0,0,0,0,0,0,0,0,0,0,0,0,0,0,0,0,0,0,0,0,0,0,0,0,0,0,0,0,0,0,0,0,0,0,0,0,0,0,0,0,0,
0,0,0,0,0,0,0,0,0,0,0,0,0,0,0,0,0,0,0,0,0,0,0,0,0,0,0,0,0,0,0,0,0,0,0,0,0,0,0,0,0,0,0,0,0,0,0,0,
0,0,0,0,0,0,0,0,0,0,0,0,0,0,0,0,0,0,0,0,0,0,0,0,0,0,0,0,0,0,0,0,0,0,0,0,0,0,0,0,0,0,0,0,0,0,0,0,
0,0,0,0,0,0,0,0,0,0,0,0,0,0,0,0,0,0,0,0,0,0,0,0,0,0,0,0,0,0,0,0,0,0,0,0,0,0,0,0,0,0,0,0,0,0,0,0,
0,0,0,0,0,0,0,0,0,0,0,0,0,0,0,0,0,0,0,0,0,0,0,0,0,0,0,0,0,0,0,0,0,0,0,0,0,0,0,0,0,0,0,0,0,0,0,0,
0,0,0,0,0,0,0,0,0,0,0,0,0,0,0,0,0,0,0,0,0,0,0,0,0,0,0,0,0,0,0,0,0,0,0,0,0,0,0,0,0,0,0,0,0,0,0,0,
0,0,0,0,0,0,0,0,0,0,0,0,0,0,0,0,0,0,0,0,0,0,0,0,0,0,0,0,0,0,0,0,0,0,0,0,0,0,0,0,0,0,0,0,0,0,0,0,
0,0,0,0,0,0,0,0,0,0,0,0,0,0,0,0,0,0,0,0,0,0,0,0,0,0,0,0,0,0,0,0,0,0,0,0,0,0,0,0,0,0,0,0,0,0,0,0,
0,0,0,0,0,0,0,0,0,0,0,0,0,0,0,0,0,0,0,0,0,0,0,0,0,0,0,0,0,0,0,0,0,0,0,0,0,0,0,0,0,0,0,0,0,0,0,0,
0,0,0,0,0,0,0,0,0,0,0,0,0,0,0,0,0,0,0,0,0,0,0,0,0,0,0,0,0,0,0,0,0,0,0,0,0,0,0,0,0,0,0,0,0,0,0,0,
0,0,0,0,0,0,0,0,0,0,0,0,0,0,0,0,0,0,0,0,0,0,0,0,0,0,0,0,0,0,0,0,0,0,0,0,0,0,0,0,0,0,0,0,0,0,0,0,
0,0,0,0,0,0,0,0,0,0,0,0,0,0,0,0,0,0,0,0,0,0,0,0,0,0,0,0,0,0,0,0,0,0,0,0,0,0,0,0,0,0,0,0,0,0,0,0,
0,0,0,0,0,0,0,0,0,0,0,0,0,0,0,0,0,0,0,0,0,0,0,0,0,0,0,0,0,0,0,0,0,0,0,0,0,0,0,0,0,0,0,0,0,0,0,0,
0,0,0,0,0,0,0,0,0,0,0,0,0,0,0,0,0,0,0,0,0,0,0,0,0,0,0,0,0,0,0,0,0,0,0,0,0,0,0,0,0,0,0,0,0,0,0,0,
0,0,0,0,0,0,0,0,0,0,0,0,0,0,0,0,0,0,0,0,0,0,0,0,0,0,0,0,0,0,0,0,0,0,0,0,0,0,0,0,0,0,0,0,0,0,0,0,
0,0,0,0,0,0,0,0,0,0,0,0,0,0,0,0,0,0,0,0,0,0,0,0,0,0,0,0,0,0,0,0,0,0,0,0,0,0,0,0,0,0,0,0,0,0,0,0,
0,0,0,0,0,0,0,0,0,0,0,0,0,0,0,0,0,0,0,0,0,0,0,0,0,0,0,0,0,0,0,0,0,0,0,0,0,0,0,0,0,0,0,0,0,0,0,0,
0,0,0,0,0,0,0,0,0,0,0,0,0,0,0,0,0,0,0,0,0,0,0,0,0,0,0,0,0,0,0,0,0,0,0,0,0,0,0,0,0,0,0,0,0,0,0,0,
0,0,0,0,0,0,0,0,0,0,0,0,0,0,0,0,0,0,0,0,0,0,0,0,0,0,0,0,0,0,0,0,0,0,0,0,0,0,0,0,0,0,0,0,0,0,0,0,
0,0,0,0,0,0,0,0,0,0,0,0,0,0,0,0,0,0,0,0,0,0,0,0,0,0,0,0,0,0,0,0,0,0,0,0,0,0,0,0,0,0,0,0,0,0,0,0,
0,0,0,0,0,0,0,0,0,0,0,0,0,0,0,0,0,0,0,0,0,0,0,0,0,0,0,0,0,0,0,0,0,0,0,0,0,0,0,0,0,0,0,0,0,0,0,0,
0,0,0,0,0,0,0,0,0,0,0,0,0,0,0,0,0,0,0,0,0,0,0,0,0,0,0,0,0,0,0,0,0,0,0,0,0,0,0,0,0,0,0,0,0,0,0,0,
0,0,0,0,0,0,0,0,0,0,0,0,0,0,0,0,0,0,0,0,0,0,0,0,0,0,0,0,0,0,0,0,0,0,0,0,0,0,0,0,0,0,0,0,0,0,0,0,
0,0,0,0,0,0,0,0,0,0,0,0,0,0,0,0,0,0,0,0,0,0,0,0,0,0,0,0,0,0,0,0,0,0,0,0,0,0,0,0,0,0,0,0,0,0,0,0,
0,0,0,0,0,0,0,0,0,0,0,0,0,0,0,0,0,0,0,0,0,0,0,0,0,0,0,0,0,0,0,0,0,0,0,0,0,0,0,0,0,0,0,0,0,0,0,0,
0,0,0,0,0,0,0,0,0,0,0,0,0,0,0,0,0,0,0,0,0,0,0,0,0,0,0,0,0,0,0,0,0,0,0,0,0,0,0,0,0,0,0,0,0,0,0,0,
0,0,0,0,0,0,0,0,0,0,0,0,0,0,0,0,0,0,0,0,0,0,0,0,0,0,0,0,0,0,0,0,0,0,0,0,0,0,0,0,0,0,0,0,0,0,0,0,
0,0,0,0,0,0,0,0,0,0,0,0,0,0,0,0,0,0,0,0,0,0,0,0,0,0,0,0,0,0,0,0,0,0,0,0,0,0,0,0,0,0,0,0,0,0,0,0,
0,0,0,0,0,0,0,0,0,0,0,0,0,0,0,0,0,0,0,0,0,0,0,0,0,0,0,0,0,0,0,0,0,0,0,0,0,0,0,0,0,0,0,0,0,0,0,0,
0,0,0,0,0,0,0,0,0,0,0,0,0,0,0,0,0,0,0,0,0,0,0,0,0,0,0,0,0,0,0,0,0,0,0,0,0,0,0,0,0,0,0,0,0,0,0,0,
0,0,0,0,0,0,0,0,0,0,0,0,0,0,0,0,0,0,0,0,0,0,0,0,0,0,0,0,0,0,0,0,0,0,0,0,0,0,0,0,0,0,0,0,0,0,0,0,
0,0,0,0,0,0,0,0,0,0,0,0,0,0,0,0,0,0,0,0,0,0,0,0,0,0,0,0,0,0,0,0,0,0,0,0,0,0,0,0,0,0,0,0,0,0,0,0,
0,0,0,0,0,0,0,0,0,0,0,0,0,0,0,0,0,0,0,0,0,0,0,0,0,0,0,0,0,0,0,0,0,0,0,0,0,0,0,0,0,0,0,0,0,0,0,0,
0,0,0,0,0,0,0,0,0,0,0,0,0,0,0,0,0,0,0,0,0,0,0,0,0,0,0,0,0,0,0,0,0,0,0,0,0,0,0,0,0,0,0,0,0,0,0,0,
0,0,0,0,0,0,0,0,0,0,0,0,0,0,0,0,0,0,0,0,0,0,0,0,0,0,0,0,0,0,0,0,0,0,0,0,0,0,0,0,0,0,0,0,0,0,0,0,
0,0,0,0,0,0,0,0,0,0,0,0,0,0,0,0,0,0,0,0,0,0,0,0,0,0,0,0,0,0,0,0,0,0,0,0,0,0,0,0,0,0,0,0,0,0,0,0,
0,0,0,0,0,0,0,0,0,0,0,0,0,0,0,0,0,0,0,0,0,0,0,0,0,0,0,0,0,0,0,0,0,0,0,0,0,0,0,0,0,0,0,0,0,0,0,0,
0,0,0,0,0,0,0,0,0,0,0,0,0,0,0,0,0,0,0,0,0,0,0,0,0,0,0,0,0,0,0,0,0,0,0,0,0,0,0,0,0,0,0,0,0,0,0,0,
0,0,0,0,0,0,0,0,0,0,0,0,0,0,0,0,0,0,0,0,0,0,0,0,0,0,0,0,0,0,0,0,0,0,0,0,0,0,0,0,0,0,0,0,0,0,0,0,
0,0,0,0,0,0,0,0,0,0,0,0,0,0,0,0,0,0,0,0,0,0,0,0,0,0,0,0,0,0,0,0,0,0,0,0,0,0,0,0,0,0,0,0,0,0,0,0,
0,0,0,0,0,0,0,0,0,0,0,0,0,0,0,0,0,0,0,0,0,0,0,0,0,0,0,0,0,0,0,0,0,0,0,0,0,0,0,0,0,0,0,0,0,0,0,0,
0,0,0,0,0,0,0,0,0,0,0,0,0,0,0,0,0,0,0,0,0,0,0,0,0,0,0,0,0,0,0,0,0,0,0,0,0,0,0,0,0,0,0,0,0,0,0,0
</data>
 </layer>
 <group id="4" name="Z=0"/>
 <objectgroup id="205" name="events"/>
 <group id="206" name="above">
 <layer id="30" name="Tall_grass_2+1" width="48" height="96">
  <data encoding="csv">
8719,8718,8719,8718,8719,8718,8719,8718,8719,8718,8719,8718,8719,8718,8719,8718,8719,8718,8719,8718,8719,8718,8719,8718,8719,8718,8719,8718,8719,8718,8719,8718,8719,8718,8719,8718,8719,8718,8719,8718,8719,8718,8719,8718,8719,8718,8719,8718,
0,0,0,0,0,0,0,0,0,0,0,0,0,0,0,0,0,0,0,0,0,0,0,0,0,0,0,0,0,0,0,0,0,0,0,0,0,0,0,0,0,0,0,0,0,0,0,0,
8719,8718,8719,8718,8719,8718,8719,8718,8719,8718,8719,8718,8719,8718,8719,8718,8719,8718,8719,8718,8719,8718,8719,8718,8719,8718,8719,8718,8719,8718,8719,8718,8719,8718,8719,8718,8719,8718,8719,8718,8719,8718,8719,8718,8719,8718,8719,8718,
0,0,0,0,0,0,0,0,0,0,0,0,0,0,0,0,0,0,0,0,0,0,0,0,0,0,0,0,0,0,0,0,0,0,0,0,0,0,0,0,0,0,0,0,0,0,0,0,
8719,8718,8719,8718,8719,8718,8719,8718,8719,8718,8719,8718,8719,8718,8719,8718,8719,8718,8719,8718,8719,8718,8719,8718,8719,8718,8719,8718,8719,8718,8719,8718,8719,8718,8719,8718,8719,8718,8719,8718,8719,8718,8719,8718,8719,8718,8719,8718,
0,0,0,0,0,0,0,0,0,0,0,0,0,0,0,0,0,0,0,0,0,0,0,0,0,0,0,0,0,0,0,0,0,0,0,0,0,0,0,0,0,0,0,0,0,0,0,0,
8719,8718,8719,8718,8719,8718,8719,8718,8719,8718,8719,8718,8719,8718,8719,8718,8719,8718,8719,8718,8719,8718,8719,8718,8719,8718,8719,8718,8719,8718,8719,8718,8719,8718,8719,8718,8719,8718,8719,8718,8719,8718,8719,8718,8719,8718,8719,8718,
0,0,0,0,0,0,0,0,0,0,0,0,0,0,0,0,0,0,0,0,0,0,0,0,0,0,0,0,0,0,0,0,0,0,0,0,0,0,0,0,0,0,0,0,0,0,0,0,
8719,8718,8719,8718,8719,8718,8719,8718,8719,8718,8719,8718,8719,8718,8719,8718,8719,8718,8719,8718,8719,8718,8719,8718,8719,8718,8719,8718,8719,8718,8719,8718,8719,8718,8719,8718,8719,8718,8719,8718,8719,8718,8719,8718,8719,8718,8719,8718,
0,0,0,0,0,0,0,0,0,0,0,0,0,0,0,0,0,0,0,0,0,0,0,0,0,0,0,0,0,0,0,0,0,0,0,0,0,0,0,0,0,0,0,0,0,0,0,0,
8719,8718,8719,8718,8719,8718,8719,8718,8719,8718,8719,8718,8719,8718,8719,8718,8719,8718,8719,8718,8719,8718,8719,8718,8719,8718,8719,8718,8719,8718,8719,8718,8719,8718,8719,8718,8719,8718,8719,8718,8719,8718,8719,8718,8719,8718,8719,8718,
0,0,0,0,0,0,0,0,0,0,0,0,0,0,0,0,0,0,0,0,0,0,0,0,0,0,0,0,0,0,0,0,0,0,0,0,0,0,0,0,0,0,0,0,0,0,0,0,
8719,8718,8719,8718,8719,8718,8719,8718,8719,8718,8719,8718,8719,8718,8719,8718,8719,8718,8719,8718,8719,8718,8719,8718,8719,8718,8719,8718,8719,8718,8719,8718,8719,8718,8719,8718,8719,8718,8719,8718,8719,8718,8719,8718,8719,8718,8719,8718,
0,0,0,0,0,0,0,0,0,0,0,0,0,0,0,0,0,0,0,0,0,0,0,0,0,0,0,0,0,0,0,0,0,0,0,0,0,0,0,0,0,0,0,0,0,0,0,0,
8719,8718,8719,8718,8719,8718,8719,8718,8719,8718,8719,8718,8719,8718,8719,8718,8719,8718,8719,8718,8719,8718,8719,8718,8719,8718,8719,8718,8719,8718,8719,8718,8719,8718,8719,8718,8719,8718,8719,8718,8719,8718,8719,8718,8719,8718,8719,8718,
0,0,0,0,0,0,0,0,0,0,0,0,0,0,0,0,0,0,0,0,0,0,0,0,0,0,0,0,0,0,0,0,0,0,0,0,0,0,0,0,0,0,0,0,0,0,0,0,
8719,8718,8719,8718,8719,8718,8719,8718,8719,8718,8719,8718,8719,8718,8719,8718,8719,8718,8719,8718,8719,8718,8719,8718,8719,8718,8719,8718,8719,8718,8719,8718,8719,8718,8719,8718,8719,8718,8719,8718,8719,8718,8719,8718,8719,8718,8719,8718,
0,0,0,0,0,0,0,0,0,0,0,0,0,0,0,0,0,0,0,0,0,0,0,0,0,0,0,0,0,0,0,0,0,0,0,0,0,0,0,0,0,0,0,0,0,0,0,0,
8719,8718,8719,8718,8719,8718,8719,8718,8719,8718,8719,8718,8719,8718,8719,8718,8719,8718,8719,8718,8719,8718,8719,8718,8719,8718,8719,8718,8719,8718,8719,8718,8719,8718,8719,8718,8719,8718,8719,8718,8719,8718,8719,8718,8719,8718,8719,8718,
0,0,0,0,0,0,0,0,0,0,0,0,0,0,0,0,0,0,0,0,0,0,0,0,0,0,0,0,0,0,0,0,0,0,0,0,0,0,0,0,0,0,0,0,0,0,0,0,
8719,8718,8719,8718,8719,8718,8719,8718,8719,8718,8719,8718,8719,8718,8719,8718,8719,8718,8719,8718,8719,8718,8719,8718,8719,8718,8719,8718,8719,8718,8719,8718,8719,8718,8719,8718,8719,8718,8719,8718,8719,8718,8719,8718,8719,8718,8719,8718,
0,0,0,0,0,0,0,8236,8237,8237,8237,8237,8237,8238,0,0,0,0,0,0,0,0,0,8236,8237,8237,8237,8237,8237,8237,8238,0,0,0,0,0,0,0,0,0,0,0,0,0,0,0,0,0,
8719,8718,8719,0,0,0,0,0,0,0,0,0,0,0,0,0,0,0,0,0,0,0,0,0,0,0,0,0,0,0,0,8718,8719,8718,8719,8718,8719,8718,8719,8718,8719,8718,8719,8718,8719,8718,8719,8718,
0,0,0,0,0,0,0,0,0,0,0,0,0,0,0,0,0,0,0,0,0,0,0,0,0,0,0,0,0,0,0,0,0,0,0,0,0,0,0,0,0,0,0,0,0,0,0,0,
8719,8718,8719,0,0,0,0,0,0,0,0,0,0,0,0,0,0,0,0,0,0,0,0,0,0,0,0,0,0,8237,8238,8718,8719,8718,8719,8718,8719,8718,8719,8718,8719,8718,8719,8718,8719,8718,8719,8718,
0,0,0,0,0,0,0,0,0,0,0,0,0,0,0,0,0,0,0,0,0,0,0,0,0,0,0,0,0,0,0,0,0,0,0,0,0,0,0,0,0,0,0,0,0,0,0,0,
8719,8718,8719,0,0,0,0,0,0,0,0,0,0,0,0,0,0,0,0,0,0,0,0,0,0,0,0,0,0,0,0,8718,8719,8718,8719,8718,8719,8718,8719,8718,8719,8718,8719,8718,8719,8718,8719,8718,
8237,8237,8238,0,0,0,0,0,0,0,0,0,8718,8719,8718,8719,8718,8719,8718,8719,0,0,0,0,0,0,0,0,0,0,0,0,0,0,0,0,0,0,0,0,0,0,0,0,0,0,0,0,
8719,0,8237,8237,8237,8237,8237,8237,8237,8237,8237,8238,0,0,0,0,0,0,0,0,0,0,0,0,0,8718,8719,8718,8719,8718,8719,8718,8719,8718,8719,8718,8719,8718,8719,8718,8719,8718,8719,8718,8719,8718,8719,8718,
0,0,0,0,0,0,0,0,0,0,0,0,8718,8719,8718,8719,8718,8719,8718,8719,0,0,0,0,0,0,0,0,0,0,0,0,0,0,0,0,0,0,0,0,0,0,0,0,0,0,0,0,
8719,0,0,0,0,0,0,0,0,0,0,0,0,0,0,0,0,0,0,0,0,0,0,0,0,0,0,8718,8719,8718,8719,8718,8719,8718,8719,8718,8719,8718,8719,8718,8719,8718,8719,8718,8719,8718,8719,8718,
0,0,0,0,0,0,0,0,0,0,0,0,8718,8719,8718,8719,0,0,0,0,0,0,0,0,0,0,0,0,0,0,0,0,0,0,0,0,0,0,0,0,0,0,0,0,0,0,0,0,
8719,0,0,0,0,0,0,0,0,0,0,0,0,0,0,0,0,0,0,0,0,0,0,0,0,0,0,0,0,0,0,8718,8719,8718,8719,8718,8719,8718,8719,8718,8719,8718,8719,8718,8719,8718,8719,8718,
0,0,0,0,0,0,0,0,0,0,0,0,8718,8719,8718,8719,0,0,0,0,0,0,0,0,0,0,0,0,0,0,0,0,0,0,0,0,0,0,0,0,0,0,0,0,0,0,0,0,
8719,0,0,0,0,0,0,0,0,0,0,0,0,0,0,0,0,0,0,0,0,0,0,0,0,0,0,0,0,0,0,8718,8719,8718,8719,8718,8719,8718,8719,8718,8719,8718,8719,8718,8719,8718,8719,8718,
0,0,0,0,0,0,0,0,0,0,0,0,8718,8719,8718,8719,0,0,0,0,0,0,0,0,0,0,0,0,0,0,0,0,0,0,0,0,0,0,0,0,0,0,0,0,0,0,0,0,
8719,0,0,0,0,0,0,0,0,0,0,0,0,0,0,0,0,0,0,0,0,0,0,0,0,8236,8237,8237,8237,8237,8238,8718,8719,8718,8719,8718,8719,8718,8719,8718,8719,8718,8719,8718,8719,8718,8719,8718,
0,0,0,0,0,0,0,0,0,0,0,0,0,0,0,0,0,0,0,0,0,0,0,0,0,8718,8719,0,0,0,0,0,0,0,0,0,0,0,0,0,0,0,0,0,0,0,0,0,
8719,0,0,0,0,0,0,0,0,0,0,0,0,0,0,0,0,0,0,0,0,0,0,0,0,0,0,0,0,0,0,8718,8719,8718,8719,8718,8719,8718,8719,8718,8719,8718,8719,8718,8719,8718,8719,8718,
0,0,0,0,0,0,0,0,0,0,0,0,0,0,0,0,0,0,0,0,0,0,0,0,0,8718,8719,0,0,0,0,0,0,0,0,0,0,0,0,0,0,0,0,0,0,0,0,0,
8719,8718,8719,0,0,0,0,0,0,0,0,0,0,0,0,0,0,0,0,0,0,0,0,0,0,0,0,0,0,0,0,8718,8719,8718,8719,8718,8719,8718,8719,8718,8719,8718,8719,8718,8719,8718,8719,8718,
0,0,0,0,0,0,0,0,0,0,0,0,8718,8719,8718,8719,8718,8719,8718,8719,0,0,0,0,0,8718,8719,0,0,0,0,0,0,0,0,0,0,0,0,0,0,0,0,0,0,0,0,0,
8719,8718,8719,0,0,0,0,0,0,0,0,8236,8237,8237,8237,8237,8237,8237,8238,0,0,0,0,8236,8237,8237,0,0,0,0,0,8718,8719,8718,8719,8718,8719,8718,8719,8718,8719,8718,8719,8718,8719,8718,8719,8718,
0,0,0,0,0,0,0,0,0,0,0,0,0,0,0,0,0,0,0,0,0,0,0,0,0,0,0,0,0,0,0,0,0,0,0,0,0,0,0,0,0,0,0,0,0,0,0,0,
0,0,0,0,0,0,0,0,0,0,0,0,0,0,0,0,0,0,0,0,0,0,0,0,0,0,0,0,0,0,0,8718,8719,8718,8719,8718,8719,8718,8719,8718,8719,8718,8719,8718,8719,8718,8719,8718,
0,0,0,0,0,0,0,0,0,0,0,0,0,0,0,0,0,0,0,0,0,0,0,0,0,0,0,0,0,0,0,0,0,0,0,0,0,0,0,0,0,0,0,0,0,0,0,0,
0,0,0,0,0,0,0,0,0,0,0,0,0,0,0,0,0,0,0,0,0,0,0,0,0,0,0,0,0,0,0,8718,8719,8718,8719,8718,8719,8718,8719,8718,8719,8718,8719,8718,8719,8718,8719,8718,
0,0,0,0,0,0,0,0,0,0,0,0,0,0,0,0,0,0,0,0,0,0,0,0,0,0,0,0,0,0,0,0,0,0,0,0,0,0,0,0,0,0,0,0,0,0,0,0,
8719,8718,8719,8718,8719,8718,8719,8718,8719,8718,8719,8718,8719,8718,8719,8718,8719,8718,8719,8718,8719,8718,8719,8718,8719,8718,8719,8718,8719,8718,8719,8718,8719,8718,8719,8718,8719,8718,8719,8718,8719,8718,8719,8718,8719,8718,8719,8718,
0,0,0,0,0,0,0,0,0,0,0,0,0,0,0,0,0,0,0,0,0,0,0,0,0,0,0,0,0,0,0,0,0,0,0,0,0,0,0,0,0,0,0,0,0,0,0,0,
0,0,0,0,0,8718,8719,8718,8719,8718,8719,8718,8719,8718,8719,8718,8719,8718,8719,8718,8719,8718,8719,8718,8719,8718,8719,8718,8719,8718,8719,8718,8719,8718,8719,8718,8719,8718,8719,8718,8719,8718,8719,8718,8719,8718,8719,8718,
0,0,0,0,0,0,0,0,0,0,0,0,0,0,0,0,0,0,0,0,0,0,0,0,0,0,0,0,0,0,0,0,0,0,0,0,0,0,0,0,0,0,0,0,0,0,0,0,
0,0,0,0,0,0,0,0,0,0,0,8718,8719,8718,8719,8718,8719,8718,8719,8718,8719,8718,8719,8718,8719,8718,8719,8718,8719,8718,8719,8718,8719,8718,8719,8718,8719,8718,8719,8718,8719,8718,8719,8718,8719,8718,8719,8718,
0,0,0,0,0,0,0,0,0,0,0,0,0,0,0,0,0,0,0,0,0,0,0,0,0,0,0,0,0,0,0,0,0,0,0,0,0,0,0,0,0,0,0,0,0,0,0,0,
0,0,0,0,0,0,0,0,0,0,0,0,0,8718,8719,8718,8719,8718,8719,8718,8719,8718,8719,8718,8719,8718,8719,8718,8719,8718,8719,8718,8719,8718,8719,8718,8719,8718,8719,8718,8719,8718,8719,8718,8719,8718,8719,8718,
0,0,0,0,0,0,0,0,0,0,0,0,0,0,0,0,0,0,0,0,0,0,0,0,0,0,0,0,0,0,0,0,0,0,0,0,0,0,0,0,0,0,0,0,0,0,0,0,
0,0,0,0,0,0,0,0,0,0,0,0,0,8718,8719,8718,8719,8718,8719,8718,8719,8718,8719,8718,8719,8718,8719,8718,8719,8718,8719,8718,8719,8718,8719,8718,8719,8718,8719,8718,8719,8718,8719,8718,8719,8718,8719,8718,
0,0,0,0,0,0,0,0,0,0,0,0,0,0,0,0,0,0,0,0,0,0,0,0,0,0,0,0,0,0,0,0,0,0,0,0,0,0,0,0,0,0,0,0,0,0,0,0,
0,0,0,0,0,0,0,0,0,0,0,0,0,0,0,8718,8719,8718,8719,8718,8719,8718,8719,8718,8719,8718,8719,8718,8719,8718,8719,8718,8719,8718,8719,8718,8719,8718,8719,8718,8719,8718,8719,8718,8719,8718,8719,8718,
0,0,0,0,0,0,0,0,0,0,0,0,0,0,0,0,0,0,0,0,0,0,0,0,0,0,0,0,0,0,0,0,0,0,0,0,0,0,0,0,0,0,0,0,0,0,0,0,
0,0,0,0,0,0,0,0,0,0,0,0,0,0,0,0,0,0,0,0,0,0,0,0,0,8718,8719,8718,8719,8718,8719,8718,8719,8718,8719,8718,8719,8718,8719,8718,8719,8718,8719,8718,8719,8718,8719,8718,
0,0,0,0,0,0,0,0,0,0,0,0,0,0,0,0,0,0,0,0,0,0,0,0,0,0,0,0,0,0,0,0,0,0,0,0,0,0,0,0,0,0,0,0,0,0,0,0,
0,0,0,0,0,0,0,0,0,0,0,0,0,0,0,0,0,0,0,0,0,0,0,0,0,0,0,0,0,0,0,0,0,0,0,0,0,0,0,0,0,0,0,0,0,0,0,0,
0,0,0,0,0,0,0,0,0,0,0,0,0,0,0,0,0,0,0,0,0,0,0,0,0,0,0,0,0,0,0,0,0,0,0,0,0,0,0,0,0,0,0,0,0,0,0,0,
0,0,0,0,0,0,0,0,0,0,0,0,0,0,0,0,0,0,0,0,0,0,0,0,0,0,0,0,0,0,0,0,0,0,0,0,0,0,0,0,0,0,0,0,0,0,0,0,
0,0,0,0,0,0,0,0,0,0,0,0,0,0,0,0,0,0,0,0,0,0,0,0,0,0,0,0,0,0,0,0,0,0,0,0,0,0,0,0,0,0,0,0,0,0,0,0,
0,0,0,0,0,0,0,0,0,0,0,0,0,0,0,0,0,0,0,0,0,0,0,0,0,0,0,0,0,0,0,0,0,0,0,0,0,0,0,0,0,0,0,0,0,0,0,0,
0,0,0,0,0,0,0,0,0,0,0,0,0,0,0,0,0,0,0,0,0,0,0,0,0,0,0,0,0,0,0,0,0,0,0,0,0,0,0,0,0,0,0,0,0,0,0,0,
0,0,0,0,0,0,0,0,0,0,0,0,0,0,0,0,0,0,0,0,0,0,0,0,0,0,0,0,0,0,0,0,0,0,0,0,0,0,0,0,0,0,0,0,0,0,0,0,
0,0,0,0,0,0,0,0,0,0,0,0,0,0,0,0,0,0,0,0,0,0,0,0,0,0,0,0,0,0,0,0,0,0,0,0,0,0,0,0,0,0,0,0,0,0,0,0,
0,0,0,0,0,0,0,0,0,0,0,0,0,0,0,0,0,0,0,0,0,0,0,0,0,0,0,0,0,0,0,0,0,0,0,0,0,0,0,0,0,0,0,0,0,0,0,0,
0,0,0,0,0,0,0,0,0,0,0,0,0,0,0,0,0,0,0,0,0,0,0,0,0,0,0,0,0,0,0,0,0,0,0,0,0,0,0,0,0,0,0,0,0,0,0,0,
0,0,0,0,0,0,0,0,0,0,0,0,0,0,0,0,0,0,0,0,0,0,0,0,0,0,0,0,0,0,0,0,0,0,0,0,0,0,0,0,0,0,0,0,0,0,0,0,
0,0,0,0,0,0,0,0,0,0,0,0,0,0,0,0,0,0,0,0,0,0,0,0,0,0,0,0,0,0,0,0,0,0,0,0,0,0,0,0,0,0,0,0,0,0,0,0,
0,0,0,0,0,0,0,0,0,0,0,0,0,0,0,0,0,0,0,0,0,0,0,0,0,0,0,0,0,0,0,0,0,0,0,0,0,0,0,0,0,0,0,0,0,0,0,0,
0,0,0,0,0,0,0,0,0,0,0,0,0,0,0,0,0,0,0,0,0,0,0,0,0,0,0,0,0,0,0,0,0,0,0,0,0,0,0,0,0,0,0,0,0,0,0,0,
0,0,0,0,0,0,0,0,0,0,0,0,0,0,0,0,0,0,0,0,0,0,0,0,0,0,0,0,0,0,0,0,0,0,0,0,0,0,0,0,0,0,0,0,0,0,0,0,
0,0,0,0,0,0,0,0,0,0,0,0,0,0,0,0,0,0,0,0,0,0,0,0,0,0,0,0,0,0,0,0,0,0,0,0,0,0,0,0,0,0,0,0,0,0,0,0,
0,0,0,0,0,0,0,0,0,0,0,0,0,0,0,0,0,0,0,0,0,0,0,0,0,0,0,0,0,0,0,0,0,0,0,0,0,0,0,0,0,0,0,0,0,0,0,0,
0,0,0,0,0,0,0,0,0,0,0,0,0,0,0,0,0,0,0,0,0,0,0,0,0,0,0,0,0,0,0,0,0,0,0,0,0,0,0,0,0,0,0,0,0,0,0,0,
0,0,0,0,0,0,0,0,0,0,0,0,0,0,0,0,0,0,0,0,0,0,0,0,0,0,0,0,0,0,0,0,0,0,0,0,0,0,0,0,0,0,0,0,0,0,0,0,
0,0,0,0,0,0,0,0,0,0,0,0,0,0,0,0,0,0,0,0,0,0,0,0,0,0,0,0,0,0,0,0,0,0,0,0,0,0,0,0,0,0,0,0,0,0,0,0,
0,0,0,0,0,0,0,0,0,0,0,0,0,0,0,0,0,0,0,0,0,0,0,0,0,0,0,0,0,0,0,0,0,0,0,0,0,0,0,0,0,0,0,0,0,0,0,0,
0,0,0,0,0,0,0,0,0,0,0,0,0,0,0,0,0,0,0,0,0,0,0,0,0,0,0,0,0,0,0,0,0,0,0,0,0,0,0,0,0,0,0,0,0,0,0,0,
0,0,0,0,0,0,0,0,0,0,0,0,0,0,0,0,0,0,0,0,0,0,0,0,0,0,0,0,0,0,0,0,0,0,0,0,0,0,0,0,0,0,0,0,0,0,0,0,
0,0,0,0,0,0,0,0,0,0,0,0,0,0,0,0,0,0,0,0,0,0,0,0,0,0,0,0,0,0,0,0,0,0,0,0,0,0,0,0,0,0,0,0,0,0,0,0,
0,0,0,0,0,0,0,0,0,0,0,0,0,0,0,0,0,0,0,0,0,0,0,0,0,0,0,0,0,0,0,0,0,0,0,0,0,0,0,0,0,0,0,0,0,0,0,0,
0,0,0,0,0,0,0,0,0,0,0,0,0,0,0,0,0,0,0,0,0,0,0,0,0,0,0,0,0,0,0,0,0,0,0,0,0,0,0,0,0,0,0,0,0,0,0,0,
0,0,0,0,0,0,0,0,0,0,0,0,0,0,0,0,0,0,0,0,0,0,0,0,0,0,0,0,0,0,0,0,0,0,0,0,0,0,0,0,0,0,0,0,0,0,0,0,
0,0,0,0,0,0,0,0,0,0,0,0,0,0,0,0,0,0,0,0,0,0,0,0,0,0,0,0,0,0,0,0,0,0,0,0,0,0,0,0,0,0,0,0,0,0,0,0,
0,0,0,0,0,0,0,0,0,0,0,0,0,0,0,0,0,0,0,0,0,0,0,0,0,0,0,0,0,0,0,0,0,0,0,0,0,0,0,0,0,0,0,0,0,0,0,0,
0,0,0,0,0,0,0,0,0,0,0,0,0,0,0,0,0,0,0,0,0,0,0,0,0,0,0,0,0,0,0,0,0,0,0,0,0,0,0,0,0,0,0,0,0,0,0,0,
0,0,0,0,0,0,0,0,0,0,0,0,0,0,0,0,0,0,0,0,0,0,0,0,0,0,0,0,0,0,0,0,0,0,0,0,0,0,0,0,0,0,0,0,0,0,0,0,
0,0,0,0,0,0,0,0,0,0,0,0,0,0,0,0,0,0,0,0,0,0,0,0,0,0,0,0,0,0,0,0,0,0,0,0,0,0,0,0,0,0,0,0,0,0,0,0,
0,0,0,0,0,0,0,0,0,0,0,0,0,0,0,0,0,0,0,0,0,0,0,0,0,0,0,0,0,0,0,0,0,0,0,0,0,0,0,0,0,0,0,0,0,0,0,0,
0,0,0,0,0,0,0,0,0,0,0,0,0,0,0,0,0,0,0,0,0,0,0,0,0,0,0,0,0,0,0,0,0,0,0,0,0,0,0,0,0,0,0,0,0,0,0,0
 </data>
 </layer>
 <layer id="13" name="♣_Tree_lft_btm_2+1" width="48" height="96">
  <data encoding="csv">
8717,8716,8717,8716,8717,8716,8717,8716,8717,8716,8717,8716,8717,8716,8717,8716,8717,8716,8717,8716,8717,8716,8717,8716,8717,8716,8717,8716,8717,8716,8717,8716,8717,8716,8717,8716,8717,8716,8717,8716,8717,8716,8717,8716,8717,8716,8717,0,
8671,8670,8671,8670,8671,8670,8671,8670,8671,8670,8671,8670,8671,8670,8671,8670,8671,8670,8671,8670,8671,8670,8671,8670,8671,8670,8671,8670,8671,8670,8671,8670,8671,8670,8671,8670,8671,8670,8671,8670,8671,8670,8671,8670,8671,8670,8671,8670,
8717,8716,8717,8716,8717,8716,8717,8716,8717,8716,8717,8716,8717,8716,8717,8716,8717,8716,8717,8716,8717,8716,8717,8716,8717,8716,8717,8716,8717,8716,8717,8716,8717,8716,8717,8716,8717,8716,8717,8716,8717,8716,8717,8716,8717,8716,8717,0,
8671,8670,8671,8670,8671,8670,8671,8670,8671,8670,8671,8670,8671,8670,8671,8670,8671,8670,8671,8670,8671,8670,8671,8670,8671,8670,8671,8670,8671,8670,8671,8670,8671,8670,8671,8670,8671,8670,8671,8670,8671,8670,8671,8670,8671,8670,8671,8670,
8717,8716,8717,8716,8717,8716,8717,8716,8717,8716,8717,8716,8717,8716,8717,8716,8717,8716,8717,8716,8717,8716,8717,8716,8717,8716,8717,8716,8717,8716,8717,8716,8717,8716,8717,8716,8717,8716,8717,8716,8717,8716,8717,8716,8717,8716,8717,0,
8671,8670,8671,8670,8671,8670,8671,8670,8671,8670,8671,8670,8671,8670,8671,8670,8671,8670,8671,8670,8671,8670,8671,8670,8671,8670,8671,8670,8671,8670,8671,8670,8671,8670,8671,8670,8671,8670,8671,8670,8671,8670,8671,8670,8671,8670,8671,8670,
8717,8716,8717,8716,8717,8716,8717,8716,8717,8716,8717,8716,8717,8716,8717,8716,8717,8716,8717,8716,8717,8716,8717,8716,8717,8716,8717,8716,8717,8716,8717,8716,8717,8716,8717,8716,8717,8716,8717,8716,8717,8716,8717,8716,8717,8716,8717,0,
8671,8670,8671,8670,8671,8670,8671,8670,8671,8670,8671,8670,8671,8670,8671,8670,8671,8670,8671,8670,8671,8670,8671,8670,8671,8670,8671,8670,8671,8670,8671,8670,8671,8670,8671,8670,8671,8670,8671,8670,8671,8670,8671,8670,8671,8670,8671,8670,
8717,8716,8717,8716,8717,8716,8717,8716,8717,8716,8717,8716,8717,8716,8717,8716,8717,8716,8717,8716,8717,8716,8717,8716,8717,8716,8717,8716,8717,8716,8717,8716,8717,8716,8717,8716,8717,8716,8717,8716,8717,8716,8717,8716,8717,8716,8717,0,
8671,8670,8671,8670,8671,8670,8671,8670,8671,8670,8671,8670,8671,8670,8671,8670,8671,8670,8671,8670,8671,8670,8671,8670,8671,8670,8671,8670,8671,8670,8671,8670,8671,8670,8671,8670,8671,8670,8671,8670,8671,8670,8671,8670,8671,8670,8671,8670,
8717,8716,8717,8716,8717,8716,8717,8716,8717,8716,8717,8716,8717,8716,8717,8716,8717,8716,8717,8716,8717,8716,8717,8716,8717,8716,8717,8716,8717,8716,8717,8716,8717,8716,8717,8716,8717,8716,8717,8716,8717,8716,8717,8716,8717,8716,8717,0,
8671,8670,8671,8670,8671,8670,8671,8670,8671,8670,8671,8670,8671,8670,8671,8670,8671,8670,8671,8670,8671,8670,8671,8670,8671,8670,8671,8670,8671,8670,8671,8670,8671,8670,8671,8670,8671,8670,8671,8670,8671,8670,8671,8670,8671,8670,8671,8670,
8717,8716,8717,8716,8717,8716,8717,8716,8717,8716,8717,8716,8717,8716,8717,8716,8717,8716,8717,8716,8717,8716,8717,8716,8717,8716,8717,8716,8717,8716,8717,8716,8717,8716,8717,8716,8717,8716,8717,8716,8717,8716,8717,8716,8717,8716,8717,0,
8671,8670,8671,8670,8671,8670,8671,8670,8671,8670,8671,8670,8671,8670,8671,8670,8671,8670,8671,8670,8671,8670,8671,8670,8671,8670,8671,8670,8671,8670,8671,8670,8671,8670,8671,8670,8671,8670,8671,8670,8671,8670,8671,8670,8671,8670,8671,8670,
8717,8716,8717,8716,8717,8716,8717,8716,8717,8716,8717,8716,8717,8716,8717,8716,8717,8716,8717,8716,8717,8716,8717,8716,8717,8716,8717,8716,8717,8716,8717,8716,8717,8716,8717,8716,8717,8716,8717,8716,8717,8716,8717,8716,8717,8716,8717,0,
8671,8670,8671,8670,8671,8670,8671,8670,8671,8670,8671,8670,8671,8670,8671,8670,8671,8670,8671,8670,8671,8670,8671,8670,8671,8670,8671,8670,8671,8670,8671,8670,8671,8670,8671,8670,8671,8670,8671,8670,8671,8670,8671,8670,8671,8670,8671,8670,
8717,8716,8717,8716,8717,8716,8717,8716,8717,8716,8717,8716,8717,8716,8717,8716,8717,8716,8717,8716,8717,8716,8717,8716,8717,8716,8717,8716,8717,8716,8717,8716,8717,8716,8717,8716,8717,8716,8717,8716,8717,8716,8717,8716,8717,8716,8717,0,
8671,8670,8671,8670,8671,8670,8671,8670,8671,8670,8671,8670,8671,8670,8671,8670,8671,8670,8671,8670,8671,8670,8671,8670,8671,8670,8671,8670,8671,8670,8671,8670,8671,8670,8671,8670,8671,8670,8671,8670,8671,8670,8671,8670,8671,8670,8671,8670,
8717,8716,8717,8716,8717,8716,8717,8716,8717,8716,8717,8716,8717,8716,8717,8716,8717,8716,8717,8716,8717,8716,8717,8716,8717,8716,8717,8716,8717,8716,8717,8716,8717,8716,8717,8716,8717,8716,8717,8716,8717,8716,8717,8716,8717,8716,8717,0,
8671,8670,8671,8670,8671,8670,8671,8670,8671,8670,8671,8670,8671,8670,8671,8670,8671,8670,8671,8670,8671,8670,8671,8670,8671,8670,8671,8670,8671,8670,8671,8670,8671,8670,8671,8670,8671,8670,8671,8670,8671,8670,8671,8670,8671,8670,8671,8670,
8717,8716,8717,8716,8717,8716,8717,8716,8717,8716,8717,8716,8717,8716,8717,8716,8717,8716,8717,8716,8717,8716,8717,8716,8717,8716,8717,8716,8717,8716,8717,8716,8717,8716,8717,8716,8717,8716,8717,8716,8717,8716,8717,8716,8717,8716,8717,0,
8671,8670,8671,0,0,0,0,0,0,0,0,0,0,0,0,0,0,0,0,0,0,0,0,0,0,0,0,0,0,0,0,8670,8671,8670,8671,8670,8671,8670,8671,8670,8671,8670,8671,8670,8671,8670,8671,8670,
8717,0,0,0,0,0,0,0,0,0,0,0,0,0,0,0,0,0,0,0,0,0,0,0,0,0,0,0,0,8716,8717,8716,8717,8716,8717,8716,8717,8716,8717,8716,8717,8716,8717,8716,8717,8716,8717,0,
8671,8670,8671,0,0,0,0,0,0,0,0,0,0,0,0,0,0,0,0,0,0,0,0,0,0,0,0,0,0,0,0,8670,8671,8670,8671,8670,8671,8670,8671,8670,8671,8670,8671,8670,8671,8670,8671,8670,
8717,0,0,0,0,0,0,0,0,0,0,0,0,0,0,0,0,0,0,0,0,0,0,0,0,0,0,0,0,8716,8717,8716,8717,8716,8717,8716,8717,8716,8717,8716,8717,8716,8717,8716,8717,8716,8717,0,
8671,8670,8671,0,0,0,0,0,0,0,0,0,0,0,0,0,0,0,0,0,0,0,0,0,0,0,0,0,0,0,0,8670,8671,8670,8671,8670,8671,8670,8671,8670,8671,8670,8671,8670,8671,8670,8671,8670,
8717,0,0,0,0,0,0,0,0,0,0,0,8670,8671,8670,8671,8670,8671,8670,8671,0,0,0,0,0,0,0,0,0,8716,8717,8716,8717,8716,8717,8716,8717,8716,8717,8716,8717,8716,8717,8716,8717,8716,8717,0,
8671,0,0,0,0,0,0,0,0,0,8716,8717,8716,8717,8716,8717,8716,8717,0,0,0,0,0,0,0,8670,8671,8670,8671,8670,8671,8670,8671,8670,8671,8670,8671,8670,8671,8670,8671,8670,8671,8670,8671,8670,8671,8670,
0,0,0,0,0,0,0,0,0,0,0,0,8670,8671,8670,8671,8670,8671,8670,8671,0,0,0,8716,8717,8716,8717,8716,8717,8716,8717,8716,8717,8716,8717,8716,8717,8716,8717,8716,8717,8716,8717,8716,8717,8716,8717,0,
8671,0,0,0,0,0,0,0,0,0,8716,8717,8716,8717,8716,8717,8716,8717,0,0,0,0,0,0,0,0,0,8670,8671,8670,8671,8670,8671,8670,8671,8670,8671,8670,8671,8670,8671,8670,8671,8670,8671,8670,8671,8670,
0,0,0,0,0,0,0,0,0,0,0,0,8670,8671,8670,8671,0,0,0,0,0,0,0,0,0,8716,8717,8716,8717,8716,8717,8716,8717,8716,8717,8716,8717,8716,8717,8716,8717,8716,8717,8716,8717,8716,8717,0,
8671,0,0,0,0,0,0,0,0,0,8716,8717,8716,8717,0,0,0,0,0,0,0,0,0,0,0,0,0,0,0,0,0,8670,8671,8670,8671,8670,8671,8670,8671,8670,8671,8670,8671,8670,8671,8670,8671,8670,
0,0,0,0,0,0,0,0,0,0,0,0,8670,8671,8670,8671,0,0,0,0,0,0,0,0,0,0,0,0,0,8716,8717,8716,8717,8716,8717,8716,8717,8716,8717,8716,8717,8716,8717,8716,8717,8716,8717,0,
8671,0,0,0,0,0,0,0,0,0,8716,8717,8716,8717,0,0,0,0,0,0,0,0,0,0,0,0,0,0,0,0,0,8670,8671,8670,8671,8670,8671,8670,8671,8670,8671,8670,8671,8670,8671,8670,8671,8670,
0,0,0,0,0,0,0,0,0,0,0,0,8670,8671,8670,8671,0,0,0,0,0,0,0,0,0,0,0,0,0,8716,8717,8716,8717,8716,8717,8716,8717,8716,8717,8716,8717,8716,8717,8716,8717,8716,8717,0,
8671,0,0,0,0,0,0,0,0,0,8716,8717,8716,8717,0,0,0,0,0,0,0,0,0,0,0,0,0,0,0,0,0,8670,8671,8670,8671,8670,8671,8670,8671,8670,8671,8670,8671,8670,8671,8670,8671,8670,
0,0,0,0,0,0,0,0,0,0,0,0,0,0,0,0,0,0,0,0,0,0,0,0,0,8670,8671,0,0,8716,8717,8716,8717,8716,8717,8716,8717,8716,8717,8716,8717,8716,8717,8716,8717,8716,8717,0,
8671,0,0,0,0,0,0,0,0,0,0,0,0,0,0,0,0,0,0,0,0,0,0,8716,8717,0,0,0,0,0,0,8670,8671,8670,8671,8670,8671,8670,8671,8670,8671,8670,8671,8670,8671,8670,8671,8670,
0,0,0,0,0,0,0,0,0,0,0,0,0,0,0,0,0,0,0,0,0,0,0,0,0,8670,8671,0,0,8716,8717,8716,8717,8716,8717,8716,8717,8716,8717,8716,8717,8716,8717,8716,8717,8716,8717,0,
8671,8670,8671,0,0,0,0,0,0,0,0,0,0,0,0,0,0,0,0,0,0,0,0,8716,8717,0,0,0,0,0,0,8670,8671,8670,8671,8670,8671,8670,8671,8670,8671,8670,8671,8670,8671,8670,8671,8670,
8717,0,0,0,0,0,0,0,0,0,0,0,8670,8671,8670,8671,8670,8671,8670,8671,0,0,0,0,0,8670,8671,0,0,8716,8717,8716,8717,8716,8717,8716,8717,8716,8717,8716,8717,8716,8717,8716,8717,8716,8717,0,
8671,8670,8671,0,0,0,0,0,0,0,8716,8717,8716,8717,8716,8717,8716,8717,0,0,0,0,0,8716,8717,0,0,0,0,0,0,8670,8671,8670,8671,8670,8671,8670,8671,8670,8671,8670,8671,8670,8671,8670,8671,8670,
8717,0,0,0,0,0,0,0,0,0,0,0,0,0,0,0,0,0,0,0,0,0,0,0,0,0,0,0,0,8716,8717,8716,8717,8716,8717,8716,8717,8716,8717,8716,8717,8716,8717,8716,8717,8716,8717,0,
0,0,0,0,0,0,0,0,0,0,0,0,0,0,0,0,0,0,0,0,0,0,0,0,0,0,0,0,0,0,0,8670,8671,8670,8671,8670,8671,8670,8671,8670,8671,8670,8671,8670,8671,8670,8671,8670,
0,0,0,0,0,0,0,0,0,0,0,0,0,0,0,0,0,0,0,0,0,0,0,0,0,0,0,0,0,8716,8717,8716,8717,8716,8717,8716,8717,8716,8717,8716,8717,8716,8717,8716,8717,8716,8717,0,
0,0,0,0,0,0,0,0,0,0,0,0,0,0,0,0,0,0,0,0,0,0,0,0,0,0,0,0,0,0,0,8670,8671,8670,8671,8670,8671,8670,8671,8670,8671,8670,8671,8670,8671,8670,8671,8670,
0,0,0,0,0,0,0,0,0,0,0,0,0,0,0,0,0,0,0,0,0,0,0,0,0,0,0,0,0,8716,8717,8716,8717,8716,8717,8716,8717,8716,8717,8716,8717,8716,8717,8716,8717,8716,8717,0,
8671,8670,8671,8670,8671,8670,8671,8670,8671,8670,8671,8670,8671,8670,8671,8670,8671,8670,8671,8670,8671,8670,8671,8670,8671,8670,8671,8670,8671,8670,8671,8670,8671,8670,8671,8670,8671,8670,8671,8670,8671,8670,8671,8670,8671,8670,8671,8670,
8717,8716,8717,8716,8717,8716,8717,8716,8717,8716,8717,8716,8717,8716,8717,8716,8717,8716,8717,8716,8717,8716,8717,8716,8717,8716,8717,8716,8717,8716,8717,8716,8717,8716,8717,8716,8717,8716,8717,8716,8717,8716,8717,8716,8717,8716,8717,0,
0,0,0,0,0,8670,8671,8670,8671,8670,8671,8670,8671,8670,8671,8670,8671,8670,8671,8670,8671,8670,8671,8670,8671,8670,8671,8670,8671,8670,8671,8670,8671,8670,8671,8670,8671,8670,8671,8670,8671,8670,8671,8670,8671,8670,8671,8670,
0,0,0,8716,8717,8716,8717,8716,8717,8716,8717,8716,8717,8716,8717,8716,8717,8716,8717,8716,8717,8716,8717,8716,8717,8716,8717,8716,8717,8716,8717,8716,8717,8716,8717,8716,8717,8716,8717,8716,8717,8716,8717,8716,8717,8716,8717,0,
0,0,0,0,0,0,0,0,0,0,0,8670,8671,8670,8671,8670,8671,8670,8671,8670,8671,8670,8671,8670,8671,8670,8671,8670,8671,8670,8671,8670,8671,8670,8671,8670,8671,8670,8671,8670,8671,8670,8671,8670,8671,8670,8671,8670,
0,0,0,0,0,0,0,0,0,8716,8717,8716,8717,8716,8717,8716,8717,8716,8717,8716,8717,8716,8717,8716,8717,8716,8717,8716,8717,8716,8717,8716,8717,8716,8717,8716,8717,8716,8717,8716,8717,8716,8717,8716,8717,8716,8717,0,
0,0,0,0,0,0,0,0,0,0,0,0,0,8670,8671,8670,8671,8670,8671,8670,8671,8670,8671,8670,8671,8670,8671,8670,8671,8670,8671,8670,8671,8670,8671,8670,8671,8670,8671,8670,8671,8670,8671,8670,8671,8670,8671,8670,
0,0,0,0,0,0,0,0,0,0,0,8716,8717,8716,8717,8716,8717,8716,8717,8716,8717,8716,8717,8716,8717,8716,8717,8716,8717,8716,8717,8716,8717,8716,8717,8716,8717,8716,8717,8716,8717,8716,8717,8716,8717,8716,8717,0,
0,0,0,0,0,0,0,0,0,0,0,0,0,8670,8671,8670,8671,8670,8671,8670,8671,8670,8671,8670,8671,8670,8671,8670,8671,8670,8671,8670,8671,8670,8671,8670,8671,8670,8671,8670,8671,8670,8671,8670,8671,8670,8671,8670,
0,0,0,0,0,0,0,0,0,0,0,8716,8717,8716,8717,8716,8717,8716,8717,8716,8717,8716,8717,8716,8717,8716,8717,8716,8717,8716,8717,8716,8717,8716,8717,8716,8717,8716,8717,8716,8717,8716,8717,8716,8717,8716,8717,0,
0,0,0,0,0,0,0,0,0,0,0,0,0,0,0,8670,8671,8670,8671,8670,8671,8670,8671,8670,8671,8670,8671,8670,8671,8670,8671,8670,8671,8670,8671,8670,8671,8670,8671,8670,8671,8670,8671,8670,8671,8670,8671,8670,
0,0,0,0,0,0,0,0,0,0,0,0,0,8716,8717,8716,8717,8716,8717,8716,8717,8716,8717,8716,8717,8716,8717,8716,8717,8716,8717,8716,8717,8716,8717,8716,8717,8716,8717,8716,8717,8716,8717,8716,8717,8716,8717,0,
0,0,0,0,0,0,0,0,0,0,0,0,0,0,0,0,0,0,0,0,0,0,0,0,0,8670,8671,8670,8671,8670,8671,8670,8671,8670,8671,8670,8671,8670,8671,8670,8671,8670,8671,8670,8671,8670,8671,8670,
0,0,0,0,0,0,0,0,0,0,0,0,0,0,0,0,0,0,0,0,0,0,0,8716,8717,8716,8717,8716,8717,8716,8717,8716,8717,8716,8717,8716,8717,8716,8717,8716,8717,8716,8717,8716,8717,8716,8717,0,
0,0,0,0,0,0,0,0,0,0,0,0,0,0,0,0,0,0,0,0,0,0,0,0,0,0,0,0,0,0,0,0,0,0,0,0,0,0,0,0,0,0,0,0,0,0,0,0,
0,0,0,0,0,0,0,0,0,0,0,0,0,0,0,0,0,0,0,0,0,0,0,0,0,0,0,0,0,0,0,0,0,0,0,0,0,0,0,0,0,0,0,0,0,0,0,0,
0,0,0,0,0,0,0,0,0,0,0,0,0,0,0,0,0,0,0,0,0,0,0,0,0,0,0,0,0,0,0,0,0,0,0,0,0,0,0,0,0,0,0,0,0,0,0,0,
0,0,0,0,0,0,0,0,0,0,0,0,0,0,0,0,0,0,0,0,0,0,0,0,0,0,0,0,0,0,0,0,0,0,0,0,0,0,0,0,0,0,0,0,0,0,0,0,
0,0,0,0,0,0,0,0,0,0,0,0,0,0,0,0,0,0,0,0,0,0,0,0,0,0,0,0,0,0,0,0,0,0,0,0,0,0,0,0,0,0,0,0,0,0,0,0,
0,0,0,0,0,0,0,0,0,0,0,0,0,0,0,0,0,0,0,0,0,0,0,0,0,0,0,0,0,0,0,0,0,0,0,0,0,0,0,0,0,0,0,0,0,0,0,0,
0,0,0,0,0,0,0,0,0,0,0,0,0,0,0,0,0,0,0,0,0,0,0,0,0,0,0,0,0,0,0,0,0,0,0,0,0,0,0,0,0,0,0,0,0,0,0,0,
0,0,0,0,0,0,0,0,0,0,0,0,0,0,0,0,0,0,0,0,0,0,0,0,0,0,0,0,0,0,0,0,0,0,0,0,0,0,0,0,0,0,0,0,0,0,0,0,
0,0,0,0,0,0,0,0,0,0,0,0,0,0,0,0,0,0,0,0,0,0,0,0,0,0,0,0,0,0,0,0,0,0,0,0,0,0,0,0,0,0,0,0,0,0,0,0,
0,0,0,0,0,0,0,0,0,0,0,0,0,0,0,0,0,0,0,0,0,0,0,0,0,0,0,0,0,0,0,0,0,0,0,0,0,0,0,0,0,0,0,0,0,0,0,0,
0,0,0,0,0,0,0,0,0,0,0,0,0,0,0,0,0,0,0,0,0,0,0,0,0,0,0,0,0,0,0,0,0,0,0,0,0,0,0,0,0,0,0,0,0,0,0,0,
0,0,0,0,0,0,0,0,0,0,0,0,0,0,0,0,0,0,0,0,0,0,0,0,0,0,0,0,0,0,0,0,0,0,0,0,0,0,0,0,0,0,0,0,0,0,0,0,
0,0,0,0,0,0,0,0,0,0,0,0,0,0,0,0,0,0,0,0,0,0,0,0,0,0,0,0,0,0,0,0,0,0,0,0,0,0,0,0,0,0,0,0,0,0,0,0,
0,0,0,0,0,0,0,0,0,0,0,0,0,0,0,0,0,0,0,0,0,0,0,0,0,0,0,0,0,0,0,0,0,0,0,0,0,0,0,0,0,0,0,0,0,0,0,0,
0,0,0,0,0,0,0,0,0,0,0,0,0,0,0,0,0,0,0,0,0,0,0,0,0,0,0,0,0,0,0,0,0,0,0,0,0,0,0,0,0,0,0,0,0,0,0,0,
0,0,0,0,0,0,0,0,0,0,0,0,0,0,0,0,0,0,0,0,0,0,0,0,0,0,0,0,0,0,0,0,0,0,0,0,0,0,0,0,0,0,0,0,0,0,0,0,
0,0,0,0,0,0,0,0,0,0,0,0,0,0,0,0,0,0,0,0,0,0,0,0,0,0,0,0,0,0,0,0,0,0,0,0,0,0,0,0,0,0,0,0,0,0,0,0,
0,0,0,0,0,0,0,0,0,0,0,0,0,0,0,0,0,0,0,0,0,0,0,0,0,0,0,0,0,0,0,0,0,0,0,0,0,0,0,0,0,0,0,0,0,0,0,0,
0,0,0,0,0,0,0,0,0,0,0,0,0,0,0,0,0,0,0,0,0,0,0,0,0,0,0,0,0,0,0,0,0,0,0,0,0,0,0,0,0,0,0,0,0,0,0,0,
0,0,0,0,0,0,0,0,0,0,0,0,0,0,0,0,0,0,0,0,0,0,0,0,0,0,0,0,0,0,0,0,0,0,0,0,0,0,0,0,0,0,0,0,0,0,0,0,
0,0,0,0,0,0,0,0,0,0,0,0,0,0,0,0,0,0,0,0,0,0,0,0,0,0,0,0,0,0,0,0,0,0,0,0,0,0,0,0,0,0,0,0,0,0,0,0,
0,0,0,0,0,0,0,0,0,0,0,0,0,0,0,0,0,0,0,0,0,0,0,0,0,0,0,0,0,0,0,0,0,0,0,0,0,0,0,0,0,0,0,0,0,0,0,0,
0,0,0,0,0,0,0,0,0,0,0,0,0,0,0,0,0,0,0,0,0,0,0,0,0,0,0,0,0,0,0,0,0,0,0,0,0,0,0,0,0,0,0,0,0,0,0,0,
0,0,0,0,0,0,0,0,0,0,0,0,0,0,0,0,0,0,0,0,0,0,0,0,0,0,0,0,0,0,0,0,0,0,0,0,0,0,0,0,0,0,0,0,0,0,0,0,
0,0,0,0,0,0,0,0,0,0,0,0,0,0,0,0,0,0,0,0,0,0,0,0,0,0,0,0,0,0,0,0,0,0,0,0,0,0,0,0,0,0,0,0,0,0,0,0,
0,0,0,0,0,0,0,0,0,0,0,0,0,0,0,0,0,0,0,0,0,0,0,0,0,0,0,0,0,0,0,0,0,0,0,0,0,0,0,0,0,0,0,0,0,0,0,0,
0,0,0,0,0,0,0,0,0,0,0,0,0,0,0,0,0,0,0,0,0,0,0,0,0,0,0,0,0,0,0,0,0,0,0,0,0,0,0,0,0,0,0,0,0,0,0,0,
0,0,0,0,0,0,0,0,0,0,0,0,0,0,0,0,0,0,0,0,0,0,0,0,0,0,0,0,0,0,0,0,0,0,0,0,0,0,0,0,0,0,0,0,0,0,0,0,
0,0,0,0,0,0,0,0,0,0,0,0,0,0,0,0,0,0,0,0,0,0,0,0,0,0,0,0,0,0,0,0,0,0,0,0,0,0,0,0,0,0,0,0,0,0,0,0,
0,0,0,0,0,0,0,0,0,0,0,0,0,0,0,0,0,0,0,0,0,0,0,0,0,0,0,0,0,0,0,0,0,0,0,0,0,0,0,0,0,0,0,0,0,0,0,0,
0,0,0,0,0,0,0,0,0,0,0,0,0,0,0,0,0,0,0,0,0,0,0,0,0,0,0,0,0,0,0,0,0,0,0,0,0,0,0,0,0,0,0,0,0,0,0,0,
0,0,0,0,0,0,0,0,0,0,0,0,0,0,0,0,0,0,0,0,0,0,0,0,0,0,0,0,0,0,0,0,0,0,0,0,0,0,0,0,0,0,0,0,0,0,0,0,
0,0,0,0,0,0,0,0,0,0,0,0,0,0,0,0,0,0,0,0,0,0,0,0,0,0,0,0,0,0,0,0,0,0,0,0,0,0,0,0,0,0,0,0,0,0,0,0,
0,0,0,0,0,0,0,0,0,0,0,0,0,0,0,0,0,0,0,0,0,0,0,0,0,0,0,0,0,0,0,0,0,0,0,0,0,0,0,0,0,0,0,0,0,0,0,0,
0,0,0,0,0,0,0,0,0,0,0,0,0,0,0,0,0,0,0,0,0,0,0,0,0,0,0,0,0,0,0,0,0,0,0,0,0,0,0,0,0,0,0,0,0,0,0,0
 </data>
 </layer>
 <layer id="16" name="♣_Tree_lft_mdl_3+2" width="48" height="96">
  <data encoding="csv">
8621,8622,8621,8622,8621,8622,8621,8622,8621,8622,8621,8622,8621,8622,8621,8622,8621,8622,8621,8622,8621,8622,8621,8622,8621,8622,8621,8622,8621,8622,8621,8622,8621,8622,8621,8622,8621,8622,8621,8622,8621,8622,8621,8622,8621,8622,8621,8622,
8669,8668,8669,8668,8669,8668,8669,8668,8669,8668,8669,8668,8669,8668,8669,8668,8669,8668,8669,8668,8669,8668,8669,8668,8669,8668,8669,8668,8669,8668,8669,8668,8669,8668,8669,8668,8669,8668,8669,8668,8669,8668,8669,8668,8669,8668,8669,0,
8621,8622,8621,8622,8621,8622,8621,8622,8621,8622,8621,8622,8621,8622,8621,8622,8621,8622,8621,8622,8621,8622,8621,8622,8621,8622,8621,8622,8621,8622,8621,8622,8621,8622,8621,8622,8621,8622,8621,8622,8621,8622,8621,8622,8621,8622,8621,8622,
8669,8668,8669,8668,8669,8668,8669,8668,8669,8668,8669,8668,8669,8668,8669,8668,8669,8668,8669,8668,8669,8668,8669,8668,8669,8668,8669,8668,8669,8668,8669,8668,8669,8668,8669,8668,8669,8668,8669,8668,8669,8668,8669,8668,8669,8668,8669,0,
8621,8622,8621,8622,8621,8622,8621,8622,8621,8622,8621,8622,8621,8622,8621,8622,8621,8622,8621,8622,8621,8622,8621,8622,8621,8622,8621,8622,8621,8622,8621,8622,8621,8622,8621,8622,8621,8622,8621,8622,8621,8622,8621,8622,8621,8622,8621,8622,
8669,8668,8669,8668,8669,8668,8669,8668,8669,8668,8669,8668,8669,8668,8669,8668,8669,8668,8669,8668,8669,8668,8669,8668,8669,8668,8669,8668,8669,8668,8669,8668,8669,8668,8669,8668,8669,8668,8669,8668,8669,8668,8669,8668,8669,8668,8669,0,
8621,8622,8621,8622,8621,8622,8621,8622,8621,8622,8621,8622,8621,8622,8621,8622,8621,8622,8621,8622,8621,8622,8621,8622,8621,8622,8621,8622,8621,8622,8621,8622,8621,8622,8621,8622,8621,8622,8621,8622,8621,8622,8621,8622,8621,8622,8621,8622,
8669,8668,8669,8668,8669,8668,8669,8668,8669,8668,8669,8668,8669,8668,8669,8668,8669,8668,8669,8668,8669,8668,8669,8668,8669,8668,8669,8668,8669,8668,8669,8668,8669,8668,8669,8668,8669,8668,8669,8668,8669,8668,8669,8668,8669,8668,8669,0,
8621,8622,8621,8622,8621,8622,8621,8622,8621,8622,8621,8622,8621,8622,8621,8622,8621,8622,8621,8622,8621,8622,8621,8622,8621,8622,8621,8622,8621,8622,8621,8622,8621,8622,8621,8622,8621,8622,8621,8622,8621,8622,8621,8622,8621,8622,8621,8622,
8669,8668,8669,8668,8669,8668,8669,8668,8669,8668,8669,8668,8669,8668,8669,8668,8669,8668,8669,8668,8669,8668,8669,8668,8669,8668,8669,8668,8669,8668,8669,8668,8669,8668,8669,8668,8669,8668,8669,8668,8669,8668,8669,8668,8669,8668,8669,0,
8621,8622,8621,8622,8621,8622,8621,8622,8621,8622,8621,8622,8621,8622,8621,8622,8621,8622,8621,8622,8621,8622,8621,8622,8621,8622,8621,8622,8621,8622,8621,8622,8621,8622,8621,8622,8621,8622,8621,8622,8621,8622,8621,8622,8621,8622,8621,8622,
8669,8668,8669,8668,8669,8668,8669,8668,8669,8668,8669,8668,8669,8668,8669,8668,8669,8668,8669,8668,8669,8668,8669,8668,8669,8668,8669,8668,8669,8668,8669,8668,8669,8668,8669,8668,8669,8668,8669,8668,8669,8668,8669,8668,8669,8668,8669,0,
8621,8622,8621,8622,8621,8622,8621,8622,8621,8622,8621,8622,8621,8622,8621,8622,8621,8622,8621,8622,8621,8622,8621,8622,8621,8622,8621,8622,8621,8622,8621,8622,8621,8622,8621,8622,8621,8622,8621,8622,8621,8622,8621,8622,8621,8622,8621,8622,
8669,8668,8669,8668,8669,8668,8669,8668,8669,8668,8669,8668,8669,8668,8669,8668,8669,8668,8669,8668,8669,8668,8669,8668,8669,8668,8669,8668,8669,8668,8669,8668,8669,8668,8669,8668,8669,8668,8669,8668,8669,8668,8669,8668,8669,8668,8669,0,
8621,8622,8621,8622,8621,8622,8621,8622,8621,8622,8621,8622,8621,8622,8621,8622,8621,8622,8621,8622,8621,8622,8621,8622,8621,8622,8621,8622,8621,8622,8621,8622,8621,8622,8621,8622,8621,8622,8621,8622,8621,8622,8621,8622,8621,8622,8621,8622,
8669,8668,8669,8668,8669,8668,8669,8668,8669,8668,8669,8668,8669,8668,8669,8668,8669,8668,8669,8668,8669,8668,8669,8668,8669,8668,8669,8668,8669,8668,8669,8668,8669,8668,8669,8668,8669,8668,8669,8668,8669,8668,8669,8668,8669,8668,8669,0,
8621,8622,8621,8622,8621,8622,8621,8622,8621,8622,8621,8622,8621,8622,8621,8622,8621,8622,8621,8622,8621,8622,8621,8622,8621,8622,8621,8622,8621,8622,8621,8622,8621,8622,8621,8622,8621,8622,8621,8622,8621,8622,8621,8622,8621,8622,8621,8622,
8669,8668,8669,8668,8669,8668,8669,8668,8669,8668,8669,8668,8669,8668,8669,8668,8669,8668,8669,8668,8669,8668,8669,8668,8669,8668,8669,8668,8669,8668,8669,8668,8669,8668,8669,8668,8669,8668,8669,8668,8669,8668,8669,8668,8669,8668,8669,0,
8621,8622,8621,8622,8621,8622,8621,8622,8621,8622,8621,8622,8621,8622,8621,8622,8621,8622,8621,8622,8621,8622,8621,8622,8621,8622,8621,8622,8621,8622,8621,8622,8621,8622,8621,8622,8621,8622,8621,8622,8621,8622,8621,8622,8621,8622,8621,8622,
8669,8668,8669,8668,8669,8668,8669,8668,8669,8668,8669,8668,8669,8668,8669,8668,8669,8668,8669,8668,8669,8668,8669,8668,8669,8668,8669,8668,8669,8668,8669,8668,8669,8668,8669,8668,8669,8668,8669,8668,8669,8668,8669,8668,8669,8668,8669,0,
8621,8622,0,0,0,0,0,0,0,0,0,0,0,0,0,0,0,0,0,0,0,0,0,0,0,0,0,0,0,0,8621,8622,8621,8622,8621,8622,8621,8622,8621,8622,8621,8622,8621,8622,8621,8622,8621,8622,
8669,0,0,0,0,0,0,0,0,0,0,0,0,0,0,0,0,0,0,0,0,0,0,0,0,0,0,0,0,8668,8669,8668,8669,8668,8669,8668,8669,8668,8669,8668,8669,8668,8669,8668,8669,8668,8669,0,
8621,8622,0,0,0,0,0,0,0,0,0,0,0,0,0,0,0,0,0,0,0,0,0,0,0,0,0,0,0,0,8621,8622,8621,8622,8621,8622,8621,8622,8621,8622,8621,8622,8621,8622,8621,8622,8621,8622,
8669,0,0,0,0,0,0,0,0,0,0,0,0,0,0,0,0,0,0,0,0,0,0,0,0,0,0,0,0,8668,8669,8668,8669,8668,8669,8668,8669,8668,8669,8668,8669,8668,8669,8668,8669,8668,8669,0,
8621,8622,0,0,0,0,0,0,0,0,0,0,0,0,0,0,0,0,0,0,0,0,0,0,0,0,0,0,0,0,8621,8622,8621,8622,8621,8622,8621,8622,8621,8622,8621,8622,8621,8622,8621,8622,8621,8622,
8669,0,0,0,0,0,0,0,0,0,0,8621,8622,8621,8622,8621,8622,8621,8622,0,0,0,0,0,0,0,0,0,0,8668,8669,8668,8669,8668,8669,8668,8669,8668,8669,8668,8669,8668,8669,8668,8669,8668,8669,0,
0,0,0,0,0,0,0,0,0,0,8668,8669,8668,8669,8668,8669,8668,8669,0,0,0,0,0,0,8621,8622,8621,8622,8621,8622,8621,8622,8621,8622,8621,8622,8621,8622,8621,8622,8621,8622,8621,8622,8621,8622,8621,8622,
0,0,0,0,0,0,0,0,0,0,0,8621,8622,8621,8622,8621,8622,8621,8622,0,0,0,0,8668,8669,8668,8669,8668,8669,8668,8669,8668,8669,8668,8669,8668,8669,8668,8669,8668,8669,8668,8669,8668,8669,8668,8669,0,
0,0,0,0,0,0,0,0,0,0,8668,8669,8668,8669,8668,8669,8668,8669,0,0,0,0,0,0,0,0,8621,8622,8621,8622,8621,8622,8621,8622,8621,8622,8621,8622,8621,8622,8621,8622,8621,8622,8621,8622,8621,8622,
0,0,0,0,0,0,0,0,0,0,0,8621,8622,8621,8622,0,0,0,0,0,0,0,0,0,0,8668,8669,8668,8669,8668,8669,8668,8669,8668,8669,8668,8669,8668,8669,8668,8669,8668,8669,8668,8669,8668,8669,0,
0,0,0,0,0,0,0,0,0,0,8668,8669,8668,8669,0,0,0,0,0,0,0,0,0,0,0,0,0,0,0,0,8621,8622,8621,8622,8621,8622,8621,8622,8621,8622,8621,8622,8621,8622,8621,8622,8621,8622,
0,0,0,0,0,0,0,0,0,0,0,8621,8622,8621,8622,0,0,0,0,0,0,0,0,0,0,0,0,0,0,8668,8669,8668,8669,8668,8669,8668,8669,8668,8669,8668,8669,8668,8669,8668,8669,8668,8669,0,
0,0,0,0,0,0,0,0,0,0,8668,8669,8668,8669,0,0,0,0,0,0,0,0,0,0,0,0,0,0,0,0,8621,8622,8621,8622,8621,8622,8621,8622,8621,8622,8621,8622,8621,8622,8621,8622,8621,8622,
0,0,0,0,0,0,0,0,0,0,0,8621,8622,8621,8622,0,0,0,0,0,0,0,0,0,0,0,0,0,0,8668,8669,8668,8669,8668,8669,8668,8669,8668,8669,8668,8669,8668,8669,8668,8669,8668,8669,0,
0,0,0,0,0,0,0,0,0,0,8668,8669,8668,8669,0,0,0,0,0,0,0,0,0,0,0,0,0,0,0,0,8621,8622,8621,8622,8621,8622,8621,8622,8621,8622,8621,8622,8621,8622,8621,8622,8621,8622,
0,0,0,0,0,0,0,0,0,0,0,0,0,0,0,0,0,0,0,0,0,0,0,0,8621,8622,0,0,0,8668,8669,8668,8669,8668,8669,8668,8669,8668,8669,8668,8669,8668,8669,8668,8669,8668,8669,0,
0,0,0,0,0,0,0,0,0,0,0,0,0,0,0,0,0,0,0,0,0,0,0,8668,8669,0,0,0,0,0,8621,8622,8621,8622,8621,8622,8621,8622,8621,8622,8621,8622,8621,8622,8621,8622,8621,8622,
0,0,0,0,0,0,0,0,0,0,0,0,0,0,0,0,0,0,0,0,0,0,0,0,8621,8622,0,0,0,8668,8669,8668,8669,8668,8669,8668,8669,8668,8669,8668,8669,8668,8669,8668,8669,8668,8669,0,
8621,8622,0,0,0,0,0,0,0,0,0,0,0,0,0,0,0,0,0,0,0,0,0,8668,8669,0,0,0,0,0,8621,8622,8621,8622,8621,8622,8621,8622,8621,8622,8621,8622,8621,8622,8621,8622,8621,8622,
8669,0,0,0,0,0,0,0,0,0,0,8621,8622,8621,8622,8621,8622,8621,8622,0,0,0,0,0,8621,8622,0,0,0,8668,8669,8668,8669,8668,8669,8668,8669,8668,8669,8668,8669,8668,8669,8668,8669,8668,8669,0,
8621,8622,0,0,0,0,0,0,0,0,8668,8669,8668,8669,8668,8669,8668,8669,0,0,0,0,0,8668,8669,0,0,0,0,0,8621,8622,8621,8622,8621,8622,8621,8622,8621,8622,8621,8622,8621,8622,8621,8622,8621,8622,
8669,0,0,0,0,0,0,0,0,0,0,0,0,0,0,0,0,0,0,0,0,0,0,0,0,0,0,0,0,8668,8669,8668,8669,8668,8669,8668,8669,8668,8669,8668,8669,8668,8669,8668,8669,8668,8669,0,
0,0,0,0,0,0,0,0,0,0,0,0,0,0,0,0,0,0,0,0,0,0,0,0,0,0,0,0,0,0,8621,8622,8621,8622,8621,8622,8621,8622,8621,8622,8621,8622,8621,8622,8621,8622,8621,8622,
0,0,0,0,0,0,0,0,0,0,0,0,0,0,0,0,0,0,0,0,0,0,0,0,0,0,0,0,0,8668,8669,8668,8669,8668,8669,8668,8669,8668,8669,8668,8669,8668,8669,8668,8669,8668,8669,0,
0,0,0,0,0,0,0,0,0,0,0,0,0,0,0,0,0,0,0,0,0,0,0,0,0,0,0,0,0,0,8621,8622,8621,8622,8621,8622,8621,8622,8621,8622,8621,8622,8621,8622,8621,8622,8621,8622,
0,0,0,0,0,0,0,0,0,0,0,0,0,0,0,0,0,0,0,0,0,0,0,0,0,0,0,0,0,8668,8669,8668,8669,8668,8669,8668,8669,8668,8669,8668,8669,8668,8669,8668,8669,8668,8669,0,
8621,8622,8621,8622,8621,8622,8621,8622,8621,8622,8621,8622,8621,8622,8621,8622,8621,8622,8621,8622,8621,8622,8621,8622,8621,8622,8621,8622,8621,8622,8621,8622,8621,8622,8621,8622,8621,8622,8621,8622,8621,8622,8621,8622,8621,8622,8621,8622,
8669,8668,8669,8668,8669,8668,8669,8668,8669,8668,8669,8668,8669,8668,8669,8668,8669,8668,8669,8668,8669,8668,8669,8668,8669,8668,8669,8668,8669,8668,8669,8668,8669,8668,8669,8668,8669,8668,8669,8668,8669,8668,8669,8668,8669,8668,8669,0,
0,0,0,0,8621,8622,8621,8622,8621,8622,8621,8622,8621,8622,8621,8622,8621,8622,8621,8622,8621,8622,8621,8622,8621,8622,8621,8622,8621,8622,8621,8622,8621,8622,8621,8622,8621,8622,8621,8622,8621,8622,8621,8622,8621,8622,8621,8622,
0,0,0,8668,8669,8668,8669,8668,8669,8668,8669,8668,8669,8668,8669,8668,8669,8668,8669,8668,8669,8668,8669,8668,8669,8668,8669,8668,8669,8668,8669,8668,8669,8668,8669,8668,8669,8668,8669,8668,8669,8668,8669,8668,8669,8668,8669,0,
0,0,0,0,0,0,0,0,0,0,8621,8622,8621,8622,8621,8622,8621,8622,8621,8622,8621,8622,8621,8622,8621,8622,8621,8622,8621,8622,8621,8622,8621,8622,8621,8622,8621,8622,8621,8622,8621,8622,8621,8622,8621,8622,8621,8622,
0,0,0,0,0,0,0,0,0,8668,8669,8668,8669,8668,8669,8668,8669,8668,8669,8668,8669,8668,8669,8668,8669,8668,8669,8668,8669,8668,8669,8668,8669,8668,8669,8668,8669,8668,8669,8668,8669,8668,8669,8668,8669,8668,8669,0,
0,0,0,0,0,0,0,0,0,0,0,0,8621,8622,8621,8622,8621,8622,8621,8622,8621,8622,8621,8622,8621,8622,8621,8622,8621,8622,8621,8622,8621,8622,8621,8622,8621,8622,8621,8622,8621,8622,8621,8622,8621,8622,8621,8622,
0,0,0,0,0,0,0,0,0,0,0,8668,8669,8668,8669,8668,8669,8668,8669,8668,8669,8668,8669,8668,8669,8668,8669,8668,8669,8668,8669,8668,8669,8668,8669,8668,8669,8668,8669,8668,8669,8668,8669,8668,8669,8668,8669,0,
0,0,0,0,0,0,0,0,0,0,0,0,8621,8622,8621,8622,8621,8622,8621,8622,8621,8622,8621,8622,8621,8622,8621,8622,8621,8622,8621,8622,8621,8622,8621,8622,8621,8622,8621,8622,8621,8622,8621,8622,8621,8622,8621,8622,
0,0,0,0,0,0,0,0,0,0,0,8668,8669,8668,8669,8668,8669,8668,8669,8668,8669,8668,8669,8668,8669,8668,8669,8668,8669,8668,8669,8668,8669,8668,8669,8668,8669,8668,8669,8668,8669,8668,8669,8668,8669,8668,8669,0,
0,0,0,0,0,0,0,0,0,0,0,0,0,0,8621,8622,8621,8622,8621,8622,8621,8622,8621,8622,8621,8622,8621,8622,8621,8622,8621,8622,8621,8622,8621,8622,8621,8622,8621,8622,8621,8622,8621,8622,8621,8622,8621,8622,
0,0,0,0,0,0,0,0,0,0,0,0,0,8668,8669,8668,8669,8668,8669,8668,8669,8668,8669,8668,8669,8668,8669,8668,8669,8668,8669,8668,8669,8668,8669,8668,8669,8668,8669,8668,8669,8668,8669,8668,8669,8668,8669,0,
0,0,0,0,0,0,0,0,0,0,0,0,0,0,0,0,0,0,0,0,0,0,0,0,8621,8622,8621,8622,8621,8622,8621,8622,8621,8622,8621,8622,8621,8622,8621,8622,8621,8622,8621,8622,8621,8622,8621,8622,
0,0,0,0,0,0,0,0,0,0,0,0,0,0,0,0,0,0,0,0,0,0,0,8668,8669,8668,8669,8668,8669,8668,8669,8668,8669,8668,8669,8668,8669,8668,8669,8668,8669,8668,8669,8668,8669,8668,8669,0,
0,0,0,0,0,0,0,0,0,0,0,0,0,0,0,0,0,0,0,0,0,0,0,0,0,0,0,0,0,0,0,0,0,0,0,0,0,0,0,0,0,0,0,0,0,0,0,0,
0,0,0,0,0,0,0,0,0,0,0,0,0,0,0,0,0,0,0,0,0,0,0,0,0,0,0,0,0,0,0,0,0,0,0,0,0,0,0,0,0,0,0,0,0,0,0,0,
0,0,0,0,0,0,0,0,0,0,0,0,0,0,0,0,0,0,0,0,0,0,0,0,0,0,0,0,0,0,0,0,0,0,0,0,0,0,0,0,0,0,0,0,0,0,0,0,
0,0,0,0,0,0,0,0,0,0,0,0,0,0,0,0,0,0,0,0,0,0,0,0,0,0,0,0,0,0,0,0,0,0,0,0,0,0,0,0,0,0,0,0,0,0,0,0,
0,0,0,0,0,0,0,0,0,0,0,0,0,0,0,0,0,0,0,0,0,0,0,0,0,0,0,0,0,0,0,0,0,0,0,0,0,0,0,0,0,0,0,0,0,0,0,0,
0,0,0,0,0,0,0,0,0,0,0,0,0,0,0,0,0,0,0,0,0,0,0,0,0,0,0,0,0,0,0,0,0,0,0,0,0,0,0,0,0,0,0,0,0,0,0,0,
0,0,0,0,0,0,0,0,0,0,0,0,0,0,0,0,0,0,0,0,0,0,0,0,0,0,0,0,0,0,0,0,0,0,0,0,0,0,0,0,0,0,0,0,0,0,0,0,
0,0,0,0,0,0,0,0,0,0,0,0,0,0,0,0,0,0,0,0,0,0,0,0,0,0,0,0,0,0,0,0,0,0,0,0,0,0,0,0,0,0,0,0,0,0,0,0,
0,0,0,0,0,0,0,0,0,0,0,0,0,0,0,0,0,0,0,0,0,0,0,0,0,0,0,0,0,0,0,0,0,0,0,0,0,0,0,0,0,0,0,0,0,0,0,0,
0,0,0,0,0,0,0,0,0,0,0,0,0,0,0,0,0,0,0,0,0,0,0,0,0,0,0,0,0,0,0,0,0,0,0,0,0,0,0,0,0,0,0,0,0,0,0,0,
0,0,0,0,0,0,0,0,0,0,0,0,0,0,0,0,0,0,0,0,0,0,0,0,0,0,0,0,0,0,0,0,0,0,0,0,0,0,0,0,0,0,0,0,0,0,0,0,
0,0,0,0,0,0,0,0,0,0,0,0,0,0,0,0,0,0,0,0,0,0,0,0,0,0,0,0,0,0,0,0,0,0,0,0,0,0,0,0,0,0,0,0,0,0,0,0,
0,0,0,0,0,0,0,0,0,0,0,0,0,0,0,0,0,0,0,0,0,0,0,0,0,0,0,0,0,0,0,0,0,0,0,0,0,0,0,0,0,0,0,0,0,0,0,0,
0,0,0,0,0,0,0,0,0,0,0,0,0,0,0,0,0,0,0,0,0,0,0,0,0,0,0,0,0,0,0,0,0,0,0,0,0,0,0,0,0,0,0,0,0,0,0,0,
0,0,0,0,0,0,0,0,0,0,0,0,0,0,0,0,0,0,0,0,0,0,0,0,0,0,0,0,0,0,0,0,0,0,0,0,0,0,0,0,0,0,0,0,0,0,0,0,
0,0,0,0,0,0,0,0,0,0,0,0,0,0,0,0,0,0,0,0,0,0,0,0,0,0,0,0,0,0,0,0,0,0,0,0,0,0,0,0,0,0,0,0,0,0,0,0,
0,0,0,0,0,0,0,0,0,0,0,0,0,0,0,0,0,0,0,0,0,0,0,0,0,0,0,0,0,0,0,0,0,0,0,0,0,0,0,0,0,0,0,0,0,0,0,0,
0,0,0,0,0,0,0,0,0,0,0,0,0,0,0,0,0,0,0,0,0,0,0,0,0,0,0,0,0,0,0,0,0,0,0,0,0,0,0,0,0,0,0,0,0,0,0,0,
0,0,0,0,0,0,0,0,0,0,0,0,0,0,0,0,0,0,0,0,0,0,0,0,0,0,0,0,0,0,0,0,0,0,0,0,0,0,0,0,0,0,0,0,0,0,0,0,
0,0,0,0,0,0,0,0,0,0,0,0,0,0,0,0,0,0,0,0,0,0,0,0,0,0,0,0,0,0,0,0,0,0,0,0,0,0,0,0,0,0,0,0,0,0,0,0,
0,0,0,0,0,0,0,0,0,0,0,0,0,0,0,0,0,0,0,0,0,0,0,0,0,0,0,0,0,0,0,0,0,0,0,0,0,0,0,0,0,0,0,0,0,0,0,0,
0,0,0,0,0,0,0,0,0,0,0,0,0,0,0,0,0,0,0,0,0,0,0,0,0,0,0,0,0,0,0,0,0,0,0,0,0,0,0,0,0,0,0,0,0,0,0,0,
0,0,0,0,0,0,0,0,0,0,0,0,0,0,0,0,0,0,0,0,0,0,0,0,0,0,0,0,0,0,0,0,0,0,0,0,0,0,0,0,0,0,0,0,0,0,0,0,
0,0,0,0,0,0,0,0,0,0,0,0,0,0,0,0,0,0,0,0,0,0,0,0,0,0,0,0,0,0,0,0,0,0,0,0,0,0,0,0,0,0,0,0,0,0,0,0,
0,0,0,0,0,0,0,0,0,0,0,0,0,0,0,0,0,0,0,0,0,0,0,0,0,0,0,0,0,0,0,0,0,0,0,0,0,0,0,0,0,0,0,0,0,0,0,0,
0,0,0,0,0,0,0,0,0,0,0,0,0,0,0,0,0,0,0,0,0,0,0,0,0,0,0,0,0,0,0,0,0,0,0,0,0,0,0,0,0,0,0,0,0,0,0,0,
0,0,0,0,0,0,0,0,0,0,0,0,0,0,0,0,0,0,0,0,0,0,0,0,0,0,0,0,0,0,0,0,0,0,0,0,0,0,0,0,0,0,0,0,0,0,0,0,
0,0,0,0,0,0,0,0,0,0,0,0,0,0,0,0,0,0,0,0,0,0,0,0,0,0,0,0,0,0,0,0,0,0,0,0,0,0,0,0,0,0,0,0,0,0,0,0,
0,0,0,0,0,0,0,0,0,0,0,0,0,0,0,0,0,0,0,0,0,0,0,0,0,0,0,0,0,0,0,0,0,0,0,0,0,0,0,0,0,0,0,0,0,0,0,0,
0,0,0,0,0,0,0,0,0,0,0,0,0,0,0,0,0,0,0,0,0,0,0,0,0,0,0,0,0,0,0,0,0,0,0,0,0,0,0,0,0,0,0,0,0,0,0,0,
0,0,0,0,0,0,0,0,0,0,0,0,0,0,0,0,0,0,0,0,0,0,0,0,0,0,0,0,0,0,0,0,0,0,0,0,0,0,0,0,0,0,0,0,0,0,0,0,
0,0,0,0,0,0,0,0,0,0,0,0,0,0,0,0,0,0,0,0,0,0,0,0,0,0,0,0,0,0,0,0,0,0,0,0,0,0,0,0,0,0,0,0,0,0,0,0,
0,0,0,0,0,0,0,0,0,0,0,0,0,0,0,0,0,0,0,0,0,0,0,0,0,0,0,0,0,0,0,0,0,0,0,0,0,0,0,0,0,0,0,0,0,0,0,0,
0,0,0,0,0,0,0,0,0,0,0,0,0,0,0,0,0,0,0,0,0,0,0,0,0,0,0,0,0,0,0,0,0,0,0,0,0,0,0,0,0,0,0,0,0,0,0,0,
0,0,0,0,0,0,0,0,0,0,0,0,0,0,0,0,0,0,0,0,0,0,0,0,0,0,0,0,0,0,0,0,0,0,0,0,0,0,0,0,0,0,0,0,0,0,0,0,
0,0,0,0,0,0,0,0,0,0,0,0,0,0,0,0,0,0,0,0,0,0,0,0,0,0,0,0,0,0,0,0,0,0,0,0,0,0,0,0,0,0,0,0,0,0,0,0
 </data>
 </layer>
 <group id="3" name="Z=1"/>
 <group id="2" name="Z=2"/>
 <group id="48" name="Z=3"/>
 <group id="49" name="Z=4"/>
 <layer id="1" name="Borders" width="48" height="96" visible="0">
  <data encoding="csv">
0,0,0,0,0,0,0,0,0,0,0,0,0,0,0,0,0,0,0,0,0,0,0,0,0,0,0,0,0,0,0,0,0,0,0,0,0,0,0,0,0,0,0,0,0,0,0,0,
0,0,0,0,0,0,0,0,0,0,0,0,0,0,0,0,0,0,0,0,0,0,0,0,0,0,0,0,0,0,0,0,0,0,0,0,0,0,0,0,0,0,0,0,0,0,0,0,
0,0,0,0,0,0,0,0,0,0,0,0,0,0,0,0,0,0,0,0,0,0,0,0,0,0,0,0,0,0,0,0,0,0,0,0,0,0,0,0,0,0,0,0,0,0,0,0,
0,0,0,0,0,0,0,0,0,0,0,0,0,0,0,0,0,0,0,0,0,0,0,0,0,0,0,0,0,0,0,0,0,0,0,0,0,0,0,0,0,0,0,0,0,0,0,0,
0,0,0,0,0,0,0,0,0,0,0,0,0,0,0,0,0,0,0,0,0,0,0,0,0,0,0,0,0,0,0,0,0,0,0,0,0,0,0,0,0,0,0,0,0,0,0,0,
0,0,0,0,0,0,0,0,0,0,0,0,0,0,0,0,0,0,0,0,0,0,0,0,0,0,0,0,0,0,0,0,0,0,0,0,0,0,0,0,0,0,0,0,0,0,0,0,
0,0,0,0,0,0,0,0,0,0,0,0,0,0,0,0,0,0,0,0,0,0,0,0,0,0,0,0,0,0,0,0,0,0,0,0,0,0,0,0,0,0,0,0,0,0,0,0,
0,0,0,0,0,0,0,0,0,0,0,0,0,0,0,0,0,0,0,0,0,0,0,0,0,0,0,0,0,0,0,0,0,0,0,0,0,0,0,0,0,0,0,0,0,0,0,0,
0,0,0,0,0,0,0,0,0,0,0,0,0,0,0,0,0,0,0,0,0,0,0,0,0,0,0,0,0,0,0,0,0,0,0,0,0,0,0,0,0,0,0,0,0,0,0,0,
0,0,0,0,0,0,0,0,0,0,0,0,0,0,0,0,0,0,0,0,0,0,0,0,0,0,0,0,0,0,0,0,0,0,0,0,0,0,0,0,0,0,0,0,0,0,0,0,
0,0,0,0,0,0,0,0,0,0,0,0,0,0,0,0,0,0,0,0,0,0,0,0,0,0,0,0,0,0,0,0,0,0,0,0,0,0,0,0,0,0,0,0,0,0,0,0,
0,0,0,0,0,0,0,0,0,0,0,0,0,0,0,0,0,0,0,0,0,0,0,0,0,0,0,0,0,0,0,0,0,0,0,0,0,0,0,0,0,0,0,0,0,0,0,0,
0,0,0,0,0,0,0,0,0,0,0,0,0,0,0,0,0,0,0,0,0,0,0,0,0,0,0,0,0,0,0,0,0,0,0,0,0,0,0,0,0,0,0,0,0,0,0,0,
0,0,0,0,0,0,0,0,0,0,0,0,0,0,0,0,0,0,0,0,0,0,0,0,0,0,0,0,0,0,0,0,0,0,0,0,0,0,0,0,0,0,0,0,0,0,0,0,
0,0,0,0,0,0,0,0,0,0,0,0,0,0,0,0,0,0,0,0,0,0,0,0,0,0,0,0,0,0,0,0,0,0,0,0,0,0,0,0,0,0,0,0,0,0,0,0,
0,0,0,0,0,0,0,0,0,0,0,0,0,0,0,0,0,0,0,0,0,0,0,0,0,0,0,0,0,0,0,0,0,0,0,0,0,0,0,0,0,0,0,0,0,0,0,0,
1,2,2,2,2,2,2,2,2,2,2,2,2,2,2,2,2,2,2,2,2,2,2,2,2,2,2,2,2,2,2,3,0,0,0,0,0,0,0,0,0,0,0,0,0,0,0,0,
21,0,0,0,0,0,0,0,0,0,0,0,0,0,0,0,0,0,0,0,0,0,0,0,0,0,0,0,0,0,22,23,0,0,0,0,0,0,0,0,0,0,0,0,0,0,0,0,
21,0,0,0,0,0,0,0,0,0,0,0,0,0,0,0,0,0,0,0,0,0,0,0,0,0,0,0,0,0,0,23,0,0,0,0,0,0,0,0,0,0,0,0,0,0,0,0,
21,0,0,0,0,0,0,0,0,0,0,0,0,0,0,0,0,0,0,0,0,0,0,0,0,0,0,0,0,0,0,23,0,0,0,0,0,0,0,0,0,0,0,0,0,0,0,0,
21,0,0,0,0,0,0,0,0,0,0,0,0,0,0,0,0,0,0,0,0,0,0,0,0,0,0,0,0,0,0,23,0,0,0,0,0,0,0,0,0,0,0,0,0,0,0,0,
21,0,0,0,0,0,0,0,0,0,0,0,0,0,0,0,0,0,0,0,0,0,0,0,0,0,0,0,0,0,0,23,0,0,0,0,0,0,0,0,0,0,0,0,0,0,0,0,
21,0,0,0,0,0,0,0,0,0,0,0,0,0,0,0,0,0,0,0,0,0,0,0,0,0,0,0,0,0,0,23,0,0,0,0,0,0,0,0,0,0,0,0,0,0,0,0,
21,0,0,0,0,0,0,0,0,0,0,0,0,0,0,0,0,0,0,0,0,0,0,0,0,0,0,0,0,0,0,23,0,0,0,0,0,0,0,0,0,0,0,0,0,0,0,0,
21,0,0,0,0,0,0,0,0,0,0,0,0,0,0,0,0,0,0,0,0,0,0,0,0,0,0,0,0,0,0,23,0,0,0,0,0,0,0,0,0,0,0,0,0,0,0,0,
21,0,0,0,0,0,0,0,0,0,0,0,0,0,0,0,0,0,0,0,0,0,0,0,0,0,0,0,0,0,0,23,0,0,0,0,0,0,0,0,0,0,0,0,0,0,0,0,
21,0,0,0,0,0,0,0,0,0,0,0,0,0,0,0,0,0,0,0,0,0,0,0,0,0,0,0,0,0,0,23,0,0,0,0,0,0,0,0,0,0,0,0,0,0,0,0,
21,0,0,0,0,0,0,0,0,0,0,0,0,0,0,0,0,0,0,0,0,0,0,0,0,0,0,0,0,0,0,23,0,0,0,0,0,0,0,0,0,0,0,0,0,0,0,0,
21,0,0,0,0,0,0,0,0,0,0,0,0,0,0,0,0,0,0,0,0,0,0,0,0,0,0,0,0,0,0,23,0,0,0,0,0,0,0,0,0,0,0,0,0,0,0,0,
21,0,0,0,0,0,0,0,0,0,0,0,0,0,0,0,0,0,0,0,0,0,0,0,0,0,0,0,0,0,0,23,0,0,0,0,0,0,0,0,0,0,0,0,0,0,0,0,
21,0,0,0,0,0,0,0,0,0,0,0,0,0,0,0,0,0,0,0,0,0,0,0,0,0,0,0,0,0,0,23,0,0,0,0,0,0,0,0,0,0,0,0,0,0,0,0,
21,0,0,0,0,0,0,0,0,0,0,0,0,0,0,0,0,0,0,0,0,0,0,0,0,0,0,0,0,0,0,23,0,0,0,0,0,0,0,0,0,0,0,0,0,0,0,0,
21,0,0,0,0,0,0,0,0,0,0,0,0,0,0,0,0,0,0,0,0,0,0,0,0,0,0,0,0,0,0,23,0,0,0,0,0,0,0,0,0,0,0,0,0,0,0,0,
21,0,0,0,0,0,0,0,0,0,0,0,0,0,0,0,0,0,0,0,0,0,0,0,0,0,0,0,0,0,0,23,0,0,0,0,0,0,0,0,0,0,0,0,0,0,0,0,
21,0,0,0,0,0,0,0,0,0,0,0,0,0,0,0,0,0,0,0,0,0,0,0,0,0,0,0,0,0,0,23,0,0,0,0,0,0,0,0,0,0,0,0,0,0,0,0,
21,0,0,0,0,0,0,0,0,0,0,0,0,0,0,0,0,0,0,0,0,0,0,0,0,0,0,0,0,0,0,23,0,0,0,0,0,0,0,0,0,0,0,0,0,0,0,0,
21,0,0,0,0,0,0,0,0,0,0,0,0,0,0,0,0,0,0,0,0,0,0,0,0,0,0,0,0,0,0,23,0,0,0,0,0,0,0,0,0,0,0,0,0,0,0,0,
21,0,0,0,0,0,0,0,0,0,0,0,0,0,0,0,0,0,0,0,0,0,0,0,0,0,0,0,0,0,0,23,0,0,0,0,0,0,0,0,0,0,0,0,0,0,0,0,
21,0,0,0,0,0,0,0,0,0,0,0,0,0,0,0,0,0,0,0,0,0,0,0,0,0,0,0,0,0,0,23,0,0,0,0,0,0,0,0,0,0,0,0,0,0,0,0,
21,0,0,0,0,0,0,0,0,0,0,0,0,0,0,0,0,0,0,0,0,0,0,0,0,0,0,0,0,0,0,23,0,0,0,0,0,0,0,0,0,0,0,0,0,0,0,0,
21,0,0,0,0,0,0,0,0,0,0,0,0,0,0,0,0,0,0,0,0,0,0,0,0,0,0,0,0,0,0,23,0,0,0,0,0,0,0,0,0,0,0,0,0,0,0,0,
21,0,0,0,0,0,0,0,0,0,0,0,0,0,0,0,0,0,0,0,0,0,0,0,0,0,0,0,0,0,0,23,0,0,0,0,0,0,0,0,0,0,0,0,0,0,0,0,
21,0,0,0,0,0,0,0,0,0,0,0,0,0,0,0,0,0,0,0,0,0,0,0,0,0,0,0,0,0,0,23,0,0,0,0,0,0,0,0,0,0,0,0,0,0,0,0,
21,0,0,0,0,0,0,0,0,0,0,0,0,0,0,0,0,0,0,0,0,0,0,0,0,0,0,0,0,0,0,23,0,0,0,0,0,0,0,0,0,0,0,0,0,0,0,0,
21,0,0,0,0,0,0,0,0,0,0,0,0,0,0,0,0,0,0,0,0,0,0,0,0,0,0,0,0,0,0,23,0,0,0,0,0,0,0,0,0,0,0,0,0,0,0,0,
21,0,0,0,0,0,0,0,0,0,0,0,0,0,0,0,0,0,0,0,0,0,0,0,0,0,0,0,0,0,0,23,0,0,0,0,0,0,0,0,0,0,0,0,0,0,0,0,
21,0,0,0,0,0,0,0,0,0,0,0,0,0,0,0,0,0,0,0,0,0,0,0,0,0,0,0,0,0,0,23,0,0,0,0,0,0,0,0,0,0,0,0,0,0,0,0,
41,42,42,42,42,42,42,42,42,42,42,42,42,42,42,42,42,42,42,42,42,42,42,42,42,42,42,42,42,42,42,43,0,0,0,0,0,0,0,0,0,0,0,0,0,0,0,0,
0,0,0,0,0,0,0,0,0,0,0,0,0,0,0,0,0,0,0,0,0,0,0,0,0,0,0,0,0,0,0,0,0,0,0,0,0,0,0,0,0,0,0,0,0,0,0,0,
0,0,0,0,0,0,0,0,0,0,0,0,0,0,0,0,0,0,0,0,0,0,0,0,0,0,0,0,0,0,0,0,0,0,0,0,0,0,0,0,0,0,0,0,0,0,0,0,
0,0,0,0,0,0,0,0,0,0,0,0,0,0,0,0,0,0,0,0,0,0,0,0,0,0,0,0,0,0,0,0,0,0,0,0,0,0,0,0,0,0,0,0,0,0,0,0,
0,0,0,0,0,0,0,0,0,0,0,0,0,0,0,0,0,0,0,0,0,0,0,0,0,0,0,0,0,0,0,0,0,0,0,0,0,0,0,0,0,0,0,0,0,0,0,0,
0,0,0,0,0,0,0,0,0,0,0,0,0,0,0,0,0,0,0,0,0,0,0,0,0,0,0,0,0,0,0,0,0,0,0,0,0,0,0,0,0,0,0,0,0,0,0,0,
0,0,0,0,0,0,0,0,0,0,0,0,0,0,0,0,0,0,0,0,0,0,0,0,0,0,0,0,0,0,0,0,0,0,0,0,0,0,0,0,0,0,0,0,0,0,0,0,
0,0,0,0,0,0,0,0,0,0,0,0,0,0,0,0,0,0,0,0,0,0,0,0,0,0,0,0,0,0,0,0,0,0,0,0,0,0,0,0,0,0,0,0,0,0,0,0,
0,0,0,0,0,0,0,0,0,0,0,0,0,0,0,0,0,0,0,0,0,0,0,0,0,0,0,0,0,0,0,0,0,0,0,0,0,0,0,0,0,0,0,0,0,0,0,0,
0,0,0,0,0,0,0,0,0,0,0,0,0,0,0,0,0,0,0,0,0,0,0,0,0,0,0,0,0,0,0,0,0,0,0,0,0,0,0,0,0,0,0,0,0,0,0,0,
0,0,0,0,0,0,0,0,0,0,0,0,0,0,0,0,0,0,0,0,0,0,0,0,0,0,0,0,0,0,0,0,0,0,0,0,0,0,0,0,0,0,0,0,0,0,0,0,
0,0,0,0,0,0,0,0,0,0,0,0,0,0,0,0,0,0,0,0,0,0,0,0,0,0,0,0,0,0,0,0,0,0,0,0,0,0,0,0,0,0,0,0,0,0,0,0,
0,0,0,0,0,0,0,0,0,0,0,0,0,0,0,0,0,0,0,0,0,0,0,0,0,0,0,0,0,0,0,0,0,0,0,0,0,0,0,0,0,0,0,0,0,0,0,0,
0,0,0,0,0,0,0,0,0,0,0,0,0,0,0,0,0,0,0,0,0,0,0,0,0,0,0,0,0,0,0,0,0,0,0,0,0,0,0,0,0,0,0,0,0,0,0,0,
0,0,0,0,0,0,0,0,0,0,0,0,0,0,0,0,0,0,0,0,0,0,0,0,0,0,0,0,0,0,0,0,0,0,0,0,0,0,0,0,0,0,0,0,0,0,0,0,
0,0,0,0,0,0,0,0,0,0,0,0,0,0,0,0,0,0,0,0,0,0,0,0,0,0,0,0,0,0,0,0,0,0,0,0,0,0,0,0,0,0,0,0,0,0,0,0,
0,0,0,0,0,0,0,0,0,0,0,0,0,0,0,0,0,0,0,0,0,0,0,0,0,0,0,0,0,0,0,0,0,0,0,0,0,0,0,0,0,0,0,0,0,0,0,0,
0,0,0,0,0,0,0,0,0,0,0,0,0,0,0,0,0,0,0,0,0,0,0,0,0,0,0,0,0,0,0,0,0,0,0,0,0,0,0,0,0,0,0,0,0,0,0,0,
0,0,0,0,0,0,0,0,0,0,0,0,0,0,0,0,0,0,0,0,0,0,0,0,0,0,0,0,0,0,0,0,0,0,0,0,0,0,0,0,0,0,0,0,0,0,0,0,
0,0,0,0,0,0,0,0,0,0,0,0,0,0,0,0,0,0,0,0,0,0,0,0,0,0,0,0,0,0,0,0,0,0,0,0,0,0,0,0,0,0,0,0,0,0,0,0,
0,0,0,0,0,0,0,0,0,0,0,0,0,0,0,0,0,0,0,0,0,0,0,0,0,0,0,0,0,0,0,0,0,0,0,0,0,0,0,0,0,0,0,0,0,0,0,0,
0,0,0,0,0,0,0,0,0,0,0,0,0,0,0,0,0,0,0,0,0,0,0,0,0,0,0,0,0,0,0,0,0,0,0,0,0,0,0,0,0,0,0,0,0,0,0,0,
0,0,0,0,0,0,0,0,0,0,0,0,0,0,0,0,0,0,0,0,0,0,0,0,0,0,0,0,0,0,0,0,0,0,0,0,0,0,0,0,0,0,0,0,0,0,0,0,
0,0,0,0,0,0,0,0,0,0,0,0,0,0,0,0,0,0,0,0,0,0,0,0,0,0,0,0,0,0,0,0,0,0,0,0,0,0,0,0,0,0,0,0,0,0,0,0,
0,0,0,0,0,0,0,0,0,0,0,0,0,0,0,0,0,0,0,0,0,0,0,0,0,0,0,0,0,0,0,0,0,0,0,0,0,0,0,0,0,0,0,0,0,0,0,0,
0,0,0,0,0,0,0,0,0,0,0,0,0,0,0,0,0,0,0,0,0,0,0,0,0,0,0,0,0,0,0,0,0,0,0,0,0,0,0,0,0,0,0,0,0,0,0,0,
0,0,0,0,0,0,0,0,0,0,0,0,0,0,0,0,0,0,0,0,0,0,0,0,0,0,0,0,0,0,0,0,0,0,0,0,0,0,0,0,0,0,0,0,0,0,0,0,
0,0,0,0,0,0,0,0,0,0,0,0,0,0,0,0,0,0,0,0,0,0,0,0,0,0,0,0,0,0,0,0,0,0,0,0,0,0,0,0,0,0,0,0,0,0,0,0,
0,0,0,0,0,0,0,0,0,0,0,0,0,0,0,0,0,0,0,0,0,0,0,0,0,0,0,0,0,0,0,0,0,0,0,0,0,0,0,0,0,0,0,0,0,0,0,0,
0,0,0,0,0,0,0,0,0,0,0,0,0,0,0,0,0,0,0,0,0,0,0,0,0,0,0,0,0,0,0,0,0,0,0,0,0,0,0,0,0,0,0,0,0,0,0,0,
0,0,0,0,0,0,0,0,0,0,0,0,0,0,0,0,0,0,0,0,0,0,0,0,0,0,0,0,0,0,0,0,0,0,0,0,0,0,0,0,0,0,0,0,0,0,0,0,
0,0,0,0,0,0,0,0,0,0,0,0,0,0,0,0,0,0,0,0,0,0,0,0,0,0,0,0,0,0,0,0,0,0,0,0,0,0,0,0,0,0,0,0,0,0,0,0,
0,0,0,0,0,0,0,0,0,0,0,0,0,0,0,0,0,0,0,0,0,0,0,0,0,0,0,0,0,0,0,0,0,0,0,0,0,0,0,0,0,0,0,0,0,0,0,0,
0,0,0,0,0,0,0,0,0,0,0,0,0,0,0,0,0,0,0,0,0,0,0,0,0,0,0,0,0,0,0,0,0,0,0,0,0,0,0,0,0,0,0,0,0,0,0,0,
0,0,0,0,0,0,0,0,0,0,0,0,0,0,0,0,0,0,0,0,0,0,0,0,0,0,0,0,0,0,0,0,0,0,0,0,0,0,0,0,0,0,0,0,0,0,0,0,
0,0,0,0,0,0,0,0,0,0,0,0,0,0,0,0,0,0,0,0,0,0,0,0,0,0,0,0,0,0,0,0,0,0,0,0,0,0,0,0,0,0,0,0,0,0,0,0,
0,0,0,0,0,0,0,0,0,0,0,0,0,0,0,0,0,0,0,0,0,0,0,0,0,0,0,0,0,0,0,0,0,0,0,0,0,0,0,0,0,0,0,0,0,0,0,0,
0,0,0,0,0,0,0,0,0,0,0,0,0,0,0,0,0,0,0,0,0,0,0,0,0,0,0,0,0,0,0,0,0,0,0,0,0,0,0,0,0,0,0,0,0,0,0,0,
0,0,0,0,0,0,0,0,0,0,0,0,0,0,0,0,0,0,0,0,0,0,0,0,0,0,0,0,0,0,0,0,0,0,0,0,0,0,0,0,0,0,0,0,0,0,0,0,
0,0,0,0,0,0,0,0,0,0,0,0,0,0,0,0,0,0,0,0,0,0,0,0,0,0,0,0,0,0,0,0,0,0,0,0,0,0,0,0,0,0,0,0,0,0,0,0,
0,0,0,0,0,0,0,0,0,0,0,0,0,0,0,0,0,0,0,0,0,0,0,0,0,0,0,0,0,0,0,0,0,0,0,0,0,0,0,0,0,0,0,0,0,0,0,0,
0,0,0,0,0,0,0,0,0,0,0,0,0,0,0,0,0,0,0,0,0,0,0,0,0,0,0,0,0,0,0,0,0,0,0,0,0,0,0,0,0,0,0,0,0,0,0,0,
0,0,0,0,0,0,0,0,0,0,0,0,0,0,0,0,0,0,0,0,0,0,0,0,0,0,0,0,0,0,0,0,0,0,0,0,0,0,0,0,0,0,0,0,0,0,0,0,
0,0,0,0,0,0,0,0,0,0,0,0,0,0,0,0,0,0,0,0,0,0,0,0,0,0,0,0,0,0,0,0,0,0,0,0,0,0,0,0,0,0,0,0,0,0,0,0,
0,0,0,0,0,0,0,0,0,0,0,0,0,0,0,0,0,0,0,0,0,0,0,0,0,0,0,0,0,0,0,0,0,0,0,0,0,0,0,0,0,0,0,0,0,0,0,0,
0,0,0,0,0,0,0,0,0,0,0,0,0,0,0,0,0,0,0,0,0,0,0,0,0,0,0,0,0,0,0,0,0,0,0,0,0,0,0,0,0,0,0,0,0,0,0,0,
0,0,0,0,0,0,0,0,0,0,0,0,0,0,0,0,0,0,0,0,0,0,0,0,0,0,0,0,0,0,0,0,0,0,0,0,0,0,0,0,0,0,0,0,0,0,0,0,
0,0,0,0,0,0,0,0,0,0,0,0,0,0,0,0,0,0,0,0,0,0,0,0,0,0,0,0,0,0,0,0,0,0,0,0,0,0,0,0,0,0,0,0,0,0,0,0,
0,0,0,0,0,0,0,0,0,0,0,0,0,0,0,0,0,0,0,0,0,0,0,0,0,0,0,0,0,0,0,0,0,0,0,0,0,0,0,0,0,0,0,0,0,0,0,0
</data>
 </layer>
</group>
</map>
