<?xml version="1.0" encoding="UTF-8"?>
<map version="1.10" tiledversion="1.10.2" orientation="orthogonal" renderorder="right-down" compressionlevel="0" width="76" height="62" tilewidth="32" tileheight="32" infinite="0" nextlayerid="4" nextobjectid="1">
 <tileset firstgid="1" source="RMXP-KANTO50S_OUT.tsx"/>
 <tileset firstgid="2225" source="RMXP-auto-hgss-sea.tsx"/>
 <tileset firstgid="2273" source="RMXP-auto-noanimsea.tsx"/>
 <tileset firstgid="2321" source="RMXP-auto-a-beach.tsx"/>
 <tileset firstgid="2369" source="RMXP-auto-a-flowred.tsx"/>
 <tileset firstgid="2417" source="RMXP-auto-a-flow.tsx"/>
 <tileset firstgid="2465" source="RMXP-auto-land2-2.tsx"/>
 <tileset firstgid="2513" source="RMXP-auto-still.tsx"/>
 <layer id="1" name="lower" width="76" height="62">
  <data encoding="csv">
0,0,0,0,0,0,0,0,0,4,3,3,3,3,3,3,3,3,3,3,3,3,3,3,3,3,3,3,3,3,3,3,3,3,3,3,4,162,163,163,164,4,4,3,3,3,3,3,3,3,3,3,3,3,3,3,3,3,3,3,3,3,3,3,3,3,3,0,0,0,0,0,0,0,0,0,
0,0,0,0,0,0,0,0,0,4,3,3,3,3,3,3,3,3,3,3,3,3,3,3,3,3,3,3,3,3,3,3,3,3,3,3,4,162,163,163,164,4,4,3,3,3,3,3,3,3,3,3,3,3,3,3,3,3,3,3,3,3,3,3,3,3,3,0,0,0,0,0,0,0,0,0,
0,0,0,0,0,0,0,0,0,4,3,3,3,3,3,3,3,3,3,3,3,3,3,3,3,3,3,3,3,3,3,3,3,3,3,3,4,162,163,163,164,4,4,3,3,3,3,3,3,3,3,3,3,3,3,3,3,3,3,3,3,3,3,3,3,3,3,0,0,0,0,0,0,0,0,0,
0,0,0,0,0,0,0,0,0,4,3,3,3,3,3,3,3,3,3,3,3,3,3,3,3,3,3,3,3,3,4,4,4,4,4,4,4,162,163,163,164,4,4,4,4,4,4,4,4,4,4,3,3,3,3,3,3,3,3,3,3,3,3,3,3,3,3,0,0,0,0,0,0,0,0,0,
0,0,0,0,0,0,0,0,0,4,3,3,3,3,3,3,3,3,3,3,3,3,3,3,3,3,3,3,3,3,4,24,4,40,4,3,3,162,163,163,164,4,4,3,24,3,40,5,5,4,4,3,3,3,3,3,3,3,3,3,3,3,3,3,3,3,3,0,0,0,0,0,0,0,0,0,
0,0,0,0,32,40,32,40,32,40,32,40,32,40,32,40,32,40,32,40,32,40,32,40,32,40,32,40,32,40,32,40,32,40,32,40,3,162,163,163,164,4,32,40,32,40,32,40,32,40,32,40,32,40,32,40,32,40,32,40,32,40,32,40,32,40,32,0,0,0,0,0,0,0,0,0,
0,0,0,0,40,32,40,32,40,32,40,32,40,32,40,32,40,32,40,32,40,32,40,32,40,32,40,32,40,32,40,32,40,32,40,32,4,162,163,163,164,4,40,32,40,32,40,32,40,32,40,32,40,32,40,32,40,32,40,32,40,32,40,32,40,32,40,0,0,0,0,0,0,0,0,0,
0,0,0,0,32,40,32,40,32,40,32,40,32,40,32,40,32,40,32,40,32,40,32,40,32,40,32,40,32,32,6,6,6,6,6,6,4,162,163,163,164,4,6,6,6,6,6,6,6,40,32,40,32,40,32,40,32,40,32,40,32,40,32,40,32,40,32,4,4,4,0,0,0,0,0,0,
0,0,0,0,40,32,40,32,40,32,40,32,40,32,40,32,40,32,40,6,6,6,6,6,6,6,6,6,6,6,6,6,6,6,6,6,4,162,163,163,164,4,6,6,6,6,6,6,6,6,6,6,6,6,6,6,6,6,40,32,40,32,40,32,40,32,40,4,4,4,0,0,0,0,0,0,
0,0,0,0,32,40,32,40,32,40,32,40,32,40,32,40,32,40,329,330,330,330,330,330,330,330,330,330,330,330,330,330,330,330,330,330,330,330,330,330,330,330,330,330,330,330,330,330,330,330,330,330,330,330,330,330,330,331,32,40,32,40,32,40,32,40,32,4,4,4,0,0,0,0,0,0,
0,0,0,0,5,24,5,24,5,5,24,5,24,5,5,24,5,24,337,334,335,335,335,335,335,335,335,335,335,335,335,335,335,335,335,335,335,335,335,335,335,335,335,335,335,335,335,335,335,335,335,335,335,335,335,335,336,339,5,24,5,24,5,5,24,5,24,5,4,4,0,0,0,0,0,0,
0,0,0,0,24,3,4,3,4,24,3,4,3,4,24,3,4,3,337,334,343,343,343,343,343,343,343,343,343,343,343,343,343,343,343,343,344,4,4,4,4,342,343,343,343,343,343,343,343,343,343,343,343,343,343,343,336,339,24,3,4,3,4,24,3,4,3,4,4,4,0,0,0,0,0,0,
0,0,0,0,5,24,5,24,5,5,24,5,24,5,5,24,5,24,337,342,343,343,343,343,343,343,343,343,343,343,343,343,343,343,343,343,344,342,343,343,344,342,343,343,343,343,343,343,343,343,343,343,343,343,343,343,344,339,5,24,5,24,5,5,24,5,24,5,4,4,0,0,0,0,0,0,
0,0,0,0,4,3,4,3,24,4,3,4,3,24,4,3,4,3,337,342,343,343,343,343,343,343,343,343,343,343,343,343,343,343,343,343,344,342,343,343,344,342,343,343,343,343,343,343,343,343,343,343,343,343,343,343,344,339,4,3,4,3,24,4,3,4,3,24,4,4,0,0,0,0,0,0,
2,2,2,2,5,24,5,24,5,5,24,5,24,5,5,24,5,24,337,342,343,343,343,343,343,343,343,343,343,343,343,343,343,343,343,343,344,342,343,343,344,342,343,343,343,343,343,343,343,343,343,343,343,343,343,343,344,339,5,24,5,24,5,5,24,5,24,5,4,4,0,0,0,0,0,0,
2,2,2,2,24,3,4,3,4,24,3,4,3,4,24,3,4,3,337,342,343,343,343,343,343,343,343,343,343,343,343,343,343,343,343,343,344,350,351,351,352,342,343,343,343,343,343,343,343,343,343,343,343,343,343,343,344,339,24,3,4,3,4,24,3,4,3,4,4,4,0,0,0,0,0,0,
2,2,2,2,5,24,5,24,5,5,24,5,24,5,5,24,5,24,337,350,351,351,351,351,351,351,351,351,351,351,351,351,351,351,351,351,352,338,338,338,338,342,343,343,343,343,343,343,343,343,343,343,343,343,343,343,344,339,5,24,5,24,5,5,24,5,24,5,4,4,0,0,0,0,0,0,
2,2,2,2,4,3,4,3,24,4,3,4,3,24,4,3,4,3,337,338,334,335,335,335,335,335,335,335,335,335,335,335,335,335,336,338,338,338,338,338,338,342,343,343,343,343,343,343,343,343,343,343,343,343,343,343,344,339,4,3,4,3,24,4,3,4,3,24,4,4,0,0,0,0,0,0,
2,2,2,2,5,24,5,24,5,5,24,5,24,5,5,24,5,24,337,338,342,343,343,343,343,343,343,343,343,343,343,343,343,343,344,338,338,338,338,338,338,342,343,343,343,343,343,343,343,343,343,343,343,343,343,343,344,339,5,24,5,24,5,5,24,5,24,5,4,4,0,0,0,0,0,0,
2,2,2,2,24,3,4,3,4,24,3,4,3,4,24,3,4,3,337,338,342,343,343,343,343,343,343,343,343,343,343,343,343,343,344,338,338,338,338,338,338,342,343,343,343,343,343,343,343,343,343,343,343,343,343,343,344,339,24,3,4,3,4,24,3,4,3,4,4,4,0,0,0,0,0,0,
2,2,2,2,5,24,5,24,5,5,24,5,24,5,5,24,5,24,337,338,342,343,343,343,343,343,343,343,343,343,343,343,343,343,344,338,338,338,338,338,338,350,351,351,351,351,351,351,351,351,351,351,351,351,351,351,352,339,5,24,5,24,5,5,24,5,24,5,4,4,0,0,0,0,0,0,
2,2,2,2,4,3,4,3,24,4,3,4,3,24,4,3,4,3,337,338,350,351,351,351,351,352,338,350,351,351,351,351,351,351,352,338,338,338,338,338,338,338,338,338,338,338,338,338,338,338,338,338,338,338,338,338,338,339,4,3,4,3,24,4,3,4,3,24,4,4,0,0,0,0,0,0,
2,2,2,2,5,24,5,24,5,5,24,5,24,5,5,24,5,24,337,338,338,338,338,338,338,338,338,338,338,338,338,338,338,338,338,338,338,338,338,338,338,338,338,338,338,338,338,338,338,338,338,338,338,338,338,338,338,339,5,24,5,24,5,5,24,5,24,5,4,4,0,0,0,0,0,0,
2,2,2,2,24,3,4,3,4,24,3,4,3,4,24,3,4,3,337,338,338,338,338,338,338,338,338,338,338,338,338,338,338,338,338,338,338,338,338,338,338,338,338,338,338,338,338,338,338,338,338,338,338,338,338,338,338,339,24,3,4,3,4,24,3,4,3,4,4,4,0,0,0,0,0,0,
2,2,2,2,4,4,4,4,4,4,5,24,5,24,5,24,5,24,337,338,334,335,335,335,335,335,335,335,335,335,335,335,335,335,335,335,335,335,335,335,335,335,335,335,335,335,335,335,335,335,335,335,335,335,335,336,338,339,5,24,5,24,5,5,24,5,24,5,4,4,0,0,0,0,0,0,
2,2,2,2,5,5,5,5,5,4,24,3,4,3,4,3,4,3,337,338,342,343,343,343,343,343,343,343,343,343,343,343,343,343,343,343,343,343,343,343,343,343,343,343,343,343,343,343,343,343,343,343,343,343,343,344,338,339,4,3,4,3,24,4,3,4,3,24,4,4,0,0,0,0,0,0,
2,7,7,7,7,7,7,7,7,5,5,24,5,24,5,4,5,24,337,338,342,343,343,343,343,343,343,343,343,343,343,343,343,343,343,343,343,343,343,343,343,343,343,343,343,343,343,343,343,343,343,343,343,343,343,344,338,339,5,24,5,24,5,5,24,5,24,5,4,4,0,0,0,0,0,0,
2,7,7,7,7,7,7,7,7,5,4,3,4,3,24,4,24,3,337,338,342,343,343,343,343,343,343,343,343,343,343,343,343,343,343,343,343,343,343,343,343,343,343,343,343,343,343,343,343,343,343,343,343,343,343,344,338,339,24,3,4,3,4,24,3,4,3,4,4,4,6,6,6,6,0,0,
2,7,7,7,7,7,7,7,2,5,5,24,5,24,4,4,5,24,337,338,350,351,351,351,351,351,351,351,351,351,351,351,351,351,351,351,351,351,351,351,351,351,351,351,351,351,351,351,351,351,352,338,350,351,351,352,338,339,5,24,5,24,5,5,24,5,24,5,4,4,5,6,6,6,6,6,
2,7,7,7,7,7,7,7,3,5,24,3,24,3,24,4,24,3,337,338,338,338,338,338,338,338,338,338,338,338,338,338,338,338,338,338,338,338,338,338,338,338,338,338,338,338,338,338,338,338,338,338,338,338,338,338,338,339,5,5,5,5,5,5,3,4,4,4,4,4,6,5,5,5,5,5,
2,5,2,5,3,2,5,4,4,4,4,4,6,6,6,6,6,6,337,338,338,338,338,338,338,338,338,338,338,338,338,338,338,338,338,338,338,338,338,338,338,338,338,338,338,338,338,338,338,338,338,338,338,338,338,338,338,339,6,6,6,6,6,6,6,6,6,6,6,6,6,6,6,6,6,6,
2,3,5,2,5,5,3,4,4,4,4,4,4,5,6,5,6,4,337,338,338,338,338,338,338,338,338,338,338,338,338,338,338,338,338,338,338,338,338,338,338,338,338,338,338,338,338,338,338,338,338,338,338,338,338,338,338,339,4,2,2,2,3,4,4,4,4,4,4,4,4,4,4,4,4,4,
2,3,4,3,5,154,155,155,155,155,155,155,155,155,155,155,155,156,337,338,338,334,335,335,335,335,335,335,335,335,335,335,335,335,335,335,335,335,335,335,335,335,335,335,335,335,335,335,335,335,335,335,335,335,336,338,338,339,154,155,155,155,155,155,155,155,155,155,155,155,155,155,155,155,155,155,
2,6,5,6,5,162,163,163,163,163,163,163,163,163,163,163,163,164,337,338,338,342,343,343,343,343,343,343,343,343,343,343,343,343,343,343,343,343,343,343,343,343,343,343,343,343,343,343,343,343,343,343,343,343,344,338,338,339,162,163,163,163,163,163,163,163,163,163,163,163,163,163,163,163,163,163,
2,4,3,4,5,170,171,171,171,171,171,171,171,171,171,171,171,172,337,338,338,342,343,343,343,343,343,343,343,343,343,343,343,343,343,343,343,343,343,343,343,343,343,343,343,343,343,343,343,343,343,343,343,343,344,338,338,339,170,171,171,171,171,171,171,171,171,171,171,171,171,171,171,171,171,171,
2,2,3,3,5,3,3,3,5,6,6,6,6,6,6,6,6,6,337,338,338,342,343,343,343,343,343,343,343,343,343,343,343,343,343,343,343,343,343,343,343,343,343,343,343,343,343,343,343,343,343,343,343,343,344,338,338,339,6,6,6,6,6,6,6,6,6,6,6,6,6,6,6,6,6,6,
2,5,6,5,5,24,5,24,5,5,24,5,24,5,5,24,5,24,337,338,338,342,343,343,343,343,343,343,343,343,343,343,343,343,343,343,343,343,343,343,343,343,343,343,343,343,343,343,343,343,343,343,343,343,344,338,338,339,5,24,5,24,5,5,24,5,3,4,4,4,6,6,6,6,0,0,
2,2,5,2,24,3,4,3,4,24,3,4,3,4,24,3,4,3,337,338,338,350,351,351,351,351,351,351,351,351,351,351,351,351,300,343,343,343,343,343,343,292,351,351,351,351,351,351,351,351,351,351,351,351,352,338,338,339,24,3,4,3,4,24,3,4,4,4,4,4,0,0,0,0,0,0,
2,5,6,5,5,24,5,24,5,5,24,5,24,5,5,24,5,24,337,338,338,338,338,338,338,338,338,338,338,338,338,338,338,338,350,300,343,343,343,343,292,352,338,338,338,338,338,338,338,338,338,338,338,338,338,338,338,339,5,24,5,24,5,5,24,5,4,4,4,4,0,0,0,0,0,0,
2,2,5,2,4,3,4,3,24,4,3,4,3,24,4,3,4,3,337,338,338,338,338,338,338,338,338,338,338,338,338,338,338,338,338,350,351,351,351,351,352,338,338,338,338,338,338,338,338,338,338,338,338,338,338,338,338,339,4,3,4,3,24,4,3,4,4,4,4,4,0,0,0,0,0,0,
2,2,2,2,5,24,5,24,5,5,24,5,24,5,5,24,5,24,337,338,338,338,338,338,338,338,338,338,338,338,338,338,338,338,338,338,338,338,338,338,338,338,338,338,338,338,338,338,338,338,338,338,338,338,338,338,338,339,5,24,5,24,5,5,24,5,4,4,4,4,0,0,0,0,0,0,
2,2,2,2,24,3,4,3,4,24,3,4,3,4,24,3,4,3,337,338,334,335,335,335,335,335,335,335,335,335,335,335,335,335,335,335,335,335,335,335,335,335,335,335,335,335,335,335,335,335,335,335,335,335,335,336,338,339,24,3,4,3,4,24,3,4,4,4,4,4,0,0,0,0,0,0,
5,0,0,0,5,24,5,24,5,5,24,5,24,5,5,24,5,24,337,338,342,343,343,343,343,343,343,343,343,343,343,343,343,343,343,343,343,343,343,343,343,343,343,343,343,343,343,343,343,343,343,343,343,343,343,344,338,339,5,24,5,24,5,5,24,5,4,4,4,4,0,0,0,0,0,0,
5,0,0,0,4,3,4,3,24,4,3,4,3,24,4,3,4,3,337,338,342,343,343,343,343,343,343,343,343,343,343,343,343,343,343,343,343,343,343,343,343,343,343,343,343,343,343,343,343,343,343,343,343,343,343,344,338,339,4,3,4,3,24,4,3,4,4,4,4,4,0,0,0,0,0,0,
5,24,5,24,5,24,5,24,5,5,24,5,24,5,5,24,5,24,337,338,342,343,343,343,343,343,343,343,343,343,343,343,343,343,343,343,343,343,343,343,343,343,343,343,343,343,343,343,343,343,343,343,343,343,343,344,338,339,5,24,5,24,5,5,24,5,4,4,4,4,0,0,0,0,0,0,
5,24,5,24,5,24,5,24,5,5,24,5,24,5,5,24,5,24,337,338,350,351,351,351,351,351,351,352,338,350,351,351,351,351,351,351,351,351,351,351,351,351,351,351,351,351,352,338,350,351,351,351,351,351,351,352,338,339,24,3,4,3,4,24,3,4,4,4,4,4,0,0,0,0,0,0,
5,24,5,24,5,24,4,3,4,24,3,4,3,4,24,3,4,3,337,338,338,338,338,338,338,338,338,338,338,338,338,338,338,338,338,338,338,338,338,338,338,338,338,338,338,338,338,338,338,338,338,338,338,338,338,338,338,339,5,24,5,24,5,5,24,5,4,4,4,4,0,0,0,0,0,0,
5,24,5,24,5,24,5,24,5,5,24,5,24,5,5,24,5,24,337,338,338,338,338,338,338,338,338,338,338,338,338,338,338,338,338,338,338,338,338,338,338,338,338,338,338,338,338,338,338,338,338,338,338,338,338,338,338,339,4,3,4,3,24,4,3,4,4,4,4,4,0,0,0,0,0,0,
5,24,5,24,5,24,4,3,24,4,3,4,3,24,4,3,4,3,337,334,335,335,335,335,335,335,335,335,335,335,335,335,335,335,335,335,336,338,338,338,338,338,334,335,335,335,335,335,335,335,335,335,335,335,335,335,336,339,5,24,5,24,5,5,24,5,4,4,4,4,0,0,0,0,0,0,
5,24,5,24,5,24,5,24,5,5,24,5,24,5,5,24,5,24,337,342,343,343,343,343,343,343,343,343,343,343,343,343,343,343,343,343,344,338,338,338,338,338,342,338,338,338,338,338,338,338,338,338,338,338,338,338,344,339,5,24,5,24,5,5,24,5,4,4,4,4,0,0,0,0,0,0,
5,24,5,24,5,24,4,3,4,24,3,4,3,4,24,3,4,3,337,342,343,343,343,343,343,343,343,343,343,343,343,343,343,343,343,343,344,338,338,338,338,338,342,338,338,338,338,338,338,338,338,338,338,338,338,338,344,339,24,3,4,3,4,24,3,4,4,4,4,4,0,0,0,0,0,0,
5,24,5,24,5,24,5,24,5,5,24,5,24,5,5,24,5,24,337,342,343,343,343,343,343,343,343,343,343,343,343,343,343,343,343,343,344,334,335,335,336,338,342,338,338,338,338,338,338,338,338,338,338,338,338,338,344,339,5,24,5,24,5,5,24,5,4,4,4,4,0,0,0,0,0,0,
5,24,5,24,5,24,4,3,24,4,3,4,3,24,4,3,4,3,337,342,343,343,343,343,343,343,343,343,343,343,343,343,343,343,343,343,344,342,343,343,344,338,342,338,338,338,338,338,338,338,338,338,338,338,338,338,344,339,4,3,4,3,24,4,3,4,4,4,4,4,0,0,0,0,0,0,
5,24,5,24,5,24,5,24,5,5,24,5,24,5,5,24,5,24,337,342,343,343,343,343,343,343,343,343,343,343,343,343,343,343,343,343,344,342,343,343,344,338,342,338,338,338,338,338,338,338,338,338,338,338,338,338,344,339,5,24,5,24,5,5,24,5,4,4,4,4,0,0,0,0,0,0,
5,24,5,24,5,24,5,24,5,5,24,5,24,5,5,24,5,24,337,342,343,343,343,343,343,343,343,343,343,343,343,343,343,343,343,343,344,342,343,343,344,338,342,338,338,338,338,338,338,338,338,338,338,338,338,338,344,339,24,3,4,3,4,24,3,4,4,4,4,4,0,0,0,0,0,0,
5,24,5,24,5,24,4,3,4,24,3,4,3,4,24,3,4,3,337,342,343,343,343,343,343,343,343,343,343,343,343,343,343,343,343,343,344,342,343,343,344,338,342,338,338,338,338,338,338,338,338,338,338,338,338,338,344,339,5,24,5,24,5,5,24,5,4,4,4,4,0,0,0,0,0,0,
5,24,5,24,5,24,5,24,5,5,24,5,24,5,5,24,5,24,337,342,343,343,343,343,343,343,343,343,343,343,343,343,343,343,343,343,344,342,343,343,344,338,342,338,338,338,338,338,338,338,338,338,338,338,338,338,344,339,4,3,4,3,24,4,3,4,4,4,4,4,0,0,0,0,0,0,
5,24,5,24,5,24,4,3,24,4,3,4,3,24,4,3,4,3,337,342,343,343,343,343,343,343,343,343,343,343,343,343,343,343,343,343,344,342,343,343,344,338,342,338,338,338,338,338,338,338,338,338,338,338,338,338,344,339,5,24,5,24,5,5,24,5,4,4,4,4,0,0,0,0,0,0,
5,24,5,24,5,24,5,24,5,5,24,5,24,5,5,24,5,24,337,343,343,343,343,343,343,343,343,343,343,343,343,343,343,343,343,343,344,342,343,343,344,338,342,338,338,338,338,338,338,338,338,338,338,338,338,338,344,339,24,3,4,3,4,24,3,4,4,4,4,4,0,0,0,0,0,0,
5,24,5,24,5,24,4,3,4,24,3,4,3,4,24,3,4,3,337,351,351,351,351,351,351,351,351,351,351,351,351,351,351,351,351,351,339,346,346,346,346,337,350,351,351,351,351,351,351,351,351,351,351,351,351,351,352,339,4,4,4,4,4,4,4,4,4,4,4,4,0,0,0,0,0,0,
5,24,5,24,5,24,2,2,2,2,2,2,2,2,2,2,2,2,345,346,346,346,346,346,346,346,346,346,346,346,346,346,346,346,346,346,347,162,163,163,164,345,346,346,346,346,346,346,346,346,346,346,346,346,346,346,346,347,2,2,2,2,2,2,2,2,4,4,4,4,0,0,0,0,0,0,
5,24,5,24,5,24,2,2,2,2,2,2,2,2,2,2,2,2,2,2,2,2,2,2,2,2,2,2,2,2,2,2,2,2,2,2,2,162,163,163,164,2,2,2,2,2,2,2,2,2,2,2,2,2,2,2,2,2,2,2,2,2,2,2,2,2,3,3,3,3,3,3,3,3,3,3
  </data>
 </layer>
 <layer id="2" name="middle" width="76" height="62">
  <data encoding="csv">
491,490,491,490,491,490,491,490,491,492,0,0,0,0,0,0,0,0,0,0,0,0,0,0,0,0,0,0,0,0,1193,0,0,0,0,0,0,0,0,0,0,0,0,0,0,0,0,1193,0,0,0,0,0,0,0,0,0,0,0,0,0,0,0,0,0,0,793,794,794,794,794,794,794,794,794,794,
499,498,499,498,499,498,499,498,499,500,0,0,0,0,0,0,0,0,0,0,0,0,0,0,0,0,0,0,0,0,1193,0,0,0,0,0,0,0,0,0,0,0,0,0,0,0,0,1193,0,0,0,0,0,0,0,0,0,0,0,0,0,0,0,0,0,0,793,794,794,794,794,794,794,794,794,794,
491,490,491,490,491,490,491,490,491,492,0,0,0,0,0,0,0,0,0,0,0,0,0,0,0,0,0,0,0,0,1193,0,0,0,0,0,0,0,0,0,0,0,0,0,0,0,0,1193,0,0,0,0,0,0,0,0,0,0,0,0,0,0,0,0,0,0,793,794,794,794,794,794,794,794,794,794,
499,498,499,498,499,498,499,498,499,500,0,0,0,0,0,0,0,0,0,0,0,0,0,0,0,0,0,0,0,0,1193,0,0,0,0,0,0,0,0,0,0,0,0,0,0,0,0,1193,0,0,0,0,0,0,0,0,0,0,0,0,0,0,0,0,0,0,793,794,794,794,794,794,794,794,794,794,
491,490,491,490,491,490,491,490,491,492,0,0,0,0,0,0,0,0,0,0,0,0,0,0,0,0,0,0,0,0,1193,0,0,0,0,0,0,0,0,0,0,0,0,0,0,0,0,1193,0,0,0,0,0,0,0,0,0,0,0,0,0,0,0,0,0,0,793,794,794,794,794,794,794,794,794,794,
499,498,499,498,499,498,499,498,499,500,0,0,0,0,0,0,0,0,0,0,0,0,0,0,0,0,0,0,0,0,1193,0,0,0,0,0,1195,1195,0,0,1195,1195,0,0,0,0,0,1193,0,0,0,0,0,0,0,0,0,0,0,0,0,0,0,0,0,0,793,794,794,794,794,794,794,794,794,794,
491,490,491,490,491,490,491,490,491,492,0,0,0,0,0,0,0,0,0,1569,1570,1570,1570,1570,1571,1572,1569,1570,1570,1571,1193,1292,1292,1292,1292,1292,1193,2126,2176,2176,2128,1193,1292,1292,1292,1292,1292,1193,1572,1569,1570,1570,1570,1570,1570,1571,1572,0,0,0,0,0,0,0,0,0,793,794,794,794,794,794,794,794,794,794,
499,498,499,498,499,498,499,498,499,500,0,0,0,0,0,0,0,0,0,1577,1578,1578,1578,1578,1579,1580,1577,1578,1578,1579,1580,1195,1195,1195,1195,1195,1195,2134,2184,2184,2136,1195,1195,1195,1195,1195,1195,1195,1580,1577,1578,1578,1578,1578,1578,1579,1580,0,0,0,0,0,0,0,0,0,793,794,794,794,794,794,794,794,794,794,
491,490,491,490,491,490,491,490,491,492,0,0,0,0,0,0,0,0,0,1585,1586,1586,1586,1586,1587,1588,1585,1586,1586,1587,1588,1585,1586,1586,1587,1588,2141,2142,2192,2192,2144,2185,1585,1586,1586,1586,1586,1587,1588,1585,1586,1586,1586,1586,1586,1587,1588,0,0,0,0,0,0,0,0,0,793,794,794,794,794,794,794,794,794,794,
499,498,499,498,499,498,499,498,499,500,0,0,0,0,0,0,0,0,0,1593,1594,1594,1594,1594,1595,1596,1593,1594,1594,1595,1596,1593,1594,1594,1595,1596,2149,2150,2200,2200,2152,2193,1593,1594,1594,1594,1594,1595,1596,1593,1594,1594,1594,1594,1594,1595,1596,0,0,0,0,0,0,0,0,0,793,794,794,794,794,794,794,794,794,794,
491,490,491,490,491,490,491,490,491,492,0,0,0,0,0,0,0,0,1195,1601,1602,1602,1602,1602,1603,1604,1601,1602,1602,1603,1604,1601,1602,1602,1603,1604,2157,2158,2208,2208,2160,2201,1601,1602,1602,1602,1602,1603,1604,1601,1602,1602,1602,1602,1602,1603,1604,1195,0,0,0,0,0,0,0,0,793,794,794,794,794,794,794,794,794,794,
499,498,499,498,499,498,499,498,499,500,0,0,0,0,0,0,0,0,1193,1593,1594,1594,1594,1594,1595,1596,1593,1594,1594,1595,1596,1593,1594,1594,1595,1596,2165,2166,2216,2216,2168,2209,1593,1594,1594,1594,1594,1595,1596,1593,1594,1594,1594,1594,1594,1595,1596,1193,0,0,0,0,0,0,0,0,793,794,794,794,794,794,794,794,794,794,
491,490,491,490,491,490,491,490,491,492,0,0,0,0,0,0,0,0,1193,1601,1602,1602,1602,1602,1603,1604,1601,1602,1602,1603,1604,1601,1602,1602,1603,1604,1430,1431,1431,1431,1431,1431,1601,1602,1602,1602,1602,1603,1604,1601,1602,1602,1602,1602,1602,1603,1604,1193,0,0,0,0,0,0,0,0,793,794,794,794,794,794,794,794,794,794,
499,498,499,498,499,498,499,498,499,500,0,0,0,0,0,0,0,0,1193,1609,1610,1610,1611,1610,1611,1612,1609,1610,1610,1611,1612,1609,1610,1610,1611,1612,1193,0,0,0,0,1193,1609,1610,1610,1610,1610,1611,1612,1609,1610,1610,1610,1610,1610,1611,1612,1193,0,0,0,0,0,0,0,0,793,794,794,794,794,794,794,794,794,794,
491,490,491,490,491,490,491,490,491,492,0,0,0,0,0,0,0,0,1193,1601,1602,1602,1603,1604,1601,1602,1602,1603,1604,1601,1602,1602,1602,1602,1603,1604,1193,0,0,0,0,1193,1601,1602,1602,1603,1604,1601,1602,1602,1603,1604,1601,1602,1602,1603,1604,1193,0,0,0,0,0,0,0,0,793,794,794,794,794,794,794,794,794,794,
499,498,499,498,499,498,499,498,499,500,0,0,0,0,0,0,0,0,1193,1609,1610,1610,1611,1612,1609,1610,1610,1611,1612,1609,1610,1610,1610,1610,1611,1612,1196,0,0,0,0,1195,1609,1610,1610,1611,1612,1609,1610,1610,1611,1612,1609,1610,1610,1611,1612,1193,0,0,0,0,0,0,0,0,793,794,794,794,794,794,794,794,794,794,
491,490,491,490,491,490,491,490,491,492,0,0,0,0,0,0,0,0,1193,1430,1431,1431,1431,1431,1430,1431,1431,1431,1431,1430,1431,1431,1431,1431,1431,1431,0,0,0,0,0,0,0,649,650,651,652,656,0,0,0,0,0,0,0,0,0,1193,0,0,0,0,0,0,0,0,793,794,794,794,794,794,794,794,794,794,
499,498,499,498,499,498,499,498,499,500,0,0,0,0,0,0,0,0,1193,933,0,1577,1578,1579,1580,1573,1574,1575,1576,1541,1542,1543,1544,0,0,0,0,0,0,0,0,0,0,657,658,659,660,664,0,0,0,0,0,0,0,0,0,1193,0,0,0,0,0,0,0,0,793,794,794,794,794,794,794,794,794,794,
491,490,491,490,491,490,491,490,491,492,0,0,0,0,0,0,0,0,1193,941,0,1585,1586,1587,1588,1581,1582,1583,1584,1545,1546,1547,1548,933,0,0,0,0,0,0,0,0,0,665,666,667,668,672,0,0,0,0,0,0,0,0,0,1193,0,0,0,0,0,0,0,0,793,794,794,794,794,794,794,794,794,794,
499,498,499,498,499,498,499,498,499,500,0,0,0,0,0,0,0,0,1193,933,0,1593,1594,1595,1596,1589,1590,1591,1592,1553,1554,1555,1556,941,0,0,0,0,0,0,0,0,0,673,674,0,676,680,0,0,0,0,0,0,0,0,0,1193,0,0,0,0,0,0,0,0,793,794,794,794,794,794,794,794,794,794,
491,490,491,490,491,490,491,490,491,492,0,0,0,0,0,0,0,0,1193,941,0,1609,1610,1611,1612,1597,0,1599,1600,1561,1562,1563,1564,0,1194,1195,1195,0,0,0,0,1194,1195,1195,0,0,0,1196,1196,1196,1196,0,0,0,1195,1195,1195,1193,0,0,0,0,0,0,0,0,793,794,794,794,794,794,794,794,794,794,
499,498,499,498,499,498,499,498,499,500,0,0,0,0,0,0,0,0,1193,939,0,1430,1431,1431,1431,1430,1431,1431,1431,1430,1431,1431,1431,0,0,0,0,0,0,0,0,0,0,0,0,0,0,0,0,0,0,0,0,0,0,0,933,1193,0,0,0,0,0,0,0,0,793,794,794,794,794,794,794,794,794,794,
491,490,491,490,491,490,491,490,491,492,0,0,0,0,0,0,0,0,1193,939,0,0,1569,1570,1571,1572,0,0,0,0,0,0,0,0,1569,1570,1571,1572,0,0,0,0,1569,1570,1571,1572,0,0,0,0,0,0,0,0,0,0,941,1193,0,0,0,0,0,0,0,0,793,794,794,794,794,794,794,794,794,794,
499,498,499,498,499,498,499,498,499,500,0,0,0,0,0,0,0,0,1193,933,0,0,1577,1578,1579,1580,0,0,0,0,0,0,0,0,1577,1578,1579,1580,0,0,0,0,1577,1578,1579,1580,1569,1570,1571,1572,0,0,0,0,0,0,933,1193,0,0,0,0,0,0,0,0,793,794,794,794,794,794,794,794,794,794,
507,506,507,506,507,506,507,506,507,508,0,0,0,0,0,0,0,0,1193,941,0,0,1585,1586,1587,1588,1541,1542,1543,1544,1541,1542,1543,1544,1585,1586,1587,1588,1541,1542,1543,1544,1585,1586,1587,1588,1577,1578,1579,1580,1573,1574,1575,1576,0,0,941,1193,0,0,0,0,0,0,0,0,793,794,794,794,794,794,794,794,794,794,
1298,1298,1298,1298,1298,1298,1298,1298,1298,1195,0,0,0,0,0,0,0,0,1193,933,0,0,1593,1594,1595,1596,1545,1546,1547,1548,1549,1550,1551,1552,1593,1594,1595,1596,1545,1546,1547,1548,1593,1594,1595,1596,1585,1586,1587,1588,1581,1582,1583,1584,0,0,939,1193,0,0,0,0,0,0,0,0,793,794,794,794,794,794,794,794,794,794,
0,0,0,0,0,0,0,0,0,1193,0,0,0,0,0,0,0,0,1193,941,0,0,1601,1602,1603,1604,1553,1554,1555,1556,1557,1558,1559,1560,1601,1602,1603,1604,1553,1554,1555,1556,1601,1602,1603,1604,1593,1594,1595,1596,1589,1590,1591,1592,0,0,939,1193,0,0,0,0,0,0,0,0,793,794,794,794,794,794,794,794,794,794,
0,0,0,0,0,0,0,0,0,1193,0,0,0,0,0,0,0,0,1193,0,0,0,1609,1610,1611,1612,1561,1562,1563,1564,1565,1566,1567,1568,1609,1610,1611,1612,1561,1562,1563,1564,1609,1610,1611,1612,1609,1610,1611,1612,1597,0,1599,1600,0,0,933,1193,0,0,0,0,0,0,0,0,793,794,794,809,802,802,802,802,802,802,
0,0,0,0,0,0,0,0,0,1193,0,0,0,0,0,0,0,0,1193,0,0,0,1430,1431,1431,1431,1430,1431,1431,1431,1430,1431,1431,1431,1430,1431,1431,1431,1430,1431,1431,1431,1430,1431,1431,1431,1430,1431,1431,1431,1430,1431,1431,1431,0,0,941,1193,0,0,0,0,0,0,0,0,793,794,794,795,0,0,0,0,0,0,
0,0,0,0,0,0,0,0,0,1193,0,0,0,0,0,0,0,0,1193,845,0,0,0,0,0,0,0,0,0,0,0,0,941,1193,0,961,962,963,963,964,965,0,1193,941,0,0,0,0,0,0,0,0,0,0,0,0,845,1193,0,0,0,0,0,0,0,0,801,802,802,803,0,0,0,0,0,0,
0,0,0,0,0,0,0,0,0,1195,1195,1195,1195,1195,1195,1195,1195,1195,1195,853,0,0,0,0,0,0,0,0,0,0,1569,1570,0,1193,0,977,978,979,979,980,981,0,1193,0,0,0,0,0,0,0,0,0,0,0,0,0,853,1195,1195,1195,1195,1195,1195,1195,1195,1195,1195,1195,1195,1195,1195,1195,0,0,0,0,
0,0,0,0,0,0,0,0,0,0,0,0,0,0,958,958,0,953,0,861,0,0,1569,1570,1571,1572,0,0,0,0,1577,1578,0,1193,0,977,978,979,979,980,981,0,1569,1570,1571,1572,0,0,0,0,0,0,0,0,0,0,861,0,953,0,958,958,0,0,0,0,0,0,0,0,0,0,0,0,0,0,
0,0,0,0,0,0,0,0,0,0,0,0,0,0,0,0,0,0,0,0,0,0,1577,1578,1579,1580,0,0,0,0,1585,1586,1587,1588,0,977,978,979,979,980,981,0,1577,1578,1579,1580,0,0,0,0,0,0,0,0,0,0,0,0,0,0,0,0,0,0,0,0,0,0,0,0,0,0,0,0,0,0,
0,0,0,0,0,0,0,0,0,0,0,0,0,0,0,0,0,0,0,0,0,0,1585,1586,1587,1588,1541,1542,1543,1544,1593,1594,1595,1596,0,977,978,979,979,980,981,0,1585,1586,1587,1588,1541,1542,1543,1544,1541,1542,1543,1544,0,0,0,0,0,0,0,0,0,0,0,0,0,0,0,0,0,0,0,0,0,0,
0,0,0,0,0,0,0,0,0,0,0,0,0,0,0,0,0,0,0,845,0,0,1593,1594,1595,1596,1545,1546,1547,1548,1601,1602,1603,1604,0,977,978,979,979,980,981,0,1593,1594,1595,1596,1545,1546,1547,1548,1545,1546,1547,1548,0,0,845,0,0,0,0,0,0,0,0,0,0,0,0,0,0,0,0,0,0,0,
0,0,0,0,0,0,0,2218,2219,2221,2221,2222,2223,1195,1195,1195,1195,1195,1195,853,0,0,1601,1602,1603,1604,1553,1554,1555,1556,1601,1602,1603,1604,0,977,978,979,979,980,981,0,1601,1602,1603,1604,1553,1554,1555,1556,1553,1554,1555,1556,0,0,853,1195,1195,1195,1195,1195,1195,2218,2219,2220,2221,2222,2223,1195,1195,1195,1195,1195,1195,1195,
0,0,0,0,0,0,0,0,0,1193,0,0,0,0,0,0,0,0,1193,861,0,0,1609,1610,1611,1612,1561,1562,1563,1564,1609,1610,1611,1612,0,985,986,987,987,988,989,0,1609,1610,1611,1612,1561,1562,1563,1564,1561,1562,1563,1564,0,0,861,1193,0,0,0,0,0,0,0,0,785,786,786,786,786,786,786,786,786,786,
0,0,0,0,0,0,0,0,0,1193,0,0,0,0,0,0,0,0,1193,0,0,0,1430,1431,1431,1431,1430,1431,1431,1431,1430,1431,1431,1431,0,993,994,0,0,996,997,0,1430,1431,1431,1431,1430,1431,1431,1431,1430,1431,1431,1431,0,0,0,1193,0,0,0,0,0,0,0,0,793,794,794,794,794,794,794,794,794,794,
0,0,0,0,0,0,0,0,0,1193,0,0,0,0,0,0,0,0,1193,933,0,0,0,0,0,0,0,0,0,0,0,0,0,0,0,0,0,0,0,0,0,0,0,0,0,0,0,0,0,0,0,0,0,0,0,0,933,1193,0,0,0,0,0,0,0,0,793,794,794,794,794,794,794,794,794,794,
0,0,0,0,0,0,0,0,0,1193,0,0,0,0,0,0,0,0,1193,941,0,0,1569,1570,1571,1572,0,0,0,0,0,1569,1570,1571,1572,0,0,0,0,0,0,0,0,0,0,0,0,0,0,0,1569,1570,1571,1572,0,0,941,1193,0,0,0,0,0,0,0,0,793,794,794,794,794,794,794,794,794,794,
517,518,517,518,0,0,0,0,0,1195,0,0,0,0,0,0,0,0,1193,939,0,0,1577,1578,1579,1580,0,0,0,0,0,0,1578,1579,1580,0,0,0,0,0,0,0,1569,1570,1571,1572,0,0,0,0,1577,1578,1579,1580,0,0,933,1193,0,0,0,0,0,0,0,0,793,794,794,794,794,794,794,794,794,794,
499,498,499,498,499,500,499,500,499,500,0,0,0,0,0,0,0,0,1193,939,0,0,1585,1586,1587,1588,740,741,742,743,624,0,1586,1587,1588,0,0,0,1541,1542,1543,1544,1577,1578,1579,1580,1573,1574,1575,1576,1585,1586,1587,1588,0,0,941,1193,0,0,0,0,0,0,0,0,793,794,794,794,794,794,794,794,794,794,
491,492,491,492,491,492,491,492,491,492,0,0,0,0,0,0,0,0,1193,933,0,845,1593,1594,1595,1596,748,749,750,751,632,0,1594,1595,1596,0,0,0,1545,1546,1547,1548,1585,1586,1587,1588,1581,1582,1583,1584,1593,1594,1595,1596,845,0,933,1193,0,0,0,0,0,0,0,0,793,794,794,794,794,794,794,794,794,794,
499,500,499,500,499,500,499,500,499,500,0,0,0,0,0,0,0,0,1193,941,0,853,1601,1602,1603,1604,756,757,758,759,640,1342,1602,1603,1604,0,0,0,1553,1554,1555,1556,1593,1594,1595,1596,1589,1590,1591,1592,1601,1602,1603,1604,853,0,941,1193,0,0,0,0,0,0,0,0,793,794,794,794,794,794,794,794,794,794,
491,492,491,492,491,492,491,492,491,492,0,0,0,0,0,0,0,0,1193,933,0,861,1609,1610,1611,1612,764,765,0,767,648,1350,1610,1611,1612,0,0,0,1561,1562,1563,1564,1609,1610,1611,1612,1597,0,1599,1600,1609,1610,1611,1612,861,0,939,1193,0,0,0,0,0,0,0,0,793,794,794,794,794,794,794,794,794,794,
499,500,499,500,499,500,499,500,499,500,0,0,0,0,0,0,0,0,1193,941,0,0,1430,1431,1431,1431,1430,1431,1431,1431,1431,1358,1431,1431,1431,0,0,0,1430,1431,1431,1431,1430,1431,1431,1431,1430,1431,1431,1431,1430,1431,1431,1431,0,0,939,1193,0,0,0,0,0,0,0,0,793,794,794,794,794,794,794,794,794,794,
491,492,491,492,491,492,491,492,491,492,0,0,0,0,0,0,0,0,1193,933,0,0,0,1541,1542,1543,1544,1541,1542,1543,1544,1541,1542,1543,1544,0,0,0,0,0,0,0,0,1541,1542,1543,1544,1541,1542,1543,1544,1541,1542,1543,1544,0,933,1193,0,0,0,0,0,0,0,0,793,794,794,794,794,794,794,794,794,794,
499,500,499,500,499,500,499,500,499,500,0,0,0,0,0,0,0,0,1193,941,0,0,0,1545,1546,1547,1548,1545,1546,1547,1548,1545,1546,1547,1548,0,0,0,0,0,0,0,0,1545,1546,1547,1548,1545,1546,1547,1548,1545,1546,1547,1548,0,941,1193,0,0,0,0,0,0,0,0,793,794,794,794,794,794,794,794,794,794,
491,492,491,492,491,492,491,492,491,492,0,0,0,0,0,0,0,0,1193,0,0,0,0,1553,1554,1555,1556,1553,1554,1555,1556,1553,1554,1555,1556,0,0,0,0,0,0,0,0,1553,1554,1555,1556,1553,1554,1555,1556,1553,1554,1555,1556,0,933,1193,0,0,0,0,0,0,0,0,793,794,794,794,794,794,794,794,794,794,
499,500,499,500,499,500,499,500,499,500,0,0,0,0,0,0,0,0,1193,861,0,0,0,1561,1562,1563,1564,1561,1562,1563,1564,1561,1562,1563,1564,0,0,0,0,0,0,0,0,1561,1562,1563,1564,1561,1562,1563,1564,1561,1562,1563,1564,0,941,1193,0,0,0,0,0,0,0,0,793,794,794,794,794,794,794,794,794,794,
491,492,491,492,491,492,491,492,491,492,0,0,0,0,0,0,0,0,1193,1195,1195,1195,1195,1195,1195,1195,1195,1195,1195,1195,1195,1195,1195,1195,1195,1195,0,0,0,0,0,0,1195,1195,1195,1195,1195,1195,1195,1195,1195,1195,1195,1195,1195,1195,1195,1193,0,0,0,0,0,0,0,0,793,794,794,794,794,794,794,794,794,794,
499,500,499,500,499,500,499,500,499,500,0,0,0,0,0,0,0,0,1193,0,0,0,0,0,0,0,0,0,0,0,0,0,0,0,0,0,0,0,0,0,0,0,0,0,0,0,0,0,0,0,0,0,0,0,0,0,0,1193,0,0,0,0,0,0,0,0,793,794,794,794,794,794,794,794,794,794,
491,492,491,492,491,492,491,492,491,492,0,0,0,0,0,0,0,0,1193,0,0,0,0,0,0,0,0,0,0,0,0,0,0,0,0,0,1195,0,0,0,0,1195,0,0,0,0,0,0,0,0,0,0,0,0,0,0,0,1193,0,0,0,0,0,0,0,0,793,794,794,794,794,794,794,794,794,794,
499,500,499,500,499,500,499,500,499,500,0,0,0,0,0,0,0,0,1193,1601,1602,1603,1603,1604,1601,1602,1603,1604,1601,1602,1603,1604,1601,1602,1603,1604,1193,0,0,0,0,1193,1601,1602,1603,1603,1604,1601,1602,1603,1603,1604,1601,1602,1603,1603,1604,1193,0,0,0,0,0,0,0,0,793,794,794,794,794,794,794,794,794,794,
491,492,491,492,491,492,491,492,491,492,0,0,0,0,0,0,0,0,1193,1609,1610,1610,1610,1612,1609,1610,1611,1612,1609,1610,1611,1612,1609,1610,1611,1612,1193,2126,2176,2176,2128,1193,1609,1610,1610,1610,1612,1609,1610,1610,1610,1612,1609,1610,1610,1610,1612,1193,0,0,0,0,0,0,0,0,793,794,794,794,794,794,794,794,794,794,
499,500,499,500,499,500,499,500,499,500,0,0,0,0,0,0,0,0,1193,0,0,0,0,0,0,0,0,0,0,0,0,0,0,0,0,0,1193,2134,2184,2184,2136,1193,0,0,0,0,0,0,0,0,0,0,0,0,0,0,0,1193,0,0,0,0,0,0,0,0,793,794,794,794,794,794,794,794,794,794,
491,492,491,492,491,492,491,492,491,492,0,0,0,0,0,0,0,0,1193,0,0,0,0,0,0,0,0,0,0,0,0,0,0,0,0,0,1193,2142,2192,2192,2144,1193,0,0,0,0,0,0,0,0,0,0,0,0,0,0,0,1193,0,0,0,0,0,0,0,0,793,794,794,794,794,794,794,794,794,794,
499,500,499,500,499,500,499,500,499,500,0,0,0,0,0,0,0,0,1193,1193,0,0,0,0,0,0,0,0,0,0,0,0,0,0,0,0,1193,2150,2200,2200,2152,1193,0,0,0,0,0,0,0,0,0,0,0,0,0,0,0,1193,0,0,0,0,0,0,0,0,793,794,794,794,794,794,794,794,794,794,
491,492,491,492,491,492,491,492,491,492,0,0,0,0,0,0,0,0,1193,0,0,0,0,0,0,0,0,0,0,0,0,0,0,0,0,0,1193,2158,2208,2208,2160,1193,0,0,0,0,0,0,0,0,0,0,0,0,0,0,0,1193,0,0,0,0,0,0,0,0,793,794,794,794,794,794,794,794,794,794,
499,500,499,500,499,500,499,500,499,500,0,0,0,0,0,0,0,0,1193,0,0,0,0,0,0,0,0,0,0,0,0,0,0,0,0,0,1193,2166,2216,2216,2168,1193,0,0,0,0,0,0,0,0,0,0,0,0,0,0,0,1193,0,0,0,0,0,0,0,0,793,794,794,794,794,794,794,794,794,794,
491,492,491,492,491,492,491,492,491,492,1195,1195,1195,1195,1195,1195,1195,1195,1195,1195,1195,1195,1195,1195,1195,1195,1195,1195,1195,1195,1195,1195,1195,1195,1195,1195,1195,2118,2119,2119,2120,1195,1195,1195,1195,1195,1195,1195,1195,1195,1195,1195,1195,1195,1195,1195,1195,1195,1195,1195,1195,1195,1298,1298,1298,1298,793,794,794,794,794,794,794,794,794,794,
499,500,499,500,499,500,499,500,499,500,0,0,0,0,0,0,0,0,0,0,0,0,0,0,0,0,0,0,0,0,0,0,0,0,0,0,0,0,0,0,0,0,0,0,0,0,0,0,0,0,0,0,0,0,0,0,0,0,0,0,0,0,0,0,0,0,0,0,0,0,0,0,0,0,0,0
  </data>
 </layer>
 <layer id="3" name="upper" width="76" height="62">
  <data encoding="csv">
0,0,0,0,0,0,0,0,0,0,0,0,0,0,0,0,0,0,0,0,0,0,0,0,0,0,0,0,0,0,0,0,0,0,0,0,0,0,0,0,0,0,0,0,0,0,0,0,0,0,0,0,0,0,0,0,0,0,0,0,0,0,0,0,0,0,0,0,0,0,0,0,0,0,0,0,
0,0,0,0,0,0,0,0,0,0,0,0,0,0,0,0,0,0,0,0,0,0,0,0,0,0,0,0,0,0,0,0,0,0,0,0,0,0,0,0,0,0,0,0,0,0,0,0,0,0,0,0,0,0,0,0,0,0,0,0,0,0,0,0,0,0,0,0,0,0,0,0,0,0,0,0,
0,0,0,0,0,0,0,0,0,0,0,0,0,0,0,0,0,0,0,0,0,0,0,0,0,0,0,0,0,0,0,0,0,0,0,0,0,0,0,0,0,0,0,0,0,0,0,0,0,0,0,0,0,0,0,0,0,0,0,0,0,0,0,0,0,0,0,0,0,0,0,0,0,0,0,0,
0,0,0,0,0,0,0,0,0,0,0,0,0,0,0,0,0,0,0,0,0,0,0,0,0,0,0,0,0,0,0,0,0,0,0,0,0,0,0,0,0,0,0,0,0,0,0,0,0,0,0,0,0,0,0,0,0,0,0,0,0,0,0,0,0,0,0,0,0,0,0,0,0,0,0,0,
0,0,0,0,0,0,0,0,0,0,0,0,0,0,0,0,0,0,0,0,0,0,0,0,0,0,0,0,0,0,0,0,0,0,0,0,0,0,0,0,0,0,0,0,0,0,0,0,0,0,0,0,0,0,0,0,0,0,0,0,0,0,0,0,0,0,0,0,0,0,0,0,0,0,0,0,
0,0,0,0,0,0,0,0,0,0,0,0,0,0,0,0,0,0,0,0,0,0,0,0,0,0,0,0,0,0,0,0,0,0,0,0,0,0,0,0,0,0,0,0,0,0,0,0,0,0,0,0,0,0,0,0,0,0,0,0,0,0,0,0,0,0,0,0,0,0,0,0,0,0,0,0,
0,0,0,0,0,0,0,0,0,0,501,0,0,0,0,0,0,0,0,0,0,0,0,0,0,0,0,0,0,0,1572,1569,1570,1570,1571,1572,2125,0,0,0,0,2169,1569,1570,1570,1570,1570,1571,0,0,0,0,0,0,0,0,0,0,0,0,0,0,0,0,0,0,0,0,0,0,0,0,0,0,0,0,
0,0,0,0,0,0,0,0,0,0,509,0,0,0,0,0,0,0,0,0,0,0,0,0,0,0,0,0,0,0,0,1577,1578,1578,1579,1580,2133,0,0,0,0,2177,1577,1578,1578,1578,1578,1579,0,0,0,0,0,0,0,0,0,0,0,0,0,0,0,0,0,0,0,0,0,0,0,0,0,0,0,0,
0,0,0,0,0,0,0,0,0,0,501,0,0,0,0,0,0,0,0,0,0,0,0,0,0,0,0,0,0,0,0,0,0,0,0,0,0,0,0,0,0,0,0,0,0,0,0,0,0,0,0,0,0,0,0,0,0,0,0,0,0,0,0,0,0,0,0,0,0,0,0,0,0,0,0,0,
0,0,0,0,0,0,0,0,0,0,509,0,0,0,0,0,0,0,0,0,0,0,0,0,0,0,0,0,0,0,0,0,0,0,0,0,0,0,0,0,0,0,0,0,0,0,0,0,0,0,0,0,0,0,0,0,0,0,0,0,0,0,0,0,0,0,0,0,0,0,0,0,0,0,0,0,
0,0,0,0,0,0,0,0,0,0,501,0,0,0,0,0,0,0,0,1569,1570,1570,1571,1572,1569,1570,1570,1571,1572,1569,1570,1570,1570,1570,1571,1572,0,0,0,0,0,0,1569,1570,1570,1571,1572,1569,1570,1570,1571,1572,1569,1570,1570,1571,1572,0,0,0,0,0,0,0,0,0,0,0,0,0,0,0,0,0,0,0,
0,0,0,0,0,0,0,0,0,0,509,0,0,0,0,0,0,0,0,1577,1578,1578,1579,1580,1577,1578,1578,1579,1580,1577,1578,1578,1578,1578,1579,1580,0,0,0,0,0,0,1577,1578,1578,1579,1580,1577,1578,1578,1579,1580,1577,1578,1578,1579,1580,0,0,0,0,0,0,0,0,0,0,0,0,0,0,0,0,0,0,0,
0,0,0,0,0,0,0,0,0,0,501,0,0,0,0,0,0,0,0,1585,1586,1586,1587,1588,1585,1586,1586,1587,1588,1585,1586,1586,1586,1586,1587,1588,1196,2118,2119,2119,2120,1196,1585,1586,1586,1587,1588,1585,1586,1586,1587,1588,1585,1586,1586,1587,1588,0,0,0,0,0,0,0,0,0,0,0,0,0,0,0,0,0,0,0,
0,0,0,0,0,0,0,0,0,0,509,0,0,0,0,0,0,0,0,1593,1594,1594,1595,1596,1593,1594,1594,1595,1596,1593,1594,1594,1594,1594,1595,1596,0,0,0,0,0,0,1593,1594,1594,1595,1596,1593,1594,1594,1595,1596,1593,1594,1594,1595,1596,0,0,0,0,0,0,0,0,0,0,0,0,0,0,0,0,0,0,0,
0,0,0,0,0,0,0,0,0,0,501,0,0,0,0,0,0,0,0,845,1602,1602,1603,1604,1601,1602,1602,1603,1604,1601,1602,1602,1602,1602,1603,1604,845,0,0,0,0,845,0,0,0,0,0,0,0,0,0,0,0,0,0,0,0,0,0,0,0,0,0,0,0,0,0,0,0,0,0,0,0,0,0,0,
0,0,0,0,0,0,0,0,0,0,509,0,0,0,0,0,0,0,0,853,0,0,0,0,0,0,0,0,0,0,0,0,0,0,0,0,853,0,0,0,0,853,0,0,0,0,0,0,0,691,692,693,694,695,696,736,0,0,0,0,0,0,0,0,0,0,0,0,0,0,0,0,0,0,0,0,
0,0,0,0,0,0,0,0,0,0,501,0,0,0,0,0,0,0,0,861,0,1569,1570,1571,1572,0,0,0,0,0,0,0,0,0,0,0,861,0,0,0,0,861,0,0,0,0,0,0,0,699,700,701,702,703,704,744,0,0,0,0,0,0,0,0,0,0,0,0,0,0,0,0,0,0,0,0,
0,0,0,0,0,0,0,0,0,0,509,0,0,0,0,0,0,0,0,0,0,0,0,0,0,0,0,0,0,0,0,0,0,0,0,0,0,0,0,0,0,0,0,0,0,0,0,0,0,707,708,709,710,711,712,752,0,0,0,0,0,0,0,0,0,0,0,0,0,0,0,0,0,0,0,0,
0,0,0,0,0,0,0,0,0,0,501,0,0,0,0,0,0,0,0,0,0,0,0,0,0,0,0,0,0,0,0,0,0,0,0,0,0,0,0,0,0,0,0,0,0,0,0,0,0,715,716,717,718,719,720,760,0,0,0,0,0,0,0,0,0,0,0,0,0,0,0,0,0,0,0,0,
0,0,0,0,0,0,0,0,0,0,509,0,0,0,0,0,0,0,0,0,0,0,0,0,0,0,0,0,0,0,0,0,0,0,0,0,0,0,0,0,0,0,0,0,0,0,0,0,0,723,724,725,0,727,728,768,0,0,0,0,0,0,0,0,0,0,0,0,0,0,0,0,0,0,0,0,
0,0,0,0,0,0,0,0,0,0,501,0,0,0,0,0,0,0,0,0,0,0,0,0,0,0,0,0,0,0,0,0,0,0,0,0,0,0,0,0,0,0,0,0,0,0,0,0,0,0,0,0,0,0,0,0,0,0,0,0,0,0,0,0,0,0,0,0,0,0,0,0,0,0,0,0,
0,0,0,0,0,0,0,0,0,0,509,0,0,0,0,0,0,0,0,0,0,0,0,0,0,0,0,0,0,0,0,0,0,0,0,0,0,0,0,0,0,0,0,0,0,0,0,0,0,0,0,0,0,0,0,0,0,0,0,0,0,0,0,0,0,0,0,0,0,0,0,0,0,0,0,0,
0,0,0,0,0,0,0,0,0,0,501,0,0,0,0,0,0,0,0,0,0,0,0,0,0,0,0,0,0,0,0,0,0,0,0,0,0,0,0,0,0,0,0,0,0,0,0,0,0,0,0,0,0,0,0,0,0,0,0,0,0,0,0,0,0,0,0,0,0,0,0,0,0,0,0,0,
0,0,0,0,0,0,0,0,0,0,509,0,0,0,0,0,0,0,0,0,0,0,0,0,0,0,0,0,0,0,0,0,0,0,0,0,0,0,0,0,0,0,0,0,0,0,0,0,0,0,0,0,0,0,0,0,0,0,0,0,0,0,0,0,0,0,0,0,0,0,0,0,0,0,0,0,
0,0,0,0,0,0,0,0,0,0,0,0,0,0,0,0,0,0,0,0,0,0,0,0,0,0,0,0,0,0,0,0,0,0,0,0,0,0,0,0,0,0,0,0,0,0,0,0,0,0,0,0,0,0,0,0,0,0,0,0,0,0,0,0,0,0,0,0,0,0,0,0,0,0,0,0,
0,0,0,0,0,0,0,0,0,0,0,0,0,0,0,0,0,0,0,0,0,0,0,0,0,0,0,0,0,0,0,0,0,0,0,0,0,0,0,0,0,0,0,0,0,0,0,0,0,0,0,0,0,0,0,0,0,0,0,0,0,0,0,0,0,0,0,0,0,0,0,0,0,0,0,0,
0,0,0,0,0,0,0,0,0,0,0,0,0,0,0,0,0,0,0,0,0,0,0,0,0,0,0,0,0,0,0,0,0,0,0,0,0,0,0,0,0,0,0,0,0,0,0,0,0,0,0,0,0,0,0,0,0,0,0,0,0,0,0,0,0,0,0,0,0,0,0,0,0,0,0,0,
0,0,0,0,0,0,0,0,0,0,0,0,0,0,0,0,0,0,0,0,0,0,0,0,0,0,0,0,0,0,0,0,0,0,0,1013,1014,1015,1015,1016,1005,0,0,0,0,0,0,0,0,0,0,0,0,0,0,0,0,0,0,0,0,0,0,0,0,0,0,0,0,0,471,471,1301,0,0,0,
0,0,0,0,0,0,0,0,0,0,0,0,0,0,0,0,0,0,0,0,0,0,0,0,0,0,0,0,0,0,0,0,933,1195,1195,1021,1022,1023,1023,1024,1006,1195,1195,933,0,0,0,0,0,0,0,0,0,0,0,0,0,0,0,0,0,0,0,0,0,0,0,0,0,0,479,479,1309,0,0,0,
0,0,0,0,0,0,0,2170,2171,2172,2173,2174,2175,0,0,0,0,0,0,0,0,0,0,0,0,0,0,0,0,0,0,0,0,0,0,0,0,0,0,0,0,0,0,0,0,0,0,0,0,0,0,0,0,0,0,0,0,0,0,0,0,0,0,2170,2171,2172,2173,2174,2175,0,0,0,0,0,0,0,
0,0,0,0,0,0,0,2178,2179,2180,2181,2182,2183,0,0,0,0,0,0,0,0,0,0,0,0,0,0,0,0,0,0,0,1571,1572,0,0,0,0,0,0,0,0,0,0,0,0,0,0,0,0,0,0,0,0,0,0,0,0,0,0,0,0,0,2178,2179,2180,2181,2182,2183,0,0,0,0,0,0,0,
0,0,0,0,0,0,0,2186,2187,2188,2189,2190,2191,0,0,0,0,0,0,0,0,0,0,0,0,0,0,0,0,0,0,0,1579,1580,0,0,0,0,0,0,0,0,0,0,0,0,0,0,0,0,0,0,0,0,0,0,0,0,0,0,0,0,0,2186,2187,2188,2189,2190,2191,0,0,0,0,0,0,0,
0,0,0,0,0,0,0,2194,2195,2196,2197,2198,2199,0,0,0,0,0,0,0,0,0,0,0,0,0,0,0,0,0,0,0,0,0,0,0,0,0,0,0,0,0,0,0,0,0,0,0,0,0,0,0,0,0,0,0,0,0,0,0,0,0,0,2194,2195,2196,2197,2198,2199,0,0,0,0,0,0,0,
0,0,0,0,0,0,0,2202,2203,2204,2205,2206,2207,0,0,0,0,0,0,0,0,0,0,0,0,0,0,0,0,0,0,0,0,0,0,0,0,0,0,0,0,0,0,0,0,0,0,0,0,0,0,0,0,0,0,0,0,0,0,0,0,0,0,2202,2203,2204,2205,2206,2207,0,0,0,0,0,0,0,
0,0,0,0,0,0,0,2210,2211,2212,2213,2214,2215,0,0,0,0,0,0,0,0,0,0,0,0,0,0,0,0,0,0,0,0,0,845,0,0,0,0,0,0,845,0,0,0,0,0,0,0,0,0,0,0,0,0,0,0,0,0,0,0,0,0,2210,2211,2212,2213,2214,2215,0,0,0,0,0,0,0,
0,829,829,829,829,829,829,829,829,1195,1195,1195,1195,0,0,0,0,0,0,0,0,0,0,0,0,0,0,0,0,0,0,0,0,0,853,0,0,0,0,0,0,853,0,0,0,0,0,0,0,0,0,0,0,0,0,0,0,0,0,0,0,0,0,1195,1195,1195,1195,1195,1195,0,0,0,0,0,0,0,
0,0,0,0,0,0,0,0,0,0,0,0,0,0,0,0,0,0,0,0,0,0,0,0,0,0,0,0,0,0,0,0,0,0,861,0,0,0,0,0,0,861,0,0,0,0,0,0,0,0,0,0,0,0,0,0,0,0,0,0,0,0,0,0,0,0,0,0,0,0,0,0,0,0,0,0,
0,0,0,0,0,0,0,0,0,0,0,0,0,0,0,0,0,0,0,0,0,0,0,1195,1195,1195,1195,1195,1195,1195,1195,1195,1195,1195,0,0,0,0,0,0,0,0,1195,1195,1195,1195,1195,1195,1195,1195,1195,1195,1195,0,0,0,0,0,0,0,0,0,0,0,0,0,0,0,0,0,0,0,0,0,0,0,
0,0,0,0,0,0,0,0,0,0,0,0,0,0,0,0,0,0,0,0,0,0,0,0,0,0,0,0,0,0,0,0,0,0,0,0,0,0,0,0,0,0,0,0,0,0,0,0,0,0,0,0,0,0,0,0,0,0,0,0,0,0,0,0,0,0,0,0,0,0,0,0,0,0,0,0,
0,0,0,0,0,0,0,0,0,0,0,0,0,0,0,0,0,0,0,0,0,0,0,0,0,0,0,0,0,0,0,0,0,0,0,0,0,0,0,0,0,0,0,0,0,0,0,0,0,0,0,0,0,0,0,0,0,0,0,0,0,0,0,0,0,0,0,0,0,0,0,0,0,0,0,0,
0,0,0,0,517,518,517,518,517,518,501,0,0,0,0,0,0,0,0,0,0,0,0,0,0,0,0,0,0,0,0,1577,0,0,0,0,0,0,0,0,0,0,0,0,0,0,0,0,0,0,0,0,0,0,0,0,0,0,0,0,0,0,0,0,0,0,0,0,0,0,0,0,0,0,0,0,
0,0,0,0,0,0,0,0,0,0,509,0,0,0,0,0,0,0,0,0,0,0,0,0,0,0,0,0,0,0,0,1585,0,0,0,0,0,0,0,0,0,0,0,0,0,0,0,0,0,0,0,0,0,0,0,0,0,0,0,0,0,0,0,0,0,0,0,0,0,0,0,0,0,0,0,0,
0,0,0,0,0,0,0,0,0,0,501,0,0,0,0,0,0,0,0,0,0,0,0,0,0,0,0,0,0,0,0,1593,0,0,0,0,0,845,0,0,0,0,0,0,0,0,0,0,0,0,0,0,0,0,0,0,0,0,0,0,0,0,0,0,0,0,0,0,0,0,0,0,0,0,0,0,
0,0,0,0,0,0,0,0,0,0,509,0,0,0,0,0,0,0,0,0,0,0,0,0,0,0,0,0,0,0,0,1601,0,0,0,0,0,853,0,0,0,0,0,0,0,0,0,0,0,0,0,0,0,0,0,0,0,0,0,0,0,0,0,0,0,0,0,0,0,0,0,0,0,0,0,0,
0,0,0,0,0,0,0,0,0,0,501,0,0,0,0,0,0,0,0,0,0,0,0,0,0,0,0,0,0,0,0,1609,0,0,0,0,0,861,0,0,0,0,0,0,0,0,0,0,0,0,0,0,0,0,0,0,0,0,0,0,0,0,0,0,0,0,0,0,0,0,0,0,0,0,0,0,
0,0,0,0,0,0,0,0,0,0,509,0,0,0,0,0,0,0,0,0,0,0,0,0,0,0,0,0,0,0,0,1431,0,0,0,0,0,0,0,0,0,0,0,0,0,0,0,0,0,0,0,0,0,0,0,0,0,0,0,0,0,0,0,0,0,0,0,0,0,0,0,0,0,0,0,0,
0,0,0,0,0,0,0,0,0,0,501,0,0,0,0,0,0,0,0,0,0,0,0,0,0,0,0,0,0,0,0,0,0,0,0,0,0,0,0,0,0,0,0,0,0,0,0,0,0,0,0,0,0,0,0,0,0,0,0,0,0,0,0,0,0,0,0,0,0,0,0,0,0,0,0,0,
0,0,0,0,0,0,0,0,0,0,509,0,0,0,0,0,0,0,0,845,0,0,0,0,0,0,0,0,0,0,0,0,0,0,0,0,0,0,0,0,0,0,0,0,0,0,0,0,0,0,0,0,0,0,0,0,0,0,0,0,0,0,0,0,0,0,0,0,0,0,0,0,0,0,0,0,
0,0,0,0,0,0,0,0,0,0,501,0,0,0,0,0,0,0,0,853,0,0,0,0,0,0,0,0,0,0,0,0,0,0,0,0,0,0,0,0,0,0,0,0,0,0,0,0,0,0,0,0,0,0,0,0,0,0,0,0,0,0,0,0,0,0,0,0,0,0,0,0,0,0,0,0,
0,0,0,0,0,0,0,0,0,0,509,0,0,0,0,0,0,0,0,1569,1570,1570,1571,1572,1569,1570,1571,1572,1569,1570,1571,1572,1569,1570,1571,1572,845,0,0,0,0,845,1569,1570,1570,1571,1572,1569,1570,1570,1571,1572,1569,1570,1570,1571,1572,0,0,0,0,0,0,0,0,0,0,0,0,0,0,0,0,0,0,0,
0,0,0,0,0,0,0,0,0,0,501,0,0,0,0,0,0,0,0,1577,1578,1578,1579,1580,1577,1578,1579,1580,1577,1578,1579,1580,1577,1578,1579,1580,853,0,0,0,0,853,1577,1578,1578,1579,1580,1577,1578,1578,1579,1580,1577,1578,1578,1579,1580,0,0,0,0,0,0,0,0,0,0,0,0,0,0,0,0,0,0,0,
0,0,0,0,0,0,0,0,0,0,509,0,0,0,0,0,0,0,0,1585,1586,1586,1587,1588,1585,1586,1587,1588,1585,1586,1587,1588,1585,1586,1587,1588,861,0,0,0,0,861,1585,1586,1586,1587,1588,1585,1586,1586,1587,1588,1585,1586,1586,1587,1588,0,0,0,0,0,0,0,0,0,0,0,0,0,0,0,0,0,0,0,
0,0,0,0,0,0,0,0,0,0,501,0,0,0,0,0,0,0,0,1593,1594,1594,1595,1596,1593,1594,1595,1596,1593,1594,1595,1596,1593,1594,1595,1596,0,0,0,0,0,0,1593,1594,1594,1595,1596,1593,1594,1594,1595,1596,1593,1594,1594,1595,1596,0,0,0,0,0,0,0,0,0,0,0,0,0,0,0,0,0,0,0,
0,0,0,0,0,0,0,0,0,0,509,0,0,0,0,0,0,0,0,1569,1570,1571,1572,1569,1570,1571,1572,1569,1570,1570,1571,1572,1569,1570,1571,1572,0,0,0,0,0,0,1569,1570,1571,1572,1569,1570,1570,1571,1572,1569,1570,1570,1570,1571,1572,0,0,0,0,0,0,0,0,0,0,0,0,0,0,0,0,0,0,0,
0,0,0,0,0,0,0,0,0,0,501,0,0,0,0,0,0,0,0,1577,1578,1579,1580,1577,1578,1579,1580,1577,1578,1578,1579,1580,1577,1578,1579,1580,2125,0,0,0,0,2169,1577,1578,1579,1580,1577,1578,1578,1579,1580,1577,1578,1578,1578,1579,1580,0,0,0,0,0,0,0,0,0,0,0,0,0,0,0,0,0,0,0,
0,0,0,0,0,0,0,0,0,0,509,0,0,0,0,0,0,0,0,1585,1586,1587,1588,1585,1586,1587,1588,1585,1586,1586,1587,1588,1585,1586,1587,1588,2133,0,0,0,0,2177,1585,1586,1587,1588,1585,1586,1586,1587,1588,1585,1586,1586,1586,1587,1588,0,0,0,0,0,0,0,0,0,0,0,0,0,0,0,0,0,0,0,
0,0,0,0,0,0,0,0,0,0,501,0,0,0,0,0,0,0,0,1593,1594,1595,1596,1593,1594,1595,1596,1593,1594,1594,1595,1596,1593,1594,1595,1596,2141,0,0,0,0,2185,1593,1594,1595,1596,1593,1594,1594,1595,1596,1593,1594,1594,1594,1595,1596,0,0,0,0,0,0,0,0,0,0,0,0,0,0,0,0,0,0,0,
0,0,0,0,0,0,0,0,0,0,509,0,0,0,0,0,0,0,0,1601,1602,1603,1604,1601,1602,1603,1604,1601,1602,1602,1603,1604,1601,1602,1603,1604,2149,0,0,0,0,2193,1601,1602,1603,1604,1601,1602,1602,1603,1604,1601,1602,1602,1602,1603,1604,0,0,0,0,0,0,0,0,0,0,0,0,0,0,0,0,0,0,0,
0,0,0,0,0,0,0,0,0,0,501,0,0,0,0,0,0,0,0,1609,1610,1611,1612,1609,1610,1611,1612,1609,1610,1610,1611,1612,1609,1610,1611,1612,2157,0,0,0,0,2201,1609,1610,1611,1612,1609,1610,1610,1611,1612,1609,1610,1610,1610,1611,1612,0,0,0,0,0,0,0,0,0,0,0,0,0,0,0,0,0,0,0,
0,0,0,0,0,0,0,0,0,0,509,0,0,0,0,0,0,0,0,0,0,0,0,0,0,0,0,0,0,0,0,0,0,0,0,0,2165,0,0,0,0,2209,0,0,0,0,0,0,0,0,0,0,0,0,0,0,0,0,0,0,0,0,0,0,0,0,0,0,0,0,0,0,0,0,0,0,
0,0,0,0,0,0,517,518,517,518,517,518,517,518,517,518,517,518,517,518,517,518,517,518,517,518,517,518,517,518,517,518,517,518,517,518,501,0,0,0,0,502,517,518,517,518,517,518,517,518,517,518,517,518,517,518,517,518,517,518,517,518,517,518,517,518,0,0,0,0,0,0,0,0,0,0,
0,0,0,0,0,0,499,498,499,498,499,498,499,498,499,498,499,498,499,498,499,498,499,498,499,498,499,498,499,498,499,500,499,498,499,500,509,0,0,0,0,510,499,498,499,498,499,498,499,498,499,498,499,498,499,498,499,498,499,498,499,498,499,498,499,498,0,0,0,0,0,0,0,0,0,0
  </data>
 </layer>
 <objectgroup id="4" name="events"/>
</map>
