<?xml version="1.0" encoding="UTF-8"?>
<map version="1.10" tiledversion="1.10.2" orientation="orthogonal" renderorder="right-down" compressionlevel="0" width="48" height="33" tilewidth="32" tileheight="32" infinite="0" nextlayerid="7" nextobjectid="1">
 <tileset firstgid="1" source="RMXP-Caves.tsx"/>
 <tileset firstgid="1593" source="RMXP-auto-land.tsx"/>
 <tileset firstgid="1641" source="RMXP-auto-land2-2.tsx"/>
 <tileset firstgid="1689" source="RMXP-auto-cavewater.tsx"/>
 <tileset firstgid="1737" source="RMXP-auto-tfj-waterfall.tsx"/>
 <tileset firstgid="1785" source="RMXP-auto-waterfall-crest.tsx"/>
 <tileset firstgid="1833" source="RMXP-auto-hgss-waves.tsx"/>
 <tileset firstgid="1881" source="RMXP-auto-hgss-sea.tsx"/>
 <layer id="1" name="lower" width="48" height="33">
  <data encoding="csv">
786,786,786,786,786,786,786,786,786,786,786,786,786,786,786,786,786,786,786,786,786,786,786,786,786,786,786,786,786,786,786,786,786,786,786,786,786,786,786,786,786,786,786,786,786,786,786,786,
786,786,786,786,786,786,786,786,786,786,786,786,786,786,786,786,786,786,786,786,786,786,786,786,786,786,786,786,786,786,786,786,786,786,786,786,786,786,786,786,786,786,786,786,786,786,786,786,
786,786,786,786,786,786,786,786,786,786,786,786,786,786,786,786,786,786,786,786,786,786,786,786,786,786,786,786,786,786,786,786,786,786,786,786,786,786,786,786,786,786,786,786,786,786,786,786,
786,786,786,786,786,786,786,786,786,786,786,786,786,786,786,786,786,786,786,786,786,786,786,786,786,786,786,786,786,786,786,786,786,786,786,786,786,786,786,786,786,786,786,786,786,786,786,786,
786,786,786,786,786,786,786,786,786,786,786,786,786,786,786,786,786,786,786,786,786,786,786,786,786,786,786,786,786,786,786,786,786,786,786,786,786,786,786,786,786,786,786,786,786,786,786,786,
786,786,786,786,786,786,786,720,720,720,720,720,720,720,720,720,720,720,720,720,720,720,720,720,720,720,720,720,720,720,720,720,720,720,720,720,720,720,720,720,786,786,786,786,786,786,786,786,
786,786,786,786,786,786,786,720,1627,1613,1629,720,720,720,720,720,720,720,720,720,720,1627,1613,1613,1629,720,720,720,720,720,720,720,720,720,720,720,720,720,720,720,720,786,786,786,786,786,786,786,
786,786,786,786,786,786,786,720,1609,1593,1617,720,786,786,786,786,786,786,786,786,720,1609,1593,1593,1617,720,786,786,786,786,786,786,786,786,786,786,786,786,786,786,720,786,786,786,786,786,786,786,
786,786,786,786,786,786,786,720,1609,1593,1617,720,786,786,786,786,786,786,786,786,720,1609,1593,1593,1617,720,786,786,786,786,786,786,786,786,786,786,786,786,786,786,720,720,786,786,786,786,786,786,
786,786,786,786,786,786,786,720,1609,1593,1617,720,720,720,720,720,720,720,720,720,720,1609,1593,1593,1617,720,786,786,786,786,786,786,786,786,786,786,786,786,786,786,720,720,786,786,786,786,786,786,
786,786,786,786,786,786,786,712,1609,1593,1595,1613,1613,1613,1613,1613,1613,1613,1613,1613,1613,1594,1593,1593,1617,720,786,786,786,786,786,786,786,786,786,786,786,786,786,786,720,720,786,786,786,786,786,786,
786,786,786,786,786,786,786,720,1609,1593,1593,1593,1593,1593,1593,1593,1593,1593,1593,1593,1593,1593,1593,1593,1617,720,786,786,720,720,720,720,720,720,720,720,720,720,720,720,720,720,720,786,786,786,786,786,
786,786,786,786,786,786,712,712,1609,1593,1593,1593,1593,1593,1597,1621,1621,1621,1621,1621,1621,1621,1621,1621,1631,720,786,786,720,1675,1661,1661,1661,1661,1661,1661,1661,1661,1661,1677,720,720,720,786,786,786,786,786,
786,786,786,786,786,786,720,720,1609,1593,1593,1593,1593,1593,1617,720,786,786,786,786,786,786,786,786,786,786,786,786,720,1657,1641,1641,1641,1641,1641,1641,1641,1641,1641,1665,720,720,720,786,786,786,786,786,
786,786,786,786,786,786,712,712,1609,1593,1593,1593,1593,1593,1617,720,786,786,786,786,786,786,786,786,786,786,786,786,720,1657,1641,1641,1641,1641,1641,1641,1641,1641,1641,1665,720,720,720,786,786,786,786,786,
786,786,786,786,786,786,720,720,1609,1593,1593,1593,1593,1593,1617,720,786,786,786,786,786,786,786,786,786,786,786,786,720,1657,1641,1641,1641,1641,1641,1641,1641,1641,1641,1665,720,720,720,786,786,786,786,786,
786,786,786,786,786,786,720,712,1609,1593,1593,1593,1593,1593,1617,720,786,786,786,786,786,786,786,786,786,720,720,720,720,1657,1641,1641,1641,1641,1641,1641,1641,1641,1641,1665,720,720,786,786,786,786,786,786,
786,786,786,786,786,786,786,720,1609,1593,1593,1593,1593,1593,1617,720,720,720,720,720,720,720,720,786,786,720,1675,1661,1661,1642,1641,1641,1641,1641,1641,1641,1641,1641,1641,1665,720,720,786,786,786,786,786,786,
786,786,786,786,786,786,786,712,1609,1593,1593,1593,1593,1593,1595,1613,1613,1613,1613,1613,1613,1629,720,786,786,720,1657,1641,1641,1641,1641,1641,1641,1641,1641,1641,1641,1641,1641,1665,720,720,786,786,786,786,786,786,
786,786,786,786,786,786,786,720,1609,1593,1593,1593,1593,1593,1593,1593,1593,1593,1593,1593,1593,1617,720,786,786,720,1657,1641,1641,1641,1641,1641,1641,1641,1641,1641,1641,1641,1641,1665,720,786,786,786,786,786,786,786,
786,786,786,786,786,786,786,720,1609,1593,1593,1593,1593,1593,1593,1593,1593,1593,1593,1593,1593,1617,720,786,786,720,1657,1641,1641,1641,1641,1641,1641,1641,1641,1641,1641,1641,1641,1665,720,786,786,786,786,786,786,786,
786,786,786,786,786,786,786,720,1609,1593,1593,1593,1593,1593,1593,1593,1593,1593,1593,1593,1593,1617,720,786,786,720,1657,1641,1641,1641,1641,1641,1641,1641,1641,1641,1641,1641,1641,1665,720,786,786,786,786,786,786,786,
786,786,786,786,786,786,786,720,1633,1621,1621,1621,1621,1601,1597,1621,1621,1621,1621,1621,1621,1631,720,786,786,720,1681,1669,1669,1649,1641,1641,1641,1641,1641,1641,1641,1641,1641,1665,720,786,786,786,786,786,786,786,
786,786,786,786,786,786,786,786,786,786,786,786,720,1609,1617,720,786,786,786,786,786,786,786,786,786,786,786,786,720,1681,1649,1641,1641,1641,1641,1641,1641,1641,1641,1665,720,786,786,786,786,786,786,786,
786,786,786,786,786,786,786,786,786,786,786,786,720,1609,1617,720,786,786,786,786,786,786,786,786,786,786,786,786,786,786,1681,1649,1641,1645,1669,1669,1669,1669,1669,1679,720,786,786,786,786,786,786,786,
786,786,786,786,786,786,786,786,786,786,786,786,720,1609,1617,720,786,786,786,786,786,786,786,786,786,786,786,786,786,786,720,1657,1641,1665,720,786,786,786,786,786,786,786,786,786,786,786,786,786,
786,786,786,786,786,786,786,786,786,786,786,786,720,1633,1631,720,786,786,786,786,786,786,786,786,786,786,786,786,786,786,720,1681,1669,1679,720,786,786,786,786,786,786,786,786,786,786,786,786,786,
786,786,786,786,786,786,786,786,786,786,786,786,720,720,720,720,786,786,786,786,786,786,786,786,786,786,786,786,786,786,720,720,720,720,720,786,786,786,786,786,786,786,786,786,786,786,786,786,
786,786,786,786,786,786,786,786,786,786,786,786,786,786,786,786,786,786,786,786,786,786,786,786,786,786,786,786,786,786,786,786,786,786,786,786,786,786,786,786,786,786,786,786,786,786,786,786,
786,786,786,786,786,786,786,786,786,786,786,786,786,786,786,786,786,786,786,786,786,786,786,786,786,786,786,786,786,786,786,786,786,786,786,786,786,786,786,786,786,786,786,786,786,786,786,786,
786,786,786,786,786,786,786,786,786,786,786,786,786,786,786,786,786,786,786,786,786,786,786,786,786,786,786,786,786,786,786,786,786,786,786,786,786,786,786,786,786,786,786,786,786,786,786,786,
786,786,786,786,786,786,786,786,786,786,786,786,786,786,786,786,786,786,786,786,786,786,786,786,786,786,786,786,786,786,786,786,786,786,786,786,786,786,786,786,786,786,786,786,786,786,786,786,
786,786,786,786,786,786,786,786,786,786,786,786,786,786,786,786,786,786,786,786,786,786,786,786,786,786,786,786,786,786,786,786,786,786,786,786,786,786,786,786,786,786,786,786,786,786,786,786
  </data>
 </layer>
 <layer id="2" name="middle" width="48" height="33">
  <data encoding="csv">
0,0,0,0,0,0,0,0,0,0,0,0,0,0,0,0,0,0,0,0,0,0,0,0,0,0,0,0,0,0,0,0,0,0,0,0,0,0,0,0,0,0,0,0,0,0,0,0,
0,0,0,0,0,0,0,0,0,0,0,0,0,0,0,0,0,0,0,0,0,0,0,0,0,0,0,0,0,0,0,0,0,0,0,0,0,0,0,0,0,0,0,0,0,0,0,0,
0,0,0,0,0,0,0,0,0,0,0,0,0,0,0,0,0,0,0,0,0,0,0,0,0,0,0,0,0,0,0,0,0,0,0,0,0,0,0,0,0,0,0,0,0,0,0,0,
0,0,0,0,0,0,0,0,0,0,0,0,0,0,0,0,0,0,0,0,0,0,0,0,0,0,0,0,0,0,0,0,0,0,0,0,0,0,0,0,0,0,0,0,0,0,0,0,
0,0,0,0,0,0,0,0,0,0,0,0,0,0,0,0,0,0,0,0,0,0,0,0,0,0,0,0,0,0,0,0,0,0,0,0,0,0,0,0,0,0,0,0,0,0,0,0,
0,0,0,0,0,0,0,801,794,794,794,794,794,794,794,794,794,794,794,794,794,794,794,794,794,794,794,794,794,794,794,794,794,794,794,794,794,794,794,794,802,0,0,0,0,0,0,0,
0,0,0,0,0,0,808,787,0,0,0,777,778,778,778,778,778,778,778,778,779,0,0,0,0,777,778,778,778,778,778,778,778,778,778,778,778,778,778,779,785,0,808,0,0,0,0,0,
0,0,0,0,0,0,0,787,0,0,0,785,0,833,834,834,834,834,835,0,787,0,0,0,0,785,0,833,834,834,834,834,834,834,834,834,834,835,0,787,785,0,0,0,0,0,0,0,
0,0,0,0,0,0,801,795,0,0,0,785,0,849,850,850,850,850,851,0,787,0,0,0,0,785,0,841,842,842,842,842,842,842,842,842,842,843,0,787,793,802,0,0,0,0,0,0,
0,0,0,0,0,0,787,808,0,0,0,793,794,794,794,692,693,794,794,794,795,0,0,0,0,785,0,849,850,850,850,850,850,850,850,850,850,851,0,787,808,785,808,0,0,0,0,0,
0,0,0,0,0,0,787,558,0,0,0,0,0,0,0,0,0,0,0,0,0,0,0,0,0,785,0,0,0,0,0,0,0,0,0,0,0,0,0,787,558,785,0,0,0,0,0,0,
0,0,0,0,0,808,787,808,0,0,0,0,0,0,0,0,0,0,0,0,0,0,0,0,0,785,0,0,801,794,794,794,794,794,794,794,794,794,794,795,808,793,802,0,0,0,0,0,
0,0,0,0,0,801,795,808,0,0,0,0,0,0,0,777,778,778,778,778,778,778,778,778,778,784,0,0,787,0,0,0,0,0,0,0,0,0,0,0,808,558,785,0,0,0,0,0,
0,0,0,0,0,787,558,558,0,0,0,0,0,0,0,785,0,0,0,808,0,0,0,0,0,0,0,0,787,0,0,0,0,0,0,0,0,0,0,0,560,558,785,0,0,0,0,0,
0,0,0,0,0,787,558,558,0,0,0,0,0,0,0,785,0,833,834,834,834,834,834,834,834,834,835,0,787,0,0,0,0,0,0,0,0,0,0,0,558,808,785,0,0,0,0,0,
0,0,0,0,0,787,560,808,0,0,0,0,0,0,0,785,0,841,842,842,842,842,842,842,836,850,851,0,787,0,0,0,0,0,0,0,0,0,0,0,560,777,784,0,0,0,0,0,
0,0,0,0,0,783,779,560,0,0,0,0,0,0,0,785,0,849,850,850,850,850,850,837,843,801,794,794,795,0,0,0,0,0,0,0,0,0,0,0,808,785,0,0,0,0,0,0,
0,0,0,0,0,808,787,808,0,0,0,0,0,0,0,793,794,692,693,794,794,794,802,841,843,787,0,0,0,0,0,0,0,0,0,0,0,0,0,0,808,785,0,0,0,0,0,0,
0,0,0,0,0,0,787,808,0,0,0,0,0,0,0,0,0,0,0,0,0,0,785,841,843,787,0,0,0,0,0,0,0,0,0,0,0,0,0,0,777,784,0,0,0,0,0,0,
0,0,0,0,0,0,787,558,0,0,0,0,0,0,0,0,0,0,0,0,0,0,785,841,843,787,0,0,0,0,0,0,0,0,0,0,0,0,0,0,785,0,0,0,0,0,0,0,
0,0,0,0,0,0,783,779,0,0,0,0,0,0,0,0,0,0,0,0,0,0,785,841,843,787,0,0,0,0,0,0,0,0,0,0,0,0,0,0,785,0,0,0,0,0,0,0,
0,0,0,0,0,0,808,787,0,0,0,0,0,0,0,0,0,0,0,0,0,0,785,841,843,787,0,0,0,0,0,0,0,0,0,0,0,0,0,0,785,0,0,0,0,0,0,0,
0,0,0,0,0,0,0,783,778,778,778,778,779,0,0,777,778,778,778,778,778,778,784,841,843,783,778,778,779,0,0,0,0,0,0,0,0,0,0,0,785,0,0,0,0,0,0,0,
0,0,0,0,0,0,0,0,0,0,0,0,787,0,0,785,0,0,0,0,0,0,0,841,843,0,0,0,783,778,779,0,0,0,0,0,0,0,0,0,785,0,0,0,0,0,0,0,
0,0,0,0,0,808,0,0,0,0,0,0,787,0,0,785,0,833,834,834,834,834,834,845,844,834,834,835,0,0,787,0,0,0,777,778,778,778,778,778,784,0,0,0,0,0,0,0,
0,0,0,0,0,0,0,0,0,0,0,0,787,0,0,785,0,849,850,850,850,850,850,850,850,850,850,851,0,0,787,0,0,0,785,0,0,0,0,0,0,0,0,0,0,0,0,0,
0,0,0,0,0,0,0,808,0,0,0,0,787,0,0,793,794,794,794,794,794,794,794,794,794,794,794,794,794,794,795,0,0,0,785,0,0,0,0,0,0,0,0,0,0,0,0,0,
0,0,0,0,0,0,0,0,0,0,808,0,783,778,778,778,778,778,778,778,778,778,778,778,778,778,778,778,778,778,778,778,778,778,784,0,0,0,0,0,0,0,0,0,0,0,0,0,
0,0,0,0,0,0,0,0,0,0,0,0,0,0,0,0,0,0,0,0,0,0,0,0,0,0,0,0,0,0,0,0,0,0,0,0,0,0,0,0,0,0,0,0,0,0,0,0,
0,0,0,0,0,0,0,0,0,0,0,0,0,0,0,0,0,0,0,0,0,0,0,0,0,0,0,0,0,0,0,0,0,0,0,0,0,0,0,0,0,0,0,0,0,0,0,0,
0,0,0,0,0,0,0,0,0,0,0,0,0,0,0,0,0,0,0,0,0,0,0,0,0,0,0,0,0,0,0,0,0,0,0,0,0,0,0,0,0,0,0,0,0,0,0,0,
0,0,0,0,0,0,0,0,0,0,0,0,0,0,0,0,0,0,0,0,0,0,0,0,0,0,0,0,0,0,0,0,0,0,0,0,0,0,0,0,0,0,0,0,0,0,0,0,
0,0,0,0,0,0,0,0,0,0,0,0,0,0,0,0,0,0,0,0,0,0,0,0,0,0,0,0,0,0,0,0,0,0,0,0,0,0,0,0,0,0,0,0,0,0,0,0
  </data>
 </layer>
 <layer id="3" name="upper" width="48" height="33">
  <data encoding="csv">
0,0,0,0,0,0,0,0,0,0,0,0,0,0,0,0,0,0,0,0,0,0,0,0,0,0,0,0,0,0,0,0,0,0,0,0,0,0,0,0,0,0,0,0,0,0,0,0,
0,0,0,0,0,0,0,0,0,0,0,0,0,0,0,0,0,0,0,0,0,0,0,0,0,0,0,0,0,0,0,0,0,0,0,0,0,0,0,0,0,0,0,0,0,0,0,0,
0,0,0,0,0,0,0,0,0,0,0,0,0,0,0,0,0,0,0,0,0,0,0,0,0,0,0,0,0,0,0,0,0,0,0,0,0,0,0,0,0,0,0,0,0,0,0,0,
0,0,0,0,0,0,0,0,0,0,0,0,0,0,0,0,0,0,0,0,0,0,0,0,0,0,0,0,0,0,0,0,0,0,0,0,0,0,0,0,0,0,0,0,0,0,0,0,
0,0,0,0,0,0,0,0,0,0,0,0,0,0,0,0,0,0,0,0,0,0,0,0,0,0,574,575,0,0,0,0,0,0,0,0,0,0,0,0,0,0,0,0,0,0,0,0,
0,0,0,0,0,0,0,0,0,0,0,0,0,0,0,0,0,0,0,0,0,0,0,0,0,0,0,0,0,0,0,0,0,0,0,0,0,0,0,0,0,0,0,0,0,0,0,0,
0,0,0,0,0,0,0,0,0,0,0,0,0,0,0,0,0,0,0,0,0,0,0,0,0,0,0,0,0,0,0,0,0,0,0,0,0,0,0,0,0,0,0,0,0,0,0,0,
0,0,0,0,0,0,0,0,0,0,0,0,0,0,0,0,0,0,0,0,0,0,0,0,0,0,0,0,0,0,0,0,0,0,0,0,0,0,0,0,0,0,0,0,0,0,0,0,
0,0,0,0,0,0,0,0,0,0,0,0,0,0,0,0,0,0,0,0,0,0,0,0,0,0,0,0,0,0,0,0,0,0,0,0,0,0,0,0,0,0,0,0,0,0,0,0,
0,0,0,0,0,0,0,0,0,0,0,0,0,0,0,0,0,0,0,0,0,0,0,0,0,0,0,0,0,0,0,0,0,0,0,0,0,0,0,0,0,0,0,0,0,0,0,0,
0,0,0,0,0,0,0,0,0,0,0,0,0,0,0,0,0,0,0,0,0,0,0,0,0,0,0,0,0,0,0,0,0,0,0,0,694,695,696,0,0,0,0,0,0,0,0,0,
0,0,0,0,0,0,0,0,0,0,0,0,0,0,0,0,0,0,0,0,0,0,0,0,0,0,0,0,0,0,0,0,0,0,0,0,0,0,0,0,0,0,0,0,0,0,0,0,
0,0,0,0,0,0,0,0,0,0,0,0,0,0,0,0,0,0,0,0,0,0,0,0,0,0,0,0,0,0,0,0,0,0,0,0,0,0,0,0,0,0,0,0,0,0,0,0,
0,0,0,0,0,0,0,0,0,0,0,0,0,0,0,0,0,0,0,0,0,0,0,0,0,0,0,0,0,0,0,0,0,0,0,0,0,0,0,0,0,0,0,0,0,0,0,0,
0,0,0,0,0,0,0,0,0,0,0,0,0,0,0,0,0,0,0,694,695,696,0,0,0,0,0,0,0,0,0,0,0,0,0,0,0,0,0,0,0,0,0,0,0,0,0,0,
0,0,0,0,0,0,0,0,0,0,0,0,0,0,0,0,0,0,0,0,703,704,0,0,0,0,0,0,0,0,0,0,0,0,0,0,0,0,0,0,0,0,0,0,0,0,0,0,
0,0,0,0,0,0,0,0,0,0,0,0,0,0,0,0,0,0,0,0,0,0,0,0,0,0,0,0,0,0,0,0,0,0,0,0,0,0,0,0,0,0,0,0,0,0,0,0,
0,0,0,0,0,0,0,0,0,0,0,0,0,0,0,0,0,0,0,0,0,0,0,0,0,0,0,0,0,0,0,0,0,0,0,0,0,0,0,0,0,0,0,0,0,0,0,0,
0,0,0,0,0,0,0,0,0,0,0,0,0,0,0,0,0,0,0,0,0,0,0,0,0,0,0,0,0,0,0,0,0,0,0,0,0,0,0,0,0,0,576,0,0,0,0,0,
0,0,0,0,0,0,0,0,0,0,0,0,0,0,0,0,0,0,0,0,0,0,0,0,0,0,0,0,0,0,0,0,0,0,0,0,0,0,0,0,0,0,0,0,0,0,0,0,
0,0,0,0,0,0,0,0,0,0,0,0,0,0,0,0,0,0,0,0,0,0,0,0,0,0,0,0,0,0,0,0,0,0,0,0,0,0,0,0,0,0,0,0,0,0,0,0,
0,0,0,0,0,0,0,0,0,0,0,0,0,0,0,0,0,0,0,0,0,0,0,0,0,0,0,0,0,0,0,0,0,0,0,0,0,0,0,0,0,0,0,0,0,0,0,0,
0,0,0,0,0,0,0,0,0,0,0,0,0,0,0,0,0,0,0,0,0,0,0,0,0,0,0,0,0,0,0,0,0,0,0,0,0,0,0,0,0,0,0,0,0,0,0,0,
0,0,0,0,0,0,0,0,0,0,0,0,0,0,0,0,0,0,0,0,0,0,0,0,0,0,0,0,0,0,0,0,0,0,0,0,0,0,0,0,0,0,576,0,0,0,0,0,
0,0,0,0,0,0,0,0,0,0,0,0,0,0,0,0,0,0,0,0,0,0,0,0,0,0,0,0,0,0,0,0,0,0,0,0,0,0,0,0,0,0,0,0,0,0,0,0,
0,0,0,0,0,0,0,0,0,0,0,576,0,0,0,0,0,0,0,0,0,0,0,0,0,0,0,0,574,575,0,0,0,0,0,0,0,0,0,0,0,0,0,0,0,0,0,0,
0,0,0,0,0,0,0,0,0,0,0,0,0,0,0,0,0,0,0,0,0,0,0,0,0,0,0,0,0,0,0,0,0,0,0,0,0,0,0,0,0,576,0,0,0,0,0,0,
0,0,0,0,0,0,0,0,0,0,0,0,0,0,0,0,0,0,0,0,0,0,0,0,0,0,0,0,0,0,0,0,0,0,0,0,0,0,0,0,0,0,0,0,0,0,0,0,
0,0,0,0,0,0,0,0,0,0,0,0,0,0,0,0,0,576,0,0,0,0,0,0,0,0,0,0,0,0,0,0,0,0,0,0,0,0,576,0,0,0,0,0,0,0,0,0,
0,0,0,0,0,0,0,0,0,0,0,0,0,0,0,0,0,0,0,0,0,0,0,0,0,0,0,0,0,0,0,0,0,0,0,0,0,0,0,0,0,0,0,0,0,0,0,0,
0,0,0,0,0,0,0,0,0,0,0,0,0,0,0,0,0,0,0,0,0,0,0,0,0,0,0,0,0,0,0,0,0,0,0,0,0,0,0,0,0,0,0,0,0,0,0,0,
0,0,0,0,0,0,0,0,0,0,0,0,0,0,0,0,0,0,0,0,0,0,0,0,0,0,0,0,0,0,0,0,0,0,0,0,0,0,0,0,0,0,0,0,0,0,0,0,
0,0,0,0,0,0,0,0,0,0,0,0,0,0,0,0,0,0,0,0,0,0,0,0,0,0,0,0,0,0,0,0,0,0,0,0,0,0,0,0,0,0,0,0,0,0,0,0
  </data>
 </layer>
 <objectgroup id="4" name="events"/>
 <group id="6" name="above">
 <layer id="5" name="upper_above" width="48" height="33">
  <data encoding="csv">
0,0,0,0,0,0,0,0,0,0,0,0,0,0,0,0,0,0,0,0,0,0,0,0,0,0,0,0,0,0,0,0,0,0,0,0,0,0,0,0,0,0,0,0,0,0,0,0,
0,0,0,0,0,0,0,0,0,0,0,0,0,0,0,0,0,0,0,0,0,0,0,0,0,0,0,0,0,0,0,0,0,0,0,0,0,0,0,0,0,0,0,0,0,0,0,0,
0,0,0,0,0,0,0,0,0,0,0,0,0,0,0,0,0,0,0,0,0,0,0,0,0,0,0,0,0,0,0,0,0,0,0,0,0,0,0,0,0,0,0,0,0,0,0,0,
0,0,0,0,0,0,0,0,0,0,0,0,0,0,0,0,0,0,0,0,0,0,0,0,0,0,566,567,0,0,0,0,0,0,0,0,0,0,0,0,0,0,0,0,0,0,0,0,
0,0,0,0,0,0,0,0,0,0,0,0,0,0,0,0,0,0,0,0,0,0,0,0,0,0,0,0,0,0,0,0,0,0,0,0,0,0,0,0,0,0,0,0,0,0,0,0,
0,0,0,0,0,0,0,0,0,0,0,0,0,0,0,0,0,0,0,0,0,0,0,0,0,0,0,0,0,0,0,0,0,0,0,0,0,0,0,0,0,0,0,0,0,0,0,0,
0,0,0,0,0,0,0,0,0,0,0,0,0,0,0,0,0,0,0,0,0,0,0,0,0,0,0,0,0,0,0,0,0,0,0,0,0,0,0,0,0,0,0,0,0,0,0,0,
0,0,0,0,0,0,0,0,0,0,0,0,0,0,0,0,0,0,0,0,0,0,0,0,0,0,0,0,0,0,0,0,0,0,0,0,0,0,0,0,0,0,0,0,0,0,0,0,
0,0,0,0,0,0,0,0,0,0,0,0,0,0,0,0,0,0,0,0,0,0,0,0,0,0,0,0,0,0,0,0,0,0,0,0,678,679,680,0,0,0,0,0,0,0,0,0,
0,0,0,0,0,0,0,0,0,0,0,0,0,0,0,0,0,0,0,0,0,0,0,0,0,0,0,0,0,0,0,0,0,0,0,0,686,687,688,0,0,0,0,0,0,0,0,0,
0,0,0,0,0,0,0,0,0,0,0,0,0,0,0,0,0,0,0,0,0,0,0,0,0,0,0,0,0,0,0,0,0,0,0,0,0,0,0,0,0,0,0,0,0,0,0,0,
0,0,0,0,0,0,0,0,0,0,0,0,0,0,0,0,0,0,0,0,0,0,0,0,0,0,0,0,0,0,0,0,0,0,0,0,0,0,0,0,0,0,0,0,0,0,0,0,
0,0,0,0,0,0,0,0,0,0,0,0,0,0,0,0,0,0,0,678,679,680,0,0,0,0,0,0,0,0,0,0,0,0,0,0,0,0,0,0,0,0,0,0,0,0,0,0,
0,0,0,0,0,0,0,0,0,0,0,0,0,0,0,0,0,0,0,686,687,688,0,0,0,0,0,0,0,0,0,0,0,0,0,0,0,0,0,0,0,0,0,0,0,0,0,0,
0,0,0,0,0,0,0,0,0,0,0,0,0,0,0,0,0,0,0,0,0,0,0,0,0,0,0,0,0,0,0,0,0,0,0,0,0,0,0,0,0,0,0,0,0,0,0,0,
0,0,0,0,0,0,0,0,0,0,0,0,0,0,0,0,0,0,0,0,0,0,0,0,0,0,0,0,0,0,0,0,0,0,0,0,0,0,0,0,0,0,0,0,0,0,0,0,
0,0,0,0,0,0,0,0,0,0,0,0,0,0,0,0,0,0,0,0,0,0,0,0,0,0,0,0,0,0,0,0,0,0,0,0,0,0,0,0,0,0,0,0,0,0,0,0,
0,0,0,0,0,0,0,0,0,0,0,0,0,0,0,0,0,0,0,0,0,0,0,0,0,0,0,0,0,0,0,0,0,0,0,0,0,0,0,0,0,0,568,0,0,0,0,0,
0,0,0,0,0,0,0,0,0,0,0,0,0,0,0,0,0,0,0,0,0,0,0,0,0,0,0,0,0,0,0,0,0,0,0,0,0,0,0,0,0,0,0,0,0,0,0,0,
0,0,0,0,0,0,0,0,0,0,0,0,0,0,0,0,0,0,0,0,0,0,0,0,0,0,0,0,0,0,0,0,0,0,0,0,0,0,0,0,0,0,0,0,0,0,0,0,
0,0,0,0,0,0,0,0,0,0,0,0,0,0,0,0,0,0,0,0,0,0,0,0,0,0,0,0,0,0,0,0,0,0,0,0,0,0,0,0,0,0,0,0,0,0,0,0,
0,0,0,0,0,0,0,0,0,0,0,0,0,0,0,0,0,0,0,0,0,0,0,0,0,0,0,0,0,0,0,0,0,0,0,0,0,0,0,0,0,0,0,0,0,0,0,0,
0,0,0,0,0,0,0,0,0,0,0,0,0,0,0,0,0,0,0,0,0,0,0,0,0,0,0,0,0,0,0,0,0,0,0,0,0,0,0,0,0,0,568,0,0,0,0,0,
0,0,0,0,0,0,0,0,0,0,0,0,0,0,0,0,0,0,0,0,0,0,0,0,0,0,0,0,0,0,0,0,0,0,0,0,0,0,0,0,0,0,0,0,0,0,0,0,
0,0,0,0,0,0,0,0,0,0,0,568,0,0,0,0,0,0,0,0,0,0,0,0,0,0,0,0,566,567,0,0,0,0,0,0,0,0,0,0,0,0,0,0,0,0,0,0,
0,0,0,0,0,0,0,0,0,0,0,0,0,0,0,0,0,0,0,0,0,0,0,0,0,0,0,0,0,0,0,0,0,0,0,0,0,0,0,0,0,568,0,0,0,0,0,0,
0,0,0,0,0,0,0,0,0,0,0,0,0,0,0,0,0,0,0,0,0,0,0,0,0,0,0,0,0,0,0,0,0,0,0,0,0,0,0,0,0,0,0,0,0,0,0,0,
0,0,0,0,0,0,0,0,0,0,0,0,0,0,0,0,0,568,0,0,0,0,0,0,0,0,0,0,0,0,0,0,0,0,0,0,0,0,568,0,0,0,0,0,0,0,0,0,
0,0,0,0,0,0,0,0,0,0,0,0,0,0,0,0,0,0,0,0,0,0,0,0,0,0,0,0,0,0,0,0,0,0,0,0,0,0,0,0,0,0,0,0,0,0,0,0,
0,0,0,0,0,0,0,0,0,0,0,0,0,0,0,0,0,0,0,0,0,0,0,0,0,0,0,0,0,0,0,0,0,0,0,0,0,0,0,0,0,0,0,0,0,0,0,0,
0,0,0,0,0,0,0,0,0,0,0,0,0,0,0,0,0,0,0,0,0,0,0,0,0,0,0,0,0,0,0,0,0,0,0,0,0,0,0,0,0,0,0,0,0,0,0,0,
0,0,0,0,0,0,0,0,0,0,0,0,0,0,0,0,0,0,0,0,0,0,0,0,0,0,0,0,0,0,0,0,0,0,0,0,0,0,0,0,0,0,0,0,0,0,0,0,
0,0,0,0,0,0,0,0,0,0,0,0,0,0,0,0,0,0,0,0,0,0,0,0,0,0,0,0,0,0,0,0,0,0,0,0,0,0,0,0,0,0,0,0,0,0,0,0
  </data>
 </layer>
 </group>
</map>
