<?xml version="1.0" encoding="UTF-8"?>
<map version="1.10" tiledversion="1.10.2" orientation="orthogonal" renderorder="right-down" compressionlevel="0" width="48" height="32" tilewidth="32" tileheight="32" infinite="0" nextlayerid="8" nextobjectid="1">
 <tileset firstgid="1" source="RMXP-Caves.tsx"/>
 <tileset firstgid="1593" source="RMXP-auto-land.tsx"/>
 <tileset firstgid="1641" source="RMXP-auto-land2-2.tsx"/>
 <tileset firstgid="1689" source="RMXP-auto-cavewater.tsx"/>
 <tileset firstgid="1737" source="RMXP-auto-tfj-waterfall.tsx"/>
 <tileset firstgid="1785" source="RMXP-auto-waterfall-crest.tsx"/>
 <tileset firstgid="1833" source="RMXP-auto-hgss-waves.tsx"/>
 <tileset firstgid="1881" source="RMXP-auto-hgss-sea.tsx"/>
 <layer id="1" name="lower" width="48" height="32">
  <data encoding="csv">
719,720,719,720,719,720,719,720,719,720,719,720,719,720,719,720,719,720,719,720,719,720,719,720,719,720,719,720,719,720,719,720,719,720,719,720,719,720,719,720,719,720,719,720,719,720,719,720,
711,712,711,712,711,712,711,712,711,712,711,712,711,712,711,712,711,712,711,712,711,712,711,712,711,712,711,712,711,712,711,712,711,712,711,712,711,712,711,712,711,712,711,712,711,712,711,712,
719,720,719,720,719,720,719,720,719,720,719,720,719,720,719,720,719,720,719,720,719,720,719,720,719,720,719,720,719,720,719,720,719,720,719,720,719,720,719,720,719,720,719,720,719,720,719,720,
711,712,711,712,711,712,711,712,711,712,711,712,711,712,711,712,711,712,711,712,711,712,711,712,711,712,711,712,711,712,711,712,711,712,711,712,711,712,711,712,711,712,711,712,711,712,711,712,
719,720,719,720,719,720,719,720,719,720,719,720,719,720,719,720,719,720,719,720,719,720,719,720,719,720,719,720,719,720,719,720,719,720,719,720,719,720,719,720,719,720,719,720,719,720,719,720,
711,712,711,712,711,712,711,712,711,712,711,712,711,712,711,712,711,712,711,712,711,712,794,794,794,794,794,712,711,712,711,712,711,712,711,712,711,712,711,712,711,712,711,712,711,712,711,712,
719,720,719,720,719,720,719,720,719,720,719,720,719,720,719,720,719,720,719,720,719,720,719,1675,1661,1677,719,720,719,720,719,786,786,786,786,786,786,786,786,720,719,720,719,720,719,720,719,720,
711,712,711,712,711,712,711,712,711,786,786,786,786,786,786,786,786,786,711,712,711,712,711,1657,1641,1665,711,712,711,712,711,786,786,786,786,786,786,786,786,712,711,712,711,712,711,712,711,712,
719,720,719,720,719,720,719,720,719,786,786,786,786,786,786,786,786,786,719,720,1675,1661,1661,1642,1641,1643,1661,1661,1661,1677,719,786,786,786,786,786,786,786,786,720,719,720,719,720,719,720,719,720,
711,712,711,712,711,712,711,712,711,786,786,786,786,786,786,786,786,786,711,712,1681,1669,1669,1669,1669,1669,1669,1649,1641,1665,711,786,786,786,786,786,786,786,786,712,711,712,711,712,711,712,711,712,
719,720,719,720,719,720,719,720,719,786,786,786,786,786,786,786,786,786,719,720,719,720,719,720,719,720,719,1681,1649,1665,719,720,719,720,719,720,719,720,719,720,719,720,719,720,719,720,719,720,
711,712,711,712,711,712,711,712,711,786,786,786,786,786,711,712,711,712,711,712,786,786,786,786,786,786,786,712,1657,1665,711,712,711,712,711,712,711,712,711,712,711,712,711,712,711,712,711,712,
719,720,719,720,719,720,719,720,719,786,786,786,786,786,719,720,719,720,719,720,786,786,786,786,786,786,786,720,1657,1665,719,786,786,786,786,786,786,786,786,720,719,720,719,720,719,720,719,720,
711,712,711,712,711,712,711,712,711,786,786,786,786,786,711,712,711,712,711,712,786,786,786,712,711,712,711,712,1657,1665,711,786,786,786,786,786,786,786,786,712,711,712,711,712,711,712,711,712,
719,720,719,720,719,720,719,720,719,786,786,786,786,786,719,720,719,720,719,720,786,786,786,720,1675,1661,1661,1661,1642,1665,719,720,719,720,719,786,786,786,786,720,719,720,719,720,719,720,719,720,
711,712,711,712,711,712,711,712,711,786,786,786,786,786,786,786,786,786,786,786,786,786,786,712,1657,1641,1641,1641,1641,1643,1661,1661,1661,1677,711,786,786,786,786,712,711,712,711,712,711,712,711,712,
719,720,719,720,719,720,719,720,719,786,786,786,786,786,786,786,719,720,719,720,786,786,786,720,1681,1669,1669,1669,1669,1649,1641,1641,1645,1679,719,786,786,786,786,720,719,720,719,720,719,720,719,720,
711,712,711,712,711,712,711,712,711,786,786,786,786,786,786,786,711,712,711,712,786,786,786,712,711,712,711,712,711,1681,1649,1645,1679,719,719,786,786,786,786,712,711,712,711,712,711,712,711,712,
719,720,719,720,719,720,719,720,719,720,719,720,719,720,719,720,719,720,719,720,786,786,786,786,786,786,786,786,786,720,1657,1665,719,786,786,786,786,786,786,720,719,720,719,720,719,720,719,720,
711,712,711,712,711,712,711,712,711,712,711,712,711,712,711,712,711,712,711,712,786,786,786,786,786,786,786,786,786,712,1657,1665,711,786,786,786,786,786,786,712,711,712,711,712,711,712,711,712,
719,720,719,720,719,720,719,720,719,720,719,720,719,720,719,720,719,720,719,720,719,720,719,720,719,720,719,720,719,720,1657,1665,719,720,719,720,719,720,719,720,719,720,719,720,719,720,719,720,
711,712,711,712,711,712,711,712,711,712,711,712,711,712,711,712,711,712,711,712,711,712,711,712,711,712,711,712,711,712,1657,1665,711,712,711,712,711,712,711,712,711,712,711,712,711,712,711,712,
719,720,719,720,719,720,719,720,719,720,719,720,719,720,719,720,719,720,719,720,719,720,719,720,719,720,719,720,719,720,1657,1665,719,720,719,720,719,720,719,720,719,720,719,720,719,720,719,720,
711,712,711,712,711,712,711,712,711,712,711,712,711,712,711,712,711,712,711,712,711,712,711,712,711,712,711,712,711,712,1657,1665,711,712,711,712,711,712,711,712,711,712,711,712,711,712,711,712,
719,720,719,720,719,720,719,720,719,720,719,720,719,720,719,720,719,720,719,720,719,720,719,720,719,720,719,720,719,720,1657,1665,719,720,719,720,719,720,719,720,719,720,719,720,719,720,719,720,
711,712,711,712,711,712,711,712,711,712,711,712,711,712,711,712,711,712,711,712,711,712,711,712,711,712,711,712,711,712,1657,1665,711,712,711,712,711,712,711,712,711,712,711,712,711,712,711,712,
719,720,719,720,719,720,719,720,719,720,719,720,719,720,719,720,719,720,719,720,719,720,719,720,719,720,719,720,719,786,1681,1679,786,720,719,720,719,720,719,720,719,720,719,720,719,720,719,720,
711,712,711,712,711,712,711,712,711,712,711,712,711,712,711,712,711,712,711,712,711,712,711,712,711,712,711,712,711,712,711,712,711,712,711,712,711,712,711,712,711,712,711,712,711,712,711,712,
719,720,719,720,719,720,719,720,719,720,719,720,719,720,719,720,719,720,719,720,719,720,719,720,719,720,719,720,719,720,719,720,719,720,719,720,719,720,719,720,719,720,719,720,719,720,719,720,
711,712,711,712,711,712,711,712,711,712,711,712,711,712,711,712,711,712,711,712,711,712,711,712,711,712,711,712,711,712,711,712,711,712,711,712,711,712,711,712,711,712,711,712,711,712,711,712,
719,720,719,720,719,720,719,720,719,720,719,720,719,720,719,720,719,720,719,720,719,720,719,720,719,720,719,720,719,720,719,720,719,720,719,720,719,720,719,720,719,720,719,720,719,720,719,720,
711,712,711,712,711,712,711,712,711,712,711,712,711,712,711,712,711,712,711,712,711,712,711,712,711,712,711,712,711,712,711,712,711,712,711,712,711,712,711,712,711,712,711,712,711,712,711,712
  </data>
 </layer>
 <layer id="2" name="middle" width="48" height="32">
  <data encoding="csv">
786,786,786,786,786,786,786,786,786,786,786,786,786,786,786,786,786,786,786,786,786,786,786,786,786,786,786,786,786,786,786,786,786,786,786,786,786,786,786,786,786,786,786,786,786,786,786,786,
786,786,786,786,786,786,786,786,786,786,786,786,786,786,786,786,786,786,786,786,786,786,786,786,786,786,786,786,786,786,786,786,786,786,786,786,786,786,786,786,786,786,786,786,786,786,786,786,
786,786,786,786,786,786,786,786,786,786,786,786,786,786,786,786,786,786,786,786,786,786,786,786,786,786,786,786,786,786,786,786,786,786,786,786,786,786,786,786,786,786,786,786,786,786,786,786,
786,786,786,786,786,786,786,786,786,786,786,786,786,786,786,786,786,786,786,786,786,786,786,786,786,786,786,786,786,786,786,786,786,786,786,786,786,786,786,786,786,786,786,786,786,786,786,786,
786,786,786,786,786,786,786,786,786,786,786,786,786,786,786,786,786,786,786,786,786,786,786,786,786,786,786,786,786,786,786,786,786,786,786,786,786,786,786,786,786,786,786,786,786,786,786,786,
786,786,786,786,786,786,786,801,794,794,794,794,794,794,794,794,794,794,794,794,794,794,794,794,794,794,794,794,794,794,794,794,794,794,794,794,794,794,794,794,802,786,786,786,786,786,786,786,
786,786,786,786,786,786,786,787,777,778,778,778,778,778,778,778,778,778,779,0,0,0,0,258,258,258,0,0,0,0,777,0,0,0,0,0,0,0,0,779,785,786,786,786,786,786,786,786,
786,786,786,786,786,786,801,795,785,833,834,834,834,834,834,834,835,0,787,825,826,799,800,0,0,0,799,800,825,826,785,0,833,834,834,834,834,835,0,787,785,786,786,786,786,786,786,786,
786,786,786,786,786,786,787,558,785,841,842,842,842,842,842,842,843,0,787,560,0,0,0,0,0,0,0,0,0,0,785,0,849,850,850,850,850,851,0,787,785,786,786,786,786,786,786,786,
786,786,786,786,786,786,787,808,785,841,842,842,836,850,850,850,851,0,787,808,0,0,0,0,0,0,0,0,0,0,785,0,0,0,0,0,0,0,0,787,793,802,786,786,786,786,786,786,
786,786,786,786,786,786,787,808,785,841,842,842,843,0,0,0,0,0,787,777,778,778,778,778,778,778,778,0,0,0,793,794,794,794,794,794,794,794,794,795,830,785,786,786,786,786,786,786,
786,786,786,786,786,786,787,558,785,841,842,842,843,0,801,692,693,794,795,785,833,834,834,834,834,834,835,787,0,0,777,778,778,778,778,778,778,778,778,779,830,785,786,786,786,786,786,786,
786,786,786,786,786,786,787,560,785,841,842,842,843,0,787,0,0,0,0,785,841,842,836,850,850,850,851,787,0,0,785,0,833,834,834,834,834,835,0,787,808,785,786,786,786,786,786,786,
786,786,786,786,786,786,787,808,785,841,842,842,843,0,787,0,0,0,0,785,841,842,843,801,794,692,693,795,0,0,785,0,849,850,850,850,837,843,0,787,808,785,786,786,786,786,786,786,
786,786,786,786,786,786,787,560,785,841,842,842,843,0,783,778,778,778,778,784,841,842,843,787,0,0,0,0,0,0,793,794,692,693,802,0,841,843,0,787,558,785,786,786,786,786,786,786,
786,786,786,786,786,786,787,808,785,841,842,842,844,834,835,0,0,0,0,0,841,842,843,787,0,0,0,0,0,0,0,0,0,0,785,0,841,843,0,787,808,785,786,786,786,786,786,786,
786,786,786,786,786,786,787,808,785,849,850,850,850,850,851,0,801,794,794,802,841,842,843,787,0,0,0,0,0,0,0,0,0,0,785,0,841,843,0,787,808,785,786,786,786,786,786,786,
786,786,786,786,786,786,787,808,785,0,0,0,0,0,0,0,787,0,0,785,841,842,843,783,778,778,778,778,778,0,0,0,0,778,784,0,841,843,0,787,808,785,786,786,786,786,786,786,
786,786,786,786,786,786,787,558,793,794,794,794,794,794,794,794,795,0,0,785,841,842,844,834,834,834,834,834,835,787,0,0,785,0,833,834,845,843,0,787,558,785,786,786,786,786,786,786,
786,786,786,786,786,786,787,808,0,0,0,0,0,0,0,0,559,0,0,785,849,850,850,850,850,850,850,850,851,787,0,0,785,0,849,850,850,851,0,787,559,785,786,786,786,786,786,786,
786,786,786,786,786,786,783,779,0,0,0,0,0,0,0,0,0,0,0,793,794,794,794,794,794,692,693,794,794,795,0,0,793,794,794,794,794,794,794,795,808,785,786,786,786,786,786,786,
786,786,786,786,786,786,786,787,0,0,0,0,0,0,0,0,0,0,808,0,0,0,0,0,0,0,0,777,778,779,0,0,777,778,779,0,0,0,0,0,830,785,786,786,786,786,786,786,
786,786,786,786,786,786,786,787,0,0,0,0,560,0,0,0,0,0,0,0,0,0,0,0,0,0,0,785,786,787,0,0,785,786,787,0,0,0,0,0,558,785,786,786,786,786,786,786,
786,786,786,786,786,786,786,783,779,558,808,808,558,808,808,560,808,808,808,808,558,777,778,778,778,778,778,784,786,787,0,0,785,786,786,778,778,778,778,778,778,784,786,786,786,786,786,786,
786,786,786,786,786,786,786,786,783,778,778,779,558,808,560,808,777,778,778,778,778,784,786,786,786,786,786,786,786,787,0,0,785,786,786,786,786,786,786,786,786,786,786,786,786,786,786,786,
786,786,786,786,786,786,786,786,786,786,786,783,778,778,778,778,784,786,786,786,786,786,786,786,786,786,786,786,786,787,0,0,785,786,786,786,786,786,786,786,786,786,786,786,786,786,786,786,
786,786,786,786,786,786,786,786,786,786,786,786,786,786,786,786,786,786,786,786,786,786,786,786,786,786,786,786,786,787,0,0,785,786,786,786,786,786,786,786,786,786,786,786,786,786,786,786,
786,786,786,786,786,786,786,786,786,786,786,786,786,786,786,786,786,786,786,786,786,786,786,786,786,786,786,786,786,786,786,786,786,786,786,786,786,786,786,786,786,786,786,786,786,786,786,786,
786,786,786,786,786,786,786,786,786,786,786,786,786,786,786,786,786,786,786,786,786,786,786,786,786,786,786,786,786,786,786,786,786,786,786,786,786,786,786,786,786,786,786,786,786,786,786,786,
786,786,786,786,786,786,786,786,786,786,786,786,786,786,786,786,786,786,786,786,786,786,786,786,786,786,786,786,786,786,786,786,786,786,786,786,786,786,786,786,786,786,786,786,786,786,786,786,
786,786,786,786,786,786,786,786,786,786,786,786,786,786,786,786,786,786,786,786,786,786,786,786,786,786,786,786,786,786,786,786,786,786,786,786,786,786,786,786,786,786,786,786,786,786,786,786,
786,786,786,786,786,786,786,786,786,786,786,786,786,786,786,786,786,786,786,786,786,786,786,786,786,786,786,786,786,786,786,786,786,786,786,786,786,786,786,786,786,786,786,786,786,786,786,786
  </data>
 </layer>
 <layer id="3" name="upper" width="48" height="32">
  <data encoding="csv">
0,0,0,0,0,0,0,0,0,0,0,0,0,0,0,0,0,0,0,0,0,0,0,1753,1737,1761,0,0,0,0,0,0,0,0,0,0,0,0,0,0,0,0,0,0,0,0,0,0,
0,0,0,0,0,0,0,0,0,0,0,0,0,0,0,0,0,0,0,0,0,0,0,1777,1765,1775,0,0,0,0,0,0,0,0,0,0,0,0,0,0,0,0,0,0,0,0,0,0,
0,0,0,0,0,0,0,0,0,0,0,0,0,0,0,0,0,0,0,0,0,0,0,1753,1737,1761,0,0,0,0,0,0,0,0,0,0,0,0,0,0,0,0,0,0,0,0,0,0,
0,0,0,0,0,0,0,801,794,794,794,794,794,794,794,794,794,794,794,794,794,794,794,1777,1765,1775,794,794,794,802,0,0,0,808,0,0,0,0,0,0,0,0,0,0,0,0,0,0,
0,0,0,0,0,0,801,795,0,0,0,0,0,0,0,0,0,0,0,0,0,0,0,1753,1737,1761,0,0,0,793,794,794,794,794,794,794,794,794,794,794,794,802,808,0,0,0,0,0,
0,0,0,0,0,830,787,0,0,0,0,0,0,0,0,0,0,0,0,0,0,0,0,1777,1765,1775,0,0,0,0,0,0,0,0,0,0,0,0,0,0,0,785,0,0,0,0,0,0,
0,0,0,0,0,801,795,0,0,0,0,0,0,0,0,0,0,0,0,0,0,0,0,1866,1866,1866,0,0,0,0,0,0,0,0,0,0,0,0,0,0,0,793,802,0,0,0,0,0,
0,0,0,0,0,787,0,0,0,0,0,0,0,0,0,0,0,0,0,0,0,0,0,0,0,0,0,0,0,0,0,0,0,0,0,694,695,696,0,0,0,0,785,0,0,0,0,0,
0,0,0,0,0,787,0,0,0,0,0,0,0,0,0,0,0,0,0,0,0,0,0,0,0,0,0,0,0,0,0,0,0,668,669,670,0,0,0,0,0,816,785,0,0,0,0,0,
0,0,0,0,0,787,0,0,0,0,0,0,0,0,0,0,0,0,0,0,0,0,0,0,0,0,0,0,0,0,0,0,0,0,0,0,0,0,0,0,0,0,785,0,0,0,0,0,
0,0,0,0,0,787,0,0,0,0,0,0,0,0,0,0,0,0,0,0,0,0,0,0,0,0,0,779,0,0,0,0,0,0,0,0,0,0,0,0,0,0,785,0,0,0,0,0,
0,0,0,0,0,787,0,0,0,0,0,0,0,0,0,0,0,0,0,0,0,0,0,0,0,0,0,0,0,0,0,0,0,0,0,0,0,0,0,0,0,0,785,0,0,0,0,0,
0,0,0,0,0,787,0,0,0,0,0,0,0,0,0,0,668,669,670,0,0,0,0,0,0,0,0,0,0,0,0,0,0,0,0,0,0,0,0,0,0,0,785,0,0,0,0,0,
0,0,0,0,0,787,0,0,0,0,0,0,0,0,0,0,0,0,0,0,0,0,0,0,0,0,0,0,0,0,0,0,0,0,0,0,0,0,0,0,0,0,785,0,0,0,0,0,
0,0,0,0,0,787,0,0,0,0,0,0,0,0,0,0,0,0,0,0,0,0,0,0,0,0,0,0,0,0,0,0,0,0,0,0,0,0,0,0,0,0,785,0,0,0,0,0,
0,0,0,0,0,787,0,0,0,0,830,0,0,0,0,0,0,0,0,0,0,0,0,0,0,0,0,0,0,0,0,0,0,0,0,0,0,0,0,0,0,0,785,0,0,0,0,0,
0,0,0,0,0,787,0,0,0,0,830,808,0,0,0,0,0,0,0,0,0,0,0,0,0,0,0,0,0,0,0,0,0,0,0,0,0,0,0,0,0,0,785,0,0,0,0,0,
0,0,0,0,0,787,0,0,0,0,0,0,694,695,696,0,0,0,0,0,0,0,0,0,0,0,0,0,0,779,0,0,777,0,0,0,0,0,0,0,0,0,785,0,0,0,0,0,
0,0,0,0,0,787,0,0,0,0,0,0,0,0,0,0,0,0,0,0,0,0,0,0,0,0,0,0,0,0,0,0,0,0,0,0,0,0,0,0,0,0,785,0,0,0,0,0,
0,0,0,0,0,787,0,0,0,0,0,0,0,0,0,0,0,0,0,0,0,0,0,0,0,0,0,0,0,0,0,0,0,0,0,694,695,696,0,0,0,0,785,0,0,0,0,0,
0,0,0,0,0,787,0,0,0,0,0,0,0,0,0,0,0,0,0,0,0,0,0,0,0,0,0,0,0,0,0,0,0,0,0,0,0,0,0,0,0,0,785,0,0,0,0,0,
0,0,0,0,0,783,779,0,0,574,575,0,0,0,0,0,0,0,0,0,0,0,0,0,0,0,0,0,0,0,0,0,0,0,0,0,0,0,0,0,0,0,785,0,0,0,0,0,
0,0,0,0,0,0,787,0,0,0,0,0,0,0,0,0,0,0,0,0,0,0,0,0,0,0,0,0,0,0,0,0,0,0,0,0,0,0,574,575,0,0,785,0,0,0,0,0,
0,0,0,0,0,0,787,0,0,0,0,0,0,0,0,0,0,0,0,0,0,0,0,0,0,0,0,0,0,0,0,0,0,0,0,0,0,0,0,0,0,0,785,0,0,0,0,0,
0,0,0,0,0,0,787,808,0,0,0,0,0,0,0,0,0,0,0,0,0,0,777,778,778,778,778,779,0,0,0,0,0,0,0,0,0,777,778,778,778,778,784,0,0,0,0,0,
0,0,0,0,0,0,783,778,778,779,0,0,0,0,808,0,0,0,777,778,778,778,784,0,0,0,808,783,779,0,0,0,0,777,778,778,778,784,0,0,0,0,0,0,0,0,0,0,
0,0,0,0,0,0,816,0,0,783,778,778,778,778,778,778,778,778,784,0,0,0,0,0,0,830,0,0,783,778,778,778,778,784,0,0,0,0,0,816,0,0,0,0,0,0,0,0,
0,0,0,0,0,0,0,0,0,0,0,0,0,0,0,0,0,0,0,0,0,0,0,0,0,0,0,0,0,0,0,0,0,0,0,0,0,0,0,0,0,0,0,0,0,0,0,0,
0,0,0,0,0,0,0,0,0,0,0,0,0,0,0,0,0,0,0,0,0,0,0,0,0,0,0,0,0,0,0,0,0,0,0,0,0,0,0,0,0,0,0,0,0,0,0,0,
0,0,0,0,0,0,0,0,0,0,0,0,0,0,0,0,0,0,0,0,0,0,0,0,0,0,0,0,0,0,0,0,0,0,0,0,0,0,0,0,0,0,0,0,0,0,0,0,
0,0,0,0,0,0,0,0,0,0,0,0,0,0,0,0,0,0,0,0,0,0,0,0,0,0,0,0,0,0,0,0,0,0,0,0,0,0,0,0,0,0,0,0,0,0,0,0,
0,0,0,0,0,0,0,0,0,0,0,0,0,0,0,0,0,0,0,0,0,0,0,0,0,0,0,0,0,0,0,0,0,0,0,0,0,0,0,0,0,0,0,0,0,0,0,0
  </data>
 </layer>
 <objectgroup id="4" name="events"/>
 <group id="7" name="above">
 <layer id="5" name="middle_above" width="48" height="32">
  <data encoding="csv">
0,0,0,0,0,0,0,0,0,0,0,0,0,0,0,0,0,0,0,0,0,0,0,0,0,0,0,0,0,0,0,0,0,0,0,0,0,0,0,0,0,0,0,0,0,0,0,0,
0,0,0,0,0,0,0,0,0,0,0,0,0,0,0,0,0,0,0,0,0,0,0,0,0,0,0,0,0,0,0,0,0,0,0,0,0,0,0,0,0,0,0,0,0,0,0,0,
0,0,0,0,0,0,0,0,0,0,0,0,0,0,0,0,0,0,0,0,0,0,0,0,0,0,0,0,0,0,0,0,0,0,0,0,0,0,0,0,0,0,0,0,0,0,0,0,
0,0,0,0,0,0,0,0,0,0,0,0,0,0,0,0,0,0,0,0,0,0,0,0,0,0,0,0,0,0,0,0,0,0,0,0,0,0,0,0,0,0,0,0,0,0,0,0,
0,0,0,0,0,0,0,0,0,0,0,0,0,0,0,0,0,0,0,0,0,0,0,0,0,0,0,0,0,0,0,0,0,0,0,0,0,0,0,0,0,0,0,0,0,0,0,0,
0,0,0,0,0,0,0,0,0,0,0,0,0,0,0,0,0,0,0,0,0,0,0,0,0,0,0,0,0,0,0,0,0,0,0,0,0,0,0,0,0,0,0,0,0,0,0,0,
0,0,0,0,0,0,0,0,0,0,0,0,0,0,0,0,0,0,0,817,818,791,792,0,0,0,791,792,817,818,0,0,0,0,0,0,0,0,0,0,0,0,0,0,0,0,0,0,
0,0,0,0,0,0,0,0,0,0,0,0,0,0,0,0,0,0,0,0,0,0,0,0,0,0,0,0,0,0,0,0,0,0,0,0,0,0,0,0,0,0,0,0,0,0,0,0,
0,0,0,0,0,0,0,0,0,0,0,0,0,0,0,0,0,0,0,0,0,0,0,0,0,0,0,0,0,0,0,0,0,0,0,0,0,0,0,0,0,0,0,0,0,0,0,0,
0,0,0,0,0,0,0,0,0,0,0,0,0,0,0,0,0,0,0,0,0,0,0,0,0,0,0,0,0,0,0,0,0,0,0,0,0,0,0,0,0,0,0,0,0,0,0,0,
0,0,0,0,0,0,0,0,0,0,0,0,0,0,0,0,0,0,0,0,0,0,0,0,0,0,0,0,0,0,0,0,0,0,0,0,0,0,0,0,0,0,0,0,0,0,0,0,
0,0,0,0,0,0,0,0,0,0,0,0,0,0,0,0,0,0,0,0,0,0,0,0,0,0,0,0,0,0,0,0,0,0,0,0,0,0,0,0,0,0,0,0,0,0,0,0,
0,0,0,0,0,0,0,0,0,0,0,0,0,0,0,0,0,0,0,0,0,0,0,0,0,0,0,0,0,0,0,0,0,0,0,0,0,0,0,0,0,0,0,0,0,0,0,0,
0,0,0,0,0,0,0,0,0,0,0,0,0,0,0,0,0,0,0,0,0,0,0,0,0,0,0,0,0,0,0,0,0,0,0,0,0,0,0,0,0,0,0,0,0,0,0,0,
0,0,0,0,0,0,0,0,0,0,0,0,0,0,0,0,0,0,0,0,0,0,0,0,0,0,0,0,0,0,0,0,0,0,0,0,0,0,0,0,0,0,0,0,0,0,0,0,
0,0,0,0,0,0,0,0,0,0,0,0,0,0,0,0,0,0,0,0,0,0,0,0,0,0,0,0,0,0,0,0,0,0,0,0,0,0,0,0,0,0,0,0,0,0,0,0,
0,0,0,0,0,0,0,0,0,0,0,0,0,0,0,0,0,0,0,0,0,0,0,0,0,0,0,0,0,0,0,0,0,0,0,0,0,0,0,0,0,0,0,0,0,0,0,0,
0,0,0,0,0,0,0,0,0,0,0,0,0,0,0,0,0,0,0,0,0,0,0,0,0,0,0,0,0,0,0,0,0,0,0,0,0,0,0,0,0,0,0,0,0,0,0,0,
0,0,0,0,0,0,0,0,0,0,0,0,0,0,0,0,0,0,0,0,0,0,0,0,0,0,0,0,0,0,0,0,0,0,0,0,0,0,0,0,0,0,0,0,0,0,0,0,
0,0,0,0,0,0,0,0,0,0,0,0,0,0,0,0,0,0,0,0,0,0,0,0,0,0,0,0,0,0,0,0,0,0,0,0,0,0,0,0,0,0,0,0,0,0,0,0,
0,0,0,0,0,0,0,0,0,0,0,0,0,0,0,0,0,0,0,0,0,0,0,0,0,0,0,0,0,0,0,0,0,0,0,0,0,0,0,0,0,0,0,0,0,0,0,0,
0,0,0,0,0,0,0,0,0,0,0,0,0,0,0,0,0,0,0,0,0,0,0,0,0,0,0,0,0,0,0,0,0,0,0,0,0,0,0,0,0,0,0,0,0,0,0,0,
0,0,0,0,0,0,0,0,0,0,0,0,0,0,0,0,0,0,0,0,0,0,0,0,0,0,0,0,0,0,0,0,0,0,0,0,0,0,0,0,0,0,0,0,0,0,0,0,
0,0,0,0,0,0,0,0,0,0,0,0,0,0,0,0,0,0,0,0,0,0,0,0,0,0,0,0,0,0,0,0,0,0,0,0,0,0,0,0,0,0,0,0,0,0,0,0,
0,0,0,0,0,0,0,0,0,0,0,0,0,0,0,0,0,0,0,0,0,0,0,0,0,0,0,0,0,0,0,0,0,0,0,0,0,0,0,0,0,0,0,0,0,0,0,0,
0,0,0,0,0,0,0,0,0,0,0,0,0,0,0,0,0,0,0,0,0,0,0,0,0,0,0,0,0,0,0,0,0,0,0,0,0,0,0,0,0,0,0,0,0,0,0,0,
0,0,0,0,0,0,0,0,0,0,0,0,0,0,0,0,0,0,0,0,0,0,0,0,0,0,0,0,0,0,0,0,0,0,0,0,0,0,0,0,0,0,0,0,0,0,0,0,
0,0,0,0,0,0,0,0,0,0,0,0,0,0,0,0,0,0,0,0,0,0,0,0,0,0,0,0,0,0,0,0,0,0,0,0,0,0,0,0,0,0,0,0,0,0,0,0,
0,0,0,0,0,0,0,0,0,0,0,0,0,0,0,0,0,0,0,0,0,0,0,0,0,0,0,0,0,0,0,0,0,0,0,0,0,0,0,0,0,0,0,0,0,0,0,0,
0,0,0,0,0,0,0,0,0,0,0,0,0,0,0,0,0,0,0,0,0,0,0,0,0,0,0,0,0,0,0,0,0,0,0,0,0,0,0,0,0,0,0,0,0,0,0,0,
0,0,0,0,0,0,0,0,0,0,0,0,0,0,0,0,0,0,0,0,0,0,0,0,0,0,0,0,0,0,0,0,0,0,0,0,0,0,0,0,0,0,0,0,0,0,0,0,
0,0,0,0,0,0,0,0,0,0,0,0,0,0,0,0,0,0,0,0,0,0,0,0,0,0,0,0,0,0,0,0,0,0,0,0,0,0,0,0,0,0,0,0,0,0,0,0
  </data>
 </layer>
 <layer id="6" name="upper_above" width="48" height="32">
  <data encoding="csv">
0,0,0,0,0,0,0,0,0,0,0,0,0,0,0,0,0,0,0,0,0,0,0,0,0,0,0,0,0,0,0,0,0,0,0,0,0,0,0,0,0,0,0,0,0,0,0,0,
0,0,0,0,0,0,0,0,0,0,0,0,0,0,0,0,0,0,0,0,0,0,0,0,0,0,0,0,0,0,0,0,0,0,0,0,0,0,0,0,0,0,0,0,0,0,0,0,
0,0,0,0,0,0,0,0,0,0,0,0,0,0,0,0,0,0,0,0,0,0,0,0,0,0,0,0,0,0,0,0,0,0,0,0,0,0,0,0,0,0,0,0,0,0,0,0,
0,0,0,0,0,0,0,0,0,0,0,0,0,0,0,0,0,0,0,0,0,0,0,0,0,0,0,0,0,0,0,0,0,0,0,0,0,0,0,0,0,0,0,0,0,0,0,0,
0,0,0,0,0,0,0,0,0,0,0,0,0,0,0,0,0,0,0,0,0,0,0,0,0,0,0,0,0,0,0,0,0,0,0,0,0,0,0,0,0,0,0,0,0,0,0,0,
0,0,0,0,0,0,0,0,0,0,0,0,0,0,0,0,0,0,0,0,0,0,0,0,0,0,0,0,0,0,0,0,0,0,0,678,679,680,0,0,0,0,0,0,0,0,0,0,
0,0,0,0,0,0,0,0,0,0,0,0,0,0,0,0,0,0,0,0,0,0,0,0,0,0,0,0,0,0,0,0,0,0,0,686,687,688,0,0,0,0,0,0,0,0,0,0,
0,0,0,0,0,0,0,0,0,0,0,0,0,0,0,0,0,0,0,0,0,0,0,0,0,0,0,0,0,0,0,0,0,0,661,0,0,0,0,0,0,0,0,0,0,0,0,0,
0,0,0,0,0,0,0,0,0,0,0,0,0,0,0,0,0,0,0,0,0,0,0,0,0,0,0,0,0,0,0,0,0,0,0,0,0,0,0,0,0,0,0,0,0,0,0,0,
0,0,0,0,0,0,0,0,0,0,0,0,0,0,0,0,0,0,0,0,0,0,0,0,0,0,0,0,0,0,0,0,0,0,0,0,0,0,0,0,0,0,0,0,0,0,0,0,
0,0,0,0,0,0,0,0,0,0,0,0,0,0,0,0,0,0,0,0,0,0,0,0,0,0,0,0,0,0,0,0,0,0,0,0,0,0,0,0,0,0,0,0,0,0,0,0,
0,0,0,0,0,0,0,0,0,0,0,0,0,0,0,0,0,636,0,0,0,0,0,0,0,0,0,0,0,0,0,0,0,0,0,0,0,0,0,0,0,0,0,0,0,0,0,0,
0,0,0,0,0,0,0,0,0,0,0,0,0,0,0,0,0,0,0,0,0,0,0,0,0,0,0,0,0,0,0,0,0,0,0,0,0,0,0,0,0,0,0,0,0,0,0,0,
0,0,0,0,0,0,0,0,0,0,0,0,0,0,0,0,0,0,0,0,0,0,0,0,0,0,0,0,0,0,0,0,0,0,0,0,0,0,0,0,0,0,0,0,0,0,0,0,
0,0,0,0,0,0,0,0,0,0,0,0,0,0,0,0,0,0,0,0,0,0,0,0,0,0,0,0,0,0,0,0,0,0,0,0,0,0,0,0,0,0,0,0,0,0,0,0,
0,0,0,0,0,0,0,0,0,0,0,0,678,679,680,0,0,0,0,0,0,0,0,0,0,0,0,0,0,0,0,0,0,0,0,0,0,0,0,0,0,0,0,0,0,0,0,0,
0,0,0,0,0,0,0,0,0,0,0,0,686,687,688,0,0,0,0,0,0,0,0,0,0,0,0,0,0,0,0,0,0,0,0,0,0,0,0,0,0,0,0,0,0,0,0,0,
0,0,0,0,0,0,0,0,0,0,0,0,0,0,0,0,0,0,0,0,0,0,0,0,0,0,0,0,0,0,0,0,0,0,0,678,679,680,0,0,0,0,0,0,0,0,0,0,
0,0,0,0,0,0,0,0,0,0,0,0,0,0,0,0,0,0,0,0,0,0,0,0,0,0,0,0,0,0,0,0,0,0,0,686,687,688,0,0,0,0,0,0,0,0,0,0,
0,0,0,0,0,0,0,0,0,0,0,0,0,0,0,0,0,0,0,0,0,0,0,0,0,0,0,0,0,0,0,0,0,0,0,0,0,0,0,0,0,0,0,0,0,0,0,0,
0,0,0,0,0,0,0,0,0,566,567,0,0,0,0,0,0,0,0,0,0,0,0,0,0,0,0,0,0,0,0,0,0,0,0,0,0,0,0,0,0,0,0,0,0,0,0,0,
0,0,0,0,0,0,0,0,0,0,0,0,0,0,0,0,0,0,0,0,0,0,0,0,0,0,0,0,0,0,0,0,0,0,0,0,0,0,566,567,0,0,0,0,0,0,0,0,
0,0,0,0,0,0,0,0,0,0,0,0,0,0,0,0,0,0,0,0,0,0,0,0,0,0,0,0,0,0,0,0,0,0,0,0,0,0,0,0,0,0,0,0,0,0,0,0,
0,0,0,0,0,0,0,0,0,0,0,0,0,0,0,0,0,0,0,0,0,0,0,0,0,0,0,0,0,0,0,0,0,0,0,0,0,0,0,0,0,0,0,0,0,0,0,0,
0,0,0,0,0,0,0,0,0,0,0,0,0,0,0,0,0,0,0,0,0,0,0,0,0,0,0,0,0,0,0,0,0,0,0,0,0,0,0,0,0,0,0,0,0,0,0,0,
0,0,0,0,0,0,0,0,0,0,0,0,0,0,0,0,0,0,0,0,0,0,0,0,0,0,0,0,0,0,0,0,0,0,0,0,0,0,0,0,0,0,0,0,0,0,0,0,
0,0,0,0,0,0,0,0,0,0,0,0,0,0,0,0,0,0,0,0,0,0,0,0,0,0,0,0,0,0,0,0,0,0,0,0,0,0,0,0,0,0,0,0,0,0,0,0,
0,0,0,0,0,0,0,0,0,0,0,0,0,0,0,0,0,0,0,0,0,0,0,0,0,0,0,0,0,0,0,0,0,0,0,0,0,0,0,0,0,0,0,0,0,0,0,0,
0,0,0,0,0,0,0,0,0,0,0,0,0,0,0,0,0,0,0,0,0,0,0,0,0,0,0,0,0,0,0,0,0,0,0,0,0,0,0,0,0,0,0,0,0,0,0,0,
0,0,0,0,0,0,0,0,0,0,0,0,0,0,0,0,0,0,0,0,0,0,0,0,0,0,0,0,0,0,0,0,0,0,0,0,0,0,0,0,0,0,0,0,0,0,0,0,
0,0,0,0,0,0,0,0,0,0,0,0,0,0,0,0,0,0,0,0,0,0,0,0,0,0,0,0,0,0,0,0,0,0,0,0,0,0,0,0,0,0,0,0,0,0,0,0,
0,0,0,0,0,0,0,0,0,0,0,0,0,0,0,0,0,0,0,0,0,0,0,0,0,0,0,0,0,0,0,0,0,0,0,0,0,0,0,0,0,0,0,0,0,0,0,0
  </data>
 </layer>
 </group>
</map>
