<?xml version="1.0" encoding="UTF-8"?>
<map version="1.10" tiledversion="1.10.2" orientation="orthogonal" renderorder="right-down" compressionlevel="0" width="40" height="40" tilewidth="32" tileheight="32" infinite="0" nextlayerid="4" nextobjectid="1">
 <tileset firstgid="1" source="RMXP-Caves.tsx"/>
 <tileset firstgid="1593" source="RMXP-auto-land.tsx"/>
 <tileset firstgid="1641" source="RMXP-auto-land2-2.tsx"/>
 <tileset firstgid="1689" source="RMXP-auto-cavewater.tsx"/>
 <tileset firstgid="1737" source="RMXP-auto-tfj-waterfall.tsx"/>
 <tileset firstgid="1785" source="RMXP-auto-waterfall-crest.tsx"/>
 <tileset firstgid="1833" source="RMXP-auto-hgss-waves.tsx"/>
 <tileset firstgid="1881" source="RMXP-auto-hgss-sea.tsx"/>
 <layer id="1" name="lower" width="40" height="40">
  <data encoding="csv">
0,0,0,0,0,0,0,0,0,0,0,0,0,0,0,0,0,0,0,0,0,0,0,0,0,0,0,0,0,0,0,0,0,0,0,0,0,0,0,0,
0,0,0,0,0,0,0,0,0,0,0,0,0,0,0,0,0,0,0,0,0,0,0,0,0,0,0,0,0,0,0,0,0,0,0,0,0,0,0,0,
0,0,0,0,0,0,0,0,0,0,0,0,0,0,0,0,0,0,0,0,0,0,0,0,0,0,0,0,0,0,0,0,0,0,0,0,0,0,0,0,
0,0,58,58,58,58,58,58,58,58,58,58,58,58,58,58,58,58,58,58,58,58,58,58,58,58,58,58,58,58,58,58,58,58,58,58,58,0,0,0,
0,0,58,58,58,58,58,58,58,58,58,58,58,58,58,58,58,58,58,58,58,58,58,58,58,58,58,58,58,58,58,58,58,58,58,58,58,0,0,0,
0,0,58,58,58,58,58,58,58,58,58,58,58,58,58,58,58,58,58,58,58,58,58,58,58,58,58,58,58,58,58,58,58,58,58,58,58,0,0,0,
0,0,58,58,58,58,58,58,58,58,58,58,58,58,58,58,58,58,58,58,58,58,58,58,58,58,58,58,58,58,58,58,58,58,58,58,58,0,0,0,
0,0,58,58,58,58,58,58,58,58,58,58,58,58,58,58,58,58,58,58,58,58,58,58,58,58,58,58,58,58,58,58,58,58,58,58,58,0,0,0,
0,0,58,58,58,58,58,58,58,58,58,58,58,58,58,58,58,58,58,58,58,58,58,58,58,58,58,58,58,58,58,58,58,58,58,58,58,0,0,0,
0,0,58,58,58,58,58,58,58,58,58,58,58,58,58,58,58,58,58,58,58,58,58,58,58,58,58,58,58,58,58,58,58,58,58,58,58,0,0,0,
0,0,58,58,58,58,58,58,58,58,58,58,58,58,58,58,58,58,58,58,58,58,58,58,58,58,58,58,58,58,58,58,58,58,58,58,58,0,0,0,
0,0,58,58,58,58,58,58,58,58,58,58,58,58,58,58,58,58,58,58,58,58,58,58,58,58,58,58,58,58,58,58,58,58,58,58,58,0,0,0,
0,0,58,58,58,58,58,58,58,58,58,58,58,58,58,58,58,58,58,58,58,58,58,58,58,58,58,58,58,58,58,58,58,58,58,58,58,0,0,0,
0,0,58,58,58,58,58,58,58,58,58,58,58,58,58,58,58,58,58,58,2,1,2,1,2,1,9,58,58,58,58,58,58,58,58,58,58,0,0,0,
0,0,58,58,58,58,58,58,58,58,58,58,58,58,58,58,58,58,58,9,10,9,10,9,10,9,9,58,58,58,58,58,58,58,58,58,58,0,0,0,
0,0,58,58,58,58,58,58,58,58,58,58,58,58,58,58,58,58,58,1,2,1,2,1,2,1,9,58,58,58,58,58,58,58,58,58,58,0,0,0,
0,0,58,58,58,58,58,58,58,58,58,58,2,9,9,9,9,9,9,9,10,9,10,9,10,9,9,58,58,58,58,58,58,58,58,58,58,0,0,0,
0,0,58,58,58,58,58,58,58,58,58,58,2,1,2,1,2,1,2,1,2,1,2,1,2,1,9,58,58,58,58,58,58,58,58,58,58,0,0,0,
0,0,58,58,58,58,58,58,58,58,58,58,2,9,10,9,10,9,10,9,10,9,10,9,10,9,9,58,58,58,58,58,58,58,58,58,58,0,0,0,
0,0,58,58,58,58,58,58,58,58,58,58,2,1,2,1,2,1,2,1,2,1,2,1,2,1,9,58,58,58,58,58,58,58,58,58,58,0,0,0,
0,0,58,58,58,58,58,58,58,58,58,58,2,9,10,9,10,9,10,9,10,9,10,9,10,9,9,58,58,58,58,58,58,58,58,58,58,0,0,0,
0,0,58,58,58,58,58,58,58,58,58,58,2,1,2,1,2,1,2,1,2,1,2,1,2,1,9,58,58,58,58,58,58,58,58,58,58,0,0,0,
0,0,58,58,58,58,58,58,58,58,58,58,58,58,58,58,58,58,9,9,10,9,10,9,10,9,9,58,58,58,58,58,58,58,58,58,58,0,0,0,
0,0,58,58,58,58,58,58,58,58,58,58,58,58,58,58,58,58,9,1,2,1,2,1,2,1,9,58,58,58,58,58,58,58,58,58,58,0,0,0,
0,0,58,58,58,58,58,58,58,58,58,58,58,58,58,58,58,58,9,9,10,9,10,9,10,9,9,58,58,58,58,58,58,58,58,58,58,0,0,0,
0,0,58,58,58,58,58,58,58,58,58,58,58,58,58,58,58,58,9,1,2,1,2,1,2,1,9,58,58,58,58,58,58,58,58,58,58,0,0,0,
0,0,58,58,58,58,58,58,58,58,58,58,58,58,58,58,58,58,58,58,58,58,58,58,58,58,58,58,58,58,58,58,58,58,58,58,58,0,0,0,
0,0,58,58,58,58,58,58,58,58,58,58,58,58,58,58,58,58,58,58,58,58,58,58,58,58,58,58,58,58,58,58,58,58,58,58,58,0,0,0,
0,0,58,58,58,58,58,58,58,58,58,58,58,58,58,58,58,58,58,58,58,58,58,58,58,58,58,58,58,58,58,58,58,58,58,58,58,0,0,0,
0,0,58,58,58,58,58,58,58,58,58,58,58,58,58,58,58,58,58,58,58,58,58,58,58,58,58,58,58,58,58,58,58,58,58,58,58,0,0,0,
0,0,58,58,58,58,58,58,58,58,58,58,58,58,58,58,58,58,58,58,58,58,58,58,58,58,58,58,58,58,58,58,58,58,58,58,58,0,0,0,
0,0,58,58,58,58,58,58,58,58,58,58,58,58,58,58,58,58,58,58,58,58,58,58,58,58,58,58,58,58,58,58,58,58,58,58,58,0,0,0,
0,0,58,58,58,58,58,58,58,58,58,58,58,58,58,58,58,58,58,58,58,58,58,58,58,58,58,58,58,58,58,58,58,58,58,58,58,0,0,0,
0,0,58,58,58,58,58,58,58,58,58,58,58,58,58,58,58,58,58,58,58,58,58,58,58,58,58,58,58,58,58,58,58,58,58,58,58,0,0,0,
0,0,58,58,58,58,58,58,58,58,58,58,58,58,58,58,58,58,58,58,58,58,58,58,58,58,58,58,58,58,58,58,58,58,58,58,58,0,0,0,
0,0,58,58,58,58,58,58,58,58,58,58,58,58,58,58,58,58,58,58,58,58,58,58,58,58,58,58,58,58,58,58,58,58,58,58,58,0,0,0,
0,0,0,0,0,0,0,0,0,0,0,0,0,0,0,0,0,0,0,0,0,0,0,0,0,0,0,0,0,0,0,0,0,0,0,0,0,0,0,0,
0,0,0,0,0,0,0,0,0,0,0,0,0,0,0,0,0,0,0,0,0,0,0,0,0,0,0,0,0,0,0,0,0,0,0,0,0,0,0,0,
0,0,0,0,0,0,0,0,0,0,0,0,0,0,0,0,0,0,0,0,0,0,0,0,0,0,0,0,0,0,0,0,0,0,0,0,0,0,0,0,
0,0,0,0,0,0,0,0,0,0,0,0,0,0,0,0,0,0,0,0,0,0,0,0,0,0,0,0,0,0,0,0,0,0,0,0,0,0,0,0
  </data>
 </layer>
 <layer id="2" name="middle" width="40" height="40">
  <data encoding="csv">
111,111,111,111,111,111,111,111,111,111,111,111,111,111,111,111,111,111,111,111,111,111,111,111,111,111,111,111,111,111,111,111,111,111,111,111,111,111,111,111,
111,111,111,111,111,111,111,111,111,111,111,111,111,111,111,111,111,111,111,111,111,111,111,111,111,111,111,111,111,111,111,111,111,111,111,111,111,111,111,111,
111,77,78,78,78,78,78,78,78,78,78,78,78,78,78,78,78,78,78,78,78,78,78,78,78,78,78,78,78,78,78,78,78,78,78,78,78,79,111,111,
111,85,0,0,0,0,0,0,0,0,0,0,0,0,0,0,0,0,0,0,0,0,0,0,0,0,0,0,0,0,0,0,0,0,0,0,0,87,111,111,
111,85,0,73,66,66,66,66,66,66,66,66,66,66,66,66,66,66,66,66,66,66,66,66,66,66,66,66,66,66,66,66,66,66,66,74,0,87,111,111,
111,85,0,59,0,0,0,0,0,0,0,73,66,66,66,66,66,66,66,66,66,66,66,66,66,66,66,66,66,66,66,66,66,66,74,57,0,87,111,111,
111,85,0,59,0,0,0,0,0,0,0,59,73,66,66,66,66,66,66,66,66,66,66,66,66,66,66,66,66,66,66,66,66,74,57,57,0,87,111,111,
111,85,0,59,0,0,0,0,0,0,0,59,59,73,66,66,66,66,66,66,66,66,66,66,66,66,66,66,66,66,66,66,74,57,57,57,0,87,111,111,
111,85,0,59,73,66,66,66,66,66,66,67,59,59,73,66,66,66,66,66,66,66,66,66,66,66,66,66,66,66,66,74,57,57,57,57,0,87,111,111,
111,85,0,59,59,73,66,66,66,66,66,66,67,59,59,73,66,66,66,66,66,66,66,66,66,66,66,66,66,66,74,57,57,57,57,57,0,87,111,111,
111,85,0,59,59,59,73,66,66,66,66,66,66,67,59,59,73,66,66,66,66,66,66,66,66,66,66,66,66,74,57,57,57,57,57,57,0,87,111,111,
111,85,0,59,59,59,59,73,66,66,66,66,66,66,67,59,59,73,66,66,66,66,66,66,66,66,66,66,74,57,57,57,57,57,57,57,0,87,111,111,
111,85,0,59,59,59,59,59,73,66,66,66,66,66,66,67,59,59,0,73,66,66,66,66,66,66,66,74,57,57,57,57,57,57,57,57,0,87,111,111,
111,85,0,59,59,59,59,59,59,73,66,66,66,66,66,66,67,59,73,67,73,66,66,66,66,66,74,57,57,57,57,57,57,57,57,57,0,87,111,111,
111,85,0,59,59,59,59,59,59,59,73,66,66,66,66,66,66,67,59,73,67,0,0,0,0,0,57,57,57,57,57,57,57,57,57,57,0,87,111,111,
111,85,0,59,59,59,59,59,59,59,59,73,66,66,66,66,66,66,67,59,0,0,0,0,0,0,57,57,57,57,57,57,57,57,57,57,0,87,111,111,
111,85,0,59,59,59,59,59,59,59,59,59,73,66,66,0,66,66,66,67,0,97,0,0,0,0,57,57,57,57,57,57,57,57,57,57,0,87,111,111,
111,85,0,59,59,59,59,59,59,59,59,59,59,0,0,0,0,0,0,89,0,0,0,0,0,0,57,57,57,57,57,57,57,57,57,57,0,87,111,111,
111,85,0,59,59,59,59,59,59,59,59,59,59,0,89,0,0,97,0,0,0,0,0,97,0,0,57,57,57,57,57,57,57,57,57,57,0,87,111,111,
111,85,0,59,59,59,59,59,59,59,59,59,59,0,101,102,0,0,0,0,0,0,0,0,0,0,57,57,57,57,57,57,57,57,57,57,0,87,111,111,
111,85,0,59,59,59,59,59,59,59,59,59,59,0,109,110,89,89,0,0,0,0,0,0,0,0,57,57,57,57,57,57,57,57,57,57,0,87,111,111,
111,85,0,59,59,59,59,59,59,59,59,59,81,50,50,50,50,50,51,0,105,106,107,108,0,0,57,57,57,57,57,57,57,57,57,57,0,87,111,111,
111,85,0,59,59,59,59,59,59,59,59,81,50,50,50,50,50,51,59,0,113,114,115,116,97,0,57,57,57,57,57,57,57,57,57,57,0,87,111,111,
111,85,0,59,59,59,59,59,59,59,81,50,50,50,50,50,51,59,59,0,0,0,0,0,0,0,57,57,57,57,57,57,57,57,57,57,0,87,111,111,
111,85,0,59,59,59,59,59,59,81,50,50,50,50,50,51,59,59,59,0,0,0,0,0,0,0,57,57,57,57,57,57,57,57,57,57,0,87,111,111,
111,85,0,59,59,59,59,59,81,50,50,50,50,50,51,59,59,59,81,50,50,50,50,50,50,50,82,57,57,57,57,57,57,57,57,57,0,87,111,111,
111,85,0,59,59,59,59,81,50,50,50,50,50,51,59,59,59,81,50,50,50,50,50,50,50,50,50,82,57,57,57,57,57,57,57,57,0,87,111,111,
111,85,0,59,59,59,81,50,50,50,50,50,51,59,59,59,81,50,50,50,50,50,50,50,50,50,50,50,82,57,57,57,57,57,57,57,0,87,111,111,
111,85,0,59,59,81,50,50,50,50,50,51,59,59,59,81,50,50,50,50,50,50,50,50,50,50,50,50,50,82,57,57,57,57,57,57,0,87,111,111,
111,85,0,59,59,0,0,0,0,0,0,59,59,59,81,50,50,50,50,50,50,50,50,50,50,50,50,50,50,50,82,57,57,57,57,57,0,87,111,111,
111,85,0,59,59,0,0,0,0,0,0,59,59,81,50,50,50,50,50,50,50,50,50,50,50,50,50,50,50,50,50,82,57,57,57,57,0,87,111,111,
111,85,0,59,59,0,0,0,0,0,0,59,81,50,50,50,50,50,50,50,50,50,50,50,50,50,50,50,50,50,50,50,82,57,57,57,0,87,111,111,
111,85,0,59,59,0,0,0,0,0,0,81,50,50,50,50,50,50,50,50,50,50,50,50,50,50,50,50,50,50,50,50,50,82,57,57,0,87,111,111,
111,85,0,59,81,50,50,50,50,50,50,50,50,50,50,50,50,50,50,50,50,50,50,50,50,50,50,50,50,50,50,50,50,50,82,57,0,87,111,111,
111,85,0,81,81,50,50,50,50,50,50,50,50,50,50,50,50,50,50,50,50,50,50,50,50,50,50,50,50,50,50,50,50,50,50,82,0,87,111,111,
111,85,0,0,0,0,0,0,0,0,0,0,0,0,0,0,0,0,0,0,0,0,0,0,0,0,0,0,0,0,0,0,0,0,0,0,0,87,111,111,
111,93,94,94,94,94,94,94,94,94,94,94,94,94,94,94,94,94,94,94,94,94,94,94,94,94,94,94,94,94,94,94,94,94,94,94,94,95,111,111,
111,111,111,111,111,111,111,111,111,111,111,111,111,111,111,111,111,111,111,111,111,111,111,111,111,111,111,111,111,111,111,111,111,111,111,111,111,111,111,111,
111,111,111,111,111,111,111,111,111,111,111,111,111,111,111,111,111,111,111,111,111,111,111,111,111,111,111,111,111,111,111,111,111,111,111,111,111,111,111,111,
111,111,111,111,111,111,111,111,111,111,111,111,111,111,111,111,111,111,111,111,111,111,111,111,111,111,111,111,111,111,111,111,111,111,111,111,111,111,111,111
  </data>
 </layer>
 <layer id="3" name="upper" width="40" height="40">
  <data encoding="csv">
0,0,0,0,0,0,0,0,0,0,0,0,0,0,0,0,0,0,0,0,0,0,0,0,0,0,0,0,0,0,0,0,0,0,0,0,0,0,0,0,
0,0,0,0,0,0,0,0,0,0,0,0,0,0,0,0,0,0,0,0,0,0,0,0,0,0,0,0,0,0,0,0,0,0,0,0,0,0,0,0,
0,0,0,0,0,0,0,0,0,0,0,0,0,0,0,0,0,0,0,0,0,0,0,0,0,0,0,0,0,0,0,0,0,0,0,0,0,0,0,0,
0,0,0,0,0,0,0,0,0,0,0,0,0,0,0,0,0,0,0,0,0,0,0,0,0,0,0,0,0,0,0,0,0,0,0,0,0,0,0,0,
0,0,0,0,0,0,0,0,0,0,0,0,0,0,0,0,0,0,0,0,0,0,0,687,0,0,0,0,0,0,0,0,0,0,0,0,0,0,0,0,
0,0,0,0,0,0,0,0,0,0,0,0,0,0,0,0,0,0,0,0,0,0,0,687,0,0,0,0,0,0,0,0,0,0,0,0,0,0,0,0,
0,0,0,0,0,0,0,0,0,0,0,0,0,0,0,0,0,0,0,0,0,0,0,687,0,0,0,0,0,0,0,0,0,0,0,0,0,0,0,0,
0,0,0,0,0,0,0,0,0,0,0,0,0,0,0,0,0,0,0,0,0,0,0,687,0,0,0,0,0,0,0,0,0,0,0,0,0,0,0,0,
0,0,0,0,0,0,0,0,0,0,0,0,0,0,0,0,0,0,0,0,0,0,0,687,0,0,0,0,0,0,0,0,0,0,0,0,0,0,0,0,
0,0,0,0,0,0,0,0,0,0,0,0,0,0,0,0,0,0,0,0,0,0,0,687,0,0,0,0,0,0,0,0,0,0,0,0,0,0,0,0,
0,0,0,0,0,0,0,0,0,0,0,0,0,0,0,0,0,0,0,0,0,0,0,687,0,0,0,0,0,0,0,0,0,0,0,0,0,0,0,0,
0,0,0,0,0,0,0,0,0,0,0,0,0,0,0,0,0,0,0,0,0,0,0,687,0,0,0,0,0,0,0,0,0,0,0,0,0,0,0,0,
0,0,0,0,0,0,0,0,0,0,0,0,0,0,0,0,0,0,0,0,0,0,0,687,0,0,0,0,0,0,0,0,0,0,0,0,0,0,0,0,
0,0,0,0,0,0,0,0,0,0,0,0,0,0,0,0,0,0,0,0,0,0,0,695,0,0,0,0,0,0,0,0,0,0,0,0,0,0,0,0,
0,0,0,0,0,0,0,0,0,0,0,0,0,0,0,0,0,0,0,0,0,0,0,703,0,0,0,0,0,0,0,0,0,0,0,0,0,0,0,0,
0,0,0,0,0,0,0,0,0,0,0,0,0,0,190,191,192,0,0,0,0,0,0,0,0,0,0,0,0,0,0,0,0,0,0,0,0,0,0,0,
0,0,0,0,0,0,0,0,0,0,0,0,0,90,198,199,200,0,90,0,0,0,0,0,0,0,0,0,0,0,0,0,0,0,0,0,0,0,0,0,
0,0,0,0,0,0,0,0,0,0,0,0,0,98,206,207,208,0,98,0,0,0,0,0,0,0,0,0,0,0,0,0,0,0,0,0,0,0,0,0,
0,0,0,0,0,0,0,0,0,0,0,0,0,0,0,0,0,0,0,0,0,0,0,0,0,0,0,0,0,0,0,0,0,0,0,0,0,0,0,0,
0,0,0,0,0,0,0,0,0,0,0,0,0,0,0,0,0,0,0,0,0,0,0,0,0,0,0,0,0,0,0,0,0,0,0,0,0,0,0,0,
0,0,0,0,0,0,0,0,0,0,0,0,0,0,0,0,0,0,0,0,0,0,0,0,0,0,0,0,0,0,0,0,0,0,0,0,0,0,0,0,
0,0,0,0,0,0,0,0,0,0,0,0,0,0,0,0,0,0,0,0,0,0,0,0,0,0,0,0,0,0,0,0,0,0,0,0,0,0,0,0,
0,0,0,0,0,0,0,0,0,0,0,0,0,0,0,0,0,0,0,0,0,0,0,0,0,0,0,0,0,0,0,0,0,0,0,0,0,0,0,0,
0,0,0,0,0,0,0,0,0,0,0,0,0,0,0,0,0,0,0,0,0,0,0,0,0,0,0,0,0,0,0,0,0,0,0,0,0,0,0,0,
0,0,0,0,0,0,0,0,0,0,0,0,0,0,0,0,0,0,0,0,0,0,0,0,0,0,0,0,0,0,0,0,0,0,0,0,0,0,0,0,
0,0,0,0,0,0,0,0,0,0,0,0,0,0,0,0,0,0,0,0,0,0,0,0,0,0,0,0,0,0,0,0,0,0,0,0,0,0,0,0,
0,0,0,0,0,0,0,0,0,0,0,0,0,0,0,0,0,0,0,0,0,0,0,0,0,0,0,0,0,0,0,0,0,0,0,0,0,0,0,0,
0,0,0,0,0,0,0,0,0,0,0,0,0,0,0,0,0,0,0,0,0,0,0,0,0,0,0,0,0,0,0,0,0,0,0,0,0,0,0,0,
0,0,0,0,0,0,0,0,0,0,0,0,0,0,0,0,0,0,0,0,0,0,0,0,0,0,0,0,0,0,0,0,0,0,0,0,0,0,0,0,
0,0,0,0,0,0,0,0,0,0,0,0,0,0,0,0,0,0,0,0,0,0,0,0,0,0,0,0,0,0,0,0,0,0,0,0,0,0,0,0,
0,0,0,0,0,0,0,0,0,0,0,0,0,0,0,0,0,0,0,0,0,0,0,0,0,0,0,0,0,0,0,0,0,0,0,0,0,0,0,0,
0,0,0,0,0,0,0,0,0,0,0,0,0,0,0,0,0,0,0,0,0,0,0,0,0,0,0,0,0,0,0,0,0,0,0,0,0,0,0,0,
0,0,0,0,0,0,0,0,0,0,0,0,0,0,0,0,0,0,0,0,0,0,0,0,0,0,0,0,0,0,0,0,0,0,0,0,0,0,0,0,
0,0,0,0,0,0,0,0,0,0,0,0,0,0,0,0,0,0,0,0,0,0,0,0,0,0,0,0,0,0,0,0,0,0,0,0,0,0,0,0,
0,0,0,0,0,0,0,0,0,0,0,0,0,0,0,0,0,0,0,0,0,0,0,0,0,0,0,0,0,0,0,0,0,0,0,0,0,0,0,0,
0,0,0,0,0,0,0,0,0,0,0,0,0,0,0,0,0,0,0,0,0,0,0,0,0,0,0,0,0,0,0,0,0,0,0,0,0,0,0,0,
0,0,0,0,0,0,0,0,0,0,0,0,0,0,0,0,0,0,0,0,0,0,0,0,0,0,0,0,0,0,0,0,0,0,0,0,0,0,0,0,
0,0,0,0,0,0,0,0,0,0,0,0,0,0,0,0,0,0,0,0,0,0,0,0,0,0,0,0,0,0,0,0,0,0,0,0,0,0,0,0,
0,0,0,0,0,0,0,0,0,0,0,0,0,0,0,0,0,0,0,0,0,0,0,0,0,0,0,0,0,0,0,0,0,0,0,0,0,0,0,0,
0,0,0,0,0,0,0,0,0,0,0,0,0,0,0,0,0,0,0,0,0,0,0,0,0,0,0,0,0,0,0,0,0,0,0,0,0,0,0,0
  </data>
 </layer>
 <objectgroup id="4" name="events"/>
</map>
