<?xml version="1.0" encoding="UTF-8"?>
<map version="1.10" tiledversion="1.10.2" orientation="orthogonal" renderorder="right-down" compressionlevel="0" width="54" height="39" tilewidth="32" tileheight="32" infinite="0" nextlayerid="4" nextobjectid="1">
 <tileset firstgid="1" source="RMXP-Caves.tsx"/>
 <tileset firstgid="1593" source="RMXP-auto-land.tsx"/>
 <tileset firstgid="1641" source="RMXP-auto-land2-2.tsx"/>
 <tileset firstgid="1689" source="RMXP-auto-cavewater.tsx"/>
 <tileset firstgid="1737" source="RMXP-auto-tfj-waterfall.tsx"/>
 <tileset firstgid="1785" source="RMXP-auto-waterfall-crest.tsx"/>
 <tileset firstgid="1833" source="RMXP-auto-hgss-waves.tsx"/>
 <tileset firstgid="1881" source="RMXP-auto-hgss-sea.tsx"/>
 <layer id="1" name="lower" width="54" height="39">
  <data encoding="csv">
189,189,189,189,189,189,189,189,189,189,189,189,189,189,189,189,189,189,189,189,189,189,189,189,189,189,189,189,189,189,189,189,189,189,189,189,189,189,189,189,189,189,189,189,189,189,189,189,189,189,189,189,189,189,
189,189,189,189,189,189,189,189,189,189,189,189,189,189,189,189,189,189,189,189,189,189,189,189,189,189,189,189,189,189,189,189,189,189,189,189,189,189,189,189,189,189,189,189,189,189,189,189,189,189,189,189,189,189,
189,189,189,189,189,189,189,189,189,189,189,189,189,189,189,189,189,189,189,189,189,189,189,189,189,189,189,189,189,189,189,189,189,189,189,189,189,189,189,189,189,189,189,189,189,189,189,189,189,189,189,189,189,189,
189,189,189,189,189,189,189,189,189,189,189,189,189,189,189,189,189,189,189,189,189,189,189,189,189,189,189,189,189,189,189,189,189,189,189,189,189,189,189,189,189,189,189,189,189,189,189,189,189,189,189,189,189,189,
189,189,189,189,189,189,189,189,189,189,189,189,189,189,189,189,189,189,189,189,189,189,189,189,189,189,189,189,189,189,189,189,189,189,189,189,189,189,189,189,189,189,189,189,189,189,189,189,189,189,189,189,189,189,
189,189,189,189,189,189,189,189,189,189,189,189,189,189,189,189,189,189,189,189,189,189,189,189,189,189,189,189,189,189,189,189,189,189,189,189,189,189,189,189,189,189,189,189,189,189,189,189,189,189,189,189,189,189,
189,189,189,189,189,189,189,189,189,189,189,189,189,189,189,189,189,189,189,189,189,189,189,189,189,189,189,189,189,189,189,189,189,189,189,189,189,189,189,189,189,189,189,189,189,189,189,189,189,189,189,189,189,189,
189,189,189,189,189,189,189,189,189,189,189,189,189,189,189,189,189,189,189,189,189,189,189,189,189,189,189,189,189,189,189,189,189,189,189,189,189,189,189,189,189,189,189,189,189,189,189,189,189,189,189,189,189,189,
189,189,189,189,189,189,189,189,535,536,535,536,535,536,535,536,535,536,535,536,535,536,535,536,535,536,535,536,535,536,535,536,535,536,535,536,535,536,535,536,535,536,189,189,189,189,189,189,189,189,189,189,189,189,
189,189,189,189,189,189,189,189,543,544,543,544,543,544,543,544,543,544,543,544,543,544,543,544,543,544,543,544,543,544,543,544,543,544,543,544,543,544,543,544,543,544,189,189,189,189,189,189,189,189,189,189,189,189,
189,189,189,189,189,189,189,189,535,536,535,536,535,536,535,536,535,536,535,536,535,536,535,536,535,536,535,536,535,536,535,536,535,536,535,536,535,536,535,536,535,536,189,189,189,189,189,189,189,189,189,189,189,189,
189,189,189,189,189,189,189,189,543,544,543,544,543,544,543,544,543,544,543,544,543,544,543,544,543,544,543,544,543,544,543,544,543,544,543,544,543,544,543,544,543,544,189,189,189,189,189,189,189,189,189,189,189,189,
189,189,189,189,189,189,189,189,535,536,535,536,535,536,535,536,535,536,535,536,535,536,535,536,535,536,535,536,535,536,535,536,535,536,535,536,535,536,535,536,535,536,189,189,189,189,189,189,189,189,189,189,189,189,
189,189,189,189,189,189,189,189,543,544,543,544,543,544,543,544,543,544,543,544,543,544,543,544,543,544,543,544,543,544,543,544,543,544,543,544,543,544,543,544,543,544,189,189,189,189,189,189,189,189,189,189,189,189,
189,189,189,189,189,189,189,189,535,536,535,536,535,536,535,536,535,536,535,536,535,536,535,536,535,536,535,536,535,536,535,536,535,536,535,536,535,536,535,536,535,536,189,189,189,189,189,189,189,189,189,189,189,189,
189,189,189,189,189,189,189,189,543,544,543,544,543,544,543,544,543,544,543,544,543,544,543,544,543,544,543,544,543,544,543,544,543,544,543,544,543,544,543,544,543,544,189,189,189,189,189,189,189,189,189,189,189,189,
189,189,189,189,189,189,189,189,535,536,535,536,535,536,535,536,535,536,535,536,535,536,535,536,535,536,535,536,535,536,535,536,535,536,535,536,535,536,535,536,535,536,189,189,189,189,189,189,189,189,189,189,189,189,
189,189,189,189,189,189,189,189,543,544,543,544,543,544,543,544,543,544,543,544,543,544,543,544,543,544,543,544,543,544,543,544,543,544,543,544,543,544,543,544,543,544,189,189,189,189,189,189,189,189,189,189,189,189,
189,189,189,189,189,189,189,189,535,536,535,536,535,536,535,536,535,536,535,536,535,536,535,536,535,536,535,536,535,536,535,536,535,536,535,536,535,536,535,536,535,536,189,189,189,189,189,189,189,189,189,189,189,189,
189,189,189,189,189,189,189,189,543,544,543,544,543,544,543,544,543,544,543,544,543,544,543,544,543,544,543,544,543,544,543,544,543,544,543,544,543,544,543,544,543,544,189,189,189,189,189,189,189,189,189,189,189,189,
189,189,189,189,189,189,189,189,535,536,535,536,535,536,535,536,535,536,535,536,535,536,535,536,535,536,535,536,535,536,535,536,535,536,535,536,535,536,535,536,535,536,189,189,189,189,189,189,189,189,189,189,189,189,
189,189,189,189,189,189,189,189,543,544,543,544,543,544,543,544,543,544,543,544,543,544,543,544,543,544,543,544,543,544,543,544,543,544,543,544,543,544,543,544,543,544,189,189,189,189,189,189,189,189,189,189,189,189,
189,189,189,189,189,189,189,189,535,536,535,536,535,536,535,536,535,536,535,536,535,536,535,536,535,536,535,536,535,536,535,536,535,536,535,536,535,536,535,536,535,536,189,189,189,189,189,189,189,189,189,189,189,189,
189,189,189,189,189,189,189,189,543,544,543,544,543,544,543,544,543,544,543,544,543,544,543,544,543,544,543,544,543,544,543,544,543,544,543,544,543,544,543,544,543,544,189,189,189,189,189,189,189,189,189,189,189,189,
189,189,189,189,189,189,189,189,189,189,189,189,189,189,189,189,189,189,189,189,189,536,535,536,535,536,535,536,535,536,535,536,535,536,535,536,535,536,535,536,535,536,189,189,189,189,189,189,189,189,189,189,189,189,
189,189,189,189,189,189,189,189,189,189,189,189,189,189,189,189,189,189,189,189,189,544,543,544,543,544,543,544,543,544,543,544,543,544,543,544,543,544,543,544,543,544,189,189,189,189,189,189,189,189,189,189,189,189,
189,189,189,189,189,189,189,189,189,189,189,189,189,189,189,189,189,189,189,189,189,536,535,536,535,536,535,536,535,536,535,536,535,536,535,536,535,536,535,536,535,536,189,189,189,189,189,189,189,189,189,189,189,189,
189,189,189,189,189,189,189,189,189,189,189,189,189,189,189,189,189,189,189,189,189,544,543,544,543,544,543,544,543,544,543,544,543,544,543,544,543,544,543,544,543,544,189,189,189,189,189,189,189,189,189,189,189,189,
189,189,189,189,189,189,189,189,189,189,189,189,189,189,189,189,189,189,189,189,189,536,535,536,535,536,535,536,535,536,535,536,535,536,535,536,535,536,535,536,535,536,189,189,189,189,189,189,189,189,189,189,189,189,
189,189,189,189,189,189,189,189,189,189,189,189,189,189,189,189,189,189,189,189,189,544,543,544,543,544,543,544,543,544,543,544,543,544,543,544,543,544,543,544,543,544,189,189,189,189,189,189,189,189,189,189,189,189,
189,189,189,189,189,189,189,189,189,189,189,189,189,189,189,189,189,189,189,189,189,189,189,189,189,189,189,189,189,189,189,189,189,189,189,189,189,189,189,189,189,189,189,189,189,189,189,189,189,189,189,189,189,189,
189,189,189,189,189,189,189,189,189,189,189,189,189,189,189,189,189,189,189,189,189,189,189,189,189,189,189,189,189,189,189,189,189,189,189,189,189,189,189,189,189,189,189,189,189,189,189,189,189,189,189,189,189,189,
189,189,189,189,189,189,189,189,189,189,189,189,189,189,189,189,189,189,189,189,189,189,189,189,189,189,189,189,189,189,189,189,189,189,189,189,189,189,189,189,189,189,189,189,189,189,189,189,189,189,189,189,189,189,
189,189,189,189,189,189,189,189,189,189,189,189,189,189,189,189,189,189,189,189,189,189,189,189,189,189,189,189,189,189,189,189,189,189,189,189,189,189,189,189,189,189,189,189,189,189,189,189,189,189,189,189,189,189,
189,189,189,189,189,189,189,189,189,189,189,189,189,189,189,189,189,189,189,189,189,189,189,189,189,189,189,189,189,189,189,189,189,189,189,189,189,189,189,189,189,189,189,189,189,189,189,189,189,189,189,189,189,189,
189,189,189,189,189,189,189,189,189,189,189,189,189,189,189,189,189,189,189,189,189,189,189,189,189,189,189,189,189,189,189,189,189,189,189,189,189,189,189,189,189,189,189,189,189,189,189,189,189,189,189,189,189,189,
189,189,189,189,189,189,189,189,189,189,189,189,189,189,189,189,189,189,189,189,189,189,189,189,189,189,189,189,189,189,189,189,189,189,189,189,189,189,189,189,189,189,189,189,189,189,189,189,189,189,189,189,189,189,
189,189,189,189,189,189,189,189,189,189,189,189,189,189,189,189,189,189,189,189,189,189,189,189,189,189,189,189,189,189,189,189,189,189,189,189,189,189,189,189,189,189,189,189,189,189,189,189,189,189,189,189,189,189,
189,189,189,189,189,189,189,189,189,189,189,189,189,189,189,189,189,189,189,189,189,189,189,189,189,189,189,189,189,189,189,189,189,189,189,189,189,189,189,189,189,189,189,189,189,189,189,189,189,189,189,189,189,189
  </data>
 </layer>
 <layer id="2" name="middle" width="54" height="39">
  <data encoding="csv">
0,0,0,0,0,0,0,0,0,0,0,0,0,0,0,0,0,0,0,0,0,0,0,0,0,0,0,0,0,0,0,0,0,0,0,0,0,0,0,0,0,0,0,0,0,0,0,0,0,0,0,0,0,0,
0,0,0,0,0,0,0,0,0,0,0,0,0,0,0,0,0,0,0,0,0,0,0,0,0,0,0,0,0,0,0,0,0,0,0,0,0,0,0,0,0,0,0,0,0,0,0,0,0,0,0,0,0,0,
0,0,0,0,0,0,0,0,0,0,0,0,0,0,0,0,0,0,0,0,0,0,0,0,0,0,0,0,0,0,0,0,0,0,0,0,0,0,0,0,0,0,0,0,0,0,0,0,0,0,0,0,0,0,
0,0,0,0,0,0,0,0,0,0,0,0,0,0,0,0,0,0,0,0,0,0,0,0,0,0,0,0,0,0,0,0,0,0,0,0,0,0,0,0,0,0,0,0,0,0,0,0,0,0,0,0,0,0,
0,0,0,0,0,0,0,0,0,0,0,0,0,0,0,0,0,0,0,0,0,0,0,0,0,0,0,0,0,0,0,0,0,0,0,0,0,0,0,0,0,0,0,0,0,0,0,0,0,0,0,0,0,0,
0,0,0,0,0,0,0,0,0,0,0,0,0,0,0,0,0,0,0,0,0,0,0,0,0,0,0,0,0,0,0,0,0,0,0,0,0,0,0,0,0,0,0,0,0,0,0,0,0,0,0,0,0,0,
0,0,0,0,0,0,0,0,0,0,0,0,0,0,0,0,0,0,0,0,0,0,0,0,0,0,0,0,0,0,0,0,0,0,0,0,0,0,0,0,0,0,0,0,0,0,0,0,0,0,0,0,0,0,
0,0,0,0,0,0,0,0,0,0,0,0,0,0,0,0,0,0,0,0,0,0,0,0,0,0,0,0,0,0,0,0,0,0,0,0,0,0,0,0,0,0,0,0,0,0,0,0,0,0,0,0,0,0,
0,0,0,0,0,0,0,0,60,210,210,210,210,210,210,210,210,210,210,210,210,210,210,210,210,210,210,210,210,210,210,210,210,210,210,210,210,210,210,210,210,61,0,0,0,0,0,0,0,0,0,0,0,0,
0,0,0,0,0,0,0,0,203,0,91,91,92,92,91,91,91,91,0,0,0,0,91,91,92,91,91,0,91,92,92,92,91,91,0,92,91,91,91,91,91,201,0,0,0,0,0,0,0,0,0,0,0,0,
0,0,0,0,0,0,0,0,203,91,49,50,50,50,50,50,50,50,50,50,51,0,0,661,0,49,50,50,50,50,50,50,50,50,50,50,50,50,50,50,51,201,0,0,0,0,0,0,0,0,0,0,0,0,
0,0,0,0,0,0,0,0,203,0,57,58,58,58,58,58,58,58,58,58,59,0,668,669,670,57,58,58,58,58,58,58,58,58,58,58,58,58,58,58,59,201,193,194,194,194,194,194,194,194,194,194,194,194,
0,0,0,0,0,0,0,0,203,0,57,58,58,58,58,58,58,58,58,58,59,0,0,0,0,57,58,58,58,58,58,58,58,58,58,58,58,73,66,100,67,201,201,0,0,0,0,0,0,0,0,0,0,0,
0,0,0,0,0,0,0,0,203,0,57,58,58,58,58,58,58,58,58,58,59,0,0,0,0,57,58,58,58,58,58,58,58,58,58,58,58,59,0,0,0,201,201,0,0,0,0,0,0,0,0,0,0,0,
0,0,0,0,0,0,0,0,203,0,57,58,58,58,58,58,58,58,58,58,59,0,0,0,0,57,58,58,58,58,58,58,58,58,58,58,58,59,0,0,0,201,201,0,0,0,0,0,0,0,0,0,0,0,
0,0,0,0,0,0,0,0,203,91,57,58,58,58,58,58,58,58,58,58,59,0,0,0,0,57,58,58,58,58,58,58,58,58,58,58,58,81,50,51,0,201,201,0,0,0,0,0,0,0,0,0,0,0,
0,0,0,0,0,0,0,0,203,0,57,58,58,58,58,58,58,58,58,58,59,0,0,0,0,57,58,58,58,58,58,58,58,58,58,58,58,58,58,59,92,201,201,0,0,0,0,0,0,0,0,0,0,0,
0,0,0,0,0,0,0,0,203,91,57,58,58,58,58,58,58,58,58,58,59,0,0,0,0,65,66,66,66,66,66,66,66,66,66,66,66,66,66,67,92,201,201,0,0,0,0,0,0,0,0,0,0,0,
0,0,0,0,0,0,0,0,203,92,57,58,58,58,58,58,58,58,58,58,59,0,0,0,0,0,0,0,0,0,0,0,0,0,0,0,0,0,0,0,0,201,209,210,210,210,210,210,210,210,210,210,210,210,
0,0,0,0,0,0,0,0,203,0,57,58,58,73,66,66,66,66,66,66,67,0,0,0,0,0,0,0,0,0,0,0,0,0,0,0,0,0,0,101,102,201,0,0,0,0,0,0,0,0,0,0,0,0,
0,0,0,0,0,0,0,0,203,91,57,58,58,59,0,0,0,0,0,0,0,0,0,101,102,0,0,0,0,91,0,0,0,0,0,0,0,0,0,109,110,201,0,0,0,0,0,0,0,0,0,0,0,0,
0,0,0,0,0,0,0,0,203,91,57,58,58,59,0,0,0,0,0,0,0,0,0,109,110,0,105,106,107,108,0,0,49,50,50,50,50,50,50,51,0,201,0,0,0,0,0,0,0,0,0,0,0,0,
0,0,0,0,0,0,0,0,203,92,65,66,66,67,0,0,0,0,0,0,0,0,0,0,0,0,113,114,114,116,0,0,57,58,58,58,58,58,58,59,91,201,0,0,0,0,0,0,0,0,0,0,0,0,
0,0,0,0,0,0,0,0,68,194,194,194,194,194,194,194,194,194,194,194,194,195,0,0,0,0,0,0,0,0,0,92,57,58,58,58,58,58,58,59,92,201,0,0,0,0,0,0,0,0,0,0,0,0,
0,0,0,0,0,0,0,0,0,0,193,194,194,194,194,194,194,194,194,194,195,203,0,0,0,0,0,0,0,0,0,0,57,58,58,58,58,58,58,59,91,201,0,0,0,0,0,0,0,0,0,0,0,0,
0,0,0,0,0,0,0,0,0,0,201,0,0,0,0,0,0,0,0,0,203,203,0,0,0,49,50,50,50,50,50,50,82,58,58,58,58,58,58,59,91,201,0,0,0,0,0,0,0,0,0,0,0,0,
0,0,0,0,0,0,0,0,0,0,201,0,0,0,0,0,0,0,0,0,203,203,0,0,0,57,58,58,58,58,58,58,58,58,58,58,58,58,58,59,91,201,0,0,0,0,0,0,0,0,0,0,0,0,
0,0,0,0,0,0,0,0,0,0,201,0,0,0,0,0,0,0,0,0,203,203,0,0,0,65,66,66,66,66,66,66,66,66,66,66,66,66,66,67,0,201,0,0,0,0,0,0,0,0,0,0,0,0,
0,0,0,0,0,0,0,0,0,0,201,0,0,0,0,0,0,0,0,0,203,203,92,91,0,0,0,0,0,0,91,91,0,91,92,92,0,92,91,91,91,201,0,0,0,0,0,0,0,0,0,0,0,0,
0,0,0,0,0,0,0,0,0,0,201,0,0,0,0,0,0,0,0,0,203,68,194,194,194,194,194,194,194,194,194,194,194,194,194,194,194,194,194,194,194,69,0,0,0,0,0,0,0,0,0,0,0,0,
0,0,0,0,0,0,0,0,0,0,201,0,0,0,0,0,0,0,0,0,203,0,0,0,0,0,0,0,0,0,0,0,0,0,0,0,0,0,0,0,0,0,0,0,0,0,0,0,0,0,0,0,0,0,
0,0,0,0,0,0,0,0,0,0,201,0,0,0,0,0,0,0,0,0,203,0,0,0,0,0,0,0,0,0,0,0,0,0,0,0,0,0,0,0,0,0,0,0,0,0,0,0,0,0,0,0,0,0,
0,0,0,0,0,0,0,0,0,0,201,0,0,0,0,0,0,0,0,0,203,0,0,0,0,0,0,0,0,0,0,0,0,0,0,0,0,0,0,0,0,0,0,0,0,0,0,0,0,0,0,0,0,0,
0,0,0,0,0,0,0,0,0,0,201,0,0,0,0,0,0,0,0,0,203,0,0,0,0,0,0,0,0,0,0,0,0,0,0,0,0,0,0,0,0,0,0,0,0,0,0,0,0,0,0,0,0,0,
0,0,0,0,0,0,0,0,0,0,201,0,0,0,0,0,0,0,0,0,203,0,0,0,0,0,0,0,0,0,0,0,0,0,0,0,0,0,0,0,0,0,0,0,0,0,0,0,0,0,0,0,0,0,
0,0,0,0,0,0,0,0,0,0,201,0,0,0,0,0,0,0,0,0,203,0,0,0,0,0,0,0,0,0,0,0,0,0,0,0,0,0,0,0,0,0,0,0,0,0,0,0,0,0,0,0,0,0,
0,0,0,0,0,0,0,0,0,0,201,0,0,0,0,0,0,0,0,0,203,0,0,0,0,0,0,0,0,0,0,0,0,0,0,0,0,0,0,0,0,0,0,0,0,0,0,0,0,0,0,0,0,0,
0,0,0,0,0,0,0,0,0,0,201,0,0,0,0,0,0,0,0,0,203,0,0,0,0,0,0,0,0,0,0,0,0,0,0,0,0,0,0,0,0,0,0,0,0,0,0,0,0,0,0,0,0,0,
0,0,0,0,0,0,0,0,0,0,201,0,0,0,0,0,0,0,0,0,203,0,0,0,0,0,0,0,0,0,0,0,0,0,0,0,0,0,0,0,0,0,0,0,0,0,0,0,0,0,0,0,0,0
  </data>
 </layer>
 <layer id="3" name="upper" width="54" height="39">
  <data encoding="csv">
0,0,0,0,0,0,0,0,0,0,0,0,0,0,0,0,0,0,0,0,0,0,0,0,0,0,0,0,0,0,0,0,0,0,0,0,0,0,0,0,0,0,0,0,0,0,0,0,0,0,0,0,0,0,
0,0,0,0,0,0,0,0,0,0,0,0,0,0,0,0,0,0,0,0,0,0,0,0,0,0,0,0,0,0,0,0,0,0,0,0,0,0,0,0,0,0,0,0,0,0,0,0,0,0,0,0,0,0,
0,0,0,0,0,0,0,0,0,0,0,0,0,0,0,0,0,0,0,0,0,0,0,0,0,0,0,0,0,0,0,0,0,0,0,0,0,0,0,0,0,0,0,0,0,0,0,0,0,0,0,0,0,0,
0,0,0,0,0,0,0,0,0,0,0,0,0,0,0,0,0,0,0,0,0,0,0,0,0,0,0,0,0,0,0,0,0,0,0,0,0,0,0,0,0,0,0,0,0,0,0,0,0,0,0,0,0,0,
0,0,0,0,0,0,0,0,0,0,0,0,0,0,0,0,0,0,0,0,0,0,0,0,0,0,0,0,0,0,0,0,0,0,0,0,0,0,0,0,0,0,0,0,0,0,0,0,0,0,0,0,0,0,
0,0,0,0,0,0,0,0,0,0,0,0,0,0,0,0,0,0,0,0,0,0,0,0,0,0,0,0,0,0,0,0,0,0,0,0,0,0,0,0,0,0,0,0,0,0,0,0,0,0,0,0,0,0,
0,0,0,0,0,0,0,0,0,0,0,0,0,0,0,0,0,0,0,0,0,0,0,0,0,0,0,0,0,0,0,0,0,0,0,0,0,0,0,0,0,0,0,0,0,0,0,0,0,0,0,0,0,0,
0,0,0,0,0,0,0,0,0,0,0,0,0,0,0,0,0,0,0,0,0,0,0,0,0,0,0,0,0,0,0,0,0,0,0,0,0,0,0,0,0,0,0,0,0,0,0,0,0,0,0,0,0,0,
0,0,0,0,0,0,0,0,0,0,0,0,0,0,0,0,0,0,0,0,0,0,0,0,0,0,0,0,0,0,0,0,0,0,0,0,0,0,0,0,0,0,0,0,0,0,0,0,0,0,0,0,0,0,
0,0,0,0,0,0,0,0,0,0,0,0,0,0,678,679,680,0,0,0,0,0,0,0,0,0,0,0,0,0,0,0,0,0,0,0,0,0,0,0,0,0,0,0,0,0,0,0,0,0,0,0,0,0,
0,0,0,0,0,0,0,0,0,0,0,0,0,0,686,687,688,0,0,0,0,0,0,0,0,0,0,0,0,0,0,0,0,0,0,661,0,0,0,0,0,0,0,0,0,0,0,0,0,0,0,0,0,0,
0,0,0,0,0,0,0,0,0,0,0,0,0,0,694,695,696,0,0,0,0,0,0,0,0,0,0,0,0,0,0,0,0,0,668,669,670,0,0,0,0,0,0,0,0,0,0,0,0,0,0,0,0,0,
0,0,0,0,0,0,0,0,0,0,0,0,0,0,0,0,0,0,0,0,0,0,0,0,0,0,0,0,0,0,0,0,0,0,0,0,0,0,0,0,0,0,0,0,0,0,0,0,0,0,0,0,0,0,
0,0,0,0,0,0,0,0,0,0,0,0,0,0,0,0,0,0,0,0,0,0,0,0,0,0,0,0,0,0,0,0,0,0,0,0,0,0,0,0,0,17,18,0,0,0,0,0,0,0,0,0,0,0,
0,0,0,0,0,0,0,0,0,0,0,0,661,0,0,0,0,0,0,0,0,0,0,0,0,0,0,0,0,0,0,0,0,0,0,0,0,0,0,0,0,25,26,0,0,0,0,0,0,0,0,0,0,0,
0,0,0,0,0,0,0,0,0,0,0,0,669,0,0,0,0,0,0,0,0,0,0,0,0,0,0,0,0,0,0,0,0,0,0,0,0,0,0,0,0,0,0,0,0,0,0,0,0,0,0,0,0,0,
0,0,0,0,0,0,0,0,0,0,0,0,0,0,0,0,0,0,0,0,0,0,0,0,0,0,0,0,0,0,0,0,0,0,0,0,0,0,0,0,0,0,0,0,0,0,0,0,0,0,0,0,0,0,
0,0,0,0,0,0,0,0,0,0,0,0,0,0,0,0,0,0,0,0,0,0,0,0,0,0,0,0,0,0,0,0,0,0,0,0,0,0,0,0,0,0,0,0,0,0,0,0,0,0,0,0,0,0,
0,0,0,0,0,0,0,0,0,0,0,0,0,0,0,0,0,0,0,0,0,0,0,0,0,0,0,0,0,0,0,0,0,0,0,0,0,661,0,0,0,0,0,0,0,0,0,0,0,0,0,0,0,0,
0,0,0,0,0,0,0,0,0,0,0,0,0,0,0,0,0,0,0,0,0,0,0,0,0,0,0,0,0,0,0,0,0,0,0,0,0,669,0,0,0,0,0,0,0,0,0,0,0,0,0,0,0,0,
0,0,0,0,0,0,0,0,0,0,0,0,0,0,0,0,0,0,0,0,0,0,0,0,0,0,0,0,0,0,0,0,0,0,0,0,0,0,0,0,0,0,0,0,0,0,0,0,0,0,0,0,0,0,
0,0,0,0,0,0,0,0,0,0,0,0,0,0,0,0,0,0,0,0,0,0,0,0,0,0,0,0,0,0,0,0,0,0,0,0,0,0,0,0,0,0,0,0,0,0,0,0,0,0,0,0,0,0,
0,0,0,0,0,0,0,0,0,0,0,0,0,0,0,313,314,315,0,0,0,0,0,0,0,0,0,0,0,0,0,0,0,0,0,0,0,0,0,0,0,0,0,0,0,0,0,0,0,0,0,0,0,0,
0,0,0,0,0,0,0,0,0,0,0,0,0,0,0,321,322,323,0,0,0,0,0,0,0,0,0,0,0,0,0,0,0,0,0,0,0,0,0,0,0,0,0,0,0,0,0,0,0,0,0,0,0,0,
0,0,0,0,0,0,0,0,0,0,0,0,0,0,0,0,0,0,0,0,0,0,0,0,0,0,0,0,0,0,0,0,0,0,0,0,0,661,0,0,0,0,0,0,0,0,0,0,0,0,0,0,0,0,
0,0,0,0,0,0,0,0,0,0,0,0,0,0,0,0,0,0,0,0,0,0,0,0,0,0,0,0,0,0,0,0,0,0,0,0,668,669,670,0,0,0,0,0,0,0,0,0,0,0,0,0,0,0,
0,0,0,0,0,0,0,0,0,0,0,0,0,0,0,0,0,0,0,0,0,0,0,0,0,0,0,0,0,0,0,0,0,0,0,0,0,0,0,0,0,0,0,0,0,0,0,0,0,0,0,0,0,0,
0,0,0,0,0,0,0,0,0,0,0,0,0,0,0,0,0,0,0,0,0,0,0,0,0,0,0,0,0,0,0,0,0,0,0,0,0,0,0,0,0,0,0,0,0,0,0,0,0,0,0,0,0,0,
0,0,0,0,0,0,0,0,0,0,0,0,0,0,0,0,0,0,0,0,0,0,0,0,0,0,0,0,0,0,0,0,0,0,0,0,0,0,0,0,0,0,0,0,0,0,0,0,0,0,0,0,0,0,
0,0,0,0,0,0,0,0,0,0,0,0,0,0,0,0,0,0,0,0,0,0,0,0,0,0,0,0,0,0,0,0,0,0,0,0,0,0,0,0,0,0,0,0,0,0,0,0,0,0,0,0,0,0,
0,0,0,0,0,0,0,0,0,0,0,0,0,0,0,0,0,0,0,0,0,0,0,0,0,0,0,0,0,0,0,0,0,0,0,0,0,0,0,0,0,0,0,0,0,0,0,0,0,0,0,0,0,0,
0,0,0,0,0,0,0,0,0,0,0,0,0,0,0,0,0,0,0,0,0,0,0,0,0,0,0,0,0,0,0,0,0,0,0,0,0,0,0,0,0,0,0,0,0,0,0,0,0,0,0,0,0,0,
0,0,0,0,0,0,0,0,0,0,0,0,0,0,0,0,0,0,0,0,0,0,0,0,0,0,0,0,0,0,0,0,0,0,0,0,0,0,0,0,0,0,0,0,0,0,0,0,0,0,0,0,0,0,
0,0,0,0,0,0,0,0,0,0,0,0,0,0,0,0,0,0,0,0,0,0,0,0,0,0,0,0,0,0,0,0,0,0,0,0,0,0,0,0,0,0,0,0,0,0,0,0,0,0,0,0,0,0,
0,0,0,0,0,0,0,0,0,0,0,0,0,0,0,0,0,0,0,0,0,0,0,0,0,0,0,0,0,0,0,0,0,0,0,0,0,0,0,0,0,0,0,0,0,0,0,0,0,0,0,0,0,0,
0,0,0,0,0,0,0,0,0,0,0,0,0,0,0,0,0,0,0,0,0,0,0,0,0,0,0,0,0,0,0,0,0,0,0,0,0,0,0,0,0,0,0,0,0,0,0,0,0,0,0,0,0,0,
0,0,0,0,0,0,0,0,0,0,0,0,0,0,0,0,0,0,0,0,0,0,0,0,0,0,0,0,0,0,0,0,0,0,0,0,0,0,0,0,0,0,0,0,0,0,0,0,0,0,0,0,0,0,
0,0,0,0,0,0,0,0,0,0,0,0,0,0,0,0,0,0,0,0,0,0,0,0,0,0,0,0,0,0,0,0,0,0,0,0,0,0,0,0,0,0,0,0,0,0,0,0,0,0,0,0,0,0,
0,0,0,0,0,0,0,0,0,0,0,0,0,0,0,0,0,0,0,0,0,0,0,0,0,0,0,0,0,0,0,0,0,0,0,0,0,0,0,0,0,0,0,0,0,0,0,0,0,0,0,0,0,0
  </data>
 </layer>
 <objectgroup id="4" name="events"/>
</map>
