<?xml version="1.0" encoding="UTF-8"?>
<map version="1.10" tiledversion="1.10.2" orientation="orthogonal" renderorder="right-down" compressionlevel="0" width="20" height="15" tilewidth="32" tileheight="32" infinite="0" nextlayerid="4" nextobjectid="1">
 <tileset firstgid="1" source="RMXP-JohtoCompactExterior.tsx"/>
 <tileset firstgid="2401" source="RMXP-auto-tfj-waterfall.tsx"/>
 <tileset firstgid="2449" source="RMXP-auto-sand.tsx"/>
 <tileset firstgid="2497" source="RMXP-auto-still.tsx"/>
 <tileset firstgid="2545" source="RMXP-auto-noanimsea.tsx"/>
 <tileset firstgid="2593" source="RMXP-auto-hgss-sea.tsx"/>
 <tileset firstgid="2641" source="RMXP-auto-lake.tsx"/>
 <tileset firstgid="2689" source="RMXP-auto-r49water.tsx"/>
 <layer id="1" name="lower" width="20" height="15">
  <data encoding="csv">
229,229,229,229,229,229,229,229,229,229,229,229,229,229,229,229,229,229,229,229,
229,229,229,229,229,229,229,229,229,229,229,229,229,229,229,229,229,229,229,229,
229,229,229,229,229,229,229,229,229,229,229,229,229,229,229,229,229,229,229,229,
229,229,229,229,229,250,250,250,250,250,250,250,250,250,229,229,229,229,229,229,
229,229,229,229,229,229,229,229,229,250,229,229,229,229,229,229,229,229,229,229,
229,229,229,229,229,229,229,229,229,250,229,229,229,229,229,229,229,229,229,229,
229,229,229,229,229,229,229,229,229,250,229,229,229,229,229,229,229,229,229,229,
229,229,229,229,229,229,229,229,229,250,229,229,229,229,229,229,229,229,229,229,
229,229,229,229,229,229,229,229,229,250,229,229,229,229,229,229,229,229,229,229,
229,229,229,229,229,229,229,229,229,250,229,229,229,229,229,229,229,229,229,229,
229,229,229,229,229,229,229,229,229,250,229,229,229,229,229,229,229,229,229,229,
229,229,229,229,229,229,229,229,229,250,229,229,229,229,229,229,229,229,229,229,
229,229,229,229,229,229,229,229,229,229,229,229,229,229,229,229,229,229,229,229,
229,229,229,229,229,229,229,229,229,229,229,229,229,229,229,229,229,229,229,229,
229,229,229,229,229,229,229,229,229,229,229,229,229,229,229,229,229,229,229,229
  </data>
 </layer>
 <objectgroup id="2" name="events"/>
</map>
