<?xml version="1.0" encoding="UTF-8"?>
<map version="1.10" tiledversion="1.10.2" orientation="orthogonal" renderorder="right-down" compressionlevel="0" width="76" height="80" tilewidth="32" tileheight="32" infinite="0" nextlayerid="4" nextobjectid="1">
 <tileset firstgid="1" source="RMXP-KANTO50S_OUT.tsx"/>
 <tileset firstgid="2225" source="RMXP-auto-hgss-sea.tsx"/>
 <tileset firstgid="2273" source="RMXP-auto-noanimsea.tsx"/>
 <tileset firstgid="2321" source="RMXP-auto-a-beach.tsx"/>
 <tileset firstgid="2369" source="RMXP-auto-a-flowred.tsx"/>
 <tileset firstgid="2417" source="RMXP-auto-a-flow.tsx"/>
 <tileset firstgid="2465" source="RMXP-auto-land2-2.tsx"/>
 <tileset firstgid="2513" source="RMXP-auto-still.tsx"/>
 <layer id="1" name="lower" width="76" height="80">
  <data encoding="csv">
425,426,425,426,425,426,425,426,425,426,425,426,425,426,425,426,425,426,425,426,425,426,425,426,425,426,425,426,425,426,425,426,425,426,425,426,425,426,425,426,425,426,425,426,425,426,425,426,425,426,425,426,425,426,425,426,425,426,425,426,425,426,425,426,425,426,425,426,425,426,425,426,425,426,425,426,
417,418,417,418,417,418,417,418,417,418,417,418,417,418,417,418,417,418,417,418,417,418,417,418,417,418,417,418,417,418,417,418,417,418,417,418,417,418,417,418,417,418,417,418,417,418,417,418,417,418,417,418,417,418,417,418,417,418,417,418,417,418,417,418,417,418,417,418,417,418,417,418,417,418,417,418,
425,426,425,426,425,426,425,426,425,426,425,426,425,426,425,426,425,426,425,426,425,426,425,426,425,426,425,426,425,426,425,426,425,426,425,426,425,426,425,426,425,426,425,426,425,426,425,426,425,426,425,426,425,426,425,426,425,426,425,426,425,426,425,426,425,426,425,426,425,426,425,426,425,426,425,426,
417,418,417,418,4,4,4,4,4,4,4,4,4,4,4,4,4,3,3,3,3,3,4,4,4,4,4,4,4,4,4,4,4,4,4,4,4,4,4,4,4,4,4,4,4,4,4,4,4,4,4,4,4,4,4,4,4,4,4,4,4,4,4,4,4,4,4,4,417,418,417,418,417,418,417,418,
425,426,425,426,4,4,4,4,4,4,4,4,4,4,4,4,4,3,3,3,3,3,4,4,4,4,4,4,4,4,4,4,4,4,4,4,4,4,4,4,4,4,4,4,4,4,4,4,4,4,4,4,4,4,4,4,4,4,4,4,4,4,4,4,4,4,4,4,425,426,425,426,425,426,425,426,
417,418,417,418,4,4,4,4,4,4,4,4,4,4,4,4,4,3,3,3,3,3,4,4,4,4,4,4,4,4,4,4,4,4,4,4,4,4,4,4,4,4,4,4,4,4,4,4,4,4,4,4,4,4,4,4,4,4,4,4,4,4,4,4,4,4,4,4,417,418,417,418,417,418,417,418,
425,426,425,426,4,4,4,4,4,4,4,4,4,4,4,4,4,3,3,3,3,3,4,4,4,4,4,4,4,4,4,4,4,4,4,4,4,4,4,4,4,4,4,4,4,4,4,4,4,4,4,4,4,4,4,4,4,4,4,4,4,4,4,4,4,4,4,4,425,426,425,426,425,426,425,426,
417,418,417,418,4,4,4,4,4,4,4,4,4,4,4,4,4,4,4,4,6,3,4,4,4,4,4,4,4,4,4,4,4,4,4,4,4,4,4,4,4,4,4,4,4,4,4,4,4,4,4,4,4,4,4,4,4,4,4,4,4,4,4,4,4,4,4,4,417,418,417,418,417,418,417,418,
425,426,425,426,4,4,4,4,4,4,4,4,4,4,4,4,4,426,4,4,4,3,4,4,4,4,4,4,4,4,4,4,4,4,4,4,4,4,4,4,4,4,4,4,4,4,4,4,4,4,4,4,4,4,4,4,4,4,4,4,4,4,4,4,4,4,4,4,425,426,425,426,425,426,425,426,
417,418,417,418,4,4,4,4,4,4,4,4,4,4,4,4,4,434,4,4,3,3,4,3,4,3,4,3,4,3,4,3,4,4,4,4,5,5,5,5,6,3,4,3,4,3,4,3,4,4,4,4,4,4,4,4,4,4,4,4,4,4,4,4,4,4,4,4,417,418,417,418,417,418,417,418,
425,426,425,426,4,4,4,4,4,4,4,4,441,4,4,4,4,442,4,4,5,5,4,98,99,99,99,99,99,99,99,100,6,4,4,4,7,7,5,2,5,5,6,5,6,5,6,5,2,32,2,32,2,32,4,32,4,32,32,7,4,4,4,4,4,4,4,4,425,426,425,426,425,426,425,426,
417,418,417,418,4,4,4,4,4,4,4,4,4,4,4,4,4,4,4,4,4,4,98,110,107,107,107,107,107,107,107,108,3,4,4,4,7,5,6,5,6,2,2,4,2,2,2,4,2,4,2,2,2,2,2,4,32,3,4,32,4,4,4,4,4,4,4,4,417,418,417,418,417,418,417,418,
425,426,425,426,4,4,4,4,4,4,4,4,4,4,4,4,4,4,4,4,6,6,106,107,101,115,115,115,115,102,107,108,4,4,4,4,3,2,5,2,7,7,4,4,4,4,4,4,4,4,4,4,4,4,4,4,7,5,6,3,4,4,4,4,4,4,4,4,425,426,425,426,425,426,425,426,
417,418,417,418,4,4,4,4,4,4,4,4,4,4,4,4,4,4,4,4,4,4,106,107,108,3,4,3,4,106,107,108,6,4,4,4,5,6,7,7,7,7,4,4,4,4,4,4,4,4,4,4,4,4,4,4,7,4,3,7,4,4,4,4,4,4,4,4,417,418,417,418,417,418,417,418,
425,426,425,426,4,4,4,4,4,4,4,4,1303,162,163,163,164,1311,4,4,4,4,114,115,116,4,6,3,4,114,115,116,3,4,4,4,4,7,7,7,7,7,4,4,4,4,4,4,4,4,4,4,4,4,4,4,7,7,4,6,4,4,4,4,4,4,4,4,425,426,425,426,425,426,425,426,
417,418,417,418,4,4,4,4,4,4,4,4,3,170,171,171,172,4,4,4,4,4,7,3,4,4,4,4,3,7,5,7,5,4,4,4,7,7,7,7,7,7,4,4,4,4,4,4,4,4,4,4,4,4,4,4,7,7,7,7,4,4,4,4,4,4,4,4,417,418,417,418,417,418,417,418,
425,426,425,426,4,4,4,4,4,4,4,4,7,3,4,4,4,7,4,4,4,4,7,7,7,4,4,4,3,7,7,7,3,4,4,4,7,7,7,7,7,7,4,4,4,4,4,4,4,4,4,4,4,4,4,4,3,7,7,7,4,4,4,4,4,4,4,4,425,426,425,426,425,426,425,426,
417,418,417,418,4,4,4,4,4,4,4,4,7,7,3,7,7,7,4,4,4,4,7,7,7,4,4,4,3,7,7,7,3,4,4,4,7,7,7,7,7,7,4,4,4,4,4,4,4,4,4,4,4,4,4,4,7,7,7,7,4,4,4,4,4,4,4,4,417,418,417,418,417,418,417,418,
425,426,425,426,4,4,4,4,4,4,4,4,7,7,7,24,7,7,4,4,4,4,7,7,7,4,4,4,3,7,7,7,3,4,4,4,7,7,7,7,7,7,4,4,4,4,4,4,4,4,4,4,4,4,4,4,6,7,7,5,4,4,4,4,4,4,4,4,425,426,425,426,425,426,425,426,
417,418,417,418,4,4,4,4,4,4,4,4,7,7,7,7,7,7,4,4,4,4,7,7,7,4,4,4,3,7,7,7,3,4,4,4,7,7,7,7,7,7,7,7,7,7,7,3,4,2,2,2,4,4,3,4,3,2,5,2,4,4,4,4,4,4,4,4,417,418,417,418,417,418,417,418,
425,426,425,426,4,4,4,4,4,4,4,4,7,7,7,7,7,7,4,4,4,4,7,7,7,4,4,4,3,7,7,7,3,4,4,4,7,7,7,7,7,7,7,7,7,7,7,5,6,98,99,100,5,6,5,6,5,5,6,5,4,4,4,4,4,4,4,4,425,426,425,426,425,426,425,426,
417,418,417,418,4,4,4,4,4,4,4,4,7,7,7,7,7,7,4,4,4,4,7,7,7,4,4,4,3,7,7,7,3,4,4,4,7,7,7,7,7,7,7,7,7,7,7,2,5,106,107,108,2,5,2,2,2,2,2,3,3,4,4,4,4,4,4,4,417,418,417,418,417,418,417,418,
425,426,425,426,4,4,4,4,4,4,4,4,7,24,7,7,7,7,4,4,4,4,7,7,7,4,4,4,3,7,7,7,3,4,4,4,7,7,7,7,7,7,7,7,7,7,7,5,6,106,107,108,5,6,4,4,4,4,4,3,3,4,4,4,4,4,4,4,425,426,425,426,425,426,425,426,
417,418,417,418,4,4,4,4,4,4,4,4,7,7,7,7,7,7,4,4,4,4,7,7,7,4,4,4,3,7,7,7,3,4,4,4,6,7,7,7,7,7,7,7,7,7,2,2,5,106,107,108,2,5,4,4,4,4,4,3,3,4,4,4,4,4,4,4,417,418,417,418,417,418,417,418,
425,426,425,426,4,4,4,4,4,4,4,4,7,7,7,7,7,7,4,4,4,4,7,7,7,4,4,4,3,7,7,7,3,4,4,4,3,7,7,7,7,7,4,4,4,4,4,5,6,106,107,108,5,6,4,4,4,4,4,3,3,4,4,4,4,4,4,4,425,426,425,426,425,426,425,426,
417,418,417,418,4,4,4,4,4,4,4,4,7,7,7,7,7,7,4,4,4,4,7,7,7,4,4,4,3,7,7,7,3,4,4,4,5,6,5,7,7,7,4,4,4,4,4,2,5,106,107,108,2,5,4,4,4,4,4,3,3,4,4,4,4,4,4,4,417,418,417,418,417,418,417,418,
425,426,425,426,4,4,4,4,4,4,4,4,7,7,7,7,7,7,4,4,4,4,7,7,7,4,4,4,3,7,7,5,5,4,4,4,2,5,2,5,2,4,4,4,4,4,4,5,6,106,107,108,5,6,4,4,4,4,4,3,3,4,4,4,4,4,4,4,425,426,425,426,425,426,425,426,
417,418,417,418,4,4,4,4,4,4,4,4,7,7,7,7,24,7,4,4,4,4,7,7,7,4,4,4,6,7,4,5,98,99,99,99,99,99,99,99,100,6,4,4,4,4,4,2,5,106,107,108,2,5,4,4,4,4,4,3,3,4,4,4,4,4,4,4,417,418,417,418,417,418,417,418,
425,426,425,426,4,4,4,4,4,4,4,4,7,7,7,7,7,7,4,4,4,4,7,7,7,4,4,4,4,5,5,4,106,107,107,107,107,107,107,107,108,3,4,4,4,4,4,5,6,106,107,108,5,6,4,4,4,4,4,3,3,4,4,4,4,4,4,4,425,426,425,426,425,426,425,426,
417,418,417,418,4,4,4,4,4,4,4,4,7,7,7,7,7,7,4,4,4,4,7,7,7,4,4,4,4,4,4,4,114,115,115,115,115,115,115,115,116,5,4,4,4,4,4,2,5,106,107,108,2,5,32,4,32,2,32,3,3,4,4,4,4,4,4,4,417,418,417,418,417,418,417,418,
425,426,425,426,4,4,4,4,4,4,4,4,7,7,7,7,7,7,4,4,4,4,7,7,7,4,4,4,4,4,3,4,4,4,4,4,4,4,4,4,4,5,4,4,4,4,4,5,6,106,107,108,5,6,2,32,2,32,40,32,4,4,4,4,4,4,4,4,425,426,425,426,425,426,425,426,
417,418,417,418,4,4,4,4,4,4,4,4,7,7,7,7,4,4,3,4,4,4,4,7,7,5,6,5,6,5,4,40,32,40,32,40,4,40,32,40,32,4,4,4,4,4,4,2,5,106,107,109,99,100,3,4,3,4,6,4,4,4,4,4,4,4,4,4,417,418,417,418,417,418,417,418,
425,426,425,426,4,4,4,4,4,4,4,4,3,3,4,3,4,3,4,3,4,3,4,3,4,2,5,2,5,2,40,32,40,32,40,32,40,32,40,4,40,4,4,4,4,4,4,5,6,114,115,115,115,116,5,6,5,6,5,6,4,4,4,4,4,4,4,4,425,426,425,426,425,426,425,426,
417,418,417,418,4,4,4,4,4,4,4,4,5,98,99,100,3,4,4,3,4,3,98,99,100,5,6,5,6,5,32,40,32,4,32,40,32,40,32,40,32,4,4,4,4,4,4,4,7,7,7,7,3,2,2,5,2,5,2,5,4,4,4,4,4,4,4,4,417,418,417,418,417,418,417,418,
425,426,425,426,4,4,4,4,4,4,4,4,4,106,107,109,99,99,99,99,99,99,110,107,108,2,5,2,5,2,4,32,40,32,40,32,40,32,40,32,4,4,4,4,4,4,4,4,7,7,7,7,4,4,5,4,5,6,5,6,4,4,4,4,4,4,4,4,425,426,425,426,425,426,425,426,
417,418,417,418,4,4,4,4,4,4,4,4,6,106,107,107,107,107,107,107,107,107,107,107,108,3,4,3,4,3,4,3,4,4,4,3,4,4,4,4,4,4,4,4,4,4,4,4,7,7,7,7,4,4,4,4,2,5,2,5,4,4,4,4,4,4,4,4,417,418,417,418,417,418,417,418,
425,426,425,426,4,4,4,4,4,4,4,4,3,114,115,115,115,115,115,115,115,115,115,115,116,5,3,4,3,5,6,5,4,3,3,3,4,4,4,4,4,4,4,4,4,4,4,4,7,7,7,7,4,4,4,4,5,6,5,6,4,4,4,4,4,4,4,4,425,426,425,426,425,426,425,426,
417,418,417,418,4,4,4,4,4,4,4,4,5,6,3,4,6,3,4,6,3,4,6,3,4,6,5,6,5,32,2,32,6,4,4,4,4,4,4,4,4,4,4,4,4,4,4,4,7,7,7,7,4,4,4,4,2,5,2,5,4,4,4,4,4,4,4,4,417,418,417,418,417,418,417,418,
425,426,425,426,4,4,4,4,4,4,4,4,4,4,4,4,4,4,4,4,4,4,4,4,4,4,4,3,32,3,32,2,3,4,4,4,4,4,4,4,4,4,4,4,4,4,4,4,7,7,7,7,4,4,4,4,5,6,5,6,4,4,4,4,4,4,4,4,425,426,425,426,425,426,425,426,
417,418,417,418,4,4,4,4,4,4,4,4,4,4,4,4,4,4,4,4,4,4,4,4,4,4,4,5,2,32,2,3,5,4,4,4,4,4,4,4,4,4,4,4,4,4,4,4,7,7,7,7,4,4,4,4,2,5,2,5,4,4,4,4,4,4,4,4,417,418,417,418,417,418,417,418,
425,426,425,426,4,4,4,4,4,4,4,4,4,4,4,4,4,4,4,4,4,4,4,4,4,4,4,4,3,4,3,3,4,4,4,4,4,4,4,4,4,4,4,4,4,4,4,4,7,7,7,7,4,4,4,4,5,6,5,6,4,4,4,4,4,4,4,4,425,426,425,426,425,426,425,426,
417,418,417,418,4,4,4,4,4,4,4,4,4,4,4,4,4,4,4,4,4,4,4,4,4,4,4,4,4,4,4,4,4,4,4,4,4,4,4,4,4,4,4,4,4,4,4,4,7,7,7,7,4,4,4,4,2,5,2,5,4,4,4,4,4,4,4,4,417,418,417,418,417,418,417,418,
425,426,425,426,4,4,4,4,4,4,4,4,4,4,4,4,4,4,4,4,4,4,4,4,4,4,4,4,4,4,4,4,4,4,4,4,4,4,4,4,4,4,4,4,4,4,4,4,7,7,7,7,4,4,4,4,5,6,5,6,4,4,4,4,4,4,4,4,425,426,425,426,425,426,425,426,
417,418,417,418,4,4,4,4,4,4,4,4,4,4,4,4,4,4,4,4,4,4,4,4,2,2,4,4,4,4,4,4,4,4,4,4,4,4,4,4,4,4,4,4,4,4,4,4,7,7,7,7,4,4,4,4,2,5,2,5,4,4,4,4,4,4,4,4,417,418,417,418,417,418,417,418,
425,426,425,426,4,4,4,4,4,4,4,4,4,4,4,4,4,4,4,4,4,4,4,4,4,3,4,4,4,4,4,4,4,4,4,4,4,4,4,4,4,4,4,4,4,4,4,4,7,7,7,7,4,4,4,4,5,6,5,6,4,4,4,4,4,4,4,4,425,426,425,426,425,426,425,426,
417,418,417,418,4,4,4,4,4,4,4,4,32,40,32,40,32,40,32,40,32,4,4,4,4,3,4,4,4,4,4,4,4,4,4,4,4,4,4,4,4,4,4,4,4,4,4,4,7,7,7,7,4,4,4,4,2,5,2,5,4,4,4,4,4,4,4,4,417,418,417,418,417,418,417,418,
425,426,425,426,4,4,4,4,4,4,4,4,40,4,40,32,40,32,40,32,40,4,3,4,4,4,4,4,4,4,4,4,4,4,4,4,4,4,4,4,4,4,4,4,4,4,4,4,7,7,7,7,4,4,4,4,3,4,32,4,4,4,4,4,4,4,4,4,425,426,425,426,425,426,425,426,
417,418,417,418,4,4,4,4,4,4,4,4,32,40,32,40,32,40,32,40,32,3,4,3,4,3,4,3,4,3,4,3,4,3,4,3,4,3,4,3,4,3,4,4,4,4,4,4,7,7,7,7,4,5,6,5,2,32,2,32,4,4,4,4,4,4,4,4,417,418,417,418,417,418,417,418,
425,426,425,426,4,4,4,4,4,4,4,4,4,4,4,4,4,4,4,4,4,4,4,4,4,4,3,4,7,7,7,7,7,7,7,7,7,7,6,5,7,7,4,4,4,4,4,4,7,7,7,7,6,5,4,3,32,2,32,4,4,4,4,4,4,4,4,4,425,426,425,426,425,426,425,426,
417,418,417,418,4,4,4,4,4,4,4,4,3,7,7,7,3,7,3,7,4,7,7,4,7,4,7,7,7,3,7,7,7,7,7,7,7,7,5,2,7,7,4,4,4,4,4,4,7,7,7,7,5,2,5,6,2,32,6,32,4,4,4,4,4,4,4,4,417,418,417,418,417,418,417,418,
425,426,425,426,4,4,4,4,4,4,4,4,7,4,7,3,7,7,4,7,7,3,4,7,7,7,7,7,7,7,7,7,7,7,7,7,7,5,6,5,7,7,4,4,4,4,4,4,7,7,7,7,6,5,2,5,4,4,4,4,4,4,4,4,4,4,4,4,425,426,425,426,425,426,425,426,
417,418,417,418,4,4,4,4,4,4,4,4,4,4,4,4,4,4,4,4,4,5,3,7,7,7,4,4,4,4,4,4,4,4,4,7,7,2,5,2,7,7,4,4,4,4,4,4,7,7,7,7,5,2,4,4,4,4,4,4,4,4,4,4,4,4,4,4,417,418,417,418,417,418,417,418,
425,426,425,426,4,4,4,4,4,4,4,4,4,4,4,4,4,4,4,4,4,3,4,6,6,6,4,4,4,4,4,4,4,4,4,7,7,5,6,5,7,7,4,4,4,4,4,4,7,7,7,5,6,5,4,4,4,4,4,4,4,4,4,4,4,4,4,4,425,426,425,426,425,426,425,426,
417,418,417,418,4,4,4,4,4,4,4,4,4,4,4,4,4,4,4,4,4,5,6,7,7,7,4,4,4,4,4,4,4,4,4,7,7,2,5,7,7,7,4,4,4,4,4,4,7,7,7,2,5,2,4,4,4,4,4,4,4,4,4,4,4,4,4,4,417,418,417,418,417,418,417,418,
425,426,425,426,4,4,4,4,4,4,4,4,4,4,4,4,4,4,4,4,4,3,5,7,7,7,4,4,4,4,4,4,4,4,4,7,7,5,6,7,7,7,4,4,4,4,4,4,7,7,7,5,6,5,4,4,4,4,4,4,4,4,4,4,4,4,4,4,425,426,425,426,425,426,425,426,
417,418,417,418,4,4,4,4,4,4,4,4,4,4,4,4,4,4,4,4,4,5,6,7,7,7,4,4,4,4,4,4,4,4,4,7,7,2,5,7,7,7,4,4,4,4,4,4,7,7,7,2,5,2,4,4,4,4,4,4,4,4,4,4,4,4,4,4,417,418,417,418,417,418,417,418,
425,426,425,426,4,4,4,4,4,4,4,4,4,4,4,4,4,4,4,4,4,3,5,7,7,7,4,4,4,4,4,4,4,4,4,7,7,7,6,5,7,7,4,4,4,4,4,4,7,7,7,5,6,5,4,4,4,4,4,4,4,4,4,4,4,4,4,4,425,426,425,426,425,426,425,426,
417,418,417,418,4,4,4,4,4,4,4,4,4,4,4,4,4,4,4,4,4,5,6,7,7,7,4,4,4,4,4,4,4,4,4,7,7,7,5,2,7,7,4,4,4,4,4,4,7,7,7,2,5,2,4,4,4,4,4,4,4,4,4,4,4,4,4,4,417,418,417,418,417,418,417,418,
425,426,425,426,4,4,4,4,4,4,4,4,4,4,4,4,4,4,4,4,4,3,5,7,7,7,4,4,4,4,4,4,4,4,4,7,7,5,6,5,7,7,4,4,4,4,4,4,7,7,7,5,6,5,4,4,4,4,4,4,4,4,4,4,4,4,4,4,425,426,425,426,425,426,425,426,
417,418,417,418,4,4,4,4,4,4,4,4,7,7,7,7,7,7,7,7,7,3,4,7,7,7,7,7,7,7,7,7,7,7,7,7,7,2,5,2,7,7,7,7,7,7,7,7,7,7,7,2,5,2,7,7,7,7,7,7,4,4,4,4,4,4,4,4,417,418,417,418,417,418,417,418,
425,426,425,426,4,4,4,4,4,4,4,4,7,7,7,7,7,7,7,7,7,5,6,7,7,7,7,7,7,7,7,7,7,7,7,7,7,5,6,5,7,7,7,7,7,7,7,7,7,7,7,5,6,5,7,7,7,7,7,7,4,4,4,4,4,4,4,4,425,426,425,426,425,426,425,426,
417,418,417,418,4,4,4,4,4,4,4,4,7,7,7,7,7,7,7,7,7,6,5,3,7,7,7,7,7,7,7,7,7,7,7,7,4,2,5,2,2,7,7,7,7,7,7,7,7,7,3,5,6,7,7,7,7,7,7,7,4,4,4,4,4,4,4,4,417,418,417,418,417,418,417,418,
425,426,425,426,4,4,4,4,4,4,4,4,7,7,7,7,7,7,7,7,7,5,6,5,2,7,7,7,7,7,7,7,7,7,7,2,5,5,6,5,3,4,7,7,7,7,7,7,7,3,3,2,5,7,7,7,7,7,7,7,4,4,4,4,4,4,4,4,425,426,425,426,425,426,425,426,
417,418,417,418,4,4,4,4,4,4,4,4,7,7,7,7,7,7,7,7,4,3,5,3,98,99,99,99,99,99,99,99,99,99,99,100,2,5,2,5,5,6,4,3,4,3,4,3,4,5,5,5,6,7,7,7,7,7,7,7,4,4,4,4,4,4,4,4,417,418,417,418,417,418,417,418,
425,426,425,426,4,4,4,4,4,4,4,4,7,7,7,7,7,7,7,7,5,5,6,5,106,107,107,107,107,107,107,107,107,107,107,108,5,6,5,6,5,6,5,6,5,6,5,6,5,6,5,6,7,7,7,7,7,7,7,7,4,4,4,4,4,4,4,4,425,426,425,426,425,426,425,426,
417,418,417,418,4,4,4,4,4,4,4,4,7,7,7,7,7,7,7,7,4,2,5,2,114,115,115,115,115,115,115,115,115,115,115,116,98,99,99,100,6,5,2,5,2,5,2,5,2,5,2,5,7,7,7,7,7,7,7,7,4,4,4,4,4,4,4,4,417,418,417,418,417,418,417,418,
425,426,425,426,4,4,4,4,4,4,4,4,4,4,4,4,4,4,4,4,4,4,4,4,4,4,4,4,4,4,4,4,4,4,4,4,106,107,107,108,6,6,5,6,5,6,5,6,5,6,5,6,4,4,4,4,4,4,4,4,4,4,4,4,4,4,4,4,425,426,425,426,425,426,425,426,
417,418,417,418,4,4,4,4,4,4,4,4,4,4,4,4,4,4,4,4,4,4,4,4,4,4,4,4,4,4,4,4,4,4,4,4,106,107,107,108,6,5,2,5,2,5,2,5,2,5,2,5,4,4,4,4,4,4,4,4,4,4,4,4,4,4,4,4,417,418,417,418,417,418,417,418,
425,426,425,426,4,4,4,4,4,4,4,4,4,4,4,4,4,4,4,4,4,4,4,4,4,4,4,4,4,4,4,4,4,4,4,4,2142,2192,2192,2144,6,4,4,4,4,4,4,4,4,4,4,4,4,4,4,4,4,4,4,4,4,4,4,4,4,4,4,4,425,426,425,426,425,426,425,426,
417,418,417,418,4,4,4,4,4,4,4,4,4,4,4,4,4,4,4,4,4,4,4,4,4,4,4,4,4,4,4,4,4,4,4,4,2150,2200,2200,2152,6,4,4,4,4,4,4,4,4,4,4,4,4,4,4,4,4,4,4,4,4,4,4,4,4,4,4,4,417,418,417,418,417,418,417,418,
425,426,425,426,4,4,4,4,4,4,4,4,4,4,4,4,4,4,4,4,4,4,4,4,4,4,4,4,4,4,4,4,4,4,4,4,2158,2208,2208,2160,6,4,4,4,4,4,4,4,4,4,4,4,4,4,4,4,4,4,4,4,4,4,4,4,4,4,4,4,425,426,425,426,425,426,425,426,
417,418,417,418,4,4,4,4,4,4,4,4,4,4,4,4,4,4,4,4,4,4,4,4,4,4,4,4,4,4,4,4,4,4,4,4,2166,2216,2216,2168,6,4,4,4,4,4,4,4,4,4,4,4,4,4,4,4,4,4,4,4,4,4,4,4,4,4,4,4,417,418,417,418,417,418,417,418,
425,426,425,426,4,4,4,4,4,4,4,4,4,4,4,4,4,4,4,4,4,4,4,4,4,4,4,4,4,4,4,4,4,4,4,4,106,107,107,108,6,4,4,4,4,4,4,4,4,4,4,4,4,4,4,4,4,4,4,4,4,4,4,4,4,4,4,4,425,426,425,426,425,426,425,426,
417,418,417,418,417,418,417,418,417,418,417,418,417,418,417,418,417,418,417,418,417,418,417,418,417,418,417,418,417,418,417,418,417,418,417,418,106,107,107,108,6,418,417,418,417,418,417,418,417,418,417,418,417,418,417,418,417,418,417,418,417,418,417,418,417,418,417,418,417,418,417,418,417,418,417,418,
425,426,425,426,425,426,425,426,425,426,425,426,425,426,425,426,425,426,425,426,425,426,425,426,425,426,425,426,425,426,425,426,425,426,425,426,106,107,107,108,6,426,425,426,425,426,425,426,425,426,425,426,425,426,425,426,425,426,425,426,425,426,425,426,425,426,425,426,425,426,425,426,425,426,425,426,
417,418,417,418,417,418,417,418,417,418,417,418,417,418,417,418,417,418,417,418,417,418,417,418,417,418,417,418,417,418,417,418,417,418,417,418,106,107,107,108,6,418,417,418,417,418,417,418,417,418,417,418,417,418,417,418,417,418,417,418,417,418,417,418,417,418,417,418,417,418,417,418,417,418,417,418,
425,426,425,426,425,426,425,426,425,426,425,426,425,426,425,426,425,426,425,426,425,426,425,426,425,426,425,426,425,426,425,426,425,426,425,426,106,107,107,108,6,426,425,426,425,426,425,426,425,426,425,426,425,426,425,426,425,426,425,426,425,426,425,426,425,426,425,426,425,426,425,426,425,426,425,426,
417,418,417,418,417,418,417,418,417,418,417,418,417,418,417,418,417,418,417,418,417,418,417,418,417,418,417,418,417,418,417,418,417,418,417,418,417,418,417,418,417,418,417,418,417,418,417,418,417,418,417,418,417,418,417,418,417,418,417,418,417,418,417,418,417,418,417,418,417,418,417,418,417,418,417,418,
425,426,425,426,425,426,425,426,425,426,425,426,425,426,425,426,425,426,425,426,425,426,425,426,425,426,425,426,425,426,425,426,425,426,425,426,425,426,425,426,425,426,425,426,425,426,425,426,425,426,425,426,425,426,425,426,425,426,425,426,425,426,425,426,425,426,425,426,425,426,425,426,425,426,425,426,
417,418,417,418,417,418,417,418,417,418,417,418,417,418,417,418,417,418,417,418,417,418,417,418,417,418,417,418,417,418,417,418,417,418,417,418,417,418,417,418,417,418,417,418,417,418,417,418,417,418,417,418,417,418,417,418,417,418,417,418,417,418,417,418,417,418,417,418,417,418,417,418,417,418,417,418
  </data>
 </layer>
 <layer id="2" name="middle" width="76" height="80">
  <data encoding="csv">
0,0,0,0,0,0,0,0,0,0,0,0,0,0,0,0,0,0,0,0,0,0,0,0,0,0,0,0,0,0,0,0,0,0,0,0,0,0,0,0,0,0,0,0,0,0,0,0,0,0,0,0,0,0,0,0,0,0,0,0,0,0,0,0,0,0,0,0,0,0,0,0,0,0,0,0,
0,0,0,0,0,0,0,0,0,0,0,0,0,0,0,0,0,0,0,0,0,0,0,0,0,0,0,0,0,0,0,0,0,0,0,0,0,0,0,0,0,0,0,0,0,0,0,0,0,0,0,0,0,0,0,0,0,0,0,0,0,0,0,0,0,0,0,0,0,0,0,0,0,0,0,0,
0,0,0,0,0,0,0,0,0,0,0,0,0,0,0,0,0,0,0,0,0,0,0,0,0,0,0,0,0,0,0,0,0,0,0,0,0,0,0,0,0,0,0,0,0,0,0,0,0,0,0,0,0,0,0,0,0,0,0,0,0,0,0,0,0,0,0,0,0,0,0,0,0,0,0,0,
0,0,0,0,417,418,417,418,417,418,417,418,417,418,417,418,417,418,417,418,417,418,0,0,0,0,0,0,0,0,0,0,0,0,0,0,0,0,0,0,0,0,0,0,0,0,0,0,0,0,0,0,0,0,0,0,0,0,0,0,0,0,0,0,0,0,0,0,0,0,0,0,0,0,0,0,
0,0,0,0,425,426,425,426,425,426,425,426,425,426,425,426,425,426,425,426,425,426,0,0,0,0,0,0,0,0,0,0,0,0,0,0,0,0,0,0,0,0,0,0,0,0,0,0,0,0,0,0,0,0,0,0,0,0,0,0,0,0,0,0,0,0,0,0,0,0,0,0,0,0,0,0,
0,0,0,0,417,418,417,418,417,418,417,418,417,418,417,418,417,418,417,418,417,418,0,0,0,0,0,0,0,0,0,0,0,0,0,0,0,0,0,0,0,0,0,0,0,0,0,0,0,0,0,0,0,0,0,0,0,0,0,0,0,0,0,0,0,0,0,0,0,0,0,0,0,0,0,0,
0,0,0,0,425,426,425,426,425,426,425,426,425,426,425,426,425,426,425,426,425,426,0,0,0,0,0,0,0,0,0,0,0,0,0,0,0,0,0,0,0,0,0,0,0,0,0,0,0,0,0,0,0,0,0,0,0,0,0,0,0,0,0,0,0,0,0,0,0,0,0,0,0,0,0,0,
0,0,0,0,417,418,417,418,417,418,417,418,417,418,417,418,417,418,417,418,417,418,0,0,0,0,0,0,0,0,0,0,0,0,0,0,0,0,0,0,0,0,0,0,0,0,0,0,0,0,0,0,0,0,0,0,0,0,0,0,0,0,0,0,0,0,0,0,0,0,0,0,0,0,0,0,
0,0,0,0,425,426,425,426,425,426,425,426,425,426,425,426,427,2169,425,426,427,428,441,442,441,442,441,442,441,442,441,442,0,0,0,0,441,442,441,442,441,442,441,442,441,442,441,442,441,442,441,442,441,442,441,442,441,442,441,442,0,0,0,0,0,0,0,0,0,0,0,0,0,0,0,0,
0,0,0,0,417,418,417,418,417,418,417,418,417,418,417,418,435,2177,417,418,419,420,0,0,0,0,0,0,0,0,0,0,0,0,0,0,0,0,0,0,0,0,0,0,0,0,0,0,0,0,0,0,0,0,0,0,0,0,0,0,0,0,0,0,0,0,0,0,0,0,0,0,0,0,0,0,
0,0,0,0,0,0,0,0,0,0,0,0,2141,2142,2192,2192,2144,2185,425,426,427,428,0,0,0,0,0,0,0,0,0,0,0,0,0,0,0,0,0,0,0,0,525,526,525,526,525,526,525,526,525,526,525,526,525,526,0,0,0,0,0,0,0,0,0,0,0,0,0,0,0,0,0,0,0,0,
0,0,0,0,0,0,0,0,0,0,0,0,2149,2150,2200,2200,2152,2193,417,418,419,420,0,0,0,0,0,0,0,0,0,0,0,0,0,0,0,0,0,0,0,0,419,418,419,418,419,418,419,418,419,418,419,418,419,420,0,0,0,0,0,0,0,0,0,0,0,0,0,0,0,0,0,0,0,0,
0,0,0,0,0,0,0,0,0,0,0,0,2157,2158,2208,2208,2160,2201,425,426,427,428,0,0,0,0,0,0,0,0,0,0,0,0,0,0,0,0,0,0,0,0,427,426,427,426,427,426,427,426,427,426,427,426,427,428,0,0,0,0,0,0,0,0,0,0,0,0,0,0,0,0,0,0,0,0,
0,0,0,0,0,0,0,0,0,0,0,0,2165,2166,2216,2216,2168,2209,417,418,419,420,0,0,0,0,0,0,0,0,0,0,0,0,0,0,0,0,0,0,0,0,419,418,419,418,419,418,419,418,419,418,419,418,419,420,0,0,0,0,0,0,0,0,0,0,0,0,0,0,0,0,0,0,0,0,
0,0,0,0,0,0,0,0,0,0,0,0,1430,2118,2119,2119,2120,0,425,426,427,428,0,0,0,0,0,0,0,0,0,0,0,0,0,0,0,0,0,0,0,0,427,426,427,426,427,426,427,426,427,426,427,426,427,428,0,0,0,0,0,0,0,0,0,0,0,0,0,0,0,0,0,0,0,0,
0,0,0,0,0,0,0,0,0,0,0,0,1326,1317,0,0,1316,1327,417,418,419,420,0,0,0,0,0,0,0,0,0,0,0,0,0,0,0,0,0,0,0,0,419,418,419,418,419,418,419,418,419,418,419,418,419,420,0,0,0,0,0,0,0,0,0,0,0,0,0,0,0,0,0,0,0,0,
0,0,0,0,0,0,0,0,0,0,0,0,0,1326,0,954,1327,0,425,426,427,428,0,0,0,0,0,0,0,0,0,0,0,0,0,0,0,0,0,0,0,0,427,426,427,426,427,426,427,426,427,426,427,426,427,428,0,0,0,0,0,0,0,0,0,0,0,0,0,0,0,0,0,0,0,0,
0,0,0,0,0,0,0,0,0,0,0,0,0,0,0,0,0,0,417,418,419,420,0,0,0,0,0,0,0,0,0,0,0,0,0,0,0,0,0,0,0,0,435,434,435,434,435,434,435,434,435,434,435,434,435,436,0,0,0,0,0,0,0,0,0,0,0,0,0,0,0,0,0,0,0,0,
0,0,0,0,0,0,0,0,0,0,0,0,0,0,0,0,0,0,425,426,427,428,0,0,0,0,0,0,0,0,0,0,0,0,0,0,0,0,0,0,0,0,441,442,441,442,441,442,441,442,441,442,441,442,441,442,0,0,0,0,0,0,0,0,0,0,0,0,0,0,0,0,0,0,0,0,
0,0,0,0,0,0,0,0,0,0,0,0,0,0,0,0,0,0,417,418,419,420,0,0,0,0,0,0,0,0,0,0,0,0,0,0,0,0,0,0,0,0,0,0,0,0,0,0,0,0,0,0,0,0,412,413,412,413,412,413,0,0,0,0,0,0,0,0,0,0,0,0,0,0,0,0,
0,0,0,0,0,0,0,0,0,0,0,0,0,0,0,0,0,0,425,426,427,428,0,0,0,0,0,0,0,0,0,0,0,0,0,0,0,0,0,0,0,0,0,0,0,0,0,0,0,0,0,0,0,0,525,526,525,526,525,526,0,0,0,0,0,0,0,0,0,0,0,0,0,0,0,0,
0,0,0,0,0,0,0,0,0,0,0,0,0,0,0,0,0,0,417,418,419,420,0,0,0,0,0,0,0,0,0,0,0,0,0,0,0,0,0,0,0,0,0,0,0,0,0,0,0,0,0,0,0,0,419,418,419,418,419,418,0,0,0,0,0,0,0,0,0,0,0,0,0,0,0,0,
0,0,0,0,0,0,0,0,0,0,0,0,0,0,0,0,0,0,425,426,427,428,0,0,0,0,0,0,0,0,0,0,0,0,0,0,0,0,0,0,0,0,525,526,525,526,525,526,0,0,0,0,0,0,427,426,427,426,427,426,0,0,0,0,0,0,0,0,0,0,0,0,0,0,0,0,
0,0,0,0,0,0,0,0,0,0,0,0,0,0,0,0,0,0,417,418,419,420,0,0,0,0,0,0,0,0,0,0,0,0,0,0,0,0,0,0,0,0,417,418,419,420,419,420,0,0,0,0,0,0,419,418,419,418,419,418,0,0,0,0,0,0,0,0,0,0,0,0,0,0,0,0,
0,0,0,0,0,0,0,0,0,0,0,0,0,0,0,0,0,0,425,426,427,428,0,0,0,0,0,0,0,0,0,0,0,0,0,0,0,0,0,0,0,0,425,426,427,426,427,428,0,0,0,0,0,0,427,426,427,426,427,426,0,0,0,0,0,0,0,0,0,0,0,0,0,0,0,0,
0,0,0,0,0,0,0,0,0,0,0,0,0,0,0,0,0,0,417,418,419,420,0,0,0,0,0,0,0,0,0,0,0,0,0,0,0,0,0,0,0,0,417,418,419,418,419,420,0,0,0,0,0,0,419,418,419,418,419,418,0,0,0,0,0,0,0,0,0,0,0,0,0,0,0,0,
0,0,0,0,0,0,0,0,0,0,0,0,0,0,0,0,0,0,425,426,427,428,0,0,0,0,0,0,0,0,0,0,0,0,0,0,0,0,0,0,0,0,425,426,427,426,427,428,0,0,0,0,0,0,427,426,427,426,427,426,0,0,0,0,0,0,0,0,0,0,0,0,0,0,0,0,
0,0,0,0,0,0,0,0,0,0,0,0,0,0,0,0,0,0,417,418,419,420,0,0,0,0,0,0,0,0,0,0,0,0,0,0,0,0,0,0,0,0,417,418,419,418,419,420,0,0,0,0,0,0,435,434,435,434,435,434,0,0,0,0,0,0,0,0,0,0,0,0,0,0,0,0,
0,0,0,0,0,0,0,0,0,0,0,0,0,0,0,0,0,0,425,426,427,428,0,0,0,0,0,0,0,0,0,0,0,0,0,0,0,0,0,0,0,0,425,426,427,426,427,428,0,0,0,0,0,0,441,442,441,442,441,442,0,0,0,0,0,0,0,0,0,0,0,0,0,0,0,0,
0,0,0,0,0,0,0,0,0,0,0,0,0,0,0,0,0,0,417,418,419,420,0,0,0,0,0,0,0,0,0,0,0,0,0,0,0,0,0,0,0,0,417,418,419,418,419,420,0,0,0,0,0,0,0,0,0,0,0,0,0,0,0,0,0,0,0,0,0,0,0,0,0,0,0,0,
0,0,0,0,0,0,0,0,0,0,0,0,0,0,0,0,0,0,425,426,427,428,0,0,0,0,0,0,0,0,0,828,829,829,829,829,829,829,829,829,829,829,425,426,427,426,427,428,0,0,0,0,0,0,0,0,0,0,0,0,0,0,0,0,0,0,0,0,0,0,0,0,0,0,0,0,
0,0,0,0,0,0,0,0,0,0,0,0,0,0,0,0,0,0,433,434,435,436,0,0,0,0,0,0,0,0,0,0,0,0,0,0,0,0,0,0,0,0,417,418,419,418,419,420,0,0,0,0,0,0,0,0,828,829,829,829,0,0,0,0,0,0,0,0,0,0,0,0,0,0,0,0,
0,0,0,0,0,0,0,0,0,0,0,0,0,0,0,0,0,0,441,442,441,442,0,0,0,0,0,0,0,0,0,0,0,0,0,0,0,0,0,0,0,0,425,426,427,426,427,428,0,0,0,0,0,0,0,0,0,0,0,0,0,0,0,0,0,0,0,0,0,0,0,0,0,0,0,0,
0,0,0,0,0,0,0,0,0,0,0,0,0,0,0,0,0,0,0,0,0,0,0,0,0,812,0,0,0,0,0,0,0,0,0,0,412,413,412,413,412,413,417,418,419,418,419,420,0,0,0,0,412,413,412,413,412,413,0,0,0,0,0,0,0,0,0,0,0,0,0,0,0,0,0,0,
0,0,0,0,0,0,0,0,0,0,0,0,0,0,0,0,0,0,0,0,0,0,0,0,0,820,0,0,0,0,0,0,0,0,0,0,525,526,525,526,525,526,425,426,427,426,427,428,0,0,0,0,525,526,525,526,525,526,0,0,0,0,0,0,0,0,0,0,0,0,0,0,0,0,0,0,
0,0,0,0,0,0,0,0,0,0,0,0,412,413,412,413,412,413,412,413,412,413,412,413,412,820,0,0,0,0,0,0,412,413,412,413,417,418,419,418,419,418,419,418,419,418,419,420,0,0,0,0,417,420,419,418,419,420,0,0,0,0,0,0,0,0,0,0,0,0,0,0,0,0,0,0,
0,0,0,0,0,0,0,0,0,0,0,0,525,526,525,526,525,526,525,526,525,526,525,526,525,820,0,0,0,0,0,0,525,526,525,526,427,426,427,426,427,426,427,426,427,426,427,428,0,0,0,0,425,426,427,426,427,428,0,0,0,0,0,0,0,0,0,0,0,0,0,0,0,0,0,0,
0,0,0,0,0,0,0,0,0,0,0,0,419,418,419,418,419,418,419,418,419,418,419,418,419,418,412,413,0,0,0,0,417,418,419,418,419,418,419,418,419,418,419,418,419,418,419,420,0,0,0,0,417,418,419,418,419,420,0,0,0,0,0,0,0,0,0,0,0,0,0,0,0,0,0,0,
0,0,0,0,0,0,0,0,0,0,0,0,427,426,427,426,427,426,427,426,427,426,427,426,427,426,525,526,0,0,0,0,425,426,427,426,427,426,427,426,427,426,427,426,427,426,427,428,0,0,0,0,425,426,427,426,427,428,0,0,0,0,0,0,0,0,0,0,0,0,0,0,0,0,0,0,
0,0,0,0,0,0,0,0,0,0,0,0,419,418,419,418,419,418,419,418,419,418,419,418,419,418,419,420,412,413,412,413,417,418,419,418,419,418,419,418,419,418,419,418,419,418,419,420,0,0,0,0,417,418,419,418,419,420,0,0,0,0,0,0,0,0,0,0,0,0,0,0,0,0,0,0,
0,0,0,0,0,0,0,0,0,0,0,0,427,426,427,426,427,426,427,426,427,426,427,426,427,426,427,426,525,526,525,526,427,426,427,426,427,426,427,426,427,426,427,426,427,426,427,428,0,0,0,0,425,426,427,426,427,428,0,0,0,0,0,0,0,0,0,0,0,0,0,0,0,0,0,0,
0,0,0,0,0,0,0,0,0,0,0,0,419,418,419,418,419,418,419,418,419,418,419,418,419,418,419,418,419,418,419,418,419,418,419,418,419,418,419,418,419,418,419,418,419,418,419,420,0,0,0,0,417,418,419,418,419,420,0,0,0,0,0,0,0,0,0,0,0,0,0,0,0,0,0,0,
0,0,0,0,0,0,0,0,0,0,0,0,427,426,427,426,427,426,427,426,427,426,427,426,427,426,427,426,427,426,427,426,427,426,427,426,427,426,427,426,427,426,427,426,427,426,427,428,0,0,0,0,425,426,427,426,427,428,0,0,0,0,0,0,0,0,0,0,0,0,0,0,0,0,0,0,
0,0,0,0,0,0,0,0,0,0,0,0,435,434,435,434,435,434,435,434,435,434,435,434,435,434,419,418,419,418,419,418,419,418,419,418,419,418,419,418,419,418,419,418,419,418,419,420,0,0,0,0,417,418,419,418,419,420,0,0,0,0,0,0,0,0,0,0,0,0,0,0,0,0,0,0,
0,0,0,0,0,0,0,0,0,0,0,0,441,442,441,442,441,442,441,442,441,442,441,442,441,442,425,426,427,426,427,426,427,426,427,426,427,426,427,426,427,426,427,426,427,426,427,428,0,0,0,0,425,426,427,426,427,428,0,0,0,0,0,0,0,0,0,0,0,0,0,0,0,0,0,0,
0,0,0,0,0,0,0,0,0,0,0,0,0,0,0,0,0,0,0,0,0,0,0,0,814,0,433,434,435,434,435,434,435,434,435,434,435,434,435,434,435,434,419,418,419,418,419,420,0,0,0,0,433,434,435,434,435,436,0,0,0,0,0,0,0,0,0,0,0,0,0,0,0,0,0,0,
0,0,0,0,0,0,0,0,0,0,0,0,0,0,0,0,0,0,0,0,0,0,0,0,0,0,441,442,441,442,441,442,441,442,441,442,441,442,441,442,441,442,425,426,427,426,427,428,0,0,0,0,441,442,441,442,441,442,0,0,0,0,0,0,0,0,0,0,0,0,0,0,0,0,0,0,
0,0,0,0,0,0,0,0,0,0,0,0,0,0,0,0,0,0,0,0,0,0,0,0,822,0,0,1334,1334,1334,1334,1334,1334,1334,1334,1334,1334,1334,1334,1334,1334,1334,417,418,419,418,419,420,0,0,0,0,0,0,0,0,0,0,0,0,0,0,0,0,0,0,0,0,0,0,0,0,0,0,0,0,
0,0,0,0,0,0,0,0,0,0,0,0,829,829,829,829,829,829,829,829,829,829,829,829,830,0,0,0,0,0,0,0,0,0,0,0,0,0,0,0,0,0,425,426,427,426,427,428,0,0,0,0,0,0,0,0,0,0,0,0,0,0,0,0,0,0,0,0,0,0,0,0,0,0,0,0,
0,0,0,0,0,0,0,0,0,0,0,0,412,413,412,413,412,413,412,413,412,413,0,0,0,412,413,412,413,412,413,412,413,412,413,0,0,0,0,0,0,0,417,418,419,418,419,420,0,0,0,0,0,0,412,413,412,413,412,413,0,0,0,0,0,0,0,0,0,0,0,0,0,0,0,0,
0,0,0,0,0,0,0,0,0,0,0,0,525,526,525,526,525,526,525,526,525,526,0,0,0,525,526,525,526,525,526,525,526,525,526,0,0,0,0,0,0,0,425,426,427,426,427,428,0,0,0,0,0,0,525,526,525,526,525,526,427,0,0,0,0,0,0,0,0,0,0,0,0,0,0,0,
0,0,0,0,0,0,0,0,0,0,0,0,419,418,419,418,419,418,419,418,419,420,0,0,0,417,418,419,418,419,418,419,418,419,420,0,0,0,0,0,0,0,417,418,419,418,419,420,0,0,0,0,0,0,417,418,419,418,419,418,419,0,0,0,0,0,0,0,0,0,0,0,0,0,0,0,
0,0,0,0,0,0,0,0,0,0,0,0,427,426,427,426,427,426,427,426,427,428,829,829,829,425,426,427,426,427,426,427,426,427,428,0,0,0,0,0,0,0,425,426,427,426,427,428,0,0,0,0,0,0,425,426,427,426,427,426,427,0,0,0,0,0,0,0,0,0,0,0,0,0,0,0,
0,0,0,0,0,0,0,0,0,0,0,0,419,418,419,418,419,418,419,418,419,420,0,0,0,417,418,419,418,419,418,419,418,419,420,0,0,0,0,0,0,0,417,418,419,418,419,420,0,0,0,0,0,0,417,418,419,418,419,418,419,0,0,0,0,0,0,0,0,0,0,0,0,0,0,0,
0,0,0,0,0,0,0,0,0,0,0,0,427,426,427,426,427,426,427,426,427,428,0,0,0,425,426,427,426,427,426,427,426,427,428,0,0,0,0,0,0,0,425,426,427,426,427,428,0,0,0,0,0,0,425,426,427,426,427,426,427,0,0,0,0,0,0,0,0,0,0,0,0,0,0,0,
0,0,0,0,0,0,0,0,0,0,0,0,419,418,419,418,419,418,419,418,419,420,0,0,0,417,418,419,418,419,418,419,418,419,420,0,0,0,0,0,0,0,417,418,419,418,419,420,0,0,0,0,0,0,417,418,419,418,419,418,419,0,0,0,0,0,0,0,0,0,0,0,0,0,0,0,
0,0,0,0,0,0,0,0,0,0,0,0,427,426,427,426,427,426,427,426,427,428,0,0,0,425,426,427,426,427,426,427,426,427,428,0,0,0,0,0,0,0,425,426,427,426,427,428,0,0,0,0,0,0,425,426,427,426,427,426,427,0,0,0,0,0,0,0,0,0,0,0,0,0,0,0,
0,0,0,0,0,0,0,0,0,0,0,0,435,434,435,434,435,434,435,434,435,436,0,0,0,433,434,435,434,435,434,435,434,435,436,0,0,0,0,0,0,0,433,434,435,434,435,436,0,0,0,0,0,0,433,434,435,434,435,434,435,0,0,0,0,0,0,0,0,0,0,0,0,0,0,0,
0,0,0,0,0,0,0,0,0,0,0,0,441,442,441,442,441,442,441,442,441,442,0,0,0,441,442,441,442,441,442,441,442,441,442,0,0,0,0,0,0,0,441,442,441,442,441,442,0,0,0,0,0,0,441,442,441,442,441,442,0,0,0,0,0,0,0,0,0,0,0,0,0,0,0,0,
0,0,0,0,0,0,0,0,0,0,0,0,0,0,0,0,0,0,0,0,0,0,0,0,0,0,0,0,0,0,0,0,0,0,0,0,0,0,0,0,0,0,0,0,0,0,0,0,0,0,0,0,0,0,0,0,0,0,0,0,0,0,0,0,0,0,0,0,0,0,0,0,0,0,0,0,
0,0,0,0,0,0,0,0,0,0,0,0,0,0,0,0,0,0,0,0,0,0,0,0,0,0,0,0,0,0,0,0,0,0,0,0,0,0,0,0,0,0,0,0,0,0,0,0,0,0,0,0,0,0,0,0,0,0,0,0,0,0,0,0,0,0,0,0,0,0,0,0,0,0,0,0,
0,0,0,0,0,0,0,0,0,0,0,0,0,0,0,0,0,0,0,0,0,0,0,0,0,0,0,0,0,0,0,0,0,0,0,0,0,0,0,0,0,0,0,0,0,0,0,0,0,0,0,0,0,0,0,0,0,0,0,0,0,0,0,0,0,0,0,0,0,0,0,0,0,0,0,0,
0,0,0,0,0,0,0,0,0,0,0,0,0,0,0,0,0,0,0,0,0,0,0,0,0,0,0,0,0,0,0,0,0,0,0,0,0,0,0,0,0,0,0,0,0,0,0,0,0,0,0,0,0,0,0,0,0,0,0,0,0,0,0,0,0,0,0,0,0,0,0,0,0,0,0,0,
0,0,0,0,0,0,0,0,0,0,0,0,0,0,0,0,0,0,0,0,0,0,0,0,0,0,0,0,0,0,0,0,0,0,0,0,0,0,0,0,0,0,0,0,0,0,0,0,0,0,0,0,0,0,0,0,0,0,0,0,0,0,0,0,0,0,0,0,0,0,0,0,0,0,0,0,
0,0,0,0,0,0,0,0,0,0,0,0,0,0,0,0,0,0,0,0,0,0,0,0,0,0,0,0,0,0,0,0,0,0,0,0,0,0,0,0,0,0,0,0,0,0,0,0,0,0,0,0,0,0,0,0,0,0,0,0,0,0,0,0,0,0,0,0,0,0,0,0,0,0,0,0,
0,0,0,0,0,0,0,0,0,0,0,0,439,0,0,0,0,0,0,0,0,0,0,0,0,0,0,0,0,0,0,0,0,0,0,0,0,0,0,0,0,0,0,0,0,0,0,0,0,0,0,0,0,0,0,0,0,0,0,440,0,0,0,0,0,0,0,0,0,0,0,0,0,0,0,0,
0,0,0,0,0,0,0,0,0,0,0,0,0,0,0,0,0,0,0,0,0,0,0,0,0,0,0,0,0,0,0,0,0,0,431,2125,2126,2176,2176,2128,2169,432,0,0,0,0,0,0,0,0,0,0,0,0,0,0,0,0,0,0,0,0,0,0,0,0,0,0,0,0,0,0,0,0,0,0,
0,0,0,0,0,0,0,0,0,0,0,0,0,0,0,0,0,0,0,0,0,0,0,0,0,0,0,0,0,0,0,0,0,0,439,2133,2134,2184,2184,2136,2177,440,0,0,0,0,0,0,0,0,0,0,0,0,0,0,0,0,0,0,0,0,0,0,0,0,0,0,0,0,0,0,0,0,0,0,
0,0,0,0,0,0,0,0,0,0,0,0,0,0,0,0,0,0,0,0,0,0,0,0,0,0,0,0,0,0,0,0,0,0,0,2141,431,2192,2192,432,2185,0,0,0,0,0,0,0,0,0,0,0,0,0,0,0,0,0,0,0,0,0,0,0,0,0,0,0,0,0,0,0,0,0,0,0,
0,0,0,0,0,0,0,0,0,0,0,0,0,0,0,0,0,0,0,0,0,0,0,0,0,0,0,0,0,0,0,0,0,0,0,2149,439,2200,2200,440,2193,0,0,0,0,0,0,0,0,0,0,0,0,0,0,0,0,0,0,0,0,0,0,0,0,0,0,0,0,0,0,0,0,0,0,0,
0,0,0,0,0,0,0,0,0,0,0,0,0,0,0,0,0,0,0,0,0,0,0,0,0,0,0,0,0,0,0,0,0,0,0,2157,2158,2208,2208,2160,2201,0,0,0,0,0,0,0,0,0,0,0,0,0,0,0,0,0,0,0,0,0,0,0,0,0,0,0,0,0,0,0,0,0,0,0,
0,0,0,0,0,0,0,0,0,0,0,0,0,0,0,0,0,0,0,0,0,0,0,0,0,0,0,0,0,0,0,0,0,0,0,2165,2166,2216,2216,2168,2209,0,0,0,0,0,0,0,0,0,0,0,0,0,0,0,0,0,0,0,0,0,0,0,0,0,0,0,0,0,0,0,0,0,0,0,
0,0,0,0,0,0,0,0,0,0,0,0,0,0,0,0,0,0,0,0,0,0,0,0,0,0,0,0,0,0,0,0,0,0,0,0,0,0,0,0,0,0,0,0,0,0,0,0,0,0,0,0,0,0,0,0,0,0,0,0,0,0,0,0,0,0,0,0,0,0,0,0,0,0,0,0,
0,0,0,0,0,0,0,0,0,0,0,0,0,0,0,0,0,0,0,0,0,0,0,0,0,0,0,0,0,0,0,0,0,0,0,0,0,0,0,0,0,0,0,0,0,0,0,0,0,0,0,0,0,0,0,0,0,0,0,0,0,0,0,0,0,0,0,0,0,0,0,0,0,0,0,0,
0,0,0,0,0,0,0,0,0,0,0,0,0,0,0,0,0,0,0,0,0,0,0,0,0,0,0,0,0,0,0,0,0,0,0,0,0,0,0,0,0,0,0,0,0,0,0,0,0,0,0,0,0,0,0,0,0,0,0,0,0,0,0,0,0,0,0,0,0,0,0,0,0,0,0,0,
0,0,0,0,0,0,0,0,0,0,0,0,0,0,0,0,0,0,0,0,0,0,0,0,0,0,0,0,0,0,0,0,0,0,0,0,0,0,0,0,0,0,0,0,0,0,0,0,0,0,0,0,0,0,0,0,0,0,0,0,0,0,0,0,0,0,0,0,0,0,0,0,0,0,0,0,
0,0,0,0,0,0,0,0,0,0,0,0,0,0,0,0,0,0,0,0,0,0,0,0,0,0,0,0,0,0,0,0,0,0,0,0,0,0,0,0,0,0,0,0,0,0,0,0,0,0,0,0,0,0,0,0,0,0,0,0,0,0,0,0,0,0,0,0,0,0,0,0,0,0,0,0,
0,0,0,0,0,0,0,0,0,0,0,0,0,0,0,0,0,0,0,0,0,0,0,0,0,0,0,0,0,0,0,0,0,0,0,0,0,0,0,0,0,0,0,0,0,0,0,0,0,0,0,0,0,0,0,0,0,0,0,0,0,0,0,0,0,0,0,0,0,0,0,0,0,0,0,0,
0,0,0,0,0,0,0,0,0,0,0,0,0,0,0,0,0,0,0,0,0,0,0,0,0,0,0,0,0,0,0,0,0,0,0,0,0,0,0,0,0,0,0,0,0,0,0,0,0,0,0,0,0,0,0,0,0,0,0,0,0,0,0,0,0,0,0,0,0,0,0,0,0,0,0,0,
0,0,0,0,0,0,0,0,0,0,0,0,0,0,0,0,0,0,0,0,0,0,0,0,0,0,0,0,0,0,0,0,0,0,0,0,0,0,0,0,0,0,0,0,0,0,0,0,0,0,0,0,0,0,0,0,0,0,0,0,0,0,0,0,0,0,0,0,0,0,0,0,0,0,0,0
  </data>
 </layer>
 <layer id="3" name="upper" width="76" height="80">
  <data encoding="csv">
0,0,0,0,0,0,0,0,0,0,0,0,0,0,0,0,0,0,0,0,0,0,0,0,0,0,0,0,0,0,0,0,0,0,0,0,0,0,0,0,0,0,0,0,0,0,0,0,0,0,0,0,0,0,0,0,0,0,0,0,0,0,0,0,0,0,0,0,0,0,0,0,0,0,0,0,
0,0,0,0,0,0,0,0,0,0,0,0,0,0,0,0,0,0,0,0,0,0,0,0,0,0,0,0,0,0,0,0,0,0,0,0,0,0,0,0,0,0,0,0,0,0,0,0,0,0,0,0,0,0,0,0,0,0,0,0,0,0,0,0,0,0,0,0,0,0,0,0,0,0,0,0,
0,0,0,0,0,0,0,0,0,0,0,0,0,0,0,0,0,0,0,0,0,0,0,0,0,0,0,0,0,0,0,0,0,0,0,0,0,0,0,0,0,0,0,0,0,0,0,0,0,0,0,0,0,0,0,0,0,0,0,0,0,0,0,0,0,0,0,0,0,0,0,0,0,0,0,0,
0,0,0,0,0,0,0,0,0,0,0,0,0,0,0,0,0,0,0,0,0,0,419,420,419,420,419,420,419,420,419,420,419,420,419,420,419,420,419,420,419,420,419,420,419,420,419,420,419,420,419,420,419,420,419,420,419,420,419,420,417,418,417,418,417,418,417,418,417,418,417,418,0,0,0,0,
0,0,0,0,0,0,0,0,0,0,0,0,0,0,0,0,0,0,0,0,0,0,425,426,427,428,425,426,427,426,425,426,427,426,425,426,427,426,425,426,425,426,425,426,425,426,425,426,425,426,425,426,425,426,425,426,425,426,425,426,425,426,425,426,425,426,425,426,425,426,425,426,0,0,0,0,
0,0,0,0,0,0,0,0,0,0,0,0,0,0,0,0,0,0,0,0,0,0,417,418,419,420,417,418,419,420,417,418,419,418,417,418,419,418,417,418,417,418,417,418,417,418,417,418,417,418,417,418,417,418,417,418,417,418,417,418,417,418,417,418,417,418,417,418,417,418,417,418,0,0,0,0,
0,0,0,0,0,0,0,0,0,0,0,0,0,0,0,0,0,0,0,0,0,0,425,426,427,428,425,426,427,426,425,426,425,426,427,426,427,426,425,426,425,426,425,426,425,426,425,426,425,426,425,426,425,426,425,426,425,426,425,426,425,426,425,426,425,426,425,426,425,426,425,426,0,0,0,0,
0,0,0,0,0,0,0,0,0,0,0,0,0,0,0,0,0,0,0,0,0,0,435,434,435,434,435,434,435,434,435,434,417,418,419,418,435,434,435,434,435,434,435,434,435,434,435,434,435,434,435,434,435,434,435,434,435,434,435,434,417,418,417,418,417,418,417,418,417,418,417,418,0,0,0,0,
0,0,0,0,0,0,0,0,0,0,0,0,2125,2126,2127,2127,2128,0,0,0,0,0,431,0,0,0,0,0,0,0,0,432,425,426,427,428,431,0,0,0,0,0,0,0,0,0,0,0,0,0,0,0,0,0,0,0,0,0,0,432,425,426,425,426,425,426,425,426,425,426,425,426,0,0,0,0,
0,0,0,0,0,0,0,0,0,0,0,0,2133,2134,2184,2184,2136,0,0,0,0,0,439,0,0,0,0,0,0,0,0,440,417,418,419,420,439,0,0,0,0,0,412,413,412,413,412,413,412,413,412,413,412,413,412,413,0,0,0,440,417,418,417,418,417,418,417,418,417,418,417,418,0,0,0,0,
0,0,0,0,425,426,425,426,425,426,427,428,431,0,0,0,0,432,0,0,0,0,431,0,0,0,0,0,0,0,0,432,425,426,427,428,431,0,0,0,0,432,0,0,0,0,0,0,0,0,0,0,0,0,0,0,431,0,0,432,425,426,425,426,425,426,425,426,425,426,425,426,0,0,0,0,
0,0,0,0,417,418,417,418,417,418,419,420,439,0,0,0,0,440,0,0,0,0,439,0,0,412,413,412,413,0,0,440,417,418,419,420,439,0,0,0,0,440,0,0,0,0,0,0,0,0,0,0,0,0,0,0,439,0,97,440,417,418,417,418,417,418,417,418,417,418,417,418,0,0,0,0,
0,0,0,0,425,426,425,426,425,426,427,428,431,0,0,0,0,432,0,0,0,0,431,0,432,525,526,525,526,431,0,432,425,426,427,428,431,0,0,0,0,432,0,0,0,0,0,0,0,0,0,0,0,0,0,0,431,0,105,432,425,426,425,426,425,426,425,426,425,426,425,426,0,0,0,0,
0,0,0,0,417,418,417,418,417,418,419,420,439,0,0,0,0,440,0,0,0,0,439,0,440,417,418,419,420,439,0,440,417,418,419,420,439,0,0,0,0,440,0,0,0,0,0,0,0,0,0,0,0,0,0,0,439,0,0,440,417,418,417,418,417,418,417,418,417,418,417,418,0,0,0,0,
0,0,0,0,425,426,425,426,425,426,427,428,431,0,0,0,0,432,0,0,0,0,431,0,432,425,426,427,428,431,0,432,425,426,427,428,431,0,0,0,0,432,0,0,0,0,0,0,0,0,0,0,0,0,0,0,431,0,0,432,425,426,425,426,425,426,425,426,425,426,425,426,0,0,0,0,
0,0,0,0,417,418,417,418,417,418,419,420,439,0,0,0,0,440,0,0,0,0,439,0,440,417,418,419,420,439,0,440,417,418,419,420,439,0,0,0,0,440,0,0,0,0,0,0,0,0,0,0,0,0,0,0,439,0,0,440,417,418,417,418,417,418,417,418,417,418,417,418,0,0,0,0,
0,0,0,0,425,426,425,426,425,426,427,428,431,0,0,0,0,432,0,0,0,0,431,0,432,425,426,427,428,431,0,432,425,426,427,428,431,0,0,0,0,432,0,0,0,0,0,0,0,0,0,0,0,0,0,0,431,0,0,432,425,426,425,426,425,426,425,426,425,426,425,426,0,0,0,0,
0,0,0,0,417,418,417,418,417,418,419,420,439,0,0,0,0,440,0,0,0,0,439,0,440,417,418,419,420,439,0,440,417,418,419,420,439,0,0,0,0,440,0,0,0,0,0,0,0,0,0,0,0,0,0,0,439,0,0,440,417,418,417,418,417,418,417,418,417,418,417,418,0,0,0,0,
0,0,0,0,425,426,425,426,425,426,427,428,431,0,0,0,0,432,0,0,0,0,431,0,432,425,426,427,428,431,0,432,425,426,427,428,431,0,0,0,0,0,0,0,0,0,0,0,0,0,0,0,0,0,0,0,0,0,0,432,425,426,425,426,425,426,425,426,425,426,425,426,0,0,0,0,
0,0,0,0,417,418,417,418,417,418,419,420,439,0,0,0,0,440,0,0,0,0,439,0,440,417,418,419,420,439,0,440,417,418,419,420,439,0,0,0,0,0,0,0,0,0,0,0,0,0,0,0,0,0,0,0,0,0,0,440,417,418,417,418,417,418,417,418,417,418,417,418,0,0,0,0,
0,0,0,0,425,426,425,426,425,426,427,428,431,0,0,0,0,432,0,0,0,0,431,0,432,425,426,427,428,431,0,432,425,426,427,428,431,0,0,0,0,0,0,0,0,0,0,0,0,0,0,0,0,432,0,0,0,0,0,0,425,428,425,426,425,426,425,426,425,426,425,426,0,0,0,0,
0,0,0,0,417,418,417,418,417,418,419,420,439,0,0,0,0,440,0,0,0,0,439,0,440,417,418,419,420,439,0,440,417,418,419,420,439,0,0,0,0,0,412,413,412,413,412,413,0,0,0,0,0,440,0,0,0,0,0,0,417,418,417,418,417,418,417,418,417,418,417,418,0,0,0,0,
0,0,0,0,425,426,425,426,425,426,427,428,431,0,0,0,0,432,0,0,0,0,431,0,432,425,426,427,428,431,0,432,425,426,427,428,431,0,0,0,0,432,0,0,0,0,0,0,431,0,0,0,0,432,0,0,0,0,0,0,425,428,425,426,425,426,425,426,425,426,425,426,0,0,0,0,
0,0,0,0,417,418,417,418,417,418,419,420,439,0,0,0,0,440,0,0,0,0,439,0,440,417,418,419,420,439,0,440,417,418,419,420,439,0,0,0,0,440,0,0,0,0,0,0,439,0,0,0,0,440,0,0,0,0,0,0,417,418,417,418,417,418,417,418,417,418,417,418,0,0,0,0,
0,0,0,0,425,426,425,426,425,426,427,428,431,0,0,0,0,432,0,0,0,0,431,0,432,425,426,427,428,431,0,432,425,426,427,428,431,0,0,0,0,432,0,0,0,0,0,0,431,0,0,0,0,432,0,0,0,0,0,0,425,428,425,426,425,426,425,426,425,426,425,426,0,0,0,0,
0,0,0,0,417,418,417,418,417,418,419,420,439,0,0,0,0,440,0,0,0,0,439,0,440,417,418,419,420,439,0,440,433,434,435,436,439,0,0,0,0,440,0,0,0,0,0,0,439,0,0,0,0,440,0,0,0,0,0,0,417,418,417,418,417,418,417,418,417,418,417,418,0,0,0,0,
0,0,0,0,425,426,425,426,425,426,427,428,431,0,0,0,0,432,0,0,0,0,431,0,432,425,426,427,428,431,0,0,441,442,441,442,0,0,0,0,0,432,0,0,0,0,0,0,431,0,0,0,0,432,0,0,0,0,0,0,425,428,425,426,425,426,425,426,425,426,425,426,0,0,0,0,
0,0,0,0,417,418,417,418,417,418,419,420,439,0,0,0,0,440,0,0,0,0,439,0,440,417,418,419,420,439,0,0,0,0,0,0,0,0,0,0,0,440,0,0,0,0,0,0,439,0,0,0,0,440,0,0,0,0,0,0,417,418,417,418,417,418,417,418,417,418,417,418,0,0,0,0,
0,0,0,0,425,426,425,426,425,426,427,428,431,0,0,0,0,432,0,0,0,0,431,0,432,425,426,427,428,431,0,0,0,0,0,0,0,0,0,0,0,432,0,0,0,0,0,0,431,0,0,0,0,0,0,0,0,0,0,432,425,428,425,426,425,426,425,426,425,426,425,426,0,0,0,0,
0,0,0,0,417,418,417,418,417,418,419,420,439,0,0,0,0,440,0,0,0,0,439,0,440,417,418,419,420,439,0,0,0,0,0,0,0,0,0,0,0,440,0,0,0,0,0,0,439,0,0,0,0,0,0,0,0,0,0,440,417,418,417,418,417,418,417,418,417,418,417,418,0,0,0,0,
0,0,0,0,425,426,425,426,425,426,427,428,431,0,0,0,0,432,0,0,0,0,431,0,432,425,426,427,428,431,0,0,0,0,0,0,0,0,0,0,0,432,0,0,0,0,0,0,431,0,0,0,0,0,0,0,0,0,0,432,425,426,425,426,425,426,425,426,425,426,425,426,0,0,0,0,
0,0,0,0,417,418,417,418,417,418,419,420,439,0,0,0,0,440,0,0,0,0,439,0,440,433,434,435,436,439,0,0,0,0,0,0,0,0,0,0,0,440,0,0,0,0,0,0,439,0,0,0,0,0,0,0,0,0,0,440,417,418,417,418,417,418,417,418,417,418,417,418,0,0,0,0,
0,0,0,0,425,426,425,426,425,426,427,428,431,0,0,0,0,0,0,0,0,0,0,0,0,441,442,441,442,0,0,0,0,0,0,0,0,0,0,0,0,432,0,0,0,0,0,0,431,0,0,0,0,0,0,0,0,0,0,432,425,426,425,426,425,426,425,426,425,426,425,426,0,0,0,0,
0,0,0,0,417,418,417,418,417,418,419,420,439,0,0,0,0,0,0,0,0,0,0,0,0,0,0,0,0,0,0,0,0,0,0,0,0,0,0,0,0,440,0,0,0,0,0,0,439,0,0,0,0,0,0,0,0,0,0,440,417,418,417,418,417,418,417,418,417,418,417,418,0,0,0,0,
0,0,0,0,425,426,425,426,425,426,427,428,431,0,0,0,0,0,0,0,0,0,0,0,0,0,0,0,0,0,0,0,0,0,0,432,0,0,0,0,0,0,0,0,0,0,0,0,431,0,0,432,0,0,0,0,0,0,431,432,425,426,425,426,425,426,425,426,425,426,425,426,0,0,0,0,
0,0,0,0,417,418,417,418,417,418,419,420,439,0,0,0,0,0,0,0,0,0,0,0,0,413,0,0,0,0,0,0,0,0,0,440,0,0,0,0,0,0,0,0,0,0,0,0,439,0,0,440,0,0,0,0,0,0,439,440,417,418,417,418,417,418,417,418,417,418,417,418,0,0,0,0,
0,0,0,0,425,426,425,426,425,426,427,426,0,0,0,0,0,0,0,0,0,0,0,0,0,526,431,0,0,0,0,432,0,0,0,0,0,0,0,0,0,0,0,0,0,0,0,0,431,0,0,432,0,0,0,0,0,0,431,432,425,426,425,426,425,426,425,426,425,426,425,426,0,0,0,0,
0,0,0,0,417,418,417,418,417,418,419,418,0,0,0,0,0,0,0,0,0,0,0,0,0,0,439,0,0,0,0,440,0,0,0,0,0,0,0,0,0,0,0,0,0,0,0,0,439,0,0,440,0,0,0,0,0,0,439,440,417,418,417,418,417,418,417,418,417,418,417,418,0,0,0,0,
0,0,0,0,425,426,425,426,425,426,427,426,0,0,0,0,0,0,0,0,0,0,0,0,0,0,0,0,431,0,0,432,0,0,0,0,0,0,0,0,0,0,0,0,0,0,0,0,431,0,0,432,0,0,0,0,0,0,431,432,425,426,425,426,425,426,425,426,425,426,425,426,0,0,0,0,
0,0,0,0,417,418,417,418,417,418,419,418,0,0,0,0,0,0,0,0,0,0,0,0,0,0,0,0,439,0,0,440,0,0,0,0,0,0,0,0,0,0,0,0,0,0,0,0,439,0,0,440,0,0,0,0,0,0,439,440,417,418,417,418,417,418,417,418,417,418,417,418,0,0,0,0,
0,0,0,0,425,426,425,426,425,426,427,426,0,0,0,0,0,0,0,0,0,0,0,0,0,0,0,0,0,0,0,0,0,0,0,0,0,0,0,0,0,0,0,0,0,0,0,0,431,0,0,432,0,0,0,0,0,0,431,432,425,426,425,426,425,426,425,426,425,426,425,426,0,0,0,0,
0,0,0,0,417,418,417,418,417,418,419,418,0,0,0,0,0,0,0,0,0,0,0,0,0,0,0,0,0,0,0,0,0,0,0,0,0,0,0,0,0,0,0,0,0,0,0,0,439,0,0,440,0,0,0,0,0,0,439,440,417,418,417,418,417,418,417,418,417,418,417,418,0,0,0,0,
0,0,0,0,425,426,425,426,425,426,427,426,0,0,0,0,0,0,0,0,0,0,0,0,0,0,0,0,0,0,0,0,0,0,0,0,0,0,0,0,0,0,0,0,0,0,0,0,431,0,0,432,0,0,0,0,0,0,431,432,425,426,425,426,425,426,425,426,425,426,425,426,0,0,0,0,
0,0,0,0,417,418,417,418,417,418,419,418,0,0,0,0,0,0,0,0,0,0,0,0,0,0,0,0,0,0,0,0,0,0,0,0,0,0,0,0,0,0,0,0,0,0,0,0,439,0,0,440,0,0,0,0,0,0,439,440,417,418,417,418,417,418,417,418,417,418,417,418,0,0,0,0,
0,0,0,0,425,426,425,426,425,426,427,428,431,0,0,0,0,0,0,0,0,0,0,0,0,432,0,0,0,0,0,0,0,0,0,0,0,0,0,0,0,0,0,0,0,0,0,0,431,0,0,432,0,0,0,0,0,0,431,432,425,426,425,426,425,426,425,426,425,426,425,426,0,0,0,0,
0,0,0,0,417,418,417,418,417,418,419,420,439,97,0,0,0,0,0,0,0,0,0,0,0,440,0,0,0,0,0,0,0,0,0,0,0,0,0,0,0,0,0,0,0,0,0,0,439,0,0,440,0,0,0,0,0,0,439,440,417,418,417,418,417,418,417,418,417,418,417,418,0,0,0,0,
0,0,0,0,425,426,425,426,425,426,427,428,431,105,0,0,0,0,0,0,0,0,0,0,0,0,0,0,0,0,0,0,0,0,0,0,0,0,0,0,0,432,0,0,0,0,0,0,431,0,0,0,0,0,0,0,0,0,0,432,425,426,425,426,425,426,425,426,425,426,425,426,0,0,0,0,
0,0,0,0,417,418,417,418,417,418,419,420,439,0,0,0,0,0,0,0,0,0,0,0,0,0,0,0,0,0,0,0,0,0,0,0,0,0,0,0,0,440,0,0,0,0,0,0,439,0,0,0,0,0,0,0,0,0,0,440,417,418,417,418,417,418,417,418,417,418,417,418,0,0,0,0,
0,0,0,0,425,426,425,426,425,426,427,428,431,0,0,0,0,0,0,0,0,0,0,0,0,0,0,0,0,0,0,0,0,0,0,0,0,0,0,0,0,432,0,0,0,0,0,0,431,0,0,0,0,0,0,0,0,0,0,432,425,426,425,426,425,426,425,426,425,426,425,426,0,0,0,0,
0,0,0,0,417,418,417,418,417,418,419,420,439,0,0,0,0,0,0,0,0,0,0,0,0,0,0,0,0,0,0,0,0,0,0,0,0,0,0,0,0,440,0,0,0,0,0,0,439,0,0,0,0,0,0,0,0,0,0,440,417,418,417,418,417,418,417,418,417,418,417,418,0,0,0,0,
0,0,0,0,425,426,425,426,425,426,427,426,431,0,0,0,0,0,0,0,0,0,431,0,432,0,0,0,0,0,0,0,0,0,0,431,0,0,0,0,0,432,0,0,0,0,0,0,431,0,0,0,0,432,0,0,0,0,0,0,427,426,425,426,425,426,425,426,425,426,425,426,0,0,0,0,
0,0,0,0,417,418,417,418,417,418,419,418,0,0,0,0,0,0,0,0,0,0,439,0,440,0,0,0,0,0,0,0,0,0,0,439,0,0,0,0,0,440,0,0,0,0,0,0,439,0,0,0,0,440,0,0,0,0,0,0,0,418,417,418,417,418,417,418,417,418,417,418,0,0,0,0,
0,0,0,0,425,426,425,426,425,426,427,426,0,0,0,0,0,0,0,0,0,0,431,0,432,0,0,0,0,0,0,0,0,0,0,431,0,0,0,0,0,432,0,0,0,0,0,0,431,0,0,0,0,432,0,0,0,0,0,0,0,426,425,426,425,426,425,426,425,426,425,426,0,0,0,0,
0,0,0,0,417,418,417,418,417,418,419,418,0,0,0,0,0,0,0,0,0,0,439,0,440,0,0,0,0,0,0,0,0,0,0,439,0,0,0,0,0,440,0,0,0,0,0,0,439,0,0,0,0,440,0,0,0,0,0,0,0,418,417,418,417,418,417,418,417,418,417,418,0,0,0,0,
0,0,0,0,425,426,425,426,425,426,427,426,0,0,0,0,0,0,0,0,0,0,431,0,432,0,0,0,0,0,0,0,0,0,0,431,0,0,0,0,0,432,0,0,0,0,0,0,431,0,0,0,0,432,0,0,0,0,0,0,0,426,425,426,425,426,425,426,425,426,425,426,0,0,0,0,
0,0,0,0,417,418,417,418,417,418,419,418,0,0,0,0,0,0,0,0,0,0,439,0,440,0,0,0,0,0,0,0,0,0,0,439,0,0,0,0,0,440,0,0,0,0,0,0,439,0,0,0,0,440,0,0,0,0,0,0,0,418,417,418,417,418,417,418,417,418,417,418,0,0,0,0,
0,0,0,0,425,426,425,426,425,426,427,426,0,0,0,0,0,0,0,0,0,0,431,0,432,0,0,0,0,0,0,0,0,0,0,431,0,0,0,0,0,432,0,0,0,0,0,0,431,0,0,0,0,432,0,0,0,0,0,0,0,426,425,426,425,426,425,426,425,426,425,426,0,0,0,0,
0,0,0,0,417,418,417,418,417,418,419,418,0,0,0,0,0,0,0,0,0,0,439,0,440,0,0,0,0,0,0,0,0,0,0,439,0,0,0,0,0,440,0,0,0,0,0,0,439,0,0,0,0,440,0,0,0,0,0,0,0,418,417,418,417,418,417,418,417,418,417,418,0,0,0,0,
0,0,0,0,425,426,425,426,425,426,427,428,431,0,0,0,0,0,0,0,0,0,0,0,0,0,0,0,0,0,0,0,0,0,0,431,0,0,0,0,0,0,0,0,0,0,0,0,0,0,0,0,0,0,0,0,0,0,0,432,427,426,425,426,425,426,425,426,425,426,425,426,0,0,0,0,
0,0,0,0,417,418,417,418,417,418,419,420,439,0,0,0,0,0,0,0,0,0,0,0,0,0,0,0,0,0,0,0,0,0,0,0,0,0,0,0,0,0,0,0,0,0,0,0,0,0,0,0,0,0,0,0,0,0,0,440,419,418,417,418,417,418,417,418,417,418,417,418,0,0,0,0,
0,0,0,0,425,426,427,426,427,426,427,428,431,0,0,0,0,0,0,0,0,0,0,0,0,0,0,0,0,0,0,0,0,0,0,0,0,0,0,0,0,0,0,0,0,0,0,0,0,0,0,0,0,0,0,0,0,0,0,432,427,426,425,426,425,426,425,426,425,426,425,426,0,0,0,0,
0,0,0,0,417,418,419,418,419,418,419,420,439,0,0,0,0,0,0,0,0,0,0,0,0,0,0,0,0,0,0,0,0,0,0,0,0,0,0,0,0,0,0,0,0,0,0,0,0,0,0,0,0,0,0,0,0,0,0,440,419,418,417,418,417,418,417,418,417,418,417,418,0,0,0,0,
0,0,0,0,425,426,427,426,427,426,427,428,431,0,0,0,0,0,0,0,0,0,0,0,0,0,0,0,0,0,0,0,0,0,0,0,0,0,0,0,0,0,0,0,0,0,0,0,0,0,0,0,0,0,0,0,0,0,0,432,427,426,425,426,425,426,425,426,425,426,425,426,0,0,0,0,
0,0,0,0,417,418,419,418,419,418,419,420,439,0,0,0,0,0,0,0,0,0,0,0,0,0,0,0,0,0,0,0,0,0,0,0,0,0,0,0,0,0,0,0,0,0,0,0,0,0,0,0,0,0,0,0,0,0,0,440,419,418,417,418,417,418,417,418,417,418,417,418,0,0,0,0,
0,0,0,0,425,426,427,426,427,426,427,428,431,0,0,0,0,0,0,0,0,0,0,0,0,0,0,0,0,0,0,0,0,0,0,0,0,0,0,0,0,0,0,0,0,0,0,0,0,0,0,0,0,0,0,0,0,0,0,432,427,426,425,426,425,426,425,426,425,426,425,426,0,0,0,0,
0,0,0,0,417,418,417,418,417,418,419,420,412,413,412,413,412,413,412,413,412,413,412,413,412,413,412,413,412,413,412,413,412,413,0,0,0,0,0,0,0,0,412,413,412,413,412,413,412,413,412,413,412,413,412,413,412,413,412,413,419,418,417,418,417,418,417,418,417,418,417,418,0,0,0,0,
0,0,0,0,425,426,427,426,427,426,427,428,525,526,525,526,525,526,525,526,525,526,525,526,525,526,525,526,525,526,525,526,525,526,0,0,0,0,0,0,0,0,525,526,525,526,525,526,525,526,525,526,525,526,525,526,525,526,525,526,427,426,425,426,425,426,425,426,425,426,425,426,0,0,0,0,
0,0,0,0,417,418,419,418,419,418,419,418,419,418,419,418,419,418,419,418,419,418,419,418,419,418,419,418,419,418,419,418,419,436,412,413,0,0,0,0,412,413,417,418,419,418,419,418,419,418,419,418,419,418,419,418,419,418,419,418,419,418,419,418,419,418,419,418,417,418,417,418,0,0,0,0,
0,0,0,0,425,426,427,426,427,426,427,426,427,426,427,426,427,426,427,426,427,426,427,426,427,426,427,426,427,426,427,426,427,426,525,526,0,0,0,0,525,526,427,426,427,426,427,426,427,426,427,426,427,426,427,426,427,426,427,426,427,426,427,426,427,426,427,426,425,426,425,426,0,0,0,0,
0,0,0,0,417,418,419,418,419,418,419,418,419,418,419,418,419,418,419,418,419,418,419,418,419,418,419,418,419,418,419,418,419,418,419,436,412,413,412,413,417,418,419,418,419,418,419,418,419,418,419,418,419,418,419,418,419,418,419,418,419,418,419,418,419,418,419,418,417,418,417,418,0,0,0,0,
0,0,0,0,425,426,427,426,427,426,427,426,427,426,427,426,427,426,427,426,427,426,427,426,427,426,427,426,427,426,427,426,427,426,427,426,525,526,525,526,427,426,427,426,427,426,427,426,427,426,427,426,427,426,427,426,427,426,427,426,427,426,427,426,427,426,427,426,425,426,425,426,0,0,0,0,
0,0,0,0,417,418,417,418,417,418,419,418,419,418,419,418,419,418,419,418,419,418,419,418,419,418,419,418,419,418,419,418,419,418,419,418,419,418,419,418,419,418,419,418,419,418,419,418,419,418,419,418,419,418,419,418,419,418,419,418,419,418,419,418,419,418,419,418,417,418,417,418,0,0,0,0,
0,0,0,0,425,426,427,426,427,426,427,426,427,426,427,426,427,426,427,426,427,426,427,426,427,426,427,426,427,426,427,426,427,426,427,426,427,426,427,426,427,426,427,426,427,426,427,426,427,426,427,426,427,426,427,426,427,426,427,426,427,426,427,426,427,426,427,426,425,426,425,426,0,0,0,0,
0,0,0,0,417,418,419,418,419,418,419,418,419,418,419,418,419,418,419,418,419,418,419,418,419,418,419,418,419,418,419,418,419,418,419,418,419,418,419,418,419,418,419,418,419,418,419,418,419,418,419,418,419,418,419,418,419,418,419,418,419,418,419,418,419,418,419,418,417,418,417,418,0,0,0,0,
0,0,0,0,425,426,427,426,427,426,427,426,427,426,427,426,427,426,427,426,427,426,427,426,427,426,427,426,427,426,427,426,427,426,427,426,427,426,427,426,427,426,427,426,427,426,427,426,427,426,427,426,427,426,427,426,427,426,427,426,427,426,427,426,427,426,427,426,425,426,425,426,0,0,0,0,
0,0,0,0,417,418,417,418,417,418,417,418,417,418,417,418,417,418,417,418,417,418,417,418,417,418,417,418,417,418,417,418,417,418,417,418,417,418,417,418,417,418,417,418,417,418,417,418,417,418,417,418,417,418,417,418,417,418,417,418,417,418,417,418,417,418,417,418,417,418,417,418,0,0,0,0,
0,0,0,0,425,426,425,426,425,426,425,426,425,426,425,426,425,426,425,426,425,426,425,426,425,426,425,426,425,426,425,426,425,426,425,426,425,426,425,426,425,426,425,426,425,426,425,426,425,426,425,426,425,426,425,426,425,426,425,426,425,426,425,426,425,426,425,426,425,426,425,426,0,0,0,0,
0,0,0,0,417,418,417,418,417,418,417,418,417,418,417,418,417,418,417,418,417,418,417,418,417,418,417,418,417,418,417,418,417,418,417,418,417,418,417,418,417,418,417,418,417,418,417,418,417,418,417,418,417,418,417,418,417,418,417,418,417,418,417,418,417,418,417,418,417,418,417,418,0,0,0,0,
0,0,0,0,425,426,425,426,425,426,425,426,425,426,425,426,425,426,425,426,425,426,425,426,425,426,425,426,425,426,425,426,425,426,425,426,425,426,425,426,425,426,425,426,425,426,425,426,425,426,425,426,425,426,425,426,425,426,425,426,425,426,425,426,425,426,425,426,425,426,425,426,0,0,0,0,
0,0,0,0,0,0,0,0,0,0,0,0,0,0,0,0,0,0,0,0,0,0,0,0,0,0,0,0,0,0,0,0,0,0,0,0,0,0,0,0,0,0,0,0,0,0,0,0,0,0,0,0,0,0,0,0,0,0,0,0,0,0,0,0,0,0,0,0,0,0,0,0,0,0,0,0
  </data>
 </layer>
 <objectgroup id="4" name="events"/>
</map>
